/* XPM */
static char *impulse_responses_stereo[] = {
/* columns rows colors chars-per-pixel */
"256 256 247 2 ",
"   c #090505",
".  c #05060A",
"X  c #0A0709",
"o  c #05090C",
"O  c #0C0C0E",
"+  c #080604",
"@  c #0D0E11",
"#  c #040912",
"$  c #130D16",
"%  c #0F1014",
"&  c #0E1218",
"*  c #121216",
"=  c #15161A",
"-  c #1B161B",
";  c #17181D",
":  c #18191E",
">  c #1B1715",
",  c #110C0E",
"<  c #261A1C",
"1  c #351A1F",
"2  c #16321B",
"3  c #27271C",
"4  c #36371A",
"5  c #34281F",
"6  c #141624",
"7  c #1D1324",
"8  c #151B23",
"9  c #1B1C22",
"0  c #1A1D2B",
"q  c #191F35",
"w  c #151323",
"e  c #221E23",
"r  c #271E28",
"t  c #321E21",
"y  c #1F2027",
"u  c #1C222A",
"i  c #1A262D",
"p  c #1B2B33",
"a  c #1B2738",
"s  c #1C333C",
"d  c #18343C",
"f  c #0D2037",
"g  c #212125",
"h  c #23252C",
"j  c #26282F",
"k  c #292628",
"l  c #382226",
"z  c #252730",
"x  c #272830",
"c  c #2B2C35",
"v  c #2D2F38",
"b  c #202F3F",
"n  c #2F303A",
"m  c #31333D",
"M  c #38383D",
"N  c #2B3129",
"B  c #463C00",
"V  c #493F00",
"C  c #433C1A",
"Z  c #77291F",
"A  c #6D281F",
"S  c #482428",
"D  c #562525",
"F  c #49353E",
"G  c #512D35",
"H  c #682726",
"J  c #782C34",
"K  c #752C2B",
"L  c #521E22",
"P  c #004600",
"I  c #004A00",
"U  c #09480B",
"Y  c #015C01",
"T  c #055606",
"R  c #14431A",
"E  c #0E5712",
"W  c #38461D",
"Q  c #3F501C",
"!  c #006300",
"~  c #006B00",
"^  c #0B660E",
"/  c #007400",
"(  c #007B00",
")  c #08780B",
"_  c #0F6312",
"`  c #4C4100",
"'  c #4A480E",
"]  c #564A00",
"[  c #5C4E02",
"{  c #524802",
"}  c #5F5100",
"|  c #5C590C",
" . c #474515",
".. c #525714",
"X. c #645500",
"o. c #6B5B00",
"O. c #625C05",
"+. c #705F00",
"@. c #557118",
"#. c #696508",
"$. c #746905",
"%. c #797506",
"&. c #182946",
"*. c #1C3B44",
"=. c #193846",
"-. c #193558",
";. c #152857",
":. c #343641",
">. c #363844",
",. c #393B46",
"<. c #3B3E4A",
"1. c #373A48",
"2. c #243551",
"3. c #183D6A",
"4. c #183A63",
"5. c #162A78",
"6. c #142F67",
"7. c #233D74",
"8. c #273C6F",
"9. c #151E42",
"0. c #573942",
"q. c #4D3740",
"w. c #603A43",
"e. c #1C434D",
"r. c #12424B",
"t. c #1D4B55",
"y. c #1C4D5A",
"u. c #1A4752",
"i. c #1D525D",
"p. c #0E535C",
"a. c #3E414D",
"s. c #2B4458",
"d. c #1C5D6A",
"f. c #1C5764",
"g. c #17457C",
"h. c #194275",
"j. c #0F5765",
"k. c #214479",
"l. c #285072",
"z. c #1E636C",
"x. c #1B6473",
"c. c #1D6B78",
"v. c #1F737D",
"b. c #0A6671",
"n. c #206D79",
"m. c #37664F",
"M. c #40424F",
"N. c #49494E",
"B. c #424553",
"V. c #464857",
"C. c #474958",
"Z. c #4A4C5C",
"A. c #4F4F53",
"S. c #4E505F",
"D. c #535358",
"F. c #4E5161",
"G. c #525465",
"H. c #545769",
"J. c #56596A",
"K. c #595C6E",
"L. c #5D5D61",
"P. c #5B5E71",
"I. c #575C72",
"U. c #5E6175",
"Y. c #616376",
"T. c #62657A",
"R. c #676A7D",
"E. c #6D6D71",
"W. c #862B1F",
"Q. c #992E1E",
"!. c #A9311E",
"~. c #AF311D",
"^. c #832E35",
"/. c #893138",
"(. c #99333B",
"). c #8F3125",
"_. c #AF392A",
"`. c #C73D28",
"'. c #967E00",
"]. c #867403",
"[. c #E8442A",
"{. c #DD422B",
"}. c #008B00",
"|. c #08800A",
" X c #008400",
".X c #019401",
"XX c #019901",
"oX c #01A701",
"OX c #6B9014",
"+X c #5B8131",
"@X c #5C9B50",
"#X c #948901",
"$X c #8E8901",
"%X c #AA8E00",
"&X c #93D63C",
"*X c #152D88",
"=X c #142F97",
"-X c #1231A7",
";X c #1134B9",
":X c #164984",
">X c #164C8C",
",X c #194784",
"<X c #164F92",
"1X c #194D94",
"2X c #155195",
"3X c #15539C",
"4X c #185098",
"5X c #17508F",
"6X c #2E5487",
"7X c #1A7384",
"8X c #1B7989",
"9X c #137281",
"0X c #217787",
"qX c #2C6997",
"wX c #296C8E",
"eX c #1456A2",
"rX c #1359A7",
"tX c #3B52AA",
"yX c #3076AA",
"uX c #6A6D83",
"iX c #676A80",
"pX c #6E7187",
"aX c #73768A",
"sX c #777B94",
"dX c #415AB8",
"fX c #1036C7",
"gX c #0F38D4",
"hX c #0E3BE6",
"jX c #0D3EF7",
"kX c #4764D0",
"lX c #5276FA",
"zX c #445EC4",
"xX c #1542EA",
"cX c #1F838D",
"vX c #1F8792",
"bX c #018B99",
"nX c #208A95",
"mX c #218899",
"MX c #20929D",
"NX c #228DA2",
"BX c #2295AA",
"VX c #2F88BA",
"CX c #0095A3",
"ZX c #3790D2",
"AX c #24AFC9",
"SX c #7F849E",
"DX c #8B8D9A",
/* pixels */
"9 9 9 9 9 9 9 9 9 9 9 9 9 9 9 9 9 9 9 9 9 9 9 9 9 9 9 9 9 9 9 9 9 9 9 9 9 9 9 9 9 9 9 9 9 9 9 9 9 9 9 9 9 9 9 9 9 9 9 9 9 9 9 9 9 9 9 9 9 9 9 9 9 9 9 9 9 9 9 9 9 9 9 9 9 9 9 9 9 9 9 9 9 9 9 9 9 9 9 9 9 9 9 9 9 9 9 9 9 9 9 9 9 9 9 9 9 9 9 9 9 9 9 9 9 9 9 9 9 9 9 9 9 9 9 9 9 9 9 9 9 9 9 9 9 9 9 9 9 9 9 9 9 9 9 9 9 9 9 9 9 9 9 9 9 9 9 9 9 9 9 9 9 9 9 9 9 9 9 9 9 9 9 9 9 9 9 9 9 9 9 9 9 9 9 9 9 9 9 9 9 9 9 9 9 9 9 9 9 9 9 9 9 9 9 9 9 9 9 9 9 9 9 9 9 9 9 9 9 9 9 9 9 9 9 9 9 9 9 9 9 9 9 9 9 9 9 9 9 9 9 9 9 9 9 9 ",
"9 9 9 9 9 9 9 9 9 9 9 9 9 9 9 9 9 9 9 9 9 9 9 9 9 9 9 9 9 9 9 9 9 9 9 9 9 9 9 9 9 9 9 9 9 9 9 9 9 9 9 9 9 9 9 9 9 9 9 9 9 9 9 9 9 9 9 9 9 9 9 9 9 9 9 9 9 9 9 9 9 9 9 9 9 9 9 9 9 9 9 9 9 9 9 9 9 9 9 9 9 9 9 9 9 9 9 9 9 9 9 9 9 9 9 9 9 9 9 9 9 9 9 9 9 9 9 9 9 9 9 9 9 9 9 9 9 9 9 9 9 9 9 9 9 9 9 9 9 9 9 9 9 9 9 9 9 9 9 9 9 9 9 9 9 9 9 9 9 9 9 9 9 9 9 9 9 9 9 9 9 9 9 9 9 9 9 9 9 9 9 9 9 9 9 9 9 9 9 9 9 9 9 9 9 9 9 9 9 9 9 9 9 9 9 9 9 9 9 9 9 9 9 9 9 9 9 9 9 9 9 9 9 9 9 9 9 9 9 9 9 9 9 9 9 9 9 9 9 9 9 9 9 9 9 9 ",
"- - : 9 9 9 9 9 9 9 9 9 9 9 9 9 9 9 9 9 9 9 9 9 9 9 9 9 9 9 9 9 9 9 9 9 9 9 9 9 9 9 9 9 9 9 9 9 9 9 9 9 9 9 9 9 9 9 9 9 9 9 9 9 9 9 9 9 9 9 9 9 9 9 9 9 9 9 9 9 9 9 9 9 9 9 9 9 9 9 9 9 9 9 9 9 9 9 9 9 9 9 9 9 9 9 9 9 9 9 9 9 9 9 9 9 9 9 9 9 9 9 9 9 9 9 9 9 9 9 9 9 9 9 9 9 9 9 9 9 9 9 9 9 9 9 9 9 9 9 9 9 9 9 9 9 9 9 9 9 9 9 9 9 9 9 9 9 9 9 9 9 9 9 9 9 9 9 9 ; 9 9 9 9 9 : 9 : ; 9 9 9 9 9 9 9 9 9 9 : : 9 : = 9 9 9 ; : 9 9 ; ; 9 9 ; 9 9 ; 9 9 9 ; 9 9 9 9 9 9 9 9 ; 9 9 ; ; 9 : ; 9 9 9 : : 9 ; ; ; 9 ; ; 9 ; : 9 9 ",
"&.=.i - : 9 9 9 9 9 9 9 9 9 9 9 9 9 9 9 9 9 9 9 9 9 9 9 9 9 9 9 9 9 9 9 9 9 9 9 9 9 9 9 9 9 9 9 9 9 9 9 9 9 9 9 9 9 9 9 9 9 9 9 9 9 9 9 9 9 9 9 9 9 9 9 9 9 9 9 9 9 9 9 9 9 9 9 9 9 9 9 9 9 9 9 9 9 9 9 9 9 9 9 9 9 9 9 9 9 9 9 9 9 9 9 9 9 9 9 9 9 9 9 9 9 9 9 9 9 9 9 9 9 9 9 9 9 9 9 9 9 9 9 9 9 9 9 9 9 9 9 9 9 9 9 9 9 9 9 9 9 9 9 9 9 9 9 9 9 9 9 9 9 9 9 9 9 g v h g h 9 9 h 9 c c ; g g 9 h 9 h 9 9 ; c x 9 c :.h 9 9 c c ; y n m 9 g v 9 h n 9 : ; c h = h 9 9 h 9 9 n 9 g m n : j c 9 9 ; z c h n c c h m v 9 v x = g ",
"@Xm.y.-.i - 9 9 9 9 9 9 9 9 9 9 9 9 9 9 9 9 9 9 9 9 9 9 9 9 9 9 9 9 9 9 9 9 9 9 9 9 9 9 9 9 9 9 9 9 9 9 9 9 9 9 9 9 9 9 9 9 9 9 9 9 9 9 9 9 9 9 9 9 9 9 9 9 9 9 9 9 9 9 9 9 9 9 9 9 9 9 9 9 9 9 9 9 9 9 9 9 9 9 9 9 9 9 9 9 9 9 9 9 9 9 9 9 9 9 9 9 9 9 9 9 9 9 9 9 9 9 9 9 9 9 9 9 9 9 9 9 9 9 9 9 9 9 9 9 9 9 9 9 9 9 9 9 9 9 9 9 9 9 9 9 9 9 9 9 9 9 9 9 9 9 9 : x sXn Z.pX@ V.aXx pXT.V.B.F.* T.h U.c * C.T.F.m pXG.m = v pXT.B.a.uXC.:.T.P.n U.R.U.9 H.T.uXv V.aX* P.m P.U.>.F.iXB.,.R.K.c * ,.R.H.<.T.sXB.J.R.a.<.pXT.,.Z.",
"&X&X&X@Xf.s - 9 9 9 9 9 9 9 9 9 9 9 9 9 9 9 9 9 9 9 9 9 9 9 9 9 9 9 9 9 9 9 9 9 9 9 9 9 9 9 9 9 9 9 9 9 9 9 9 9 9 9 9 9 9 9 9 9 9 9 9 9 9 9 9 9 9 9 9 9 9 9 9 9 9 9 9 9 9 9 9 9 9 9 9 9 9 9 9 9 9 9 9 9 9 9 9 9 9 9 9 9 9 9 9 9 9 9 9 9 9 9 9 9 9 9 9 9 9 9 9 9 9 9 9 9 9 9 9 9 9 9 9 9 9 9 9 9 9 9 9 9 9 9 9 9 9 9 9 9 9 9 9 9 9 9 9 9 9 9 9 9 9 9 9 9 9 9 9 9 9 9 9 R.g Z.DXg U.pXn T.,.iXV.G.* uXj T.v * K.Y.; v aXB.x = :.U.>.T.B.uX>.>.sXc = iXm pXB.uX* ,.U.B.SX,.K.>.aX<.% K.Y.m B.pXh 9 = B.pXh * m T.. U.U.n B.H.B.J.F.",
"6 N +X&Xm.y.p : 9 9 9 9 9 9 9 9 9 9 9 9 9 9 9 9 9 9 9 9 9 9 9 9 9 9 9 9 9 9 9 9 9 9 9 9 9 9 9 9 9 9 9 9 9 9 9 9 9 9 9 9 9 9 9 9 9 9 9 9 9 9 9 9 9 9 9 9 9 9 9 9 9 9 9 9 9 9 9 9 9 9 9 9 9 9 9 9 9 9 9 9 9 9 9 9 9 9 9 9 9 9 9 9 9 9 9 9 9 9 9 9 9 9 9 9 9 9 9 9 9 9 9 9 9 9 9 9 9 9 9 9 9 9 9 9 9 9 9 9 9 9 9 9 9 9 9 9 9 9 9 9 9 9 9 9 9 9 9 9 9 9 9 9 9 9 9 9 9 9 9 T.g C.Y.H.K.P.v sXT.x Z.F.X uXj Y.g * ; V.iX>.uX,.j = n aXsXn B.T.:.: c pX,.Y.pX<.m R.. v T.C.Z.P.uXx 9 R.C.G.K.m = >.pXm ; = >.aXc m T.@ P.H.c ,.sXsXh G.",
"9 = $ N MXc.u.9 9 9 9 9 9 9 9 9 9 9 9 9 9 9 9 9 9 9 9 9 9 9 9 9 9 9 9 9 9 9 9 9 9 9 9 9 9 9 9 9 9 9 9 9 9 9 9 9 9 9 9 9 9 9 9 9 9 9 9 9 9 9 9 9 9 9 9 9 9 9 9 9 9 9 9 9 9 9 9 9 9 9 9 9 9 9 9 9 9 9 9 9 9 9 9 9 9 9 9 9 9 9 9 9 9 9 9 9 9 9 9 9 9 9 9 9 9 9 9 9 9 9 9 9 9 9 9 9 9 9 9 9 9 9 9 9 9 9 9 9 9 9 9 9 9 9 9 9 9 9 9 9 9 9 9 9 9 9 9 9 9 9 9 9 9 9 9 9 9 9 h sXc F.C.aXV.U.:.iX* = :.uXG.R.; pXU.<.a.Z.uX<.aXB.c * >.U.<.K.C.uX>.>.B.R.V.T.c * 9 iXG.iXa.F.B.m DXm B.P.G.H.U.:.,.V.uX<.* ,.V.uXm n uXO T.P.n V.G.C.F.H.",
": s f.$ y.mXt.p : 9 9 9 9 9 9 9 9 9 9 9 9 9 9 9 9 9 9 9 9 9 9 9 9 9 9 9 9 9 9 9 9 9 9 9 9 9 9 9 9 9 9 9 9 9 9 9 9 9 9 9 9 9 9 9 9 9 9 9 9 9 9 9 9 9 9 9 9 9 9 9 9 9 9 9 9 9 9 9 9 9 9 9 9 9 9 9 9 9 9 9 9 9 9 9 9 9 9 9 9 9 9 9 9 9 9 9 9 9 9 9 9 9 9 9 9 9 9 9 9 9 9 9 9 9 9 9 9 9 9 9 9 9 9 9 9 9 9 9 9 9 9 9 9 9 9 9 9 9 9 9 9 9 9 9 9 9 9 9 9 9 9 9 9 9 9 9 9 9 h B.c c j v h n h m 9 9 ; m V.h ; :.Z.,.n Z.c 9 M.Z.c ; h m : >.c V.B.c B.<.: m g 9 : h V.,.= c x ; >.h a.B.9 c C.a.c C.:.: 9 c C.:.; h m ; n C.<.x v 9 >.v ",
": y.*.- u 0Xi.*.- 9 9 9 9 9 9 9 9 9 9 9 9 9 9 9 9 9 9 9 9 9 9 9 9 9 9 9 9 9 9 9 9 9 9 9 9 9 9 9 9 9 9 9 9 9 9 9 9 9 9 9 9 9 9 9 9 9 9 9 9 9 9 9 9 9 9 9 9 9 9 9 9 9 9 9 9 9 9 9 9 9 9 9 9 9 9 9 9 9 9 9 9 9 9 9 9 9 9 9 9 9 9 9 9 9 9 9 9 9 9 9 9 9 9 9 9 9 9 9 9 9 9 9 9 9 9 9 9 9 9 9 9 9 9 9 9 9 9 9 9 9 9 9 9 9 9 9 9 9 9 9 9 9 9 9 9 9 9 9 9 9 9 9 9 9 9 9 9 9 9 * : : : ; 9 ; 9 ; 9 9 9 ; * 9 9 = * = ; * : 9 = * : 9 9 ; 9 = : * = : * = 9 ; 9 9 9 9 * = 9 ; : 9 = 9 = = 9 ; * = : * = 9 9 : * ; 9 9 ; 9 ; * = : ; 9 = ; ",
"9 : - 9 - mXn.*.- 9 9 9 9 9 9 9 9 9 9 9 9 9 9 9 9 9 9 9 9 9 9 9 9 9 9 9 9 9 9 9 9 9 9 9 9 9 9 9 9 9 9 9 9 9 9 9 9 9 9 9 9 9 9 9 9 9 9 9 9 9 9 9 9 9 9 9 9 9 9 9 9 9 9 9 9 9 9 9 9 9 9 9 9 9 9 9 9 9 9 9 9 9 9 9 9 9 9 9 9 9 9 9 9 9 9 9 9 9 9 9 9 9 9 9 9 9 9 9 9 9 9 9 9 9 9 9 9 9 9 9 9 9 9 9 9 9 9 9 9 9 9 9 9 9 9 9 9 9 9 9 9 9 9 9 9 9 9 9 9 9 9 9 9 9 9 9 9 9 9 9 9 9 9 9 9 9 9 9 9 9 9 9 9 9 9 9 9 9 9 9 9 9 9 9 9 9 9 9 9 9 9 9 9 9 9 9 9 9 9 9 9 9 9 9 9 9 9 9 9 9 9 9 9 9 9 9 9 9 9 9 9 9 9 9 9 9 9 9 9 9 9 9 9 9 9 9 ",
"9 9 9 9 9 8Xx.*.- 9 9 9 9 9 9 9 9 9 9 9 9 9 9 9 9 9 9 9 9 9 9 9 9 9 9 9 9 9 9 9 9 9 9 9 9 9 9 9 9 9 9 9 9 9 9 9 9 9 9 9 9 9 9 9 9 9 9 9 9 9 9 9 9 9 9 9 9 9 9 9 9 9 9 9 9 9 9 9 9 9 9 9 9 9 9 9 9 9 9 9 9 9 9 9 9 9 9 9 9 9 9 9 9 9 9 9 9 9 9 9 9 9 9 9 9 9 9 9 9 9 9 9 9 9 9 9 9 9 9 9 9 9 9 9 9 9 9 9 9 9 9 9 9 9 9 9 9 9 9 9 9 9 9 9 9 9 9 9 9 9 9 9 9 9 9 9 9 9 9 9 9 9 9 9 9 9 9 9 9 9 9 9 9 9 9 9 9 9 9 9 9 9 9 9 9 9 9 9 9 9 9 9 9 9 9 9 9 9 9 9 9 9 9 9 9 9 : - - 9 9 9 9 9 9 9 9 9 9 9 9 9 9 9 9 9 9 9 9 9 9 9 9 9 9 9 ",
"- 9 9 - s 0Xe.*.- 9 9 9 9 9 9 9 9 9 9 9 9 9 9 9 9 9 9 9 9 9 9 9 9 9 9 9 9 9 9 9 9 9 9 9 9 9 9 9 9 9 9 9 9 9 9 9 9 9 9 9 9 9 9 9 9 9 9 9 9 9 9 9 9 9 9 9 9 9 9 9 9 9 9 9 9 9 9 9 9 9 9 9 9 9 : 9 9 9 9 9 9 9 9 9 9 9 9 9 9 9 9 9 9 9 9 9 9 9 9 9 9 9 9 9 9 9 9 : 9 9 9 9 9 g 9 9 9 9 9 9 : 9 9 9 9 9 9 9 9 9 9 9 9 9 9 9 9 : 9 9 9 9 9 9 9 9 9 9 9 9 9 9 9 9 9 9 9 9 9 9 9 9 9 9 9 9 9 9 9 9 : 9 9 9 9 9 9 9 9 9 9 9 9 9 9 9 9 9 9 2 9 9 9 9 9 9 9 9 9 9 9 9 9 9 9 9 d u.d 9 9 9 9 9 9 9 9 9 9 9 9 9 9 9 : : : : 9 9 : : 9 : : 9 ",
"e.u 9 > 8XmXy.u 9 9 9 9 9 9 9 9 9 9 9 9 9 9 9 9 9 9 9 9 9 9 9 9 9 9 9 9 9 9 9 9 9 9 9 9 9 9 9 9 9 9 9 9 9 9 9 9 9 9 9 9 9 9 9 9 9 9 9 9 9 9 9 9 9 9 9 9 9 9 9 9 9 9 9 9 9 9 9 9 9 9 9 9 9 - p u 9 9 9 9 9 9 9 9 9 9 9 9 9 9 9 9 9 9 9 9 9 9 9 9 9 9 9 9 9 9 : v B.m ; y : V.9 9 9 : 9 h :.9 9 9 9 9 9 9 9 9 9 : g 9 9 9 9 :.9 9 9 9 9 9 9 9 9 9 9 9 9 9 9 9 9 9 9 9 9 9 9 9 9 9 9 9 9 9 9 i p - 9 9 9 9 9 9 9 9 9 9 9 9 9 9 9 9 2 }.2 7 9 9 9 9 - - - - - 9 9 9 9 - b.p.b.=.- 9 9 9 9 9 9 9 9 9 9 9 9 9 e.u.e.u.p = <.>.* <.>.m ",
"AXu.> x.0Xf.*.- 9 9 9 9 9 9 9 9 9 9 9 9 9 9 9 9 9 9 9 9 9 9 9 9 9 9 9 9 9 9 9 9 9 9 9 9 9 9 9 9 9 9 9 9 9 9 9 9 9 9 9 9 9 9 9 9 9 9 9 9 9 9 9 9 9 9 9 9 9 9 9 9 9 9 9 9 9 9 9 9 9 9 9 9 : s u.9 9 9 9 9 9 9 9 9 9 9 9 9 9 9 9 9 9 9 9 9 9 9 9 9 9 9 9 9 9 9 ; Z.:.; m C.>.a.m V.,.m V.a.K.x : B.C.>.:.C.n B.<.,.B.x ,.B.<.K.x 9 9 9 9 9 9 9 9 9 9 9 9 9 9 9 9 9 9 9 9 9 9 9 9 9 9 9 9 9 9 u t.p : 9 9 9 9 9 9 9 9 9 9 9 9 9 9 7 E ) E 7 9 9 9 9 d =.d p.p.9 9 9 9 - j.b.b.d - 9 9 9 9 9 9 9 9 9 9 9 9 9 t.d.f.d.s = B.G.= H.<.<.",
"BXx.x.BXe.t.9 9 9 9 9 9 9 9 9 9 9 9 9 9 9 9 9 9 9 9 9 9 9 9 9 9 9 9 9 9 9 9 9 9 9 9 9 9 9 9 9 9 9 9 9 9 9 9 9 9 9 9 9 9 9 9 9 9 9 9 9 9 9 9 9 9 9 9 9 9 9 9 9 9 9 9 9 9 9 9 9 9 9 9 9 9 9 f.u - 9 9 9 9 9 9 9 9 9 9 9 9 9 9 9 9 9 9 9 9 9 9 9 9 9 9 9 9 9 9 9 g B.>.Z.B.V.a.F.V.C.Z.9 h <.= 9 Z.9 B.V.v <.Z.V.a.,.v G.B.B.,.; 9 9 9 9 9 9 9 9 9 9 9 9 9 9 9 9 9 9 9 9 9 9 9 9 9 9 9 9 9 9 - s y.- 9 9 9 9 9 9 9 9 9 9 9 9 9 9 9 ) ) ) y 9 9 9 9 p.b.j.b.9X9 9 9 9 - b.=.p.p.- 9 9 9 9 9 9 9 9 9 9 9 9 9 u.f.i.i.p - ,.V.:.V.m <.",
"s mXy.f.t.9 9 9 9 9 9 9 9 9 9 9 9 9 9 9 9 9 9 9 9 9 9 9 9 9 9 9 9 9 9 9 9 9 9 9 9 9 9 9 9 9 9 9 9 9 9 9 9 9 9 9 9 9 9 9 9 9 9 9 9 9 9 9 9 9 9 9 9 9 9 9 9 9 9 9 9 9 9 9 9 9 9 9 9 9 9 9 : i t.y 9 9 9 9 9 9 9 9 9 9 9 9 9 9 9 9 9 9 9 9 9 9 9 9 9 9 9 9 9 9 9 h v Z.V.,.h B.V.<.h B.m c Z.y : Z.:.B.B.c >.B.x h a.C.C.v c Z.y 9 9 9 9 9 9 9 9 9 9 9 9 9 9 9 9 9 9 9 9 9 9 9 9 9 9 9 9 9 : i t.y 9 9 9 9 9 9 9 9 9 9 9 9 9 9 7 R _ 7 _ R 7 9 9 9 - - - 9 u : 9 9 9 - j.b.b.=.- 9 9 9 9 9 9 9 9 9 9 9 9 9 y.d.d.d.s = <.>.H.>.,.a.",
"- d.y.s : 9 9 9 9 9 9 9 9 9 9 9 9 9 9 9 9 9 9 9 9 9 9 9 9 9 9 9 9 9 9 9 9 9 9 9 9 9 9 9 9 9 9 9 9 9 9 9 9 9 9 9 9 9 9 9 9 9 9 9 9 9 9 9 9 9 9 9 9 9 9 9 9 9 9 9 9 9 9 9 9 9 9 9 9 9 9 9 9 : u 9 9 9 9 9 9 9 9 9 9 9 9 9 9 9 9 9 9 9 9 9 9 9 9 9 9 9 9 9 9 9 9 n a.h g <.v c h <.m h a.x :.c ; C.a.x x h 9 ,.:.v <.g c <.h :.c : 9 9 9 9 9 9 9 9 9 9 9 9 9 9 9 9 9 9 9 9 9 9 9 9 9 9 9 9 9 u 9 : 9 9 9 9 9 9 9 9 9 9 9 9 9 9 9 y 9 9 9 y 9 9 9 9 9 9 9 9 9 9 9 9 9 9 u p i : 9 9 9 9 9 9 9 9 9 9 9 9 9 9 s s s *.i : c h n h x c ",
"9 - : - 9 9 9 9 9 9 9 9 9 9 9 9 9 9 9 9 9 9 9 9 9 9 9 9 9 9 9 9 9 9 9 9 9 9 9 9 9 9 9 9 9 9 9 9 9 9 9 9 9 9 9 9 9 9 9 9 9 9 9 9 9 9 9 9 9 9 9 9 9 9 9 9 9 9 9 9 9 9 9 9 9 9 9 9 9 9 9 9 9 9 9 9 9 9 9 9 9 9 9 9 9 9 9 9 9 9 9 9 9 9 9 9 9 9 9 9 9 9 9 9 9 9 9 : = 9 9 = : : 9 = : 9 = 9 ; : 9 B.9 : 9 9 9 = ; : = 9 : = 9 ; : 9 9 9 9 9 9 9 9 9 9 9 9 9 9 9 9 9 9 9 9 9 9 9 9 9 9 9 9 9 9 9 9 9 9 9 9 9 9 9 9 9 9 9 9 9 9 9 9 9 9 9 9 9 9 9 9 9 9 9 9 9 9 9 9 9 9 9 9 - 9 9 9 9 9 9 9 9 9 9 9 9 9 9 9 9 : - : - 9 9 : 9 ; 9 : : ",
"9 9 9 9 9 9 9 9 9 9 9 9 9 9 9 9 9 9 9 9 9 9 9 9 9 9 9 9 9 9 9 9 9 9 9 9 9 9 9 9 9 9 9 9 9 9 9 9 9 9 9 9 9 9 9 9 9 9 9 9 9 9 9 9 9 9 9 9 9 9 9 9 9 9 9 9 9 9 9 9 9 9 9 9 9 9 9 9 9 9 9 9 9 9 9 9 9 9 9 9 9 9 9 9 9 9 9 9 9 9 9 9 9 9 9 9 9 9 9 9 9 9 9 9 9 9 9 9 9 9 9 9 9 9 9 9 9 9 9 9 9 9 9 h 9 9 9 9 9 9 9 9 9 9 9 9 9 9 9 9 9 9 9 9 9 9 9 9 9 9 9 9 9 9 9 9 9 9 9 9 9 9 9 9 9 9 9 9 9 9 9 9 9 9 9 9 9 9 9 9 9 9 9 9 9 9 9 9 9 9 9 9 9 9 9 9 9 9 9 9 9 9 9 9 9 9 9 9 9 9 9 9 9 9 9 9 9 9 9 9 9 9 9 9 9 9 9 9 9 9 9 9 9 9 9 9 ",
": : : : : : : : : : : : : : : : : : : : : : : : : : : : : : : : : : : : : : : : : : : : : : : : : : : : : : : : : : : : : : : : : : : : : : : : : : : : : : : : : : : : : : : : : : : : : : : : : : : : : : : : : : : : : : : : : : : : : : : : : : : : : : : : : : : : : : : : : : : : : : : ; : : : : : : : : : : : : : : : : : : : : : : : : : : : : : : : : : : : : : : : : : : : : : : : : : : : : : : : : : : : : : : : : : : : : : : : : : : : : : : : : : : : : : : : : : : : : : : : : : : : : : : : : : : : : : : : : ",
"c c c c c c c c c c c c c c c c c c c c c c c c c c c c c c c c c c c c c c c c c c c c c c c c c c c c c c c c c c c c c c c c c c c c c c c c c c c c c c c c c c c c c c c c c c c c c c c c c c c c c c c c c c c c c c c c c c c c c c c c c c c c c c c c c c c c c c c c c c c c c c c c c c c c c c c c c c c c c c c c c c c c c c c c c c c c c c c c c c c c c c c c c c c c c c c c c c c c c c c c c c c c c c c c c c c c c c c c c c c c c c c c c c c c c c c c c c c c c c c c c c c c c c c c c c c c c c c c ",
"c c c c c c c c c c c c c c c c c c c c c c c c c c c c c c c c c c c c c c c c c c c c c c c c c c c c c c c c c c c c c c c c c c c c c c c c c c c c c c c c c c c c c c c c c c c c c c c c c c c c c c c c c c c c c c c c c c c c c c c c c c c c c c c c c c c c c c c c c c c c c c c c c c c c c c c c c c c c c c c c c c c c c c c c c c c c c c c c c c c c c c c c c c c c c c c c c c c c c c c c c c c c c c c c c c c c c c c c c c c c c c c c c c c c c c c c c c c c c c c c c c c c c c c c c c c c c c c c ",
": : : : : : : : : : : : : : : : : : : : : : : : : : : : : : : : : : : : : : : : : : : : : : : : : : : : : : : : : : : : : : : : : : : : : : : : : : : : : : : : : : : : : : : : : : : : : : : : : : : : : : : : : : : : : : : : : : : : : : : : : : : : : : : : : : : : : : : : : : : : : : : : : : : : : : : : : : : : : : : : : : : : : : : : : : : : : : : : : : : : : : : : : : : : : : : : : : : : : : : : : : : : : : : : : : : : : : : : : : : : : : : : : : : : : : : : : : : : : : : : : : : : : : : : : : : : : : : : ",
"9 9 9 9 9 9 9 9 9 9 9 9 9 9 9 9 9 9 9 9 9 9 9 9 9 9 9 9 9 9 9 9 9 9 9 9 9 6 6 6 6 6 6 6 6 6 6 6 6 6 6 6 6 6 6 6 6 6 6 6 6 6 6 6 6 6 6 9 9 7 7 7 7 7 7 7 7 7 7 7 7 7 7 7 7 7 7 9 9 9 9 9 9 9 9 9 9 9 9 9 9 9 9 9 9 9 9 9 9 9 9 9 9 9 9 9 9 9 9 9 9 9 9 9 9 9 9 9 9 9 9 9 9 9 9 9 9 9 9 9 9 9 9 9 9 9 9 9 9 9 9 9 9 9 9 9 9 9 9 9 9 9 9 9 9 9 9 9 9 9 9 9 9 9 9 9 9 9 9 9 9 9 9 9 9 9 9 9 9 9 9 9 9 9 9 9 9 9 9 9 9 9 9 9 9 9 9 9 9 9 9 9 9 9 9 9 9 9 9 9 9 9 9 9 9 9 9 9 9 9 9 9 9 9 9 9 9 9 9 9 9 9 9 9 9 9 9 9 9 9 9 9 9 9 9 9 ",
"9 9 9 9 9 9 9 9 9 9 9 9 9 9 9 9 9 9 9 9 9 9 9 9 9 9 9 9 9 9 9 9 9 9 9 9 9 4 C C C C C C C C C C C C C C C C C C C C C C C C C C C C 4 9 2 R R R R R R R R R R R R R R R R R R 2 9 9 9 9 9 9 9 9 9 9 9 9 9 9 9 9 9 9 9 9 9 9 9 9 9 9 9 9 9 9 9 9 9 9 9 9 9 9 9 9 9 9 9 9 9 9 9 9 9 9 9 9 9 9 9 9 9 9 9 9 9 9 9 9 9 9 9 9 9 9 9 9 9 9 9 9 9 9 9 9 9 9 9 9 9 9 9 9 9 9 9 9 9 9 9 9 9 9 9 9 9 9 9 9 9 9 9 9 9 9 9 9 9 9 9 9 9 9 9 9 9 9 9 9 9 9 9 9 9 9 9 9 9 9 9 9 9 9 9 9 9 9 9 9 9 9 9 9 9 9 9 9 9 9 9 9 9 9 9 9 9 9 9 9 9 9 9 9 ",
"g h h h h y 9 9 9 9 9 9 9 y h h h h h h h h h h h g h h h h 9 9 9 9 9 8 5 %X'.'.'.'.'.'.'.'.'.'.'.'.'.'.'.'.'.'.'.'.'.'.'.'.'.'.'.#X#X7 ^ oX.X.X.X.X.X.X.X.X.X.X.X.X.X.X.X.XoX) 7 9 9 9 9 9 9 9 9 9 9 9 9 9 9 9 9 9 9 9 9 9 9 9 9 9 9 9 9 9 9 9 9 9 9 9 9 9 9 9 9 9 9 9 9 9 9 9 9 9 9 9 9 9 9 9 9 9 9 9 9 9 9 9 9 9 9 9 9 9 9 9 9 9 9 9 9 9 9 9 9 9 9 9 9 9 9 9 9 9 9 9 9 9 9 9 9 9 9 9 9 9 9 9 9 9 9 9 9 9 9 9 9 9 9 9 9 9 9 9 9 9 9 9 9 9 9 9 9 9 9 9 9 9 9 9 9 9 9 9 9 9 9 9 9 9 9 9 9 9 9 9 9 9 9 9 9 9 9 9 9 9 9 9 9 9 9 9 ",
"h j h c h j 9 9 9 9 9 9 9 h g h x h j x j j h h h h j x x h y 9 9 9 9 6 5 '.] ] ] ] ] ] ] ] ] ] ] ] ] ] ] ] ] ] ] ] ] ] ] ] ] ] ] X.].7 ^ ( T Y Y Y Y Y Y Y Y Y Y Y Y Y Y T / ^ 7 9 9 9 9 9 9 9 9 9 9 9 9 9 9 9 9 9 9 9 9 9 9 9 9 9 9 9 9 9 9 9 9 9 9 9 9 9 9 9 9 9 9 9 9 9 9 9 9 9 9 9 9 9 9 9 9 9 9 9 9 9 9 9 9 9 9 9 9 9 9 9 9 9 9 9 9 9 9 9 9 9 9 9 9 9 9 9 9 9 9 9 9 9 9 9 9 9 9 9 9 9 9 9 9 9 9 9 9 9 9 9 9 9 9 9 9 9 9 9 9 9 9 9 9 9 9 9 9 9 9 9 9 9 9 9 9 9 9 9 9 9 9 9 9 9 9 9 9 9 9 9 9 9 9 9 9 9 9 9 9 9 9 9 9 9 9 9 ",
"g h >.pX:.h 9 9 9 9 9 9 9 v a.m c <.x g h h m <.h h h K.J.y g : : : : 6 3 ].] X.o.o.X.[ o.o.} o.X.X.} X.} X.} } X.o.o.o.o.X.o.o.] X.].w _ ( Y ~ ~ ~ ! ! ! ! ! ~ ! ! Y ~ ~ Y / ^ 7 : : : : : : : : : : : : : : : : : : : : : : : : : : : : : : : : : : : : : : : : : : : : : : : : : : : : : : : : : : : : : : : : : : : : : : : : : : : : : : : : : : : : : : : : : : : : : : : : : : : : : : : : : : : : : : : : : : : : : : : : : : : : : : : : : : : : : : : : : : : : : : : : : : : : : : : : : : : : : : : : : : : : : : : ",
"h h Z.R.Z.h 9 9 9 9 9 9 : a.B.v m V.v a.n h m V.>.9 :.U.P.n 9 ; ; ; : = 3 ].{ X.$.o.o.] $.X.o.X.o.o.} o.X.+.X.X.X.o.X.$.$.X.o.+.[ } $.w E / I / ! / / ! ~ / ! ( ~ ~ Y / ~ I ~ ^ 7 ; ; ; ; ; ; ; ; ; ; ; ; ; ; ; ; ; ; ; ; ; ; ; ; ; ; ; ; ; ; ; ; ; ; ; ; ; ; ; ; ; ; ; ; ; ; ; ; ; ; ; ; ; ; ; ; ; ; ; ; ; ; ; ; ; ; ; ; ; ; ; ; ; ; ; ; ; ; ; ; ; ; ; ; ; ; ; ; ; ; ; ; ; ; ; ; ; ; ; ; ; ; ; ; ; ; ; ; ; ; ; ; ; ; ; ; ; ; ; ; ; ; ; ; ; ; ; ; ; ; ; ; ; ; ; ; ; ; ; ; ; ; ; ; ; ; ; ; ; ; ; ; ; ; ; ; ; ; ; ; ; ; ; ; ; ; ; ",
"y x :.m :.j 9 9 9 9 9 9 : <.Z.:.V.a.V.S.V.h y a.v y n m m c 9 ; ; ; ; = 3 $.` [ X.+.X.` o.[ o.` X.o.] X.o.+.X.] ] } X.] o.] o.o.` [ $.$ E ~ I ~ Y ! / ~ ~ / ! ~ ! ! I ~ Y I ~ T $ ; ; ; ; ; ; ; ; ; ; ; ; ; ; ; ; ; ; ; ; ; ; ; ; ; ; ; ; ; ; ; ; ; ; ; ; ; ; ; ; ; ; ; ; ; ; ; ; ; ; ; ; ; ; ; ; ; ; ; ; ; ; ; ; ; ; ; ; ; ; ; ; ; ; ; ; ; ; ; ; ; ; ; ; ; ; ; ; ; ; ; ; ; ; ; ; ; ; ; ; ; ; ; ; ; ; ; ; ; ; ; ; ; ; ; ; ; ; ; ; ; ; ; ; ; ; ; ; ; ; ; ; ; ; ; ; ; ; ; ; ; ; ; ; ; ; ; ; ; ; ; ; ; ; ; ; ; ; ; ; ; ; ; ; ; ; ; ",
"j g G.sXS.h 9 9 9 9 9 9 : a.>.x V.B.V.C.m h B.V.h g m pXR.c 9 = = = = * 3 $.V [ X.[ } ` X.] [ X.} [ X.} X.[ X.X.[ X.o.[ X.] } } { { o.$ E ~ P ! Y Y Y ~ ! Y ! ! Y ! Y ! Y I ! T $ = = = = = = = = = = = = = = = = = = = = = = = = = = = = = = = = = = = = = = = = = = = = = = = = = = = = = = = = = = = = = = = = = = = = = = = = = = = = = = = = = = = = = = = = = = = = = = = = = = = = = = = = = = = = = = = = = = = = = = = = = = = = = = = = = = = = = = = = = = = = = = = = = = = = = = = = = = = = = = = = = = = = = = = ",
"g h c H.c h 9 9 9 9 9 9 9 n c j m m c <.n h <.M.v h g B.a.9 9 = = = = * 3 o.B V ` B V B V ` B { ] B ` B B B V ` ` ` ` ` ` ` B V B ` X.$ U ! P I I I P I P P I I I I I I I P Y T $ = = = = = = = = = = = = = = = = = = = = = = = = = = = = = = = = = = = = = = = = = = = = = = = = = = = = = = = = = = = = = = = = = = = = = = = = = = = = = = = = = = = = = = = = = = = = = = = = = = = = = = = = = = = = = = = = = = = = = = = = = = = = = = = = = = = = = = = = = = = = = = = = = = = = = = = = = = = = = = = = = = = = = = = ",
"h j j h j h 9 9 9 9 9 9 9 h j j h h j h h j h h h h x h h h 9 = = * * & < o.B B B B B B B B B B B B B B B B B B B B B B B B B B B ` X.$ U Y P P P P I P P I P P P P P P P P Y T $ * * * * * * * * * * * * * * * * * * * * * * * * * * * * * * * * * * * * * * * * * * * * * * * * * * * * * * * * * * * * * * * * * * * * * * * * * * * * * * * * * * * * * * * * * * * * * * * * * * * * * * * * * * * * * * * * * * * * * * * * * * * * * * * * * * * * * * * * * * * * * * * * * * * * * * * * * * * * * * * * * * * * * * * ",
"9 g g g g 9 9 9 9 9 9 9 9 9 g g g g g g g g g h y y g y y 9 ; = = * * % > X.[ [ [ [ [ [ [ [ [ [ [ [ [ [ [ [ [ [ [ [ [ [ [ [ [ [ [ X.{ $ 2 ! Y Y Y Y Y Y Y Y Y Y Y Y Y Y Y Y ! U $ * * * * * * * * * * * * * * * * * * * * * * * * * * * * * * * * * * * * * * * * * * * * * * * * * * * * * * * * * * * * * * * * * * * * * * * * * * * * * * * * * * * * * * * * * * * * * * * * * * * * * * * * * * * * * * * * * * * * * * * * * * * * * * * * * * * * * * * * * * * * * * * * * * * * * * * * * * * * * * * * * * * * * * * ",
"9 9 9 9 9 9 9 9 9 9 9 9 9 9 9 9 9 9 9 9 9 9 9 9 9 9 9 9 : ; ; = = * * * % @ O O O O O O O O O O O O O O O O O O O O O O O O O O O O O @ @ O O O O O O O O O O O O O O O O O O @ @ @ @ @ @ @ @ O O O O O O O O O O O O O O O O O O O O O O O O O O O O O O O O O O O O O O O O O O O O O O O O O O O O O O O O O O O O O O O O O O O O O O O O O O O O O O O O O O O O O O O O O O O O O O O O O O O O O O O O O O O O O O O O O O O O O O O O O O O O O O O O O O O O O O O O O O O O O O O O O O O O O O O O O O O O O O O @ * ",
"9 9 9 9 9 9 9 9 9 9 9 9 9 9 9 9 9 9 9 9 9 9 9 9 9 9 9 9 9 : ; = = * * * * h h h h h h h h h h h h h h h h h h h h h h h h h h h h h h h h h h h h h h h h h h h h h h h h h h h h h h h h h h h h h h h h h h h h h h h h h h h h h h h h h h h h h h h h h h h h h h h h h h h h h h h h h h h h h h h h h h h h h h h h h h h h h h h h h h h h h h h h h h h h h h h h h h h h h h h h h h h h h h h h h h h h h h h h h h h h h h h h h h h h h h h h h h h h h h h h h h h h h h h h h h h h h h h h h h h h h h h h h 9 @ ",
"9 9 9 9 9 9 9 9 9 9 9 9 9 9 9 9 9 9 9 9 9 9 9 9 9 9 9 9 : ; = = * * * @ = a.a.a.a.a.a.a.a.a.a.a.a.a.<.a.<.a.a.a.a.a.a.a.a.<.<.a.a.<.a.a.a.a.a.a.a.a.a.<.a.a.a.a.a.a.a.a.a.a.a.a.a.a.a.a.a.a.M.:.c c c c c c c c c c c c c c c c c c c c c c c c c c c c c c c c c c c c c c c c c c c c c c c c c c c c c c c c c c c c c c c c c c c c c c c c c c c c c c c c c c c c c c c c c c c c c c c c c c c c c c c c c c c c c c c c c c c c c c c c c c c c c c c c c c c c c c c c c c c c c c c c c c c c c c c c c c c c c c v n ",
":.:.:.:.:.:.:.m m m m m m m m m m m m m m m m m m m m m n v c x j h g 9 y ,.<.<.,.<.,.<.,.,.,.>.<.,.a.a.B.,.>.,.,.>.,.,.>.B.B.,.<.B.<.>.,.,.,.,.,.>.<.B.M.,.>.,.,.,.>.<.M.,.,.<.,.,.<.<.<.,.<.x = : : : : : : : : : : : : : : : : : : : : : : : : : : : : : : : : : : : : : : : : : : : : : : : : : : : : : : : : : : : : : : : : : : : : : : : : : : : : : : : : : : : : : : : : : : : : : : : : : : : : : : : : : : : : : : : : : : : : : : : : : : : : : : : : : : : : : : : : : : : : : : : : : : : : : : : : : : : : : : g ",
"<.<.<.<.<.<.<.h y g g g g g g g g g g g g g g g g g g y 9 9 9 : ; ; = * ; <.,.G.V.Y.B.H.<.B.V.H.,.Z.P.Z.B.<.V.a.a.C.<.B.B.F.G.:.P.H.a.B.B.a.<.a.a.V.B.K.a.B.C.M.V.M.H.V.a.M.B.,.B.B.,.<.<.<.a.c 9 9 9 9 9 9 9 9 9 9 9 9 9 9 9 9 9 9 9 9 9 9 9 9 9 9 9 9 9 9 9 9 9 9 9 9 9 9 9 9 9 9 9 9 9 9 9 9 9 9 9 9 9 9 9 9 9 9 9 9 9 9 9 9 9 9 9 9 9 9 9 9 9 9 9 9 9 9 9 9 9 9 9 9 9 9 9 9 9 9 9 9 9 9 9 9 9 9 9 9 9 9 9 9 9 9 9 9 9 9 9 9 9 9 9 9 9 9 9 9 9 9 9 9 9 9 9 9 9 9 9 9 9 9 9 9 9 9 9 9 9 9 9 9 9 9 9 9 9 9 9 9 9 9 9 9 9 9 9 ; ",
",.,.<.<.<.<.,.9 9 9 9 9 9 9 9 9 9 9 9 9 9 9 9 9 9 9 9 9 : ; = = * * * @ = <.,.Z.J.Y.J.G.H.U.Y.Y.>.Z.U.a.J.G.P.K.K.U.G.B.U.K.Z.:.U.Z.Z.P.U.J.V.H.B.K.K.H.J.V.R.C.J.P.Y.G.G.J.K.F.U.P.V.,.<.<.<.c : 9 9 9 9 9 9 9 9 9 9 9 9 9 9 9 9 9 9 9 9 9 9 9 9 9 9 9 9 9 9 9 9 9 9 9 9 9 9 9 9 9 9 9 9 9 9 9 9 9 9 9 9 9 9 9 9 9 9 9 9 9 9 9 9 9 9 9 9 9 9 9 9 9 9 9 9 9 9 9 9 9 9 9 9 9 9 9 9 9 9 9 9 9 9 9 9 9 9 9 9 9 9 9 9 9 9 9 9 9 9 9 9 9 9 9 9 9 9 9 9 9 9 9 9 9 9 9 9 9 9 9 9 9 9 9 9 9 9 9 9 9 9 9 9 9 9 9 9 9 9 9 9 9 9 9 9 9 9 9 ",
"Z.Z.,.<.<.<.,.9 9 9 9 9 9 9 9 9 9 9 9 9 9 9 9 9 9 9 9 9 9 : ; = = * * % = <.,.M.uXZ.iXZ.T.J.K.F.>.,.Z.Y.K.P.B.J.J.B.P.G.Y.Y.Z.:.Y.C.J.C.G.K.C.K.G.U.T.H.J.Z.F.C.U.Y.G.C.U.F.C.U.Z.F.Z.>.<.<.<.x : 9 9 9 9 9 9 9 9 9 9 9 9 9 9 9 9 9 9 9 9 9 9 9 9 9 9 9 9 9 9 9 9 9 9 9 9 9 9 9 9 9 9 9 9 9 9 9 9 9 9 9 9 9 9 9 9 9 9 9 9 9 9 9 9 9 9 9 9 9 9 9 9 9 9 9 9 9 9 9 9 9 9 9 9 9 9 9 9 9 9 9 9 9 9 9 9 9 9 9 9 9 9 9 9 9 9 9 9 9 9 9 9 9 9 9 9 9 9 9 9 9 9 9 9 9 9 9 9 9 9 9 9 9 9 9 9 9 9 9 9 9 9 9 9 9 9 9 9 9 9 9 9 9 9 9 9 9 9 9 ",
"T.Y.M.,.<.<.,.9 9 9 9 9 9 9 9 9 9 9 9 9 9 9 9 9 9 9 9 9 : : ; = = * * @ = <.<.,.U.a.P.a.Z.J.V.P.<.V.K.G.G.Z.P.P.F.B.G.J.K.H.Z.>.K.H.Z.K.T.Z.P.K.G.P.H.G.F.P.P.H.P.G.H.J.Z.H.K.C.Z.Z.C.,.<.<.,.9 9 9 9 9 9 9 9 9 9 9 9 9 9 9 9 9 9 9 9 9 9 9 9 9 9 9 9 9 9 9 9 9 9 9 9 9 9 9 9 9 9 9 9 9 9 9 9 9 9 9 9 9 9 9 9 9 9 9 9 9 9 9 9 9 9 9 9 9 9 9 9 9 9 9 9 9 9 9 9 9 9 9 9 9 9 9 9 9 9 9 9 9 9 9 9 9 9 9 9 9 9 9 9 9 9 9 9 9 9 9 9 9 9 9 9 9 9 9 9 9 9 9 9 9 9 9 9 9 9 9 9 9 9 9 9 9 9 9 9 9 9 9 9 9 9 9 9 9 9 9 9 9 9 9 9 9 9 9 9 9 ",
"U.F.<.<.<.<.:.9 9 9 9 9 9 9 9 9 9 9 9 9 9 9 9 9 9 9 9 9 : : ; = = * * @ = <.<.<.,.<.<.<.<.a.<.<.<.<.a.<.,.V.P.H.,.<.<.<.<.<.<.<.<.a.<.,.K.B.<.<.<.<.<.<.<.<.a.<.<.<.<.<.<.<.<.<.<.<.<.<.<.<.x 9 9 9 9 9 9 9 9 9 9 9 9 9 9 9 9 9 9 9 9 9 9 9 9 9 9 9 9 9 9 9 9 9 9 9 9 9 9 9 9 9 9 9 9 9 9 9 9 9 9 9 9 9 9 9 9 9 9 9 9 9 9 9 9 9 9 9 9 9 9 9 9 9 9 9 9 9 9 9 9 9 9 9 9 9 9 9 9 9 9 9 9 9 9 9 9 9 9 9 9 9 9 9 9 9 9 9 9 9 9 9 9 9 9 9 9 9 9 9 9 9 9 9 9 9 9 9 9 9 9 9 9 9 9 9 9 9 9 9 9 9 9 9 9 9 9 9 9 9 9 9 9 9 9 9 9 9 9 9 9 9 ",
"Z.Z.,.<.<.a.x 9 9 9 9 9 9 9 9 9 9 9 9 9 9 9 9 9 9 9 9 9 9 : ; = = * * @ = ,.>.>.>.>.>.>.>.>.>.>.>.>.>.>.>.<.B.>.>.>.>.>.>.>.>.>.>.>.>.>.,.>.>.>.>.>.>.>.>.>.>.>.>.>.>.>.>.>.>.>.>.>.>.:.m h 9 9 9 9 9 9 9 9 9 9 9 9 9 9 9 9 9 9 9 9 9 9 9 9 9 9 9 9 9 9 9 9 9 9 9 9 9 9 9 9 9 9 9 9 9 9 9 9 9 9 9 9 9 9 9 9 9 9 9 9 9 9 9 9 9 9 9 9 9 9 9 9 9 9 9 9 9 9 9 9 9 9 9 9 9 9 9 9 9 9 9 9 9 9 9 9 9 9 9 9 9 9 9 9 9 9 9 9 9 9 9 9 9 9 9 9 9 9 9 9 9 9 9 9 9 9 9 9 9 9 9 9 9 9 9 9 9 9 9 9 9 9 9 9 9 9 9 9 9 9 9 9 9 9 9 9 9 9 9 9 9 9 ",
"<.<.<.<.<.c 9 9 9 9 9 9 9 9 9 9 9 9 9 9 9 9 9 9 9 9 9 9 : ; ; = = * * @ = m 9 9 9 9 9 9 9 9 9 9 9 9 9 9 9 9 : 9 9 9 9 9 9 9 9 9 9 9 9 9 9 9 9 9 9 9 9 9 9 9 9 9 9 9 9 9 9 9 9 9 9 9 9 9 9 9 9 9 9 9 9 9 9 9 9 9 9 9 9 9 9 9 9 9 9 9 9 9 9 9 9 9 9 9 9 9 9 9 9 9 9 9 9 9 9 9 9 9 9 9 9 9 9 9 9 9 9 9 9 9 9 9 9 9 9 9 9 9 9 9 9 9 9 9 9 9 9 9 9 9 9 9 9 9 9 9 9 9 9 9 9 9 9 9 9 9 9 9 9 9 9 9 9 9 9 9 9 9 9 9 9 9 9 9 9 7 7 7 7 7 7 7 7 7 7 7 7 7 7 7 7 7 7 7 9 9 : : : : : : : : : : : : : : : : : : : : : : : : : : : : : 9 9 9 ",
"n n v c h 9 9 9 9 9 9 9 9 9 9 9 9 9 9 9 9 9 9 9 9 9 9 9 9 : ; = = = * % ; m 9 9 9 9 9 9 9 9 9 9 9 9 9 9 9 9 9 9 9 9 9 9 9 9 9 9 9 9 9 9 9 9 9 9 9 9 9 9 9 9 9 9 9 9 9 9 9 9 9 9 9 9 9 9 9 9 9 9 9 9 9 9 9 9 9 9 9 9 9 9 9 9 9 9 9 9 9 9 9 9 9 9 9 9 9 9 9 9 9 9 9 9 9 9 9 9 9 9 9 9 9 9 9 9 9 9 9 9 9 9 9 9 9 9 9 9 9 9 9 9 9 9 9 9 9 9 9 9 9 9 9 9 9 9 9 9 9 9 9 9 9 9 9 9 9 9 9 9 9 9 9 9 9 9 9 9 9 9 9 9 9 9 9 9 9 E _ _ _ _ _ _ _ _ _ _ _ _ _ _ _ _ _ _ 9 9 c c c c c c c c c c c c c c c c c c c c c c c c c c c c c y 9 9 ",
"9 9 9 9 9 9 9 9 9 9 9 9 9 9 9 9 9 9 9 9 9 9 9 9 9 9 9 9 9 9 : ; = = = * ; m 9 9 9 9 9 9 9 9 9 9 9 9 9 9 9 9 9 9 9 9 9 9 9 9 9 9 9 9 9 9 9 9 9 9 9 9 9 9 9 9 9 9 9 9 9 9 9 9 9 9 9 9 9 9 9 9 9 9 9 9 9 9 9 9 9 9 9 9 9 9 9 9 9 9 9 9 9 9 9 9 9 9 9 9 9 9 9 9 9 9 9 9 9 9 9 9 9 9 9 9 9 9 9 9 9 9 9 9 9 9 9 9 9 9 9 9 9 9 9 9 9 9 9 9 9 9 9 9 9 9 9 9 9 9 9 9 9 9 9 9 9 9 9 9 9 9 9 9 9 9 9 9 9 9 9 9 9 9 9 9 9 9 9 9 y oX}.}.}.}.}.}.}.}.}.}.}.}.}.}.}.}. XoX2 r ,.n m m m m m m m m m m m m m m m m m m m m m m m m m n ,.x : 9 ",
"9 9 9 9 9 9 9 9 9 9 9 9 9 9 9 9 9 9 9 9 9 9 9 9 9 9 9 9 9 9 : ; = = * * ; m 9 9 9 9 9 9 9 9 9 9 9 9 9 9 9 9 9 9 9 9 9 9 9 9 9 9 9 9 9 9 9 9 9 9 9 9 9 9 9 9 9 9 9 9 9 9 9 9 9 9 9 9 9 9 9 9 9 9 9 9 9 9 9 9 9 9 9 9 9 9 9 9 9 9 9 9 9 9 9 9 9 9 9 9 9 9 9 9 9 9 9 9 9 9 9 9 9 9 9 9 9 9 9 9 9 9 9 9 9 9 9 9 9 9 9 9 9 9 9 9 9 9 9 9 9 9 9 9 9 9 9 9 9 9 9 9 9 9 9 9 9 9 9 9 9 9 9 9 9 9 9 9 9 9 9 9 9 9 9 9 9 9 9 9 y .X! Y Y Y Y Y Y Y Y Y Y Y Y Y Y Y Y .X2 r m h h g g y g g h y h g h h y g h g h g g h h h g y g g m x : 9 ",
"9 9 9 9 9 9 9 9 9 9 9 9 9 9 9 9 9 9 9 9 9 9 9 9 9 9 9 9 9 9 : ; = = * * ; m 9 9 9 9 9 9 9 9 9 9 9 9 9 9 9 9 9 9 9 9 9 9 9 9 9 9 9 9 9 9 9 9 9 9 9 9 9 9 9 9 9 9 9 9 9 9 9 9 9 9 9 9 9 9 9 9 9 9 9 9 9 9 9 9 9 9 9 9 9 9 9 9 9 9 9 9 9 9 9 9 9 9 9 9 9 9 9 9 9 9 9 9 9 9 9 9 9 9 9 9 9 9 9 9 9 9 9 9 9 9 9 9 9 9 9 9 9 9 9 9 9 9 9 9 9 9 9 9 9 9 9 9 9 9 9 9 9 9 9 9 9 9 9 9 9 9 9 9 9 9 9 9 9 9 9 9 9 9 9 9 9 9 9 9 y .X~ ~ ( / ( ~ ~ / ~ / ( / ~ ~ ( / ! XX2 r :.h n <.,.V.,.a.m B.m ,.,.n B.:.h ,.>.<.<.m v n M.B.<.h m x : 9 ",
"9 9 9 9 9 9 9 9 9 9 9 9 9 9 9 9 9 9 9 9 9 9 9 9 9 9 9 9 9 9 : ; = = * * ; m 9 9 9 9 9 9 9 9 9 9 9 9 9 9 9 9 9 9 9 9 9 9 9 9 9 9 9 9 9 9 9 9 9 9 9 9 9 9 9 9 9 9 9 9 9 9 9 9 9 9 9 9 9 9 9 9 9 9 9 9 9 9 9 9 9 9 9 9 9 9 9 9 9 9 9 9 9 9 9 9 9 9 9 9 9 9 9 9 9 9 9 9 9 9 9 9 9 9 9 9 9 9 9 9 9 9 9 9 9 9 9 9 9 9 9 9 9 9 9 9 9 9 9 9 9 9 9 9 9 9 9 9 9 9 9 9 9 9 9 9 9 9 9 9 9 9 9 9 9 9 9 9 9 9 9 9 9 9 9 9 9 9 9 9 y .X! ~ }./ .X( / }./ (  X( / ~ }.~ Y XX2 r :.g a.a.x B.>.Z.>.B.a.C.<.B.n M.n Z.v B.B.B.m m <.<.:.g m x : 9 ",
"9 9 9 9 9 9 9 9 9 9 9 9 9 9 9 9 9 9 9 9 9 9 9 9 9 9 9 9 9 9 : ; = = * * ; m 9 9 9 9 9 9 9 9 9 9 9 9 9 9 9 9 9 9 9 9 9 9 9 9 9 9 9 9 9 9 9 9 9 9 9 9 9 9 9 9 9 9 9 9 9 9 9 9 9 9 9 9 9 9 9 9 9 9 9 9 9 9 9 9 9 9 9 9 9 9 9 9 9 9 9 9 9 9 9 9 9 9 9 9 9 9 9 9 9 9 9 9 9 9 9 9 9 9 9 9 9 9 9 9 9 9 9 9 9 9 9 9 9 9 9 9 9 9 9 9 9 9 9 9 9 9 9 9 9 9 9 9 9 9 9 9 9 9 9 9 9 9 9 9 9 9 9 9 9 9 9 9 9 9 9 9 9 9 9 9 9 9 9 9 y .X! ~ ( ~ ( }. X}. X( (  X/ ~  X! ! XX2 r :.h j B.>.,.:.a.n H.,.B.m B.j M.c n V.Z.>.>.m v >.,.m g m x : 9 ",
"9 9 9 9 9 9 9 9 9 9 9 9 9 9 9 9 9 9 9 9 9 9 9 9 9 9 9 9 9 9 : ; = = * * ; m 9 9 9 9 9 9 9 9 9 9 9 9 9 9 9 9 9 9 9 9 9 9 9 9 9 9 9 9 9 9 9 9 9 9 9 9 9 9 9 9 9 9 9 9 9 9 9 9 9 9 9 9 9 9 9 9 9 9 9 9 9 9 9 9 9 9 9 9 9 9 9 9 9 9 9 9 9 9 9 9 9 9 9 9 9 9 9 9 9 9 9 9 9 9 9 9 9 9 9 9 9 9 9 9 9 9 9 9 9 9 9 9 9 9 9 9 9 9 9 9 9 9 9 9 9 9 9 9 9 9 9 9 9 9 9 9 9 9 9 9 9 9 9 9 9 9 9 9 9 9 9 9 9 9 9 9 9 9 9 9 9 9 9 9 y .X! ~  X/ / (  X~ (  X( (  X/  X/ Y XX2 r :.h m B.m >.m B.>.>.>.B.<.:.V.,.j <.<.<.g m C.a.<.:.n h m x : 9 ",
"9 9 9 9 9 9 9 9 9 9 9 9 9 9 9 9 9 9 9 9 9 9 9 9 9 9 9 9 9 9 : ; = = * * ; m 9 9 9 9 9 9 9 9 9 9 9 9 9 9 9 9 9 9 9 9 9 9 9 9 9 9 9 9 9 9 9 9 9 9 9 9 9 9 9 9 9 9 9 9 9 9 9 9 9 9 9 9 9 9 9 9 9 9 9 9 9 9 9 9 9 9 9 9 9 9 9 9 9 9 9 9 9 9 9 9 9 9 9 9 9 9 9 9 9 9 9 9 9 9 9 9 9 9 9 9 9 9 9 9 9 9 9 9 9 9 9 9 9 9 9 9 9 9 9 9 9 9 9 9 9 9 9 9 9 9 9 9 9 9 9 9 9 9 9 9 9 9 9 9 9 9 9 9 9 9 9 9 9 9 9 9 9 9 9 9 9 9 9 9 y .X! Y ! ! ! Y Y Y Y ! ! Y ! ! ! ! Y .X2 r :.h j j h h h j h h h h j h h h h j h h j h j j h h h h m x : 9 ",
"9 9 9 9 9 9 9 9 9 9 9 9 9 9 9 9 9 9 9 9 9 9 9 9 9 9 9 9 9 9 : ; = = * * ; m 9 9 9 9 9 9 9 9 9 9 9 9 9 9 9 9 9 9 9 9 9 9 9 9 9 9 9 9 9 9 9 9 9 9 9 9 9 9 9 9 9 9 9 9 9 9 9 9 9 9 9 9 9 9 9 9 9 9 9 9 9 9 9 9 9 9 9 9 9 9 9 9 9 9 9 9 9 9 9 9 9 9 9 9 9 9 9 9 9 9 9 9 9 9 9 9 9 9 9 9 9 9 9 9 9 9 9 9 9 9 9 9 9 9 9 9 9 9 9 9 9 9 9 9 9 9 9 9 9 9 9 9 9 9 9 9 9 9 9 9 9 9 9 9 9 9 9 9 9 9 9 9 9 9 9 9 9 9 9 9 9 9 9 9 y XX( ( ( ( ( ( ( ( ( ( ( ( ( ( ( ( / oX2 r ,.c c c c c c c c c c c c c c c c c c c c c c c c c c c >.x : 9 ",
"9 9 9 9 9 9 9 9 9 9 9 9 9 9 9 9 9 9 9 9 9 9 9 9 9 9 9 9 9 9 : ; = = * * ; m 9 9 9 9 9 9 9 9 9 9 9 9 9 9 9 9 9 9 9 9 9 9 9 9 9 9 9 9 9 9 9 9 9 9 9 9 9 9 9 9 9 9 9 9 9 9 9 9 9 9 9 9 9 9 9 9 9 9 9 9 9 9 9 9 9 9 9 9 9 9 9 9 9 9 9 9 9 9 9 9 9 9 9 9 9 9 9 9 9 9 9 9 9 9 9 9 9 9 9 9 9 9 9 9 9 9 9 9 9 9 9 9 9 9 9 9 9 9 9 9 9 9 9 9 9 9 9 9 9 9 9 9 9 9 9 9 9 9 9 9 9 9 9 9 9 9 9 9 9 9 9 9 9 9 9 9 9 9 9 9 9 9 9 9 9 ) |.) |.|.|.|.|.|.|.|.|.|.|.|.|.|.) |.2 e m m m m m m m m m m m m m m m m m m m m m m m m m m m m m h 9 9 ",
"9 9 9 9 9 9 9 9 9 9 9 9 9 9 9 9 9 9 9 9 9 9 9 9 9 9 9 9 9 9 : ; = = * * ; m 9 9 9 9 9 9 9 9 9 9 9 9 9 9 9 9 9 9 9 9 9 9 9 9 9 9 9 9 9 9 9 9 9 9 9 9 9 9 9 9 9 9 9 9 9 9 9 9 9 9 9 9 9 9 9 9 9 9 9 9 9 9 9 9 9 9 9 9 9 9 9 9 9 9 9 9 9 9 9 9 9 9 9 9 9 9 9 9 9 9 9 9 9 9 9 9 9 9 9 9 9 9 9 9 9 9 9 9 9 9 9 9 9 9 9 9 9 9 9 9 9 9 9 9 9 9 9 9 9 9 9 9 9 9 9 9 9 9 9 9 9 9 9 9 9 9 9 9 9 9 9 9 9 9 9 9 9 9 9 9 9 9 9 9 9 7 7 7 7 7 7 7 7 7 7 7 7 7 7 7 7 7 7 7 9 9 9 9 9 9 9 9 9 9 9 9 9 9 9 9 9 9 9 9 9 9 9 9 9 9 9 9 9 9 9 9 9 9 ",
"9 9 9 9 9 9 9 9 9 9 9 9 9 9 9 9 9 9 9 9 9 9 9 9 9 9 9 9 9 9 : ; = = * * ; m 9 9 9 9 9 9 9 9 9 9 9 9 9 9 9 9 9 9 9 9 9 9 9 9 9 9 9 9 9 9 9 9 9 9 9 9 9 9 9 9 9 9 9 9 9 9 9 9 9 9 9 9 9 9 9 9 9 9 9 9 9 9 9 9 9 9 9 9 9 9 9 9 9 9 9 9 9 9 9 9 9 9 9 9 9 9 9 9 9 9 9 9 9 9 9 9 9 9 9 9 9 9 9 9 9 9 9 9 9 9 9 9 9 9 9 9 9 9 9 9 9 9 9 9 9 9 9 9 9 9 9 9 9 9 9 9 9 9 9 9 9 9 9 9 9 9 9 9 9 9 9 9 9 9 9 9 9 9 9 9 9 9 9 9 9 9 : : : : : : : : : : : : : : : : : 9 9 9 9 9 9 9 9 9 9 9 9 9 9 9 9 9 9 9 9 9 9 9 9 9 9 9 9 9 9 9 9 9 9 9 ",
"9 9 9 9 9 9 9 9 9 9 9 9 9 9 9 9 9 9 9 9 9 9 9 9 9 9 9 9 9 9 : ; = = * * ; m 9 h j j j j j j j j j j j j j j j j j j j j j j j j j j j j j j j j j h j j j j j j j j j j j j j j j j j j j j j j j j j j j j j j j j j j j j j j j j j j j j j j j j j j j j j j j j j j j j j j j j j j j j j j j j j j j j j j j j j j j j j j j j j j j j j j j j j j j j j j j j j j j j j j j j j j j j j j j j j j j j j j j j j j j j j j j j j j j j j j j j j j j h j j j j j j j j j j j j j j j j j j j j j j j j j j j j j j j j j h ",
"9 9 9 9 9 9 9 9 9 9 9 9 9 9 9 9 9 9 9 9 9 9 9 9 9 9 9 9 9 9 : ; = = * * ; m 9 y y y y y y y y y y y y y y y y y y y y y y y y y y y y y y y y y g g y y y y y y y y y y y y y y y y y y y y y y y y y y y y y y y y y y y y y y y y y y y y y y y y y y y y y y y y y y y y y y y y y y y y y y y y y y y y y y y y y y y y y y y y y y y y y y y y y y y y y y y y y y y y y y y y y y y y y y y y y y y y y y y y y y y y y y y y y y y y y y y y y y y h y y y y y y y y y y y y y y y y y y y y y y y y y y y y y y y y y 9 ",
"9 9 9 9 9 9 9 9 9 9 9 9 9 9 9 9 9 9 9 9 9 9 9 9 9 9 9 9 9 9 : ; = = * * ; m 9 9 9 9 9 9 9 9 9 9 9 9 9 9 9 9 9 9 9 9 9 9 9 9 9 9 9 9 9 9 9 9 9 9 9 j : 9 9 9 9 9 9 9 9 9 9 9 9 9 9 9 9 9 9 9 9 9 9 9 9 9 9 9 9 9 9 9 9 9 9 9 9 9 9 9 9 9 9 9 9 9 9 9 9 9 9 9 9 9 9 9 9 9 9 9 9 9 9 9 9 9 9 9 9 9 9 9 9 9 9 9 9 9 9 9 9 9 9 9 9 9 9 9 9 9 9 9 9 9 9 9 9 9 9 9 9 9 9 9 9 9 9 9 9 9 9 9 9 9 9 9 9 9 9 9 9 9 9 9 9 9 9 9 9 9 9 9 9 9 9 9 9 9 9 9 9 9 9 9 9 9 9 j 9 9 9 9 9 9 9 9 9 9 9 9 9 9 9 9 9 9 9 9 9 9 9 9 9 9 9 9 9 9 9 9 9 9 ",
"9 9 9 9 9 9 9 9 9 9 9 9 9 9 9 9 9 9 9 9 9 9 9 9 9 9 9 9 9 9 : ; = = * * ; m 9 9 9 9 9 9 9 9 9 9 9 9 9 9 9 9 9 9 9 9 9 9 9 9 9 9 9 9 9 9 9 9 9 9 9 j 9 9 9 9 9 9 9 : ; 9 ; 9 9 9 9 9 9 9 9 9 9 9 9 9 9 : 9 ; 9 : ; 9 9 9 9 9 9 9 9 9 9 9 9 ; 9 ; : : ; : 9 9 9 9 9 9 9 9 9 9 9 9 : 9 ; 9 9 : 9 9 9 9 9 9 9 9 9 9 9 9 9 : 9 9 9 9 9 9 9 9 9 9 9 9 9 9 9 ; 9 9 : ; 9 9 9 9 9 9 9 9 9 9 9 9 9 9 : 9 : ; ; : 9 9 9 9 9 9 9 9 9 9 9 9 : 9 9 ; 9 9 9 9 9 9 9 9 9 x 9 9 9 9 9 9 9 9 9 9 9 9 9 9 9 9 9 9 9 9 9 9 9 9 9 9 9 9 9 9 9 9 9 9 ",
"9 9 9 9 9 9 9 9 9 9 9 9 9 9 9 9 9 9 9 9 9 9 9 9 9 9 9 9 9 9 : ; = = * * ; m 9 9 9 9 9 9 9 9 9 h 9 9 : : 9 9 9 9 9 9 : : 9 9 9 9 9 9 9 9 9 9 9 9 9 j 9 9 9 9 9 9 9 x m 9 v h 9 9 9 9 9 9 9 9 9 9 9 9 y x : v h c :.h 9 9 9 9 9 9 9 9 9 9 g m 9 c c j :.c 9 9 9 9 9 9 9 9 9 9 9 9 j g n 9 9 z 9 9 9 9 9 9 9 9 9 9 9 9 9 j j n = 9 9 9 9 9 9 9 9 9 9 9 g m y : x v x v = 9 9 9 9 9 9 9 9 9 9 9 x : x m v m ; 9 9 9 9 9 9 9 9 9 9 9 j h 9 n h m = 9 9 9 9 9 9 x 9 9 9 9 9 9 9 9 h 9 h h 9 : ; c 9 : 9 9 : : 9 9 9 9 9 9 9 9 9 9 9 9 ",
"9 9 9 9 9 9 9 9 9 9 9 9 9 9 9 9 9 9 9 9 9 9 9 9 9 9 9 9 9 9 : ; = = * * ; m 9 9 9 9 9 9 9 9 9 :.9 9 v z h h h h 9 9 v c y h :.m 9 9 9 9 9 9 9 9 9 j 9 9 9 9 9 9 ; Z.:.v B.<.9 9 9 9 9 9 9 9 9 9 9 : m C.x B.a.x B.>.; 9 9 9 9 9 9 9 9 9 j ,.a.c B.v >.B.; 9 9 9 9 9 9 9 9 9 = :.Z.>.V.c m Z.; 9 9 9 9 9 9 9 9 9 9 : n Z.c ,.x 9 9 9 9 9 9 9 9 9 9 9 j ,.<.; c <.B.m x 9 9 9 9 9 9 9 9 9 = :.Z.= h >.Z.,.x h 9 9 9 9 9 9 9 9 9 : C.:.:.a.B.>.x y 9 9 9 9 9 x 9 9 9 9 9 9 9 g :.: :.h y n h :.:.h 9 9 v x y h :.m 9 9 9 9 9 9 9 9 ",
"9 9 9 9 9 9 9 9 9 9 9 9 9 9 9 9 9 9 9 9 9 9 9 9 9 9 9 9 9 9 : ; = = * * ; m 9 9 9 9 9 9 9 9 9 :.: c v m :.>.1.:.9 n x n z v :.c : 9 9 9 9 9 9 9 9 j 9 9 9 9 9 9 9 v ,.C.h ,.h 9 9 9 9 9 9 9 9 9 9 9 9 ,.:.j ,.9 ,.g 9 9 9 9 9 9 9 9 9 9 = c :.* a.: m v ; 9 9 9 9 9 9 9 9 9 h a.,.:.Z.m <.<.9 9 9 9 9 9 9 9 9 9 9 9 9 <.x H.m : 9 9 9 9 9 9 9 9 9 9 = c :.= = :.>.G.v : 9 9 9 9 9 9 9 : h a.<.: = m n Z.<.9 9 9 9 9 9 9 9 9 9 ; c :.>.y V.G.:.: 9 9 9 9 9 x 9 9 9 9 9 9 9 y <.:.>.m :.v :.m n :.; n x n z v :.c : 9 9 9 9 9 9 9 ",
"9 9 9 9 9 9 9 9 9 9 9 9 9 9 9 9 9 9 9 9 9 9 9 9 9 9 9 9 9 9 : ; = = * * ; m 9 9 9 9 9 9 9 9 9 1.g v c n n 1.>.:.= m z c v :.m c : 9 9 9 9 9 9 9 9 j 9 9 9 9 9 9 9 9 m Z.:.a.y 9 9 9 9 9 9 9 9 9 9 9 9 a.v <.<.m <.; 9 9 9 9 9 9 9 9 9 : c C.9 B.m 9 B.9 9 9 9 9 9 9 9 9 9 ; n C.G.M.:.F.B.G.9 9 9 9 9 9 9 9 9 9 9 9 9 a.x H.:.9 9 9 9 9 9 9 9 9 9 : c V.h h ,.<.c H.m : 9 9 9 9 9 9 9 ; n C.G.c g B.g G.a.9 9 9 9 9 9 9 9 9 9 ; n :.:.>.B.F.,.9 9 9 9 9 9 x 9 9 9 9 9 9 9 g :.9 >.:.:.c m m h :.; m z c v :.m c : 9 9 9 9 9 9 9 ",
"9 9 9 9 9 9 9 9 9 9 9 9 9 9 9 9 9 9 9 9 9 9 9 9 9 9 9 9 9 9 : ; = = * * ; m 9 9 9 9 9 9 9 9 9 v :.h n x y x h z : y m j n c h v 9 9 9 9 9 9 9 9 9 j 9 9 9 9 9 9 9 m ,.9 ,.v : 9 9 9 9 9 9 9 9 9 9 9 9 v 9 ,.c x j : 9 9 9 9 9 9 9 9 9 : m a.m <.>.c c : 9 9 9 9 9 9 9 9 9 9 9 9 c c <.g 9 v 9 9 9 9 9 9 9 9 9 9 9 9 9 c h x v 9 9 9 9 9 9 9 9 9 9 : m a.m v ,.<.m h n 9 9 9 9 9 9 9 9 9 9 9 c v j c 9 x c h 9 9 9 9 9 9 9 9 9 9 h z h <.x j v g 9 9 9 9 9 x 9 9 9 9 9 9 9 9 z 9 x z h :.1.h y x 9 y m j n c h v 9 9 9 9 9 9 9 9 ",
"9 9 9 9 9 9 9 9 9 9 9 9 9 9 9 9 9 9 9 9 9 9 9 9 9 9 9 9 9 9 : ; = = * * ; m 9 9 9 9 9 9 9 9 9 : : 9 : 9 9 : 9 9 9 9 : 9 : : 9 : 9 9 9 9 9 9 9 9 9 j 9 9 9 9 9 9 9 : ; 9 ; : 9 9 9 9 9 9 9 9 9 9 9 9 9 : 9 ; : 9 9 9 9 9 9 9 9 9 9 9 9 9 ; ; : = ; 9 : 9 9 9 9 9 9 9 9 9 9 9 9 9 : : ; 9 9 : 9 9 9 9 9 9 9 9 9 9 9 9 9 : 9 9 : 9 9 9 9 9 9 9 9 9 9 9 ; ; : : ; ; : 9 : 9 9 9 9 9 9 9 9 9 9 9 : : 9 : 9 : : 9 9 9 9 9 9 9 9 9 9 9 9 9 9 ; : 9 : 9 9 9 9 9 9 x 9 9 9 9 9 9 9 9 9 9 9 : h :.c : 9 9 9 9 : 9 : : 9 : 9 9 9 9 9 9 9 9 ",
"9 9 9 9 9 9 9 9 9 9 9 9 9 9 9 9 9 9 9 9 9 9 9 9 9 9 9 9 9 9 : ; = = * * ; m 9 9 9 9 9 9 9 9 9 9 9 9 9 9 9 9 9 9 9 9 9 9 9 9 9 9 9 9 9 9 9 9 9 9 9 j 9 9 9 9 9 9 9 9 9 9 9 9 9 9 9 9 9 9 9 9 9 9 9 9 9 9 9 9 9 9 9 9 9 9 9 9 9 9 9 9 9 9 9 9 9 9 9 9 9 9 9 9 9 9 9 9 9 9 9 9 9 9 9 9 9 9 9 9 9 9 9 9 9 9 9 9 9 9 9 9 9 9 9 9 9 9 9 9 9 9 9 9 9 9 9 9 9 9 9 9 9 9 9 9 9 9 9 9 9 9 9 9 9 9 9 9 9 9 9 9 9 9 9 9 9 9 9 9 9 9 9 9 9 9 9 9 9 9 9 9 9 9 9 9 9 9 9 x 9 9 9 9 9 9 9 9 9 9 9 9 9 9 9 9 9 9 9 9 9 9 9 9 9 9 9 9 9 9 9 9 9 9 ",
"9 9 9 9 9 9 9 9 9 9 9 9 9 9 9 9 9 9 9 9 9 9 9 9 9 9 9 9 9 9 : ; = = * * ; m 9 9 9 9 9 9 9 9 9 9 9 9 9 9 9 9 9 9 9 9 9 9 9 9 9 9 9 9 9 9 9 9 9 9 9 j 9 9 9 9 9 9 9 9 9 9 9 9 9 9 9 9 9 9 9 9 9 9 9 9 9 9 9 9 9 9 9 9 9 9 9 9 9 9 9 9 9 9 9 9 9 9 9 9 9 9 9 9 9 9 9 9 9 9 9 9 9 9 9 9 9 9 9 9 9 9 9 9 9 9 9 9 9 9 9 9 9 9 9 9 9 9 9 9 9 9 9 9 9 9 9 9 9 9 9 9 9 9 9 9 9 9 9 9 9 9 9 9 9 9 9 9 9 9 9 9 9 9 9 9 9 9 9 9 9 9 9 9 9 9 9 9 9 9 9 9 9 9 9 9 9 9 9 x 9 9 9 9 9 9 9 9 9 9 9 9 9 9 9 9 9 9 9 9 9 9 9 9 9 9 9 9 9 9 9 9 9 9 ",
"9 9 9 9 9 9 9 9 9 9 9 9 9 9 9 9 9 9 9 9 9 9 9 9 9 9 9 9 9 9 : ; = = * * ; m 9 9 9 9 9 9 9 9 9 9 9 9 9 9 9 9 9 9 9 9 9 9 9 9 9 9 9 9 9 9 9 9 9 9 9 j 9 9 9 9 9 9 9 9 9 9 9 9 9 9 9 9 9 9 9 9 9 9 9 9 9 9 9 9 9 9 9 9 9 9 9 9 9 9 9 9 9 9 9 9 9 9 9 9 9 9 9 9 9 9 9 9 9 9 9 9 9 9 9 9 9 9 9 9 9 9 9 9 9 9 9 9 9 9 9 9 9 9 9 9 9 9 9 9 9 9 9 9 9 9 9 9 9 9 9 9 9 9 9 9 9 9 9 9 9 9 9 9 9 9 9 9 9 9 9 9 9 9 9 9 9 9 9 9 9 9 9 9 9 9 9 9 9 9 9 9 9 9 9 9 9 9 9 x 9 9 9 9 9 9 9 9 9 9 9 9 9 9 9 9 9 9 9 9 9 9 9 9 9 9 9 9 9 9 9 9 9 9 ",
"9 9 9 9 9 9 9 9 9 9 9 9 9 9 9 9 9 9 9 9 9 9 9 9 9 9 9 9 9 9 : ; = = * * ; m 9 9 9 9 9 9 9 9 9 9 9 9 9 9 9 9 9 9 9 9 9 9 9 9 9 9 9 9 9 9 9 9 9 9 9 j 9 9 9 9 9 9 9 9 9 9 9 9 9 9 9 9 9 9 9 9 9 9 9 9 9 9 9 9 9 9 9 9 9 9 9 9 9 9 9 9 9 9 9 9 9 9 9 9 9 9 9 9 9 9 9 9 9 9 9 9 9 9 9 9 9 9 9 9 9 9 9 9 9 9 9 9 9 9 9 9 9 9 9 9 9 9 9 9 9 9 9 9 9 9 9 9 9 9 9 9 9 9 9 9 9 9 9 9 9 9 9 9 9 9 9 9 9 9 9 9 9 9 9 9 9 9 9 9 9 9 9 9 9 9 9 9 9 9 9 9 9 9 9 9 9 9 9 x 9 9 9 9 9 9 9 9 9 9 9 9 9 9 9 9 9 9 9 9 9 9 9 9 9 9 9 9 9 9 9 9 9 9 ",
"9 9 9 9 9 9 9 9 9 9 9 9 9 9 9 9 9 9 9 9 9 9 9 9 9 9 9 9 9 9 : ; = = * * ; m 9 9 9 9 9 9 9 9 9 9 9 9 9 9 9 9 9 9 9 9 9 9 9 9 9 9 9 9 9 9 9 9 9 9 9 j 9 9 9 9 9 9 9 9 9 9 9 9 9 9 9 9 9 9 9 9 9 9 9 9 9 9 9 9 9 9 9 9 9 9 9 9 9 9 9 9 9 9 9 9 9 9 9 9 9 9 9 9 9 9 9 9 9 9 9 9 9 9 9 9 9 9 9 9 9 9 9 9 9 9 9 9 9 9 9 9 9 9 9 9 9 9 9 9 9 9 9 9 9 9 9 9 9 9 9 9 9 9 9 9 9 9 9 9 9 9 9 9 9 9 9 9 9 9 9 9 9 9 9 9 9 9 9 9 9 9 9 9 9 9 9 9 9 9 9 9 9 9 9 9 9 9 9 x 9 9 9 9 9 9 9 9 9 9 9 9 9 9 9 9 9 9 9 9 9 9 9 9 9 9 9 9 9 9 9 9 9 9 ",
"9 9 9 9 9 9 9 9 9 9 9 9 9 9 9 9 9 9 9 9 9 9 9 9 9 9 9 9 9 9 : ; = = * * ; m 9 9 9 9 9 9 9 9 9 9 9 9 9 9 9 9 9 9 9 9 9 9 9 9 y 9 9 9 9 9 9 9 9 9 9 j 9 9 9 9 9 9 9 9 v :.x 9 9 9 9 9 9 9 9 9 9 9 9 9 9 9 x >.v 9 9 9 9 9 9 9 9 9 9 9 9 9 9 9 h :.m g 9 9 9 9 9 9 9 9 9 9 9 9 9 9 9 m :.j 9 9 9 9 9 9 9 9 9 9 9 9 9 9 9 c >.c 9 9 9 9 9 9 9 9 9 9 9 9 9 9 9 j :.n 9 9 9 9 9 9 9 9 9 9 9 9 9 9 9 g m m h 9 9 9 9 9 9 9 9 9 9 9 9 9 9 9 n :.x 9 9 9 9 9 9 9 9 x 9 9 9 9 9 9 9 y 9 9 9 9 9 9 9 9 9 9 9 9 9 9 9 9 9 9 y 9 9 9 9 9 9 9 ",
"9 9 9 9 9 9 9 9 9 9 9 9 9 9 9 9 9 9 9 9 9 9 9 9 9 9 9 9 9 9 : ; = = * * ; m 9 9 9 9 9 9 y 9 9 j h j 9 9 9 9 9 9 9 9 9 9 9 9 9 9 9 9 :.g 9 9 9 9 9 j 9 9 9 9 9 9 : x >.c >.j 9 9 9 9 9 9 9 9 9 9 9 9 9 g >.c :.n 9 9 9 9 9 9 9 9 9 9 9 9 9 9 :.n n :.9 9 9 9 9 9 9 9 9 9 9 9 9 9 v :.c ,.h 9 9 9 9 9 9 9 9 9 9 9 9 9 j >.c >.c : 9 9 9 9 9 9 9 9 9 9 9 9 9 >.v m m 9 9 9 9 9 9 9 9 9 9 9 9 9 9 m m v >.9 9 9 9 9 9 9 9 9 9 9 9 9 : c >.c ,.h 9 9 9 9 9 9 9 x 9 9 9 9 9 9 9 9 y z h h 9 9 9 9 9 9 9 9 9 9 9 9 9 9 9 j n 9 9 9 9 9 ",
"9 9 9 9 9 9 9 9 9 9 9 9 9 9 9 9 9 9 9 9 9 9 9 9 9 9 9 9 9 9 : ; = = * * ; m 9 9 9 9 9 v 1.v h 1.:.:.9 9 9 9 9 9 9 9 9 9 9 9 9 9 9 m U.a.9 9 9 9 9 j 9 9 9 9 9 9 : m n h m v : 9 9 9 9 9 9 9 9 9 9 9 : x :.j c :.9 9 9 9 9 9 9 9 9 9 9 9 9 g >.x x >.y 9 9 9 9 9 9 9 9 9 9 9 9 9 :.c j :.x : 9 9 9 9 9 9 9 9 9 9 9 : v m h n m : 9 9 9 9 9 9 9 9 9 9 9 : j :.j c >.9 9 9 9 9 9 9 9 9 9 9 9 9 9 >.x z >.h 9 9 9 9 9 9 9 9 9 9 9 9 9 m v h m c : 9 9 9 9 9 9 x 9 9 9 9 h :.>.h n :.1.z 9 9 9 9 9 9 9 9 9 9 9 9 9 9 9 C.I.c 9 9 9 9 ",
"9 9 9 9 9 9 9 9 9 9 9 9 9 9 9 9 9 9 9 9 9 9 9 9 9 9 9 9 9 9 : ; = = * * ; m 9 9 9 : h 1.9 :.:.1.1.m 9 9 9 9 9 9 9 9 9 9 9 9 9 9 9 c n n y 9 9 9 9 j 9 9 9 9 9 9 : m n j m v : 9 9 9 9 9 9 9 9 9 9 9 : x :.z v :.9 9 9 9 9 9 9 9 9 9 9 9 9 g >.x x >.y 9 9 9 9 9 9 9 9 9 9 9 9 9 :.c z :.x : 9 9 9 9 9 9 9 9 9 9 9 : v m j n n : 9 9 9 9 9 9 9 9 9 9 9 : j :.x c :.9 9 9 9 9 9 9 9 9 9 9 9 9 9 >.c x >.h 9 9 9 9 9 9 9 9 9 9 9 9 9 m v z m c : 9 9 9 9 9 9 x 9 9 9 ; m c g >.1.:.<.h 9 9 9 9 9 9 9 9 9 9 9 9 9 9 h n n c 9 9 9 9 ",
"9 9 9 9 9 9 9 9 9 9 9 9 9 9 9 9 9 9 9 9 9 9 9 9 9 9 9 9 9 9 : ; = = * * ; m 9 9 9 : h >.; m m c v x 9 9 9 9 9 9 9 9 9 9 9 9 9 9 9 :.a.>.y 9 9 9 9 j 9 9 9 9 9 9 : m n j m v : 9 9 9 9 9 9 9 9 9 9 9 : x :.z v :.9 9 9 9 9 9 9 9 9 9 9 9 9 g >.x x >.y 9 9 9 9 9 9 9 9 9 9 9 9 9 :.c z :.x : 9 9 9 9 9 9 9 9 9 9 9 : v m j n n : 9 9 9 9 9 9 9 9 9 9 9 : j :.z c :.9 9 9 9 9 9 9 9 9 9 9 9 9 9 >.c x >.h 9 9 9 9 9 9 9 9 9 9 9 9 9 m v j m c : 9 9 9 9 9 9 x 9 9 9 ; :.x 9 >.n z m 9 9 9 9 9 9 9 9 9 9 9 9 9 9 9 h <.a.v 9 9 9 9 ",
"9 9 9 9 9 9 9 9 9 9 9 9 9 9 9 9 9 9 9 9 9 9 9 9 9 9 9 9 9 9 : ; = = * * ; m 9 9 9 9 9 m :.m x v v x 9 9 9 9 9 9 9 9 9 9 9 9 9 9 9 c I.1.9 9 9 9 9 j 9 9 9 9 9 9 : m n j m v : 9 9 9 9 9 9 9 9 9 9 9 : x :.z v :.9 9 9 9 9 9 9 9 9 9 9 9 9 g >.x x >.y 9 9 9 9 9 9 9 9 9 9 9 9 9 :.c z :.x : 9 9 9 9 9 9 9 9 9 9 9 : v m j n n : 9 9 9 9 9 9 9 9 9 9 9 : j :.z c :.9 9 9 9 9 9 9 9 9 9 9 9 9 9 >.c x >.h 9 9 9 9 9 9 9 9 9 9 9 9 9 m v j m c : 9 9 9 9 9 9 x 9 9 9 9 h >.>.x v x m 9 9 9 9 9 9 9 9 9 9 9 9 9 9 9 9 a.H.h 9 9 9 9 ",
"9 9 9 9 9 9 9 9 9 9 9 9 9 9 9 9 9 9 9 9 9 9 9 9 9 9 9 9 9 9 : ; = = * * ; m 9 9 9 9 9 9 h 9 9 y y y 9 9 9 9 9 9 9 9 9 9 9 9 y 9 9 9 c y 9 9 9 9 9 j 9 9 9 9 9 9 : m n j m v : 9 9 9 9 9 9 9 9 9 9 9 : x :.z v :.9 9 9 9 9 9 9 9 9 9 9 9 9 g >.x x >.y 9 9 9 9 9 9 9 9 9 9 9 9 9 :.c z :.x : 9 9 9 9 9 9 9 9 9 9 9 : v m j n n : 9 9 9 9 9 9 9 9 9 9 9 : j :.z c :.9 9 9 9 9 9 9 9 9 9 9 9 9 9 >.c x >.h 9 9 9 9 9 9 9 9 9 9 9 9 9 m v j m c : 9 9 9 9 9 9 x 9 9 9 9 9 y h 9 y y y 9 9 9 9 9 9 9 9 9 9 9 9 9 9 9 9 h x 9 9 9 9 9 ",
"9 9 9 e 9 9 9 9 9 9 9 9 9 9 9 9 9 9 9 9 9 9 9 9 9 9 9 9 9 9 : ; = = * * ; m 9 9 9 9 9 9 9 9 9 9 9 9 9 9 9 9 9 9 9 9 9 9 9 9 9 9 9 9 9 9 9 9 9 9 9 j 9 9 9 9 9 9 : m n j m v : 9 9 9 9 9 9 9 9 9 9 9 : x :.z v :.9 9 9 9 9 9 9 9 9 9 9 9 9 g >.x x >.y 9 9 9 9 9 9 9 9 9 9 9 9 9 :.c z :.x : 9 9 9 9 9 9 9 9 9 9 9 : v m j n n : 9 9 9 9 9 9 9 9 9 9 9 : j :.z c :.9 9 9 9 9 9 9 9 9 9 9 9 9 9 >.c x >.h 9 9 9 9 9 9 9 9 9 9 9 9 9 m v j m c : 9 9 9 9 9 9 x 9 9 9 9 9 9 9 9 9 9 9 9 9 9 9 9 9 9 9 9 9 9 9 9 9 9 9 9 9 9 9 9 9 9 ",
"9 8 l J 8 9 9 9 9 9 9 9 9 9 9 9 9 9 9 9 9 9 9 9 9 9 9 9 9 9 : ; = = * * ; m 9 9 9 9 9 9 9 9 9 9 9 9 9 9 9 9 9 9 9 9 9 9 9 9 9 9 9 9 9 9 9 9 9 9 9 j 9 9 9 9 9 9 : m n j m v : 9 9 9 9 9 9 9 9 9 9 9 : x :.z v :.9 9 9 9 9 9 9 9 9 9 9 9 9 g >.x x >.y 9 9 9 9 9 9 9 9 9 9 9 9 9 :.c z :.x : 9 9 9 9 9 9 9 9 9 9 9 : v m j n n : 9 9 9 9 9 9 9 9 9 9 9 : j :.z c :.9 9 9 9 9 9 9 9 9 9 9 9 9 9 >.c x >.h 9 9 9 9 9 9 9 9 9 9 9 9 9 m v j m c : 9 9 9 9 9 9 x 9 9 9 9 9 9 9 9 9 9 9 9 9 9 9 9 9 9 9 9 9 9 9 9 9 9 9 9 9 9 9 9 9 9 ",
"9 8 l J 9 9 9 9 9 9 9 9 9 9 9 9 9 9 9 9 9 9 9 9 9 9 9 9 9 9 : ; = = * * ; m 9 9 9 9 9 9 9 9 9 9 9 9 9 9 9 9 9 9 9 9 9 9 9 9 9 9 9 9 9 9 9 9 9 9 9 j 9 9 9 9 9 9 : m n j m v : 9 9 9 9 9 9 9 9 9 9 9 : x :.z v :.9 9 9 9 9 9 9 9 9 9 9 9 9 g >.x x >.y 9 9 9 9 9 9 9 9 9 9 9 9 9 :.c z :.x : 9 9 9 9 9 9 9 9 9 9 9 : v m j n n : 9 9 9 9 9 9 9 9 9 9 9 : j :.z c :.9 9 9 9 9 9 9 9 9 9 9 9 9 9 >.c x >.h 9 9 9 9 9 9 9 9 9 9 9 9 9 m v j m c : 9 9 9 9 9 9 x 9 9 9 9 9 9 9 9 9 9 9 9 9 9 9 9 9 9 9 9 9 9 9 9 9 9 9 9 9 9 9 9 9 9 ",
"9 8 l ^.9 9 9 9 9 9 9 9 9 9 9 9 9 9 9 9 9 9 9 9 9 9 9 9 9 9 : ; = = * * ; m 9 9 9 9 9 9 9 9 9 9 9 9 9 9 9 9 9 9 9 9 9 9 9 9 9 9 9 9 9 9 9 9 9 9 9 j 9 9 9 9 9 9 : m n j m v : 9 9 9 9 9 9 9 9 9 9 9 : x :.z v :.9 9 9 9 9 9 9 9 9 9 9 9 9 g >.x x >.y 9 9 9 9 9 9 9 9 9 9 9 9 9 :.c z :.x : 9 9 9 9 9 9 9 9 9 9 9 : v m j n n : 9 9 9 9 9 9 9 9 9 9 9 : j :.z c :.9 9 9 9 9 9 9 9 9 9 9 9 9 9 >.c x >.h 9 9 9 9 9 9 9 9 9 9 9 9 9 m v j m c : 9 9 9 9 9 9 x 9 9 9 9 9 9 9 9 9 9 9 9 9 9 9 9 9 9 9 9 9 9 9 9 9 9 9 9 9 9 9 9 9 9 ",
"9 8 l /.e 9 9 9 9 9 9 9 9 9 9 9 9 9 9 9 9 9 9 9 9 9 9 9 9 9 : ; = = * * ; m 9 9 9 9 9 9 9 9 9 9 9 9 9 9 9 9 9 9 9 9 9 9 9 9 9 9 9 9 9 9 9 9 9 9 9 j 9 9 9 9 9 9 : m n j m v : 9 9 9 9 9 9 9 9 9 9 9 : x :.z v :.9 9 9 9 9 9 9 9 9 9 9 9 9 g >.x x >.y 9 9 9 9 9 9 9 9 9 9 9 9 9 :.c z :.x : 9 9 9 9 9 9 9 9 9 9 9 : v m j n n : 9 9 9 9 9 9 9 9 9 9 9 : j :.z c :.9 9 9 9 9 9 9 9 9 9 9 9 9 9 >.c x >.h 9 9 9 9 9 9 9 9 9 9 9 9 9 m v j m c : 9 9 9 9 9 9 x 9 9 9 9 9 9 9 9 9 9 9 9 9 9 9 9 9 9 9 9 9 9 9 9 9 9 9 9 9 9 9 9 9 9 ",
"9 8 l /.e 9 9 9 9 9 9 9 9 9 9 9 9 9 9 9 9 9 9 9 9 9 9 9 9 9 : ; = = * * ; m 9 9 9 9 9 9 9 9 9 9 9 9 9 9 9 9 9 9 9 9 9 9 9 9 9 9 9 9 9 9 9 9 9 9 9 j 9 9 9 9 9 9 : m n j m v : 9 9 9 9 9 9 9 9 9 9 9 : x :.z v :.9 9 9 9 9 9 9 9 9 9 9 9 9 g >.x x >.y 9 9 9 9 9 9 9 9 9 9 9 9 9 :.c z :.x : 9 9 9 9 9 9 9 9 9 9 9 : v m j n n : 9 9 9 9 9 9 9 9 9 9 9 : j :.z c :.9 9 9 9 9 9 9 9 9 9 9 9 9 9 >.c x >.h 9 9 9 9 9 9 9 9 9 9 9 9 9 m v j m c : 9 9 9 9 9 9 x 9 9 9 9 9 9 9 9 9 9 9 9 9 9 9 9 9 9 9 9 9 9 9 9 9 9 9 9 9 9 9 9 9 9 ",
"9 8 S (.k 9 9 9 9 9 9 9 9 9 9 9 9 9 9 9 9 9 9 9 9 9 9 9 9 9 : ; = = * * ; m 9 9 9 9 9 9 9 9 9 9 9 9 9 9 9 9 9 9 9 9 9 9 9 9 9 9 9 9 9 9 9 9 9 9 9 j 9 9 9 9 9 9 : m n j m v : 9 9 9 9 9 9 9 9 9 9 9 : x :.z v :.9 9 9 9 9 9 9 9 9 9 9 9 9 g >.x x >.y 9 9 9 9 9 9 9 9 9 9 9 9 9 :.c z :.x : 9 9 9 9 9 9 9 9 9 9 9 : v m j n n : 9 9 9 9 9 9 9 9 9 9 9 : j :.z c :.9 9 9 9 9 9 9 9 9 9 9 9 9 9 >.c x >.h 9 9 9 9 9 9 9 9 9 9 9 9 9 m v j m c : 9 9 9 9 9 9 x 9 9 9 9 9 9 9 9 9 9 9 9 9 9 9 9 9 9 9 9 9 9 9 9 9 9 9 9 9 9 9 9 9 9 ",
"9 8 S (.k 9 9 9 9 9 9 9 9 9 9 9 9 9 9 9 9 9 9 9 9 9 9 9 9 9 : ; = = * * ; m 9 9 9 9 9 9 9 9 9 9 9 9 9 9 9 9 9 9 9 9 9 9 9 9 9 9 9 9 9 9 9 9 9 9 9 j 9 9 9 9 9 9 : m n j m v : 9 9 9 9 9 9 9 9 9 9 9 : x :.z v :.9 9 9 9 9 9 9 9 9 9 9 9 9 g >.x x >.y 9 9 9 9 9 9 9 9 9 9 9 9 9 :.c z :.x : 9 9 9 9 9 9 9 9 9 9 9 : v m j n n : 9 9 9 9 9 9 9 9 9 9 9 : j :.z c :.9 9 9 9 9 9 9 9 9 9 9 9 9 9 >.c x >.h 9 9 9 9 9 9 9 9 9 9 9 9 9 m v j m c : 9 9 9 9 9 9 x 9 9 9 9 9 9 9 9 9 9 9 9 9 9 9 9 9 9 9 9 9 9 9 9 9 9 9 9 9 9 9 9 9 9 ",
"9 8 S (.l 9 9 9 9 9 9 9 9 9 9 9 9 9 9 9 9 9 9 9 9 9 9 9 9 9 : ; = = * * ; m 9 9 9 9 9 9 9 9 9 9 9 9 9 9 9 9 9 9 9 9 9 9 9 9 9 9 9 9 9 9 9 9 9 9 9 j 9 9 9 9 9 9 : m n j m v : 9 9 9 9 9 9 9 9 9 9 9 : x :.z v :.9 9 9 9 9 9 9 9 9 9 9 9 9 g >.x x >.y 9 9 9 9 9 9 9 9 9 9 9 9 9 :.c z :.x : 9 9 9 9 9 9 9 9 9 9 9 : v m j n n : 9 9 9 9 9 9 9 9 9 9 9 : j :.z c :.9 9 9 9 9 9 9 9 9 9 9 9 9 9 >.c x >.h 9 9 9 9 9 9 9 9 9 9 9 9 9 m v j m c : 9 9 9 9 9 9 x 9 9 9 9 9 9 9 9 9 9 9 9 9 9 9 9 9 9 9 9 9 9 9 9 9 9 9 9 9 9 9 9 9 9 ",
"e 8 S (.l 9 9 9 9 9 9 9 9 9 9 9 9 9 9 9 9 9 9 9 9 9 9 9 9 9 : ; = = * * ; m 9 9 9 9 9 9 9 9 9 9 9 9 9 9 9 9 9 9 9 9 9 9 9 9 9 9 9 9 9 9 9 9 9 9 9 j 9 9 9 9 9 9 : m n j m v : 9 9 9 9 9 9 9 9 9 9 9 : x :.z v :.9 9 9 9 9 9 9 9 9 9 9 9 9 g >.x x >.y 9 9 9 9 9 9 9 9 9 9 9 9 9 :.c z :.x : 9 9 9 9 9 9 9 9 9 9 9 : v m j n n : 9 9 9 9 9 9 9 9 9 9 9 : j :.z c :.9 9 9 9 9 9 9 9 9 9 9 9 9 9 >.c x >.h 9 9 9 9 9 9 9 9 9 9 9 9 9 m v j m c : 9 9 9 9 9 9 x 9 9 9 9 9 9 9 9 9 9 9 9 9 9 9 9 9 9 9 9 9 9 9 9 9 9 9 9 9 9 9 9 9 9 ",
"9 8 S (.l 8 9 9 9 9 9 9 9 9 9 9 9 9 9 9 9 9 9 9 9 9 9 9 9 9 : ; = = * * ; m 9 9 9 9 9 9 9 9 9 9 9 9 9 9 9 9 9 9 9 9 9 9 9 9 9 9 9 9 9 9 9 9 9 9 9 j 9 9 9 9 9 9 : m ,.:.<.c : 9 9 9 9 9 9 9 9 9 9 9 : x <.:.,.:.9 9 9 9 9 9 9 9 9 9 9 9 9 y ,.>.>.,.y 9 9 9 9 9 9 9 9 9 9 9 9 9 :.>.:.<.z : 9 9 9 9 9 9 9 9 9 9 9 : v ,.:.,.n : 9 9 9 9 9 9 9 9 9 9 9 9 h <.:.>.>.9 9 9 9 9 9 9 9 9 9 9 9 9 9 ,.>.:.,.h 9 9 9 9 9 9 9 9 9 9 9 9 9 m ,.:.<.c : 9 9 9 9 9 9 x 9 9 9 9 9 9 9 9 9 9 9 9 9 9 9 9 9 9 9 9 9 9 9 9 9 9 9 9 9 9 9 9 9 9 ",
"S e S (.l 8 e 9 9 9 9 9 9 9 9 9 9 9 9 9 9 9 9 9 9 9 9 9 9 9 : = = = * * ; m 9 9 9 9 9 9 9 9 9 9 9 9 9 9 9 9 9 9 9 9 9 9 9 9 9 9 9 9 9 9 9 9 9 9 9 j 9 9 9 9 9 9 : m x 9 c v : 9 9 9 9 9 9 9 9 9 9 9 : c m 9 h :.9 9 9 9 9 9 9 9 9 9 9 9 9 g :.9 9 :.g 9 9 9 9 9 9 9 9 9 9 9 9 9 :.h 9 m x : 9 9 9 9 9 9 9 9 9 9 9 : n c 9 x m : 9 9 9 9 9 9 9 9 9 9 9 : j m 9 h :.9 9 9 9 9 9 9 9 9 9 9 9 9 9 :.y 9 m h 9 9 9 9 9 9 9 9 9 9 9 9 9 m z 9 v c : 9 9 9 9 9 9 x 9 9 9 9 9 9 9 9 9 9 9 9 9 9 9 9 9 9 9 9 9 9 9 9 9 9 9 9 9 9 9 9 9 9 ",
"J S S (.S 8 8 g 9 9 9 9 9 9 9 9 9 9 9 9 9 9 9 9 9 9 9 9 9 8 = < < = = * ; m 9 9 9 9 9 9 9 9 9 9 9 9 9 9 9 9 ; : ; 9 9 9 9 9 9 9 9 9 9 9 9 9 9 9 9 j 9 9 9 9 9 9 : m h = x v : 9 9 9 9 9 9 9 9 9 9 9 : c c ; y m 9 9 9 9 9 9 9 9 9 9 9 9 9 g m : 9 m g 9 9 9 9 9 9 9 9 9 9 9 9 9 m 9 ; v x : 9 9 9 9 9 9 9 9 9 9 9 : n x = h m : 9 9 9 9 9 9 9 9 9 9 9 : j n ; 9 :.9 9 9 9 9 9 9 9 9 9 9 9 9 9 m 9 : m h 9 9 9 9 9 9 9 9 9 9 9 9 9 m h = c c : 9 9 9 9 9 9 x 9 9 9 9 9 9 9 9 9 9 9 9 9 9 9 : = ; = 9 9 9 9 9 9 9 9 9 9 9 9 9 9 9 ",
"J S S (.S k l H G 8 9 9 9 9 9 9 9 9 9 9 9 9 9 9 9 9 9 9 9 e t S S & = * ; m 9 9 9 9 9 9 9 9 9 9 9 9 9 9 9 g m c m j 9 9 9 9 9 9 9 9 9 9 9 9 9 9 9 j 9 9 9 9 9 9 : m h ; x v : 9 9 9 9 9 9 9 9 9 9 9 : c v ; g m 9 9 9 9 9 9 9 9 9 9 9 9 9 g m 9 9 m g 9 9 9 9 9 9 9 9 9 9 9 9 9 m y ; v x : 9 9 9 9 9 9 9 9 9 9 9 : n x ; j m : 9 9 9 9 9 9 9 9 9 9 9 : j n : 9 :.9 9 9 9 9 9 9 9 9 9 9 9 9 9 :.9 : m h 9 9 9 9 9 9 9 9 9 9 9 9 9 m h ; c c : 9 9 9 9 9 9 x 9 9 9 9 9 9 9 9 9 9 9 9 9 9 9 v ,.:.,.h 9 9 9 9 9 9 9 9 9 9 9 9 9 9 ",
"J G S (.S S /.J (.k l S 8 9 9 9 9 9 9 9 9 9 9 9 9 9 9 9 8 l H D D & = * ; m 9 9 9 9 9 9 9 9 9 9 9 9 9 j C.B.J.B.J.V.Z.c 9 9 9 9 9 9 9 9 9 9 9 9 9 j 9 9 9 9 9 9 : m j ; x v : 9 9 9 9 9 9 9 9 9 9 9 : c v ; g m 9 9 9 9 9 9 9 9 9 9 9 9 9 g m 9 9 m g 9 9 9 9 9 9 9 9 9 9 9 9 9 :.g ; v x : 9 9 9 9 9 9 9 9 9 9 9 : n x ; j m : 9 9 9 9 9 9 9 9 9 9 9 : j m ; 9 :.9 9 9 9 9 9 9 9 9 9 9 9 9 9 :.9 : m h 9 9 9 9 9 9 9 9 9 9 9 9 9 m h ; c c : 9 9 9 9 9 9 x 9 9 9 9 9 9 9 9 9 9 9 9 9 B.Y.U.pXK.aXK.J.h 9 9 9 9 9 9 9 9 9 9 9 9 ",
"^.G S (.S S (./.(.l S J 8 e 9 9 9 9 9 9 9 9 9 9 9 9 9 9 8 l H D H * * * ; m 9 9 9 9 9 9 9 9 9 9 9 ; a.V.V.G.B.m a.S.S.M.C.9 : 9 9 9 9 9 9 9 9 9 9 j 9 9 9 9 9 9 : m >.m ,.v : 9 9 9 9 9 9 9 9 9 9 9 : x ,.m >.:.9 9 9 9 9 9 9 9 9 9 9 9 9 y ,.m m ,.y 9 9 9 9 9 9 9 9 9 9 9 9 9 :.>.m ,.x : 9 9 9 9 9 9 9 9 9 9 9 : v ,.m >.n : 9 9 9 9 9 9 9 9 9 9 9 9 h ,.m :.>.9 9 9 9 9 9 9 9 9 9 9 9 9 9 ,.:.m ,.h 9 9 9 9 9 9 9 9 9 9 9 9 9 m >.m ,.c : 9 9 9 9 9 9 x 9 9 9 9 9 9 9 9 9 9 ; x T.G.uXT.C.a.K.pXJ.U.V.= 9 9 9 9 9 9 9 9 9 9 ",
"^.J G /.^.^.(.^.^.S G ^.8 8 9 9 9 9 9 9 9 9 8 9 9 8 9 9 8 S J H H - = % = m 9 9 9 9 9 9 9 9 9 9 y Z.Z.G.c 9 @ O O ; h Z.G.a.h 9 9 9 9 9 9 9 9 9 9 j 9 9 9 9 9 9 : m z 9 c v : 9 9 9 9 9 9 9 9 9 9 9 : c v 9 h m 9 9 9 9 9 9 9 9 9 9 9 9 9 g m 9 9 :.g 9 9 9 9 9 9 9 9 9 9 9 9 9 :.h 9 n x : 9 9 9 9 9 9 9 9 9 9 9 : n c 9 x m : 9 9 9 9 9 9 9 9 9 9 9 : j m 9 g :.9 9 9 9 9 9 9 9 9 9 9 9 9 9 :.9 9 m h 9 9 9 9 9 9 9 9 9 9 9 9 9 m h 9 c c : 9 9 9 9 9 9 x 9 9 9 9 9 9 9 9 9 ; m F.uXJ.h = O O @ 9 <.aXU.M.9 9 9 9 9 9 9 9 9 9 ",
"J /./.J (.(./.^.J ^./.J l S G S 8 e l 8 8 l S 8 9 G l G r S ^.K H D 1 < t n 9 9 9 9 9 9 9 9 9 : n uXuXc O O = : = O X 9 Z.H.m : 9 9 9 9 9 9 9 9 9 j 9 9 9 9 9 9 : m h = x v : 9 9 9 9 9 9 9 9 9 9 9 : c v ; y m 9 9 9 9 9 9 9 9 9 9 9 9 9 g m : 9 m g 9 9 9 9 9 9 9 9 9 9 9 9 9 m y ; v x : 9 9 9 9 9 9 9 9 9 9 9 : n x = h m : 9 9 9 9 9 9 9 9 9 9 9 : j n ; 9 :.9 9 9 9 9 9 9 9 9 9 9 9 9 9 :.9 : m h 9 9 9 9 9 9 9 9 9 9 9 9 9 m h = c c : 9 9 9 9 9 9 x 9 9 9 9 9 9 9 9 9 9 Z.aXJ.: . @ ; : * X @ <.T.Z.h 9 9 9 9 9 9 9 9 9 ",
"^.^./.H ^.J J J H ^.J ^./.(.(.(.J K /.l S J (.H K (./.(.H D J K L D D L D m 9 9 9 9 9 9 9 9 9 h Y.G.m . . g m m :.v ; . h ,.Z.c : 9 9 9 9 9 9 9 9 j 9 9 9 9 9 9 : m h ; x v : 9 9 9 9 9 9 9 9 9 9 9 : c v ; g m 9 9 9 9 9 9 9 9 9 9 9 9 9 g m 9 9 m g 9 9 9 9 9 9 9 9 9 9 9 9 9 :.y ; v x : 9 9 9 9 9 9 9 9 9 9 9 : n x ; j m : 9 9 9 9 9 9 9 9 9 9 9 : j n : 9 :.9 9 9 9 9 9 9 9 9 9 9 9 9 9 :.9 : m h 9 9 9 9 9 9 9 9 9 9 9 9 9 m h ; c c : 9 9 9 9 9 9 x 9 9 9 9 9 9 9 9 = a.T.V.9 + : c m :.m j . O m M.B.9 9 9 9 9 9 9 9 9 ",
"F F F F F F F F q.F F q.q.q.0.0.0.0.0.0.w.0.0.w.w.F 0.0.F F F F c l l t l m 9 9 9 9 9 9 9 9 : x T.R.* O 9 9 v :.:.,.m * O M.H.v : 9 9 9 9 9 9 9 9 j 9 9 9 9 9 9 : m h ; x v : 9 9 9 9 9 9 9 9 9 9 9 : c v ; g m 9 9 9 9 9 9 9 9 9 9 9 9 9 g m 9 9 m g 9 9 9 9 9 9 9 9 9 9 9 9 9 :.y ; v x : 9 9 9 9 9 9 9 9 9 9 9 : n x ; j m : 9 9 9 9 9 9 9 9 9 9 9 : j n ; 9 :.9 9 9 9 9 9 9 9 9 9 9 9 9 9 :.9 : m h 9 9 9 9 9 9 9 9 9 9 9 9 9 m h ; c c : 9 9 9 9 9 9 x 9 9 9 9 9 9 9 9 9 a.aXB.. = c m m :.:.g = X 9 G.V.y 9 9 9 9 9 9 9 9 ",
"k.g.5Xk.8.k.8.8.8.8.8.8.7.k.:Xh.h.g.2Xg.2X2X2X2X2X2X5X2X>X:X:X4.-.3.-.&.&.m 9 9 9 9 9 9 9 9 ; C.aXZ.. = v h 9 n :.:.>.h X v J.M.9 9 9 9 9 9 9 9 9 j 9 9 9 9 9 9 : m h ; x v : 9 9 9 9 9 9 9 9 9 9 9 : c v ; g m 9 9 9 9 9 9 9 9 9 9 9 9 9 g m 9 9 m g 9 9 9 9 9 9 9 9 9 9 9 9 9 :.y ; v x : 9 9 9 9 9 9 9 9 9 9 9 : n x ; j m : 9 9 9 9 9 9 9 9 9 9 9 : j n ; 9 :.9 9 9 9 9 9 9 9 9 9 9 9 9 9 :.9 : m h 9 9 9 9 9 9 9 9 9 9 9 9 9 m h ; c c : 9 9 9 9 9 9 x 9 9 9 9 9 9 9 9 h Y.pXx . h n n m n 9 h m = @ V.G.v : 9 9 9 9 9 9 9 ",
"4X3XeX3X,X4X7.7.>X7.7.,X1X,XrX1XeX1X2X3Xh.4X:XrX3.<Xh.h.g.h.a 8 &.3.6.6.-.m 9 9 9 9 9 9 9 9 ; M.K.m . 9 v v x n m m :.x X g B.<.9 9 9 9 9 9 9 9 9 j 9 9 9 9 9 9 : m h ; x v : 9 9 9 9 9 9 9 9 9 9 9 : c v ; g m 9 9 9 9 9 9 9 9 9 9 9 9 9 g m 9 9 m g 9 9 9 9 9 9 9 9 9 9 9 9 9 :.y ; v x : 9 9 9 9 9 9 9 9 9 9 9 : n x ; j m : 9 9 9 9 9 9 9 9 9 9 9 : j n ; 9 :.9 9 9 9 9 9 9 9 9 9 9 9 9 9 :.9 : m h 9 9 9 9 9 9 9 9 9 9 9 9 9 m h ; c c : 9 9 9 9 9 9 x 9 9 9 9 9 9 9 9 h G.G.: O j v v m n x :.:.: O m V.v : 9 9 9 9 9 9 9 ",
"eXeX2X3X1X4Xk.,XeXk.4X4X3X1X2X4XeX1Xg.eXa g.4.:X- g.&.- -.4.> > &.6.;.6.&.m 9 9 9 9 9 9 9 9 ; Z.uX,.. : c v n m m m m j X h S.B.9 9 9 9 9 9 9 9 9 j 9 9 9 9 9 9 : m h ; x v : 9 9 9 9 9 9 9 9 9 9 9 : c v ; g m 9 9 9 9 9 9 9 9 9 9 9 9 9 g m 9 9 m g 9 9 9 9 9 9 9 9 9 9 9 9 9 :.y ; v x : 9 9 9 9 9 9 9 9 9 9 9 : n x ; j m : 9 9 9 9 9 9 9 9 9 9 9 : j n ; 9 :.9 9 9 9 9 9 9 9 9 9 9 9 9 9 :.9 : m h 9 9 9 9 9 9 9 9 9 9 9 9 9 m h ; c c : 9 9 9 9 9 9 x 9 9 9 9 9 9 9 9 h T.Y.9 O h v v n m m m m ; O ,.G.m ; 9 9 9 9 9 9 9 ",
"3X3Xg.3XeX4X1X3XeX1X3X4XrXeX:X3XeX2X3.>X0 u u a 9 u 9 9 u u : = 0 &.;.&.8 m 9 9 9 9 9 9 9 9 : ,.R.G.O * x c v v n m m 9 . >.G.,.9 9 9 9 9 9 9 9 9 j 9 9 9 9 9 9 : m h ; x v : 9 9 9 9 9 9 9 9 9 9 9 : c v ; g m 9 9 9 9 9 9 9 9 9 9 9 9 9 g m 9 9 m g 9 9 9 9 9 9 9 9 9 9 9 9 9 :.y ; v x : 9 9 9 9 9 9 9 9 9 9 9 : n x ; j m : 9 9 9 9 9 9 9 9 9 9 9 : j n ; 9 :.9 9 9 9 9 9 9 9 9 9 9 9 9 9 :.9 : m h 9 9 9 9 9 9 9 9 9 9 9 9 9 m h ; c c : 9 9 9 9 9 9 x 9 9 9 9 9 9 9 9 y G.uXn . 9 c c v n n m c @ * Z.Z.c : 9 9 9 9 9 9 9 ",
"2X3X-.g.rX1X4XeX>XrX2X3X<X2Xh.eX>XeXa 9 9 9 9 9 9 9 9 9 9 : : ; = * ;.f > :.9 9 9 9 9 9 9 9 : j uXY.; . 9 c v v n n h O @ a.J.v ; 9 9 9 9 9 9 9 9 j 9 9 9 9 9 9 : m h ; x v : 9 9 9 9 9 9 9 9 9 9 9 : c v ; g m 9 9 9 9 9 9 9 9 9 9 9 9 9 g m 9 9 m g 9 9 9 9 9 9 9 9 9 9 9 9 9 :.y ; v x : 9 9 9 9 9 9 9 9 9 9 9 : n x ; j m : 9 9 9 9 9 9 9 9 9 9 9 : j n ; 9 :.9 9 9 9 9 9 9 9 9 9 9 9 9 9 :.9 : m h 9 9 9 9 9 9 9 9 9 9 9 9 9 m h ; c c : 9 9 9 9 9 9 x 9 9 9 9 9 9 9 9 = B.sXM.. @ h c v v n v : . y G.Z.9 9 9 9 9 9 9 9 9 ",
">X3X&.3.rX<X3XeXh.rX>XeX3.:Xh.3Xh.eXi 9 9 9 9 9 9 9 9 9 9 9 : ; ; * &.f = m 9 9 9 9 9 9 9 9 9 9 Z.H.Z.@ . = g j h 9 O X m M.a.h 9 9 9 9 9 9 9 9 9 j 9 9 9 9 9 9 : m h ; x v : 9 9 9 9 9 9 9 9 9 9 9 : c v ; g m 9 9 9 9 9 9 9 9 9 9 9 9 9 g m 9 9 m g 9 9 9 9 9 9 9 9 9 9 9 9 9 :.y ; v x : 9 9 9 9 9 9 9 9 9 9 9 : n x ; j m : 9 9 9 9 9 9 9 9 9 9 9 : j n ; 9 :.9 9 9 9 9 9 9 9 9 9 9 9 9 9 :.9 : m h 9 9 9 9 9 9 9 9 9 9 9 9 9 m h ; c c : 9 9 9 9 9 9 x 9 9 9 9 9 9 9 9 : n G.J.m + @ 9 h j h = . ; M.a.>.9 9 9 9 9 9 9 9 9 ",
">X4X&.3.rX<X3XrX&.>X>XeX-.-.4.3X3.3Xi 9 9 9 9 9 9 9 9 9 9 9 : ; = = = * ; m 9 9 9 9 9 9 9 9 9 ; x pXuXZ.; O X O O X * m S.J.v ; 9 9 9 9 9 9 9 9 9 j 9 9 9 9 9 9 : m h ; x v : 9 9 9 9 9 9 9 9 9 9 9 : c v ; g m 9 9 9 9 9 9 9 9 9 9 9 9 9 g m 9 9 m g 9 9 9 9 9 9 9 9 9 9 9 9 9 :.y ; v x : 9 9 9 9 9 9 9 9 9 9 9 : n x ; j m : 9 9 9 9 9 9 9 9 9 9 9 : j n ; 9 :.9 9 9 9 9 9 9 9 9 9 9 9 9 9 :.9 : m h 9 9 9 9 9 9 9 9 9 9 9 9 9 m h ; c c : 9 9 9 9 9 9 x 9 9 9 9 9 9 9 9 9 = C.aXY.m @ X O O O O 9 B.G.Z.9 9 9 9 9 9 9 9 9 9 ",
":X<X&.3.eX<X3XrXa g.:X3X-.> &.2X-.2Xu 9 9 9 9 9 9 9 9 9 9 9 : ; = = * * ; m 9 9 9 9 9 9 9 9 9 9 9 m Y.aXx 9 ; = ; 9 9 Z.G.c 9 9 9 9 9 9 9 9 9 9 9 j 9 9 9 9 9 9 : m h ; x v : 9 9 9 9 9 9 9 9 9 9 9 : c v ; g m 9 9 9 9 9 9 9 9 9 9 9 9 9 g m 9 9 m g 9 9 9 9 9 9 9 9 9 9 9 9 9 :.y ; v x : 9 9 9 9 9 9 9 9 9 9 9 : n x ; j m : 9 9 9 9 9 9 9 9 9 9 9 : j n ; 9 :.9 9 9 9 9 9 9 9 9 9 9 9 9 9 :.9 : m h 9 9 9 9 9 9 9 9 9 9 9 9 9 m h ; c c : 9 9 9 9 9 9 x 9 9 9 9 9 9 9 9 9 9 g B.aXH.: 9 = = : 9 c K.a.h 9 9 9 9 9 9 9 9 9 9 ",
"g.>X&.3.3X<XeXrXa g.g.3X-.> &.<X&.<Xu 9 9 9 9 9 9 9 9 9 9 9 : ; = = = * ; m 9 9 9 9 9 9 9 9 9 9 9 = a.B.; 9 9 9 9 9 ; c <.9 9 9 9 9 9 9 9 9 9 9 9 j 9 9 9 9 9 9 : m h ; x v : 9 9 9 9 9 9 9 9 9 9 9 : c v ; g m 9 9 9 9 9 9 9 9 9 9 9 9 9 g m 9 9 m g 9 9 9 9 9 9 9 9 9 9 9 9 9 :.y ; v x : 9 9 9 9 9 9 9 9 9 9 9 : n x ; j m : 9 9 9 9 9 9 9 9 9 9 9 : j n ; 9 :.9 9 9 9 9 9 9 9 9 9 9 9 9 9 :.9 : m h 9 9 9 9 9 9 9 9 9 9 9 9 9 m h ; c c : 9 9 9 9 9 9 x 9 9 9 9 9 9 9 9 9 9 : y S.c ; 9 9 9 9 9 9 <.c ; 9 9 9 9 9 9 9 9 9 9 ",
"g.>Xa 3.3X<XeXeXa g.g.2X-.> &.>X&.<X0 9 9 9 9 9 9 9 9 9 9 9 : ; = = * * ; m 9 9 9 9 9 9 9 9 9 9 9 9 ; : 9 9 9 9 9 9 9 9 : 9 9 9 9 9 9 9 9 9 9 9 9 j 9 9 9 9 9 9 : m h ; x v : 9 9 9 9 9 9 9 9 9 9 9 : c v ; g m 9 9 9 9 9 9 9 9 9 9 9 9 9 g m 9 9 m g 9 9 9 9 9 9 9 9 9 9 9 9 9 m y ; v x : 9 9 9 9 9 9 9 9 9 9 9 : n x ; j m : 9 9 9 9 9 9 9 9 9 9 9 : j n : 9 :.9 9 9 9 9 9 9 9 9 9 9 9 9 9 :.9 : m h 9 9 9 9 9 9 9 9 9 9 9 9 9 m h ; c c : 9 9 9 9 9 9 x 9 9 9 9 9 9 9 9 9 9 9 9 ; 9 9 9 9 9 9 9 9 : 9 9 9 9 9 9 9 9 9 9 9 9 ",
"h.:Xa 3.3X<XeXeXu h.3.<X&.> &.>Xu 3.9 9 9 9 9 9 9 9 9 9 9 9 : ; = = * * ; m 9 9 9 9 9 9 9 9 9 9 9 9 9 9 9 9 9 9 9 9 9 9 9 9 9 9 9 9 9 9 9 9 9 9 9 j 9 9 9 9 9 9 : m h ; x v : 9 9 9 9 9 9 9 9 9 9 9 : c c ; y m 9 9 9 9 9 9 9 9 9 9 9 9 9 g m 9 9 m g 9 9 9 9 9 9 9 9 9 9 9 9 9 :.9 ; v c : 9 9 9 9 9 9 9 9 9 9 9 : n x ; h m : 9 9 9 9 9 9 9 9 9 9 9 : x n ; 9 :.9 9 9 9 9 9 9 9 9 9 9 9 9 9 :.9 : m h 9 9 9 9 9 9 9 9 9 9 9 9 9 m h ; c c : 9 9 9 9 9 9 x 9 9 9 9 9 9 9 9 9 9 9 9 9 9 9 9 9 9 9 9 9 9 9 9 9 9 9 9 9 9 9 9 9 9 ",
"3.:Xi 4.2X<X3X3Xu h.3.>X&.- a -.9 9 9 9 9 9 9 9 9 9 9 9 9 9 : ; = = * * ; m 9 9 9 9 9 9 9 9 9 9 9 9 9 9 9 9 9 9 9 9 9 9 9 9 9 9 9 9 9 9 9 9 9 9 9 j 9 9 9 9 9 9 : v v : m x : 9 9 9 9 9 9 9 9 9 9 9 9 h :.9 x m 9 9 9 9 9 9 9 9 9 9 9 9 9 9 :.y g :.9 9 9 9 9 9 9 9 9 9 9 9 9 9 m x 9 :.h 9 9 9 9 9 9 9 9 9 9 9 9 : c m : v c : 9 9 9 9 9 9 9 9 9 9 9 9 h :.9 j m 9 9 9 9 9 9 9 9 9 9 9 9 9 9 :.h 9 :.y 9 9 9 9 9 9 9 9 9 9 9 9 : n c : m z : 9 9 9 9 9 9 x 9 9 9 9 9 9 9 9 9 9 9 9 9 9 9 9 9 9 9 9 9 9 9 9 9 9 9 9 9 9 9 9 9 9 ",
"3.u 9 3.>X2X3X2X0 h.3.:X&.9 9 9 9 9 9 9 9 9 9 9 9 9 9 9 9 9 : ; = = * * ; m 9 9 9 9 9 9 9 9 9 9 9 9 9 9 9 9 9 9 9 9 9 9 9 9 9 9 9 9 9 9 9 9 9 9 9 j 9 9 9 9 9 9 9 9 n :.n 9 9 9 9 9 9 9 9 9 9 9 9 9 9 9 c :.m g 9 9 9 9 9 9 9 9 9 9 9 9 9 9 j m :.j 9 9 9 9 9 9 9 9 9 9 9 9 9 9 g m :.c 9 9 9 9 9 9 9 9 9 9 9 9 9 9 9 v :.m 9 9 9 9 9 9 9 9 9 9 9 9 9 9 9 c :.:.h 9 9 9 9 9 9 9 9 9 9 9 9 9 9 h m :.x 9 9 9 9 9 9 9 9 9 9 9 9 9 9 9 m :.v 9 9 9 9 9 9 9 9 x 9 9 9 9 9 9 9 9 9 9 9 9 9 9 9 9 9 9 9 9 9 9 9 9 9 9 9 9 9 9 9 9 9 9 ",
"3.> : 3.>X2X2X<Xy -.&.:Xa 9 9 9 9 9 9 9 9 9 9 9 9 9 9 9 9 9 : ; = = * * ; m 9 9 9 9 9 9 9 9 9 9 9 9 9 9 9 9 9 9 9 9 9 9 9 9 9 9 9 9 9 9 9 9 9 9 9 j 9 9 9 9 9 9 9 9 9 9 9 9 9 9 9 9 9 9 9 9 9 9 9 9 9 9 9 9 9 9 9 9 9 9 9 9 9 9 9 9 9 9 9 9 9 9 9 9 9 9 9 9 9 9 9 9 9 9 9 9 9 9 9 9 9 9 9 9 9 9 9 9 9 9 9 9 9 9 9 9 9 9 9 9 9 9 9 9 9 9 9 9 9 9 9 9 9 9 9 9 9 9 9 9 9 9 9 9 9 9 9 9 9 9 9 9 9 9 9 9 9 9 9 9 9 9 9 9 9 9 9 9 9 9 9 9 9 9 9 9 9 9 9 9 9 9 9 x 9 9 9 9 9 9 9 9 9 9 9 9 9 9 9 9 9 9 9 9 9 9 9 9 9 9 9 9 9 9 9 9 9 9 ",
"4.: : 4.>X2X>X>Xu 9 9 <Xa 9 9 9 9 9 9 9 9 9 9 9 9 9 9 9 9 9 : ; = = * * ; m 9 9 9 9 9 9 9 9 9 9 9 9 9 9 9 9 9 9 9 9 9 9 9 9 9 9 9 9 9 9 9 9 9 9 9 j 9 9 9 9 9 9 9 9 9 9 9 9 9 9 9 9 9 9 9 9 9 9 9 9 9 9 9 9 9 9 9 9 9 9 9 9 9 9 9 9 9 9 9 9 9 9 9 9 9 9 9 9 9 9 9 9 9 9 9 9 9 9 9 9 9 9 9 9 9 9 9 9 9 9 9 9 9 9 9 9 9 9 9 9 9 9 9 9 9 9 9 9 9 9 9 9 9 9 9 9 9 9 9 9 9 9 9 9 9 9 9 9 9 9 9 9 9 9 9 9 9 9 9 9 9 9 9 9 9 9 9 9 9 9 9 9 9 9 9 9 9 9 9 9 9 9 9 x 9 9 9 9 9 9 9 9 9 9 9 9 9 9 9 9 9 9 9 9 9 9 9 9 9 9 9 9 9 9 9 9 9 9 ",
"4.- : 4.:X2X:X:Xu 9 9 -.u 9 9 9 9 9 9 9 9 9 9 9 9 9 9 9 9 9 : ; = = * * ; m 9 9 9 9 9 9 9 9 9 9 9 9 9 9 9 9 9 9 9 9 9 9 9 9 9 9 9 9 9 9 9 9 9 9 9 j 9 9 9 9 9 9 9 9 9 9 9 9 9 9 9 9 9 9 9 9 9 9 9 9 9 9 9 9 9 9 9 9 9 9 9 9 9 9 9 9 9 9 9 9 9 9 9 9 9 9 9 9 9 9 9 9 9 9 9 9 9 9 9 9 9 9 9 9 9 9 9 9 9 9 9 9 9 9 9 9 9 9 9 9 9 9 9 9 9 9 9 9 9 9 9 9 9 9 9 9 9 9 9 9 9 9 9 9 9 9 9 9 9 9 9 9 9 9 9 9 9 9 9 9 9 9 9 9 9 9 9 9 9 9 9 9 9 9 9 9 9 9 9 9 9 9 9 x 9 9 9 9 9 9 9 9 9 9 9 9 9 9 9 9 9 9 9 9 9 9 9 9 9 9 9 9 9 9 9 9 9 9 ",
"&.9 : 4.:X2X:X:Xu 9 9 : 9 9 9 9 9 9 9 9 9 9 9 9 9 9 9 9 9 9 : ; = = * * ; m 9 9 9 9 9 9 9 9 9 9 9 9 9 9 9 9 9 9 9 9 9 9 9 9 9 9 9 9 9 9 9 9 9 9 9 j 9 9 9 9 9 9 9 9 9 9 9 9 9 9 9 9 9 9 9 9 9 9 9 9 9 9 9 9 9 9 9 9 9 9 9 9 9 9 9 9 9 9 9 9 9 9 9 9 9 9 9 9 9 9 9 9 9 9 9 9 9 9 9 9 9 9 9 9 9 9 9 9 9 9 9 9 9 9 9 9 9 9 9 9 9 9 9 9 9 9 9 9 9 9 9 9 9 9 9 9 9 9 9 9 9 9 9 9 9 9 9 9 9 9 9 9 9 9 9 9 9 9 9 9 9 9 9 9 9 9 9 9 9 9 9 9 9 9 9 9 9 9 9 9 9 9 9 x 9 9 9 9 9 9 9 9 9 9 9 9 9 9 9 9 9 9 9 9 9 9 9 9 9 9 9 9 9 9 9 9 9 9 ",
"9 0 - 4.g.<X:Xg.0 9 9 9 9 9 9 9 9 9 9 9 9 9 9 9 9 9 9 9 9 9 : ; = = * * ; m 9 9 9 9 9 9 9 9 9 9 9 9 9 9 : 9 9 9 9 9 : 9 9 9 9 9 9 9 9 9 9 9 9 9 9 j 9 9 9 9 9 9 : 9 9 : 9 9 ; 9 9 9 9 9 9 9 9 9 9 9 ; 9 9 9 : 9 ; 9 9 9 9 9 9 9 9 9 9 9 : 9 9 9 ; 9 : : 9 9 9 9 9 9 9 9 9 9 : : 9 9 : 9 9 : 9 9 9 9 9 9 9 9 9 9 9 ; 9 9 : : 9 ; 9 9 9 9 9 9 9 9 9 9 9 ; 9 9 9 ; 9 : 9 9 9 9 9 9 9 9 9 9 9 : 9 9 9 ; 9 9 : 9 9 9 9 9 9 9 9 9 9 9 : 9 9 : 9 9 ; 9 9 9 9 9 9 x 9 9 9 9 9 9 9 9 9 9 9 9 9 9 : 9 9 : 9 : 9 9 : 9 9 9 9 9 9 9 9 9 9 9 ",
"9 9 - 4.g.<Xh.u 9 9 9 9 9 9 9 9 9 9 9 9 9 9 9 9 9 9 9 9 9 9 : ; = = * * ; m 9 9 9 9 9 9 9 9 9 9 9 9 9 y x 9 h g 9 9 j 9 9 9 9 9 9 9 9 9 9 9 9 9 9 j 9 9 9 9 9 h x 9 9 z h 9 c 9 9 9 9 9 9 9 9 9 9 9 c 9 9 h x : c y 9 9 9 9 9 9 9 9 9 9 c g 9 9 c 9 j j : 9 9 9 9 9 9 9 9 9 h j 9 9 c y y c 9 9 9 9 9 9 9 9 9 9 y c 9 9 h j 9 c 9 9 9 9 9 9 9 9 9 9 9 c 9 9 y c : x h 9 9 9 9 9 9 9 9 9 9 x h 9 9 c 9 h x : 9 9 9 9 9 9 9 9 9 h x 9 9 x h 9 c 9 9 9 9 9 9 x 9 9 9 9 9 9 9 9 9 9 9 9 g 9 h 9 9 j 9 h 9 9 h 9 9 9 9 9 9 9 9 9 9 9 ",
"9 9 - -.g.<X3.> 0 9 9 9 9 9 9 9 9 9 9 9 9 9 9 9 9 9 9 9 9 9 : ; = = * * ; m 9 9 9 9 9 9 9 9 9 9 9 9 : >.n h >.:.9 c >.v 9 9 9 9 9 9 9 9 9 9 9 9 9 j 9 9 9 9 9 a.B.z g B.<.<.B.m ; 9 9 9 9 9 9 9 ; >.V.m : a.a.,.B.,.9 9 9 9 9 9 9 9 : c V.<.; >.B.,.a.B.g 9 9 9 9 9 9 9 9 g B.B.y c V.<.<.B.c : 9 9 9 9 9 9 9 9 <.B.c 9 B.<.<.B.:.: 9 9 9 9 9 9 9 ; m V.>.; <.B.,.B.<.9 9 9 9 9 9 9 9 : x B.a.9 m B.,.a.B.h 9 9 9 9 9 9 9 9 9 M.B.h h V.<.<.B.v : 9 9 9 9 x 9 9 9 9 9 9 9 9 9 9 : c 1.h 1.n :.:.n :.n m >.j : 9 9 9 9 9 9 9 9 9 ",
"9 9 - -.h.<Xh.- 0 9 9 9 9 9 9 9 9 9 9 9 9 9 9 9 9 9 9 9 9 9 : ; = = * * ; m 9 9 9 9 9 9 9 9 9 9 9 9 9 c n >.h v g n y m 9 9 9 9 9 9 9 9 9 9 9 9 9 j 9 9 9 9 h >.x m c v :.Z.9 a.: 9 9 9 9 9 9 9 9 <.h <.y ,.h J.9 <.g 9 9 9 9 9 9 9 ; ,.j ,.y <.9 G.c m v ; 9 9 9 9 9 9 ; v m n c m j B.M.h ,.= 9 9 9 9 9 9 9 g ,.h >.j m v G.9 a.9 9 9 9 9 9 9 9 : <.h <.9 <.y J.h ,.h : 9 9 9 9 9 9 ; :.x >.h ,.y Z.m c m ; 9 9 9 9 9 9 : x :.c n v c ,.C.y <.; 9 9 9 9 x 9 9 9 9 9 9 9 9 9 9 9 9 n v h :.>.9 B.9 :.:.g n ; 9 9 9 9 9 9 9 9 9 ",
"9 9 - -.g.>Xh.- 0 9 9 9 9 9 9 9 9 9 9 9 9 9 9 9 9 9 9 9 9 9 : ; = = * * ; m 9 9 9 9 9 9 9 9 9 9 9 9 9 9 z <.c :.h v c :.9 9 9 9 9 9 9 9 9 9 9 9 9 j 9 9 9 9 g <.>.>.v ,.,.C.m <.; 9 9 9 9 9 9 9 : <.m a.j <.m Z.m a.9 9 9 9 9 9 9 9 ; m :.a.x <.m Z.>.<.x : 9 9 9 9 9 9 : x ,.,.n m :.B.B.:.:.; 9 9 9 9 9 9 9 9 <.:.,.c <.>.Z.n <.: 9 9 9 9 9 9 9 ; ,.m a.h <.m Z.m a.h 9 9 9 9 9 9 9 ; n >.<.c ,.m C.,.,.v ; 9 9 9 9 9 9 9 h <.>.:.n >.<.B.m ,.; 9 9 9 9 x 9 9 9 9 9 9 9 9 9 9 9 9 m c v :.:.c <.c :.:.v v : 9 9 9 9 9 9 9 9 9 ",
"9 9 : &.-.<Xh.- 0 9 9 9 9 9 9 9 9 9 9 9 9 9 9 9 9 9 9 9 9 9 : ; = = * * ; m 9 9 9 9 9 9 9 9 9 9 9 9 9 c :.y m c x h :.h 9 9 9 9 9 9 9 9 9 9 9 9 9 j 9 9 9 9 : m <.v x ,.:.j B.h 9 9 9 9 9 9 9 9 : x a.v c n a.h a.v : 9 9 9 9 9 9 9 9 9 a.n v x B.h >.,.9 9 9 9 9 9 9 9 9 9 >.>.v x <.v c a.9 9 9 9 9 9 9 9 9 : v <.c c :.,.h B.x : 9 9 9 9 9 9 9 9 h M.v v c a.h <.m : 9 9 9 9 9 9 9 9 9 <.m v x B.x m <.9 9 9 9 9 9 9 9 9 : :.,.v x <.m x B.h 9 9 9 9 9 x 9 9 9 9 9 9 9 9 9 9 9 9 c 9 :.x z :.y :.x z :.9 9 9 9 9 9 9 9 9 9 9 ",
"9 9 9 9 9 3X3.- 0 9 9 9 9 9 9 9 9 9 9 9 9 9 9 9 9 9 9 9 9 9 : ; = = * * ; m 9 9 9 9 9 9 9 9 9 9 9 9 9 9 : 9 : 9 9 9 : 9 9 9 9 9 9 9 9 9 9 9 9 9 9 j 9 9 9 9 9 : ; : 9 : 9 9 ; 9 9 9 9 9 9 9 9 9 9 9 ; : : : : 9 ; : 9 9 9 9 9 9 9 9 9 9 ; : : : : 9 : ; 9 9 9 9 9 9 9 9 9 9 ; : : 9 : 9 9 ; 9 9 9 9 9 9 9 9 9 9 : ; : : : : 9 ; 9 9 9 9 9 9 9 9 9 9 9 ; : : : : 9 : : 9 9 9 9 9 9 9 9 9 9 ; : : 9 ; 9 : ; 9 9 9 9 9 9 9 9 9 9 : ; : 9 : 9 9 ; 9 9 9 9 9 9 x 9 9 9 9 9 9 9 9 9 9 9 9 9 9 : 9 9 : 9 : 9 9 : 9 9 9 9 9 9 9 9 9 9 9 ",
"9 9 9 9 9 2X3.- 9 9 9 9 9 9 9 9 9 9 9 9 9 9 9 9 9 9 9 9 9 9 : ; = = * * ; m 9 9 9 9 9 9 9 9 9 9 9 9 9 9 9 9 9 9 9 9 9 9 9 9 9 9 9 9 9 9 9 9 9 9 9 j 9 9 9 9 9 9 9 9 9 9 ; ; 9 9 9 9 9 9 9 9 9 9 9 9 9 9 9 9 ; ; 9 9 9 9 9 9 9 9 9 9 9 9 9 9 9 9 : ; 9 9 9 9 9 9 9 9 9 9 9 9 9 9 9 9 9 ; : 9 9 9 9 9 9 9 9 9 9 9 9 9 9 9 9 ; ; 9 9 9 9 9 9 9 9 9 9 9 9 9 9 9 9 : ; 9 9 9 9 9 9 9 9 9 9 9 9 9 9 9 9 9 ; : 9 9 9 9 9 9 9 9 9 9 9 9 9 9 9 9 ; : 9 9 9 9 9 9 9 x 9 9 9 9 9 9 9 9 9 9 9 9 9 9 9 9 9 9 9 9 9 9 9 9 9 9 9 9 9 9 9 9 9 9 ",
"9 9 9 9 9 2X3.- 0 9 9 9 9 9 9 9 9 9 9 9 9 9 9 9 9 9 9 9 9 9 : ; = = * * ; m 9 9 9 9 9 9 9 9 9 9 9 9 9 9 h g y h : 9 9 9 9 9 9 9 9 9 9 9 9 9 9 9 9 j 9 9 9 9 9 9 9 = :.v <.:.9 9 9 9 9 9 9 9 9 9 9 9 9 = c m :.<.h 9 9 9 9 9 9 9 9 9 9 9 9 ; 9 >.v a.x 9 9 9 9 9 9 9 9 9 9 9 9 9 ; >.c <.m 9 9 9 9 9 9 9 9 9 9 9 9 9 = m n ,.>.9 9 9 9 9 9 9 9 9 9 9 9 9 = j :.m <.h 9 9 9 9 9 9 9 9 9 9 9 9 : 9 ,.v a.c 9 9 9 9 9 9 9 9 9 9 9 9 9 = >.v <.m 9 9 9 9 9 9 9 x 9 9 9 9 9 9 9 9 9 9 9 9 9 9 h g y h : 9 9 9 9 9 9 9 9 9 9 9 9 9 9 9 ",
"9 9 9 9 9 2X3.- 0 9 9 9 9 9 9 9 9 9 9 9 9 9 9 9 9 9 9 9 9 9 : ; = = * * ; m 9 9 9 9 9 9 9 9 9 9 9 9 9 ; v c x m m m : 9 9 9 9 9 9 9 9 9 9 9 9 9 9 j 9 9 9 9 9 9 9 <.Z.,.<.a.c : 9 9 9 9 9 9 9 9 9 9 9 m Z.,.a.,.>.; 9 9 9 9 9 9 9 9 9 9 : c V.a.<.>.B.: 9 9 9 9 9 9 9 9 9 9 9 h a.V.,.,.B.h 9 9 9 9 9 9 9 9 9 9 9 9 >.Z.,.<.<.n ; 9 9 9 9 9 9 9 9 9 9 : n Z.<.a.,.<.; 9 9 9 9 9 9 9 9 9 9 : x B.B.<.,.B.9 9 9 9 9 9 9 9 9 9 9 9 g <.C.,.<.B.j : 9 9 9 9 9 x 9 9 9 9 9 9 9 9 9 9 9 9 9 ; v c x m m m : 9 9 9 9 9 9 9 9 9 9 9 9 9 ",
"9 9 9 9 9 2X4.- 9 9 9 9 9 9 9 9 9 9 9 9 9 9 9 9 9 9 9 9 9 9 : ; = = * * ; m 9 9 9 9 9 9 9 9 9 9 9 9 9 : c 1.1.c c x : 9 9 9 9 9 9 9 9 9 9 9 9 9 9 j 9 9 9 9 9 ; m m :.,.B.B.j : 9 9 9 9 9 9 9 9 9 9 h <.v ,.B.B.m ; 9 9 9 9 9 9 9 9 9 9 9 a.c <.<.B.<.9 9 9 9 9 9 9 9 9 9 9 ; ,.v ,.,.B.a.y 9 9 9 9 9 9 9 9 9 9 ; v >.m ,.B.B.c : 9 9 9 9 9 9 9 9 9 9 g a.c <.a.B.:.: 9 9 9 9 9 9 9 9 9 9 : a.c <.<.B.<.9 9 9 9 9 9 9 9 9 9 9 ; >.m >.,.B.B.h 9 9 9 9 9 9 x 9 9 9 9 9 9 9 9 9 9 9 9 9 : c 1.1.c c x : 9 9 9 9 9 9 9 9 9 9 9 9 9 ",
"9 9 9 9 9 2X4.- 9 9 9 9 9 9 9 9 9 9 9 9 9 9 9 9 9 9 9 9 9 9 : ; = = * * ; m 9 9 9 9 9 9 9 9 9 9 9 9 9 ; v z h >.1.h 9 9 9 9 9 9 9 9 9 9 9 9 9 9 9 j 9 9 9 9 9 : c <.B.,.<.<.n ; 9 9 9 9 9 9 9 9 9 9 y a.a.<.a.,.<.; 9 9 9 9 9 9 9 9 9 9 : <.<.a.<.>.B.9 9 9 9 9 9 9 9 9 9 9 ; m <.B.,.<.B.j : 9 9 9 9 9 9 9 9 9 : z a.B.,.a.<.:.; 9 9 9 9 9 9 9 9 9 9 9 a.a.<.a.>.a.: 9 9 9 9 9 9 9 9 9 9 ; ,.<.M.<.,.B.y 9 9 9 9 9 9 9 9 9 9 ; v <.B.,.<.a.c : 9 9 9 9 9 x 9 9 9 9 9 9 9 9 9 9 9 9 9 ; v z h >.1.h 9 9 9 9 9 9 9 9 9 9 9 9 9 9 ",
"9 9 9 9 9 2X4.- 9 9 9 9 9 9 9 9 9 9 9 9 9 9 9 9 9 9 9 9 9 9 : ; = = * * ; m 9 9 9 9 9 9 9 9 9 9 9 9 9 9 y y 9 h c h 9 9 9 9 9 9 9 9 9 9 9 9 9 9 9 j 9 9 9 9 9 9 9 c c y m v 9 9 9 9 9 9 9 9 9 9 9 9 9 j n y v m 9 9 9 9 9 9 9 9 9 9 9 9 9 g m h j :.h 9 9 9 9 9 9 9 9 9 9 9 9 9 n x g :.x 9 9 9 9 9 9 9 9 9 9 9 9 9 c v y m n 9 9 9 9 9 9 9 9 9 9 9 9 9 h m g c :.y 9 9 9 9 9 9 9 9 9 9 9 9 9 m h h :.h 9 9 9 9 9 9 9 9 9 9 9 9 9 v c g m c 9 9 9 9 9 9 9 x 9 9 9 9 9 9 9 9 9 9 9 9 9 9 y y 9 h c h 9 9 9 9 9 9 9 9 9 9 9 9 9 9 ",
"9 9 9 9 9 >X4.- 9 9 9 9 9 9 9 9 9 9 9 9 9 9 9 9 9 9 9 9 9 9 : ; = = = * ; m 9 9 9 9 9 9 9 9 9 9 9 9 9 9 9 9 9 9 : : 9 9 9 9 9 9 9 9 9 9 9 9 9 9 9 j 9 9 9 9 9 9 9 ; ; 9 ; ; 9 9 9 9 9 9 9 9 9 9 9 9 9 : ; 9 ; ; 9 9 9 9 9 9 9 9 9 9 9 9 9 9 ; 9 : = 9 9 9 9 9 9 9 9 9 9 9 9 9 9 ; : 9 = : 9 9 9 9 9 9 9 9 9 9 9 9 9 : ; 9 ; ; 9 9 9 9 9 9 9 9 9 9 9 9 9 9 ; 9 : ; 9 9 9 9 9 9 9 9 9 9 9 9 9 9 ; : 9 = 9 9 9 9 9 9 9 9 9 9 9 9 9 9 ; : 9 ; : 9 9 9 9 9 9 9 x 9 9 9 9 9 9 9 9 9 9 9 9 9 9 9 9 9 9 : : 9 9 9 9 9 9 9 9 9 9 9 9 9 9 ",
"9 9 9 9 9 >X4.- 9 9 9 9 9 9 9 9 9 9 9 9 9 9 9 9 9 9 9 9 9 9 : ; = = * * * v 9 9 9 9 9 9 9 9 9 9 9 9 9 9 9 9 9 9 9 9 9 9 9 9 9 9 9 9 9 9 9 9 9 9 y x 9 9 9 9 9 9 9 9 9 9 9 9 9 9 9 9 9 9 9 9 9 9 9 9 9 9 9 9 9 9 9 9 9 9 9 9 9 9 9 9 9 9 9 9 9 9 9 9 9 9 9 9 9 9 9 9 9 9 9 9 9 9 9 9 9 9 9 9 9 9 9 9 9 9 9 9 9 9 9 9 9 9 9 9 9 9 9 9 9 9 9 9 9 9 9 9 9 9 9 9 9 9 9 9 9 9 9 9 9 9 9 9 9 9 9 9 9 9 9 9 9 9 9 9 9 9 9 9 9 9 9 9 9 9 9 9 9 9 9 9 9 9 9 9 9 9 9 x 9 9 9 9 9 9 9 9 9 9 9 9 9 9 9 9 9 9 9 9 9 9 9 9 9 9 9 9 9 9 9 9 9 9 ",
"9 9 9 9 9 >X-.- 9 9 9 9 9 9 9 9 9 9 9 9 9 9 9 9 9 9 9 9 9 9 : ; ; = = * @ g n : : 9 : : : : : : : : : : : : : : : : : : : : : : : : : : : : 9 : 9 y : 9 : : : : : : : : : : : : : : : : : : : : : : : : : : : : : : : : : : : : : : : : : : : : : : : : : : : : : : : : : : : : : : : : : : : : : : : : : : : : : : : : : : : : : : : : : : : : : : : : : : : : : : : : : : : : : : : : : : : : : : : : : : : : : : : : : : : : : : : : 9 9 9 9 9 9 9 9 9 g 9 9 9 9 9 9 9 9 9 9 9 9 9 9 9 9 9 9 9 9 9 9 9 9 9 9 9 9 9 9 9 9 : 9 ",
"9 9 9 9 9 >X-.- 9 9 9 9 9 9 9 9 9 9 9 9 9 9 9 9 9 9 9 9 9 9 9 ; ; = = * * @ x m z h h h h h h h h h h h h h h h h h h h h h h h h h h h h h h h h h h h h h h h h h h h h h h h h h h h h h h h h h h h h h h h h h h h h h h h h h h h h h h h h h h h h h h h h h h h h h h h h h h h h h h h h h h h h h h h h h h h h h h h h h h h h h h h h h h h h h h h h h h h h h h h h h h h h h h h h h h h h h h h h h h h h h h h h h h h h h h h h h h h h h h h h h h h h h h h h h h h h h h h h h h h h h h h h h h h h h x :.",
"9 9 9 9 9 >X-.- 9 9 9 9 9 9 9 9 9 9 9 9 9 9 9 9 9 9 9 9 9 9 9 : ; = = = * * @ ; x v v v v v v v v v v v v v v v v v v v v v v v v v v v v v v v v v v v v v v v v v v v v v v v v v v v v v v v v v v v v v v v v v v v v v v v v v v v v v v v v v v v v v v v v v v v v v v v v v v v v v v v v v v v v v v v v v v v v v v v v v v v v v v v v v v v v v v v v v v v v v v v v v v v v v v v v v v v v v v v v v v v v v v v v v v v n n :.:.:.:.:.:.:.:.:.:.:.:.:.:.:.:.:.:.:.:.:.:.:.:.:.:.:.:.:.:.:.:.:.:.:.:.:.:.:.:.m v ",
"9 9 9 9 9 >X-.- 9 9 9 9 9 9 9 9 9 9 9 9 9 9 9 9 9 9 9 9 9 9 9 9 ; ; = = = * * % @ @ @ @ @ @ @ @ @ @ @ @ @ @ @ @ @ @ @ @ @ @ @ @ @ @ @ @ @ @ @ @ @ @ @ @ @ @ @ @ @ @ @ @ @ @ @ @ @ @ @ @ @ @ @ @ @ @ @ @ @ @ @ @ @ @ @ @ @ @ @ @ @ @ @ @ @ @ @ @ @ @ @ @ @ @ @ @ @ @ @ @ @ @ @ @ @ @ @ @ @ @ @ @ @ @ @ @ @ @ @ @ @ @ @ @ @ @ @ @ @ @ @ @ @ @ @ @ @ @ @ @ @ @ @ @ @ @ @ @ @ @ @ @ @ @ @ @ @ @ @ @ @ @ @ @ @ @ @ @ @ @ @ @ @ @ @ @ @ @ @ @ * * j j j j j j j j j j j j j j j j j j j j j j j j j j j j j j j j j j j j j j j j j x ",
"9 9 9 9 9 >X-.- 9 9 9 9 9 9 9 9 9 9 9 9 9 9 9 9 9 9 9 9 9 9 9 9 : ; ; = = = * * * * * * * * * * * * * * * * * * * * * * * * * * * * * * * * * * * * * * * * * * * * * * * * * * * * * * * * * * * * * * * * * * * * * * * * * * * * * * * * * * * * * * * * * * * * * * * * * * * * * * * * * * * * * * * * * * * * * * * * * * * * * * * * * * * * * * * * * * * * * * * * * * * * * * * * * * * * * * * * * * * * * * * * * * * * * * ; : v v v v v v v v v v v v v v v v v v v v v v v v v v v v v v v v v v v v v v v v n n ",
"9 9 9 9 9 :X-.- 9 9 9 9 9 9 9 9 9 9 9 9 9 9 9 9 9 9 9 9 9 9 9 9 9 : ; ; = = = = = = = = = = = = = = = = = = = = = = = = = = = = = = = = = = = = = = = = = = = = = = = = = = = = = = = = = = = = = = = = = = = = = = = = = = = = = = = = = = = = = = = = = = = = = = = = = = = = = = = = = = = = = = = = = = = = = = = = = = = = = = = = = = = = = = = = = = = = = = = = = = = = = = = = = = = = = = = = = = = = = = = = = = = = = = = * : ; g g g g g g g g g g g g g g g g g g g g g g g g g g g g g g g g g g g g g g g g g h ",
"9 9 9 9 9 >X-.- 9 9 9 9 9 9 9 9 9 9 9 9 9 9 9 9 9 9 9 9 9 9 9 9 9 9 : ; ; = = = = = = = = = = = = = = = = = = = = = = = = = = = = = = = = = = = = = = = = = = = = = = = = = = = = = = = = = = = = = = = = = = = = = = = = = = = = = = = = = = = = = = = = = = = = = = = = = = = = = = = = = = = = = = = = = = = = = = = = = = = = = = = = = = = = = = = = = = = = = = = = = = = = = = = = = = = = = = = = = = = = = = = = = = = = = = = 9 9 9 9 9 9 9 9 9 9 9 9 9 9 9 9 9 9 9 9 9 9 9 9 9 9 9 9 9 9 9 9 9 9 9 9 9 9 9 9 9 9 9 9 ",
"9 9 9 9 9 :X-.- 9 9 9 9 9 9 9 9 9 9 9 9 9 9 9 9 9 9 9 9 9 9 9 9 9 9 9 : : ; ; ; ; ; ; ; ; ; ; ; ; ; ; ; ; ; ; ; ; ; ; ; ; ; ; ; ; ; ; ; ; ; ; ; ; ; ; ; ; ; ; ; ; ; ; ; ; ; ; ; ; ; ; ; ; ; ; ; ; ; ; ; ; ; ; ; ; ; ; ; ; ; ; ; ; ; ; ; ; ; ; ; ; ; ; ; ; ; ; ; ; ; ; ; ; ; ; ; ; ; ; ; ; ; ; ; ; ; ; ; ; ; ; ; ; ; ; ; ; ; ; ; ; ; ; ; ; ; ; ; ; ; ; ; ; ; ; ; ; ; ; ; ; ; ; ; ; ; ; ; ; ; ; ; ; ; ; ; ; ; ; ; ; ; ; ; ; ; ; ; ; ; ; ; ; ; ; ; ; ; ; ; ; ; ; ; ; ; ; ; ; ; ; ; ; ; ; ; ; ; ; ; ; ; ; ; ; ; ; ; ; ; ; ; ; ; ; : ",
"9 9 9 9 9 >X-.- 9 9 9 9 9 9 9 9 9 9 9 9 9 9 9 9 9 9 9 9 9 9 9 9 9 9 9 9 9 : : : ; ; ; ; ; ; ; ; ; ; ; ; ; ; ; ; ; ; ; ; ; ; ; ; ; ; ; ; ; ; ; ; ; ; ; ; ; ; ; ; ; ; ; ; ; ; ; ; ; ; ; ; ; ; ; ; ; ; ; ; ; ; ; ; ; ; ; ; ; ; ; ; ; ; ; ; ; ; ; ; ; ; ; ; ; ; ; ; ; ; ; ; ; ; ; ; ; ; ; ; ; ; ; ; ; ; ; ; ; ; ; ; ; ; ; ; ; ; ; ; ; ; ; ; ; ; ; ; ; ; ; ; ; ; ; ; ; ; ; ; ; ; ; ; ; ; ; ; ; ; ; ; ; ; ; ; ; ; ; ; ; ; ; ; ; ; ; ; ; ; ; ; ; ; ; ; ; ; ; ; ; ; ; ; ; ; ; ; ; ; ; ; ; ; ; ; ; ; ; ; ; ; ; ; ; ; ; ; ; ; ; ; ; ; ; ; ",
"9 9 9 9 9 :X-.- 9 9 9 9 9 9 9 9 9 9 9 9 9 9 9 9 9 9 9 9 9 9 9 9 9 9 9 9 9 9 9 9 9 9 9 9 9 9 9 9 9 9 9 9 9 9 9 9 9 9 9 9 9 9 9 9 9 9 9 9 9 9 9 9 9 9 9 9 9 9 9 9 9 9 9 9 9 9 9 9 9 9 9 9 9 9 9 9 9 9 9 9 9 9 9 9 9 9 9 9 9 9 9 9 9 9 9 9 9 9 9 9 9 9 9 9 9 9 9 9 9 9 9 9 9 9 9 9 9 9 9 9 9 9 9 9 9 9 9 9 9 9 9 9 9 9 9 9 9 9 9 9 9 9 9 9 9 9 9 9 9 9 9 9 9 9 9 9 9 9 9 9 9 9 9 9 9 9 9 9 9 9 9 9 9 9 9 9 9 9 9 9 9 9 9 9 9 9 9 9 9 9 9 9 : ; ; ; ; ; ; ; ; ; ; ; ; ; ; ; ; ; ; ; ; ; ; ; ; ; ; ; ; ; ; ; ; ; ; ; ; ; ; ; ; ; ; ; ",
"9 9 9 9 9 :X-.- 9 9 9 9 9 9 9 9 9 9 9 9 9 9 9 9 9 9 9 9 9 9 9 9 9 9 9 9 9 9 9 9 9 9 9 9 9 9 9 9 9 9 9 9 9 9 9 9 9 9 9 9 9 9 9 9 9 9 9 9 9 9 9 9 9 9 9 9 9 9 9 9 9 9 9 9 9 9 9 9 9 9 9 9 9 9 9 9 9 9 9 9 9 9 9 9 9 9 9 9 9 9 9 9 9 9 9 9 9 9 9 9 9 9 9 9 9 9 9 9 9 9 9 9 9 9 9 9 9 9 9 9 9 9 9 9 9 9 9 9 9 9 9 9 9 9 9 9 9 9 9 9 9 9 9 9 9 9 9 9 9 9 9 9 9 9 9 9 9 9 9 9 9 9 9 : ; : : ; : ; ; : : ; : ; : : ; : : : : : ; ; : : 9 9 9 9 9 : : v m n m m m m n m c = c m n m m m m n m v : : : : : : v m n m m m m n m 9 9 m m m ",
"9 9 9 9 : :X-.- 9 9 9 9 9 9 9 9 9 9 9 9 9 9 9 9 9 9 9 9 9 9 9 9 9 9 9 9 9 9 9 9 9 9 9 9 9 9 9 9 9 9 9 9 9 9 9 9 9 9 9 9 9 9 9 9 9 9 9 9 9 9 9 9 9 9 9 9 9 9 9 9 9 9 9 9 9 9 9 9 9 9 9 9 9 9 9 9 9 9 9 9 9 9 9 9 9 9 9 9 9 9 9 9 9 9 9 9 9 9 9 9 9 9 9 9 9 9 9 9 9 9 9 9 9 9 9 9 9 9 9 9 9 9 9 9 9 9 9 9 9 9 9 9 9 9 9 9 9 9 9 9 9 9 9 9 9 9 9 9 9 9 9 9 9 9 9 9 9 9 9 9 9 9 ; = = * * = * = = * = = = = * * = = * * = * = = * = : 9 9 9 9 9 9 m x h h h h h h c n = m c h h h h h j x m 9 9 9 9 9 9 m x j j j j j h m h 9 :.h j ",
"9 9 9 9 : :X-.- 9 9 9 9 9 9 9 9 9 9 9 9 9 9 9 9 9 9 9 9 9 9 9 9 9 9 9 9 9 9 9 9 9 9 9 9 9 9 9 9 9 9 9 9 9 9 9 9 9 9 9 9 9 9 9 9 9 9 9 9 9 9 9 9 9 9 9 9 9 9 9 9 9 9 9 9 9 9 9 9 9 9 9 9 9 9 9 9 9 9 9 9 9 9 9 9 9 9 9 9 9 9 9 9 9 9 9 9 9 9 9 9 9 9 9 9 9 9 9 9 9 9 9 9 9 9 9 9 9 9 9 9 9 9 9 9 9 9 9 9 9 9 9 9 9 9 9 9 9 9 9 9 9 9 9 9 9 9 9 9 9 9 9 9 9 9 9 9 9 9 9 9 9 9 ; ; : g h 9 j = = h 9 = : ; h g = 9 g h 9 j = = h : ; 9 9 9 9 9 9 :.j j c x c x h c m ; m c h x x x x h x :.9 9 9 9 9 9 :.j h h h h j h m h 9 :.h x ",
"9 9 9 9 : :X-.- 9 9 9 9 9 9 9 9 9 9 9 9 9 9 9 9 9 9 9 9 9 9 9 9 9 9 9 9 9 9 9 9 9 9 9 9 9 9 9 9 9 9 9 9 9 9 9 9 9 9 9 9 9 9 9 9 9 9 9 9 9 9 9 9 9 9 9 9 9 9 9 9 9 9 9 9 9 9 9 9 9 9 9 9 9 9 9 9 9 9 9 9 9 9 9 9 9 9 9 9 9 9 9 9 9 9 9 9 9 9 9 9 9 9 9 9 9 9 9 9 9 9 9 9 9 9 9 9 9 9 9 9 9 9 9 9 9 9 9 9 9 9 9 9 9 9 9 9 9 9 9 9 9 9 9 9 9 9 9 9 9 9 9 9 9 9 9 9 9 9 9 9 9 9 @ A.E.m E.A.E.m h aXD.@ L.9 A.E.L.E.M E.A.E.c c DXA.* y 9 9 9 9 9 :.j n G.iXK.>.h v m ; m c h U.pXaXZ.g x :.9 9 9 9 9 9 :.x j j H.n h h :.h 9 >.g ,.",
"9 9 9 9 : :X&.: 9 9 9 9 9 9 9 9 9 9 9 9 9 9 9 9 9 9 9 9 9 9 9 9 9 9 9 9 9 9 9 9 9 9 9 9 9 9 9 9 9 9 9 9 9 9 9 9 9 9 9 9 9 9 9 9 9 9 9 9 9 9 9 9 9 9 9 9 9 9 9 9 9 9 9 9 9 9 9 9 9 9 9 9 9 9 9 9 9 9 9 9 9 9 9 9 9 9 9 9 9 9 9 9 9 9 9 9 9 9 9 9 9 9 9 9 9 9 9 9 9 9 9 9 9 9 9 9 9 9 9 9 9 9 9 9 9 9 9 9 9 9 9 9 9 9 9 9 9 9 9 9 9 9 9 9 9 9 9 9 9 9 9 9 9 9 9 9 9 9 9 9 9 9 * v L.. L.g A.m g DXD.g L.* * L.,.L.. L.9 D.c h DXD.* y 9 9 9 9 9 :.x y <.sXZ.y j c m ; m c y <.sXiXc h x :.9 9 9 9 9 9 :.x y <.sXF.g h :.h 9 >.h h ",
"9 9 9 9 : :X&.: 9 9 9 9 9 9 9 9 9 9 9 9 9 9 9 9 9 9 9 9 9 9 9 9 9 9 9 9 9 9 9 9 9 9 9 9 9 9 9 9 9 9 9 9 9 9 9 9 9 9 9 9 9 9 9 9 9 9 9 9 9 9 9 9 9 9 9 9 9 9 9 9 9 9 9 9 9 9 9 9 9 9 9 9 9 9 9 9 9 9 9 9 9 9 9 9 9 9 9 9 9 9 9 9 9 9 9 9 9 9 9 9 9 9 9 9 9 9 9 9 9 9 9 9 9 9 9 9 9 9 9 9 9 9 9 9 9 9 9 9 9 9 9 9 9 9 9 9 9 9 9 9 9 9 9 9 9 9 9 9 9 9 9 9 9 9 9 9 9 9 9 9 9 9 * x L.D.E.N.aX9 N.E.L.N.N.. E.L.j D.D.E.A.E.9 N.E.L.* y 9 9 9 9 9 :.j c uXsXsX:.g v m ; m c j <.aXU.m h x :.9 9 9 9 9 9 :.j c uXsXsX>.g :.h 9 :.j h ",
"9 9 9 9 : :X&.: 9 9 9 9 9 9 9 9 9 9 9 9 9 9 9 9 9 9 9 9 9 9 9 9 9 9 9 9 9 9 9 9 9 9 9 9 9 9 9 9 9 9 9 9 9 9 9 9 9 9 9 9 9 9 9 9 9 9 9 9 9 9 9 9 9 9 9 9 9 9 9 9 9 9 9 9 9 9 9 9 9 9 9 9 9 9 9 9 9 9 9 9 9 9 9 9 9 9 9 9 9 9 9 9 9 9 9 9 9 9 9 9 9 9 9 9 9 9 9 9 9 9 9 9 9 9 9 9 9 9 9 9 9 9 9 9 9 9 9 9 9 9 9 9 9 9 9 9 9 9 9 9 9 9 9 9 9 9 9 9 9 9 9 9 9 9 9 9 9 9 9 9 9 9 = 9 c N.D.D.D.<.j A.v c 9 = D.A.h c N.D.D.D.,.j A.v = 9 9 9 9 9 9 :.j c B.M.B.m h v m ; m c x M.B.B.,.h x :.9 9 9 9 9 9 :.j c B.M.B.m h :.h 9 >.h j ",
"9 9 9 9 - :X&.- 9 9 9 9 9 9 9 9 9 9 9 9 9 9 9 9 9 9 9 9 9 9 9 9 9 9 9 9 9 9 9 9 9 9 9 9 9 9 9 9 9 9 9 9 9 9 9 9 9 9 9 9 9 9 9 9 9 9 9 9 9 9 9 9 9 9 9 9 9 9 9 9 9 9 9 9 9 9 9 9 9 9 9 9 9 9 9 9 9 9 9 9 9 9 9 9 9 9 9 9 9 9 9 9 9 9 9 9 9 9 9 9 9 9 9 9 9 9 9 9 9 9 9 9 9 9 9 9 9 9 9 9 9 9 9 9 9 9 9 9 9 9 9 9 9 9 9 9 9 9 9 9 9 9 9 9 9 9 9 9 9 9 9 9 9 9 9 9 9 9 9 9 9 9 ; = * @ @ @ @ * = @ * * = ; @ @ = * @ @ @ @ * = @ * 9 9 9 9 9 9 9 :.j h 9 y 9 g h c m ; m c h y y 9 y h j :.9 9 9 9 9 9 :.j h 9 y 9 h h m h 9 :.h h ",
"9 9 9 9 - 3.&.: 9 9 9 9 9 9 9 9 9 9 9 9 9 9 9 9 9 9 9 9 9 9 9 9 9 9 9 9 9 9 9 9 9 9 9 9 9 9 9 9 9 9 9 9 9 9 9 9 9 9 9 9 9 9 9 9 9 9 9 9 9 9 9 9 9 9 9 9 9 9 9 9 9 9 9 9 9 9 9 9 9 9 9 9 9 9 9 9 9 9 9 9 9 9 9 9 9 9 9 9 9 9 9 9 9 9 9 9 9 9 9 9 9 9 9 9 9 9 9 9 9 9 9 9 9 9 9 9 9 9 9 9 9 9 9 9 9 9 9 9 9 9 9 9 9 9 9 9 9 9 9 9 9 9 9 9 9 9 9 9 9 9 9 9 9 9 9 9 9 9 9 9 9 9 9 : : 9 9 9 9 9 : 9 : : : ; 9 9 : : 9 9 9 9 9 : 9 9 9 9 9 9 9 9 9 >.:.m :.:.:.:.m >.m ; m >.m :.:.:.:.m :.>.9 9 9 9 9 9 >.:.m :.:.:.:.m <.h 9 <.m m ",
"9 9 9 9 9 9 9 9 9 9 9 9 9 9 9 9 9 9 9 9 9 9 9 9 9 9 9 9 9 9 9 9 9 9 9 9 9 9 9 9 9 9 9 9 9 9 9 9 9 9 9 9 9 9 9 9 9 9 9 9 9 9 9 9 9 9 9 9 9 9 9 9 9 9 9 9 9 9 9 9 9 9 9 9 9 9 9 9 9 9 9 9 9 9 9 9 9 9 9 9 9 9 9 9 9 9 9 9 9 9 9 9 9 9 9 9 9 9 9 9 9 9 9 9 9 9 9 9 9 9 9 9 9 9 9 9 9 9 9 9 9 9 9 9 9 9 9 9 9 9 9 9 9 9 9 9 9 9 9 9 9 9 9 9 9 9 9 9 9 9 9 9 9 9 9 9 9 9 9 9 9 9 9 9 9 9 9 9 9 9 9 9 9 9 9 9 9 9 9 9 9 9 9 9 9 9 9 9 9 9 9 9 9 9 9 h j j j j j j j j g 9 h j j j j j j j j h 9 9 9 9 9 9 h j j j j j j j j 9 9 h j j ",
"9 9 9 9 9 9 9 9 9 9 9 9 9 9 9 9 9 9 9 9 9 9 9 9 9 9 9 9 9 9 9 9 9 9 9 9 9 9 9 9 9 9 9 9 9 9 9 9 9 9 9 9 9 9 9 9 9 9 9 9 9 9 9 9 9 9 9 9 9 9 9 9 9 9 9 9 9 9 9 9 9 9 9 9 9 9 9 9 9 9 9 9 9 9 9 9 9 9 9 9 9 9 9 9 9 9 9 9 9 9 9 9 9 9 9 9 9 9 9 9 9 9 9 9 9 9 9 9 9 9 9 9 9 9 9 9 9 9 9 9 9 9 9 9 9 9 9 9 9 9 9 9 9 9 9 9 9 9 9 9 9 9 9 9 9 9 9 9 9 9 9 9 9 9 9 9 9 9 9 9 9 9 9 9 9 9 9 9 9 9 9 9 9 9 9 9 9 9 9 9 9 9 9 9 9 9 9 9 9 9 9 9 9 9 9 9 : : : : : : : : 9 9 9 : : : : : : : : 9 9 9 9 9 9 9 9 : : : : : : : : 9 9 9 : : ",
"9 9 9 9 9 9 9 9 9 9 9 9 9 9 9 9 9 9 9 9 9 9 9 9 9 9 9 9 9 9 9 9 9 9 9 9 9 9 9 9 9 9 9 9 9 9 9 9 9 9 9 9 9 9 9 9 9 9 9 9 9 9 9 9 9 9 9 9 9 9 9 9 9 9 9 9 9 9 9 9 9 9 9 9 9 9 9 9 9 9 9 9 9 9 9 9 9 9 9 9 9 9 9 9 9 9 9 9 9 9 9 9 9 9 9 9 9 9 9 9 9 9 9 9 9 9 9 9 9 9 9 9 9 9 9 9 9 9 9 9 9 9 9 9 9 9 9 9 9 9 9 9 9 9 9 9 9 9 9 9 9 9 9 9 9 9 9 9 9 9 9 9 9 9 9 9 9 9 9 9 9 9 9 9 9 9 9 9 9 9 9 9 9 9 9 9 9 9 9 9 9 9 9 9 9 9 9 9 9 9 9 9 9 9 9 9 9 9 9 9 9 9 9 9 9 9 9 9 9 9 9 9 9 9 9 9 9 9 9 9 9 9 9 9 9 9 9 9 9 9 9 9 9 9 9 9 ",
"9 9 9 9 9 9 9 9 9 9 9 9 9 9 9 9 9 9 9 9 9 9 9 9 9 9 9 9 9 9 9 9 9 9 9 9 9 9 9 9 9 9 9 9 9 9 9 9 9 9 9 9 9 9 9 9 9 9 9 9 9 9 9 9 9 9 9 9 9 9 9 9 9 9 9 9 9 9 9 9 9 9 9 9 9 9 9 9 9 9 9 9 9 9 9 9 9 9 9 9 9 9 9 9 9 9 9 9 9 9 9 9 9 9 9 9 9 9 9 9 9 9 9 9 9 9 9 9 9 9 9 9 9 9 9 9 9 9 9 9 9 9 9 9 9 9 9 9 9 9 9 9 9 9 9 9 9 9 9 9 9 9 9 9 9 9 9 9 9 9 9 9 9 9 9 9 9 9 9 9 9 9 9 9 9 9 9 9 9 9 9 9 9 9 9 9 9 9 9 9 9 9 9 9 9 9 9 9 9 9 9 9 9 9 9 9 9 9 9 9 9 9 9 9 9 9 9 9 9 9 9 9 9 9 9 9 9 9 9 9 9 9 9 9 9 9 9 9 9 9 9 9 9 9 9 9 ",
"9 9 9 9 9 9 9 9 9 9 9 9 9 9 9 9 9 9 9 9 9 9 9 9 9 9 9 9 9 9 9 9 9 9 9 9 9 9 9 9 9 9 9 9 9 9 9 9 9 9 9 9 9 9 9 9 9 9 9 9 9 9 9 9 9 9 9 9 9 9 9 9 9 9 9 9 9 9 9 9 9 9 9 9 9 9 9 9 9 9 9 9 9 9 9 9 9 9 9 9 9 9 9 9 9 9 9 9 9 9 9 9 9 9 9 9 9 9 9 9 9 9 9 9 9 9 9 9 9 9 9 9 9 9 9 9 9 9 9 9 9 9 9 9 9 9 9 9 9 9 9 9 9 9 9 9 9 9 9 9 9 9 9 9 9 9 9 9 9 9 9 9 9 9 9 9 9 9 9 9 9 9 9 9 9 9 9 9 9 9 9 9 9 9 9 9 9 9 9 9 9 9 9 9 9 9 9 9 9 9 9 9 9 9 9 9 9 9 9 9 9 9 9 9 9 9 9 9 9 9 9 9 9 9 9 9 9 9 9 9 9 9 9 9 9 9 9 9 9 9 9 9 9 9 9 9 ",
"9 9 9 9 9 9 9 9 9 9 9 9 9 9 9 9 : ; : y 9 9 9 9 9 9 9 9 9 9 9 9 9 9 9 9 9 9 9 9 9 9 9 9 9 9 9 9 9 9 9 9 9 9 9 9 9 9 9 : 9 9 9 9 9 9 9 9 9 9 9 9 9 9 9 9 9 9 9 9 9 9 9 9 9 9 9 9 9 9 9 9 9 9 9 9 9 9 9 9 9 9 9 : = ; 9 9 9 9 9 9 9 9 9 9 9 9 9 9 9 9 9 9 9 9 9 9 9 9 9 9 9 9 9 9 9 9 9 9 9 9 9 9 9 9 9 9 = : 9 9 9 9 9 9 9 9 9 9 9 9 9 9 9 9 9 9 9 9 9 9 9 9 9 9 9 9 9 9 9 9 9 9 9 9 9 9 9 9 : ; 9 9 9 9 9 9 9 9 9 9 9 9 9 9 9 9 9 9 9 9 9 9 9 9 9 9 9 9 9 9 9 9 9 9 9 9 9 9 9 9 9 9 9 9 9 9 9 9 9 9 9 9 9 9 9 9 9 9 9 9 : 9 9 9 ",
"9 9 9 9 9 9 9 9 9 9 9 9 9 9 9 : c a.c g h y : ; ,.9 ; 9 9 9 9 9 9 9 9 9 9 9 9 9 9 9 9 9 9 9 9 9 9 9 9 9 9 9 9 9 h x 9 c ; 9 9 9 9 = v n ; 9 9 : 9 : h 9 9 9 9 9 9 9 9 9 9 9 9 9 9 9 9 9 9 9 9 9 9 9 9 9 9 9 : v B.>.9 : 9 c >.; 9 9 : 9 ; h 9 9 9 9 9 9 9 9 9 9 9 9 9 9 9 9 9 9 9 9 9 9 9 9 9 9 9 9 9 h a.n 9 9 9 = ,.y ; 9 9 h 9 ; : 9 9 9 9 9 9 9 9 9 9 9 9 9 9 9 9 9 9 9 9 9 9 9 9 9 9 : c a.c : 9 : 9 <.: 9 9 9 : : 9 9 9 9 h 9 9 9 9 9 9 9 9 9 9 9 9 9 9 9 9 9 9 9 9 9 9 9 9 9 9 9 9 9 9 9 9 9 9 9 9 9 9 9 9 9 9 : c y 9 h ",
"9 9 9 9 9 9 9 9 9 9 9 9 9 9 9 = <.<.B.c B.B.v <.B.B.v : 9 9 9 9 9 9 9 9 9 9 9 9 9 9 9 9 9 9 9 9 9 9 9 9 9 9 9 ; n ,.x a.n <.h <.c m Z.m = m <.m h m F.v : 9 9 9 9 9 9 9 9 9 9 9 9 9 9 9 9 9 9 9 9 9 9 9 9 9 9 9 V.x c <.c :.,.= c a.>.h n Z.,.; 9 9 9 9 9 9 9 9 9 9 9 9 9 9 9 9 9 9 9 9 9 9 9 9 9 9 ; n B.9 c <.x <.Z.j <.v ; n n B.:.9 9 9 9 9 9 9 9 9 9 9 9 9 9 9 9 9 9 9 9 9 9 9 9 9 9 = <.>.9 m >.x B.B.j a.j ; :.a.x n j ,.F.h 9 9 9 9 9 9 9 9 9 9 9 9 9 9 9 9 9 9 9 9 9 9 9 9 9 9 9 9 9 9 9 9 9 9 9 9 9 9 9 9 9 ; a.j h m ",
"9 9 9 9 9 9 9 9 9 9 9 9 9 9 9 = ,.C.j <.<.n a.: a.v a.: 9 9 9 9 9 9 9 9 9 9 9 9 9 9 9 9 9 9 9 9 9 9 9 9 9 9 9 ; c Z.M.V.C.V.:.<.F.>.m m 9 B.: a.h a.<.9 9 9 9 9 9 9 9 9 9 9 9 9 9 9 9 9 9 9 9 9 9 9 9 9 9 9 9 ; <.h c V.B.,.>.= B.9 <.j <.<.h : 9 9 9 9 9 9 9 9 9 9 9 9 9 9 9 9 9 9 9 9 9 9 9 9 9 9 ; c Z.c c V.Z.c ,.B.C.B.; <.a.m a.y 9 9 9 9 9 9 9 9 9 9 9 9 9 9 9 9 9 9 9 9 9 9 9 9 9 = ,.C.x m Z.C.x a.V.C.,.y <.x V.:.c a.>.; 9 9 9 9 9 9 9 9 9 9 9 9 9 9 9 9 9 9 9 9 9 9 9 9 9 9 9 9 9 9 9 9 9 9 9 9 9 9 9 9 9 ; <.9 j a.",
"9 9 9 9 9 9 9 9 9 9 9 9 9 9 9 = <.x * <.,.,.a.n a.j a.: 9 9 9 9 9 9 9 9 9 9 9 9 9 9 9 9 9 9 9 9 9 9 9 9 9 9 9 ; v :.9 B.B.m a.Z.V.<.B.m ; B.v a.a.<.a.c : 9 9 9 9 9 9 9 9 9 9 9 9 9 9 9 9 9 9 9 9 9 9 9 9 9 9 : a.x V.V.B.,.,.= a.m ,.a.B.<.m : 9 9 9 9 9 9 9 9 9 9 9 9 9 9 9 9 9 9 9 9 9 9 9 9 9 9 ; n :.: C.C.B.,.B.,.B.c : <.a.x <.g 9 9 9 9 9 9 9 9 9 9 9 9 9 9 9 9 9 9 9 9 9 9 9 9 9 = <.x h Z.V.B.,.B.<.M.h 9 a.<.>.<.B.,.B.y 9 9 9 9 9 9 9 9 9 9 9 9 9 9 9 9 9 9 9 9 9 9 9 9 9 9 9 9 9 9 9 9 9 9 9 9 9 9 9 9 9 ; B.>.m ,.",
"9 9 9 9 9 9 9 9 9 9 9 9 9 9 9 9 h g 9 h g c h m j 9 h 9 9 9 9 9 9 9 9 9 9 9 9 9 9 9 9 9 9 9 9 9 9 9 9 9 9 9 9 9 y h 9 h h v h v g z n y : h n h m h j x 9 9 9 9 9 9 9 9 9 9 9 9 9 9 9 9 9 9 9 9 9 9 9 9 9 9 9 9 h 9 x c h h h : y m h n j h c 9 9 9 9 9 9 9 9 9 9 9 9 9 9 9 9 9 9 9 9 9 9 9 9 9 9 9 9 g h 9 x c 9 v c 9 v z 9 h h y h 9 9 9 9 9 9 9 9 9 9 9 9 9 9 9 9 9 9 9 9 9 9 9 9 9 9 9 h g 9 c x y n j 9 n h : j n : x n 9 c h 9 9 9 9 9 9 9 9 9 9 9 9 9 9 9 9 9 9 9 9 9 9 9 9 9 9 9 9 9 9 9 9 9 9 9 9 9 9 9 9 9 9 j :.x h ",
"9 9 9 9 9 9 9 9 9 9 9 9 9 9 9 9 9 9 9 9 9 : 9 ; : 9 9 9 9 9 9 9 9 9 9 9 9 9 9 9 9 9 9 9 9 9 9 9 9 9 9 9 9 9 9 9 9 9 9 9 9 ; 9 ; 9 : ; 9 9 9 ; 9 ; 9 : : 9 9 9 9 9 9 9 9 9 9 9 9 9 9 9 9 9 9 9 9 9 9 9 9 9 9 9 9 9 9 : : 9 9 9 9 9 ; 9 ; : 9 ; 9 9 9 9 9 9 9 9 9 9 9 9 9 9 9 9 9 9 9 9 9 9 9 9 9 9 9 9 9 9 9 : ; 9 ; : 9 ; : 9 9 9 9 9 9 9 9 9 9 9 9 9 9 9 9 9 9 9 9 9 9 9 9 9 9 9 9 9 9 9 9 9 9 9 ; : 9 ; : 9 ; 9 9 : ; 9 : ; 9 : 9 9 9 9 9 9 9 9 9 9 9 9 9 9 9 9 9 9 9 9 9 9 9 9 9 9 9 9 9 9 9 9 9 9 9 9 9 9 9 9 9 9 9 : = : 9 ",
"9 9 9 9 9 9 9 9 9 9 9 9 9 9 9 9 9 9 9 9 9 9 9 9 9 9 9 9 9 9 9 9 9 9 9 9 9 9 9 9 9 9 9 9 9 9 9 9 9 9 9 9 9 9 9 9 9 9 9 9 9 9 9 9 9 9 9 9 9 9 9 9 9 9 9 9 9 9 9 9 9 9 9 9 9 9 9 9 9 9 9 9 9 9 9 9 9 9 9 9 9 9 9 9 9 9 9 9 9 9 9 9 9 9 9 9 9 9 9 9 9 9 9 9 9 9 9 9 9 9 9 9 9 9 9 9 9 9 9 9 9 9 9 9 9 9 9 9 9 9 9 9 9 9 9 9 9 9 9 9 9 9 9 9 9 9 9 9 9 9 9 9 9 9 9 9 9 9 9 9 9 9 9 9 9 9 9 9 9 9 9 9 9 9 9 9 9 9 9 9 9 9 9 9 9 9 9 9 9 9 9 9 9 9 9 9 9 9 9 9 9 9 9 9 9 9 9 9 9 9 9 9 9 9 9 9 9 9 9 9 9 9 9 9 9 9 9 9 9 9 9 9 9 9 9 9 ",
"9 9 9 9 9 9 9 9 9 9 9 9 9 9 9 9 9 9 9 9 9 9 9 9 9 9 9 9 9 9 9 9 9 9 9 9 9 9 9 9 9 9 9 9 9 9 9 9 9 9 9 9 9 9 9 9 9 9 9 9 9 9 9 9 9 9 9 9 9 9 9 9 9 9 9 9 9 9 9 9 9 9 9 9 9 9 9 9 9 9 9 9 9 9 9 9 9 9 9 9 9 9 9 9 9 9 9 9 9 9 9 9 9 9 9 9 9 9 9 9 9 9 9 9 9 9 9 9 9 9 9 9 9 9 9 9 9 9 9 9 9 9 9 9 9 9 9 9 9 9 9 9 9 9 9 9 9 9 9 9 9 9 9 9 9 9 9 9 9 9 9 9 9 9 9 9 9 9 9 9 9 9 9 9 9 9 9 9 9 9 9 9 9 9 9 9 9 9 9 9 9 9 9 9 9 9 9 9 9 9 9 9 9 9 9 9 9 9 9 9 9 9 9 9 9 9 9 9 9 9 9 9 9 9 9 9 9 9 9 9 9 9 9 9 9 9 9 9 9 9 9 9 9 9 9 9 ",
"x x x x x x x x x x x x x x x x x x x x x x x x x x x x x x x x x x x x x x x x x x x x x x x x x x x x x x x x x x x x x x x x x x x x x x x x x x x x x x x x x x x x x x x x x x x x x x x x x x x x x x x x x x x x x x x x x x x x x x x x x x x x x x x x x x x x x x x x x x x x x x x x x x x x x x x x x x x x x x x x x x x x x x x x x x x x x x x x x x x x x x x x x x x x x x x x x x x x x x x x x x x x x x x x x x x x x x x x x x x x x x x x x x x x x x x x x x x x x x x x x x x x x x x x x x x x x x x x ",
"9 9 9 9 9 9 9 9 9 9 9 9 9 9 9 9 9 9 9 9 9 9 9 9 9 9 9 9 9 9 9 9 9 9 9 9 9 9 9 9 9 9 9 9 9 9 9 9 9 9 9 9 9 9 9 9 9 9 9 9 9 9 9 9 9 9 9 9 9 9 9 9 9 9 9 9 9 9 9 9 9 9 9 9 9 9 9 9 9 9 9 9 9 9 9 9 9 9 9 9 9 9 9 9 9 9 9 9 9 9 9 9 9 9 9 9 9 9 9 9 9 9 9 9 9 9 9 9 9 9 9 9 9 9 9 9 9 9 9 9 9 9 9 9 9 9 9 9 9 9 9 9 9 9 9 9 9 9 9 9 9 9 9 9 9 9 9 9 9 9 9 9 9 9 9 9 9 9 9 9 9 9 9 9 9 9 9 9 9 9 9 9 9 9 9 9 9 9 9 9 9 9 9 9 9 9 9 9 9 9 9 9 9 9 9 9 9 9 9 9 9 9 9 9 9 9 9 9 9 9 9 9 9 9 9 9 9 9 9 9 9 9 9 9 9 9 9 9 9 9 9 9 9 9 9 9 ",
"9 9 9 9 9 9 9 9 9 9 9 9 9 9 9 9 9 9 9 - - - - : - 9 9 9 9 9 9 9 9 9 9 9 9 9 9 9 9 9 9 9 9 9 9 9 9 9 9 9 9 9 9 9 9 9 9 9 9 9 9 : : - - - : : 9 9 9 9 9 9 9 9 9 9 9 9 9 9 9 9 9 9 9 9 9 9 9 9 9 9 9 9 9 9 9 9 9 9 9 9 9 9 : - - - : - 9 9 9 9 9 9 9 9 9 9 9 9 9 9 9 9 9 9 9 9 9 9 9 9 9 9 9 9 9 9 9 9 9 9 9 9 9 9 - : - - - - : 9 9 9 9 9 9 9 9 9 9 9 9 9 9 9 9 9 9 9 9 9 9 9 9 9 9 9 9 9 9 9 9 9 9 9 9 9 : - - - - : - 9 9 9 9 9 9 9 9 9 9 9 9 9 9 9 9 9 9 9 9 9 9 9 9 9 9 9 9 9 9 9 9 9 9 9 9 9 9 9 9 9 9 9 9 9 9 9 9 9 9 9 9 9 ",
"9 9 9 9 9 9 9 9 9 9 9 9 9 9 9 9 9 - u s y.d.t.*.p 9 - 9 9 9 9 9 9 9 9 9 9 9 9 9 9 9 9 9 9 9 9 9 9 9 9 9 9 9 9 9 9 9 9 9 9 9 - p p y.e.t.p p - 9 9 9 9 9 9 9 9 9 9 9 9 9 9 9 9 9 9 9 9 9 9 9 9 9 9 9 9 9 9 9 9 9 9 9 - u p e.u.t.*.p 9 : 9 9 9 9 9 9 9 9 9 9 9 9 9 9 9 9 9 9 9 9 9 9 9 9 9 9 9 9 9 9 9 9 9 9 : : p s f.y.i.p i - 9 9 9 9 9 9 9 9 9 9 9 9 9 9 9 9 9 9 9 9 9 9 9 9 9 9 9 9 9 9 9 9 9 9 9 - i p i.y.f.*.s : : 9 9 9 9 9 9 9 9 9 9 9 9 9 9 9 9 9 9 9 9 9 9 9 9 9 9 9 9 9 9 9 9 9 9 9 9 9 9 9 9 9 9 9 9 9 9 9 9 9 9 9 ",
"9 9 9 9 9 9 9 9 9 9 9 9 9 9 9 9 : *.f.BXBXNXc.7X7Xu.p : 9 9 9 9 9 9 9 9 9 9 9 9 9 9 9 9 9 9 9 9 9 9 9 9 9 9 9 9 9 9 9 9 : i *.x.v.8Xd.8X7Xx.s 9 9 9 9 9 9 9 9 9 9 9 9 9 9 9 9 9 9 9 9 9 9 9 9 9 9 9 9 9 9 9 9 9 9 9 s y.7X7Xx.7X7X7Xe.p : 9 9 9 9 9 9 9 9 9 9 9 9 9 9 9 9 9 9 9 9 9 9 9 9 9 9 9 9 9 9 9 9 : p e.cXcXnXv.MXvXc.s 9 9 9 9 9 9 9 9 9 9 9 9 9 9 9 9 9 9 9 9 9 9 9 9 9 9 9 9 9 9 9 9 9 9 9 s z.vXnXv.nXcXvXe.i : 9 9 9 9 9 9 9 9 9 9 9 9 9 9 9 9 9 9 9 9 9 9 9 9 9 9 9 9 9 9 9 9 9 9 9 9 9 9 9 9 9 9 9 9 9 9 9 9 9 9 ",
"9 9 9 9 9 9 9 9 9 9 9 9 9 9 9 9 p mXmX0X0Xe.*.d.f.x.c.u 9 9 9 9 9 9 9 9 9 9 9 9 9 9 9 9 9 9 9 9 9 9 9 9 9 9 9 9 9 9 9 9 9 u.7Xf.c.u.s y.x.f.8X*.9 9 9 9 9 9 9 9 9 9 9 9 9 9 9 9 9 9 9 9 9 9 9 9 9 9 9 9 9 9 9 9 9 p 7Xd.x.d.s *.x.f.c.d.y 9 9 9 9 9 9 9 9 9 9 9 9 9 9 9 9 9 9 9 9 9 9 9 9 9 9 9 9 9 9 9 9 y d.vXz.0Xt.*.d.v.z.nX*.9 9 9 9 9 9 9 9 9 9 9 9 9 9 9 9 9 9 9 9 9 9 9 9 9 9 9 9 9 9 9 9 9 s nXc.0Xz.*.t.v.z.vXz.9 9 9 9 9 9 9 9 9 9 9 9 9 9 9 9 9 9 9 9 9 9 9 9 9 9 9 9 9 9 9 9 9 9 9 9 9 9 9 9 9 9 9 9 9 9 9 9 9 9 9 ",
"9 9 9 9 9 9 9 9 9 9 9 9 9 9 - p NXBX0X: X     O 8 d.7Xc.u 9 9 9 9 9 9 9 9 9 9 9 9 9 9 9 9 9 9 9 9 9 9 9 9 9 9 9 9 9 9 - f.7Xv.s , X X X $ *.7X7Xe.- 9 9 9 9 9 9 9 9 9 9 9 9 9 9 9 9 9 9 9 9 9 9 9 9 9 9 9 9 9 - p 7X7Xf.= X X X , u x.7Xx.9 9 9 9 9 9 9 9 9 9 9 9 9 9 9 9 9 9 9 9 9 9 9 9 9 9 9 9 9 9 9 - c.nX0Xp O   X X $ i.nXnX*.- 9 9 9 9 9 9 9 9 9 9 9 9 9 9 9 9 9 9 9 9 9 9 9 9 9 9 9 9 9 - *.nXvXi.* X X X , p 0XnXc.- 9 9 9 9 9 9 9 9 9 9 9 9 9 9 9 9 9 9 9 9 9 9 9 9 9 9 9 9 9 9 9 9 9 9 9 9 9 9 9 9 9 9 9 9 9 9 9 9 9 ",
"9 9 9 9 9 9 9 9 9 9 9 9 9 9 9 x.0Xn.=   = = = = X ; d.f.t.9 9 9 9 9 9 9 9 9 9 9 9 9 9 9 9 9 9 9 9 9 9 9 9 9 9 9 9 9 - *.f.d.s X @ 9 g 9 O X e.d.f.p : 9 9 9 9 9 9 9 9 9 9 9 9 9 9 9 9 9 9 9 9 9 9 9 9 9 9 9 9 y i.f.y.* X = y y *   u d.f.e.: 9 9 9 9 9 9 9 9 9 9 9 9 9 9 9 9 9 9 9 9 9 9 9 9 9 9 9 9 - e.x.c.p   @ 9 g 9 O , i.c.z.p : 9 9 9 9 9 9 9 9 9 9 9 9 9 9 9 9 9 9 9 9 9 9 9 9 9 9 9 9 i z.x.i., X ; y y *   p v.z.e.- 9 9 9 9 9 9 9 9 9 9 9 9 9 9 9 9 9 9 9 9 9 9 9 9 9 9 9 9 9 9 9 9 9 9 9 9 9 9 9 9 9 9 9 9 9 9 9 : ",
"9 9 9 9 9 9 9 9 9 9 9 9 9 9 u mXNX9   9 n h j :.9 X u 7Xx.9 9 9 9 9 9 9 9 9 9 9 9 9 9 9 9 9 9 9 9 9 9 9 9 9 9 9 9 9 - u.8X*.X % x m :.>.c @ , i.8X*.- 9 9 9 9 9 9 9 9 9 9 9 9 9 9 9 9 9 9 9 9 9 9 9 9 9 9 9 : i c.x.= X 9 n m >.m 9 X p 7Xd.9 9 9 9 9 9 9 9 9 9 9 9 9 9 9 9 9 9 9 9 9 9 9 9 9 9 9 9 9 - f.MX*.  * c m :.:.x O $ c.nXs - 9 9 9 9 9 9 9 9 9 9 9 9 9 9 9 9 9 9 9 9 9 9 9 9 9 9 9 - s vXc.$ o y n :.>.m ;   *.MXd.: 9 9 9 9 9 9 9 9 9 9 9 9 9 9 9 9 9 9 9 9 9 9 9 9 9 9 9 9 9 9 9 9 9 9 9 m m m m m m m m m m m m m ",
"9 9 9 9 9 9 9 9 9 9 9 9 9 - t.BXmX% @ c m h h ,.m % * c.7Xs - 9 9 9 9 9 9 9 9 9 9 9 9 9 9 9 9 9 9 9 9 9 9 9 9 9 9 9 u d.7Xd   y n m m :.>.y   u.8Xi.9 9 9 9 9 9 9 9 9 9 9 9 9 9 9 9 9 9 9 9 9 9 9 9 9 9 9 9 - e.7Xd.O * c m m :.>.v O 8 7Xc.p : 9 9 9 9 9 9 9 9 9 9 9 9 9 9 9 9 9 9 9 9 9 9 9 9 9 9 : p v.nXp   h m m m >.>.9 X d.MXi.- 9 9 9 9 9 9 9 9 9 9 9 9 9 9 9 9 9 9 9 9 9 9 9 9 9 9 9 - i.nXz.X = v m m :.>.c X p nX7Xp : 9 9 9 9 9 9 9 9 9 9 9 9 9 9 9 9 9 9 9 9 9 9 9 9 9 9 9 9 9 9 9 9 9 g ,.c c c c c c c c c c c >.",
"9 9 9 9 9 9 9 9 9 9 9 9 9 - u.mXi.X = c n n m :.m ; O u.x.s - 9 9 9 9 9 9 9 9 9 9 9 9 9 9 9 9 9 9 9 9 9 9 9 9 9 9 9 u d.f.8 X j v m m m :.x X p d.y.9 9 9 9 9 9 9 9 9 9 9 9 9 9 9 9 9 9 9 9 9 9 9 9 9 9 9 9 - e.c.*.  * y 9 v m :.m * % y.x.p : 9 9 9 9 9 9 9 9 9 9 9 9 9 9 9 9 9 9 9 9 9 9 9 9 9 9 : p v.z.= O x v m m m :.h X s v.i.: 9 9 9 9 9 9 9 9 9 9 9 9 9 9 9 9 9 9 9 9 9 9 9 9 9 9 9 - i.v.s   9 v n m m :.m @ = z.c.p : 9 9 9 9 9 9 9 9 9 9 9 9 9 9 9 9 9 9 9 9 9 9 9 9 9 9 9 9 9 9 9 9 9 g :.h h h h h h h h h h h m ",
"9 9 9 9 9 9 9 9 9 9 9 9 9 - y.BXx.X * c v n m m m = O i.7X*.- 9 9 9 9 9 9 9 9 9 9 9 9 9 9 9 9 9 9 9 9 9 9 9 9 9 9 9 u x.c.u X h v h c m m h X p 7Xd.9 9 9 9 9 9 9 9 9 9 9 9 9 9 9 9 9 9 9 9 9 9 9 9 9 9 9 9 - d.BXf.  * h h v m m n * * d.7Xs - 9 9 9 9 9 9 9 9 9 9 9 9 9 9 9 9 9 9 9 9 9 9 9 9 9 9 : p 8Xv.8 O h v h c m m y   *.nXz.- 9 9 9 9 9 9 9 9 9 9 9 9 9 9 9 9 9 9 9 9 9 9 9 9 9 9 9 - d.nXe.  : v j h m m v @ = v.cXp : 9 9 9 9 9 9 9 9 9 9 9 9 9 9 9 9 9 9 9 9 9 9 9 9 9 9 9 9 9 9 9 9 9 g :.h j j h j j j j j j h :.",
"9 9 9 9 9 9 9 9 9 9 9 9 9 - s mXBX= O h v v n m j O ; 7Xx.p : 9 9 9 9 9 9 9 9 9 9 9 9 9 9 9 9 9 9 9 9 9 9 9 9 9 9 9 9 t.8X*.  : j 9 c m v = X y.8Xe.9 9 9 9 9 9 9 9 9 9 9 9 9 9 9 9 9 9 9 9 9 9 9 9 9 9 9 9 - *.NXNX, @ j v v n m h X u 8Xd.i 9 9 9 9 9 9 9 9 9 9 9 9 9 9 9 9 9 9 9 9 9 9 9 9 9 9 9 9 u z.BX*.  9 h 9 c m c * X c.nXe.: 9 9 9 9 9 9 9 9 9 9 9 9 9 9 9 9 9 9 9 9 9 9 9 9 9 9 9 : e.nXv.X % j 9 h m n y   s MXz.u 9 9 9 9 9 9 9 9 9 9 9 9 9 9 9 9 9 9 9 9 9 9 9 9 9 9 9 9 9 9 9 9 9 9 g :.h j h x x g j j j j h :.",
"9 9 9 9 9 9 9 9 9 9 9 9 9 9 u NX0Xs   @ g x x h @ X s d.x.9 9 9 9 9 9 9 9 9 9 9 9 9 9 9 9 9 9 9 9 9 9 9 9 9 9 9 9 9 - t.7Xe.* X % 9 c j ;   8 t.7X*.- 9 9 9 9 9 9 9 9 9 9 9 9 9 9 9 9 9 9 9 9 9 9 9 9 9 9 9 : p BX0Xp   % g x x g O O *.x.d.: 9 9 9 9 9 9 9 9 9 9 9 9 9 9 9 9 9 9 9 9 9 9 9 9 9 9 9 9 - z.cXe.% X * g c j =   i d.cXs - 9 9 9 9 9 9 9 9 9 9 9 9 9 9 9 9 9 9 9 9 9 9 9 9 9 9 9 - s nXd.u   @ : x x 9 X , e.8Xz.- 9 9 9 9 9 9 9 9 9 9 9 9 9 9 9 9 9 9 9 9 9 9 9 9 9 9 9 9 9 9 9 9 9 9 g :.h j g <.R.<.h h j j h :.",
"9 9 9 9 9 9 9 9 9 9 9 9 9 9 : e.mXBXs O o @ @ O O s 7Xx.s : 9 9 9 9 9 9 9 9 9 9 9 9 9 9 9 9 9 9 9 9 9 9 9 9 9 9 9 9 9 u f.7Xy.* + O @ O X : d.7Xu.9 9 9 9 9 9 9 9 9 9 9 9 9 9 9 9 9 9 9 9 9 9 9 9 9 9 9 9 9 9 : t.NXNXp X O @ @ O @ *.7Xd.p : 9 9 9 9 9 9 9 9 9 9 9 9 9 9 9 9 9 9 9 9 9 9 9 9 9 9 9 9 9 p x.nXi.@ + O @ O O u 0XcXt.9 9 9 9 9 9 9 9 9 9 9 9 9 9 9 9 9 9 9 9 9 9 9 9 9 9 9 9 9 9 9 t.cX0Xu + X @ O X * t.MXz.p : 9 9 9 9 9 9 9 9 9 9 9 9 9 9 9 9 9 9 9 9 9 9 9 9 9 9 9 9 9 9 9 9 9 9 g :.h j g <.sXaXU.m h j h :.",
"9 9 9 9 9 9 9 9 9 9 9 9 9 9 9 u n.BXBX9 ; * * ; u 7Xc.i.9 9 9 9 9 9 9 9 9 9 9 9 9 9 9 9 9 9 9 9 9 9 9 9 9 9 9 9 9 9 9 - *.x.8X*.- = * = - y.8Xd.s - 9 9 9 9 9 9 9 9 9 9 9 9 9 9 9 9 9 9 9 9 9 9 9 9 9 9 9 9 9 : p 0XBXmX: ; * * ; p 8Xx.y.9 9 9 9 9 9 9 9 9 9 9 9 9 9 9 9 9 9 9 9 9 9 9 9 9 9 9 9 9 9 9 - i.7XMX*.- = * = - c.MXc.s - 9 9 9 9 9 9 9 9 9 9 9 9 9 9 9 9 9 9 9 9 9 9 9 9 9 9 9 9 9 - p c.nXc.- ; * * - s NXv.i.: 9 9 9 9 9 9 9 9 9 9 9 9 9 9 9 9 9 9 9 9 9 9 9 9 9 9 9 9 9 9 9 9 9 9 9 g :.h j g <.sXaXK.n h j h :.",
"9 9 9 9 9 9 9 9 9 9 9 9 9 9 9 9 - 0Xf.- 9 9 9 9 - t.f.- 9 9 9 9 9 9 9 9 9 9 9 9 9 9 9 9 9 9 9 9 9 9 9 9 9 9 9 9 9 9 9 9 - *.x.y 9 9 9 9 : p x.p - 9 9 9 9 9 9 9 9 9 9 9 9 9 9 9 9 9 9 9 9 9 9 9 9 9 9 9 9 9 9 9 : 9 8Xt.- 9 9 9 9 - f.y.> 9 9 9 9 9 9 9 9 9 9 9 9 9 9 9 9 9 9 9 9 9 9 9 9 9 9 9 9 9 9 9 9 > t.c.9 9 9 9 9 - s 8Xu - 9 9 9 9 9 9 9 9 9 9 9 9 9 9 9 9 9 9 9 9 9 9 9 9 9 9 9 9 9 9 9 - u 7X*.- 9 9 9 9 9 c.i.$ 9 9 9 9 9 9 9 9 9 9 9 9 9 9 9 9 9 9 9 9 9 9 9 9 9 9 9 9 9 9 9 9 9 9 9 9 g :.h j g <.U.:.g h j j h :.",
"9 9 9 9 9 9 9 9 9 9 9 9 9 9 9 9 9 9 9 9 9 9 9 9 9 9 9 9 9 9 9 9 9 9 9 9 9 9 9 9 9 9 9 9 9 9 9 9 9 9 9 9 9 9 9 9 9 9 9 9 9 9 9 9 9 9 9 9 9 9 9 9 9 9 9 9 9 9 9 9 9 9 9 9 9 9 9 9 9 9 9 9 9 9 9 9 9 9 9 9 9 9 9 9 9 9 9 9 9 9 9 9 9 9 9 9 9 9 9 9 9 9 9 9 9 9 9 9 9 9 9 9 9 9 9 9 9 9 9 9 9 9 9 9 9 9 9 9 9 9 9 9 9 9 9 9 9 9 9 9 9 9 9 9 9 9 9 9 9 9 9 9 9 9 9 9 9 9 9 9 9 9 9 9 9 9 9 9 9 9 9 9 9 9 9 9 9 9 9 9 9 9 9 9 9 9 9 9 9 9 9 9 9 9 9 9 9 9 9 9 9 9 9 9 9 9 9 9 9 9 9 9 9 9 9 9 9 9 9 9 9 9 g :.h j j x h h j j j j h :.",
"9 9 9 9 9 9 9 9 9 9 9 9 9 9 9 9 9 9 9 9 9 9 9 9 9 9 9 9 9 9 9 9 9 9 9 9 9 9 9 9 9 9 9 9 9 9 9 9 9 9 9 9 9 9 9 9 9 9 9 9 9 9 9 9 9 9 9 9 9 9 9 9 9 9 9 9 9 9 9 9 9 9 9 9 9 9 9 9 9 9 9 9 9 9 9 9 9 9 9 9 9 9 9 9 9 9 9 9 9 9 9 9 9 9 9 9 9 9 9 9 9 9 9 9 9 9 9 9 9 9 9 9 9 9 9 9 9 9 9 9 9 9 9 9 9 9 9 9 9 9 9 9 9 9 9 9 9 9 9 9 9 9 9 9 9 9 9 9 9 9 9 9 9 9 9 9 9 9 9 9 9 9 9 9 9 9 9 9 9 9 9 9 9 9 9 9 9 9 9 9 9 9 9 9 9 9 9 9 9 9 9 9 9 9 9 9 9 9 9 9 9 9 9 9 9 9 9 9 9 9 9 9 9 9 9 9 9 9 9 9 9 9 g :.h j j j j j j j j j h :.",
"9 9 9 9 9 9 9 9 9 9 9 9 9 9 9 9 9 9 9 9 9 9 9 9 9 9 9 9 9 9 9 9 9 9 9 9 9 9 9 9 9 9 9 9 9 9 9 9 9 9 9 9 9 9 9 9 9 9 9 9 9 9 9 9 9 9 9 9 9 9 9 9 9 9 9 9 9 9 9 9 9 9 9 9 9 9 9 9 9 9 9 9 9 9 9 9 9 9 9 9 9 9 9 9 9 9 9 9 9 9 9 9 9 9 9 9 9 9 9 9 9 9 9 9 9 9 9 9 9 9 9 9 9 9 9 9 9 9 9 9 9 9 9 9 9 9 9 9 9 9 9 9 9 9 9 9 9 9 9 9 9 9 9 9 9 9 9 9 9 9 9 9 9 9 9 9 9 9 9 9 9 9 9 9 9 9 9 9 9 9 9 9 9 9 9 9 9 9 9 9 9 9 9 9 9 9 9 9 9 9 9 9 9 9 9 9 9 9 9 9 9 9 9 9 9 9 9 9 9 9 9 9 9 9 9 9 9 9 9 9 9 9 g :.h h h h h h h h h h h m ",
"9 9 9 9 9 9 9 9 9 9 9 9 9 9 9 9 9 9 9 9 9 9 : 9 9 9 9 9 : : 9 9 9 9 9 9 9 9 9 9 9 9 9 9 9 9 9 9 9 9 9 9 9 9 9 9 9 9 9 9 9 9 9 9 9 9 9 9 9 9 9 9 : 9 9 9 9 9 9 9 9 9 9 9 9 9 9 9 9 9 9 9 9 9 9 9 9 9 9 9 9 9 9 9 : 9 9 : 9 : 9 9 9 9 9 9 9 9 9 9 9 9 9 9 9 9 9 9 9 9 9 9 9 9 9 9 9 9 9 9 9 9 9 9 9 9 9 : 9 9 9 9 9 9 9 9 9 9 9 9 9 9 9 9 9 9 9 9 9 9 9 9 9 9 9 9 9 9 9 9 9 9 9 9 9 9 9 9 9 9 9 9 9 9 9 : 9 9 9 9 9 9 9 9 9 9 9 : 9 9 9 9 9 9 9 9 9 9 9 9 9 9 9 9 9 9 9 9 9 9 9 9 9 9 9 9 9 9 9 9 9 9 g ,.v v v v v v v v v v c ,.",
"9 9 9 9 9 9 9 9 9 9 9 9 9 9 a.a.9 h V.m >.B.c B.:.: 9 h n c 9 9 9 9 9 9 9 9 9 9 9 9 9 9 9 9 9 9 9 9 9 9 9 9 9 9 9 9 : >.V.h 9 a.a.9 9 h y h 9 9 h 9 9 9 9 9 9 9 9 9 9 9 9 9 9 9 9 9 9 9 9 9 9 9 9 9 9 9 9 : v B.v a.,.n V.c a.<.9 9 h y h 9 9 h 9 9 9 9 9 9 9 9 9 9 9 9 9 9 9 9 9 9 9 9 9 9 9 9 9 9 : v B.= v B.= c C.v : 9 h y g : h g 9 9 9 9 9 9 9 9 9 9 9 9 9 9 9 9 9 9 9 9 9 9 9 9 9 9 9 h <.>.: V.h 9 M.<.9 9 h y h 9 9 h 9 9 9 9 9 9 9 9 9 9 9 9 9 9 9 9 9 9 9 9 9 9 9 9 9 9 9 9 9 9 9 9 9 9 9 n n n n n n n n n n n n n ",
"9 9 9 9 9 9 9 9 9 9 9 9 ; v :.>.x :.c B.M.x G.x <.9 a.,.V.a.; 9 9 9 9 9 9 9 9 9 9 9 9 9 9 9 9 9 9 9 9 9 9 9 9 9 9 9 g <.v :.x >.:.x c C.V.B.n B.,.9 9 9 9 9 9 9 9 9 9 9 9 9 9 9 9 9 9 9 9 9 9 9 9 9 9 9 9 9 : c F.n >.Z.h G.n ,.h v C.V.B.n B.:.9 9 9 9 9 9 9 9 9 9 9 9 9 9 9 9 9 9 9 9 9 9 9 9 9 9 9 j B.: <.M.= <.c <.; B.V.V.<.n C.j 9 9 9 9 9 9 9 9 9 9 9 9 9 9 9 9 9 9 9 9 9 9 9 9 9 9 9 9 m a.x Z.y c :.>.x c C.V.B.n B.>.9 9 9 9 9 9 9 9 9 9 9 9 9 9 9 9 9 9 9 9 9 9 9 9 9 9 9 9 9 9 9 9 9 9 9 : : : : : : : : : : : : : ",
"9 9 9 9 9 9 9 9 9 9 9 9 ; v m :.c :.x B.a.j H.h a.9 c >.a.h ; 9 9 9 9 9 9 9 9 9 9 9 9 9 9 9 9 9 9 9 9 9 9 9 9 9 9 9 g ,.c >.x m :.x n m ,.v ,.c <.9 9 9 9 9 9 9 9 9 9 9 9 9 9 9 9 9 9 9 9 9 9 9 9 9 9 9 9 9 9 ,.m n :.Z.y G.v >.h m m ,.v >.v <.9 9 9 9 9 9 9 9 9 9 9 9 9 9 9 9 9 9 9 9 9 9 9 9 9 9 9 9 <.m Z.Z.9 <.x a.9 a.v >.:.v ,.n : 9 9 9 9 9 9 9 9 9 9 9 9 9 9 9 9 9 9 9 9 9 9 9 9 9 9 9 v C.V.Z.v c m :.x n m ,.v ,.c <.9 9 9 9 9 9 9 9 9 9 9 9 9 9 9 9 9 9 9 9 9 9 9 9 9 9 9 9 9 9 9 9 9 9 9 9 9 9 9 9 9 9 9 9 9 9 9 9 ",
"9 9 9 9 9 9 9 9 9 9 9 9 9 9 B.a.m v V.>.>.B.n B.>.: v B.<.,.: 9 9 9 9 9 9 9 9 9 9 9 9 9 9 9 9 9 9 9 9 9 9 9 9 9 9 9 : ,.B.:.v <.B.9 v n :.c :.v V.g 9 9 9 9 9 9 9 9 9 9 9 9 9 9 9 9 9 9 9 9 9 9 9 9 9 9 9 ; a.C.v B.<.m V.m a.M.: m v :.c m n V.9 9 9 9 9 9 9 9 9 9 9 9 9 9 9 9 9 9 9 9 9 9 9 9 9 9 9 9 <.g m B.m n C.m ; ,.c m m c <.,.; 9 9 9 9 9 9 9 9 9 9 9 9 9 9 9 9 9 9 9 9 9 9 9 9 9 9 x ,.<.x M.<.v a.B.9 n n :.c :.v V.g 9 9 9 9 9 9 9 9 9 9 9 9 9 9 9 9 9 9 9 9 9 9 9 9 9 9 9 9 9 9 9 9 9 9 9 9 9 9 9 9 9 9 9 9 9 9 9 ",
"9 9 9 9 9 9 9 9 9 9 9 9 9 9 9 9 9 9 y 9 9 y : y 9 9 g y : g 9 9 9 9 9 9 9 9 9 9 9 9 9 9 9 9 9 9 9 9 9 9 9 9 9 9 9 9 9 9 y 9 9 9 9 9 9 9 9 9 9 h 9 9 9 9 9 9 9 9 9 9 9 9 9 9 9 9 9 9 9 9 9 9 9 9 9 9 9 9 9 9 9 h y 9 9 9 g : 9 9 9 9 9 9 9 9 h 9 9 9 9 9 9 9 9 9 9 9 9 9 9 9 9 9 9 9 9 9 9 9 9 9 9 9 9 9 9 9 ; 9 9 9 g 9 9 9 9 9 9 9 h 9 9 9 9 9 9 9 9 9 9 9 9 9 9 9 9 9 9 9 9 9 9 9 9 9 9 9 9 9 h 9 ; : 9 9 9 9 9 9 9 9 9 9 h 9 9 9 9 9 9 9 9 9 9 9 9 9 9 9 9 9 9 9 9 9 9 9 9 9 9 9 9 9 9 9 9 9 9 9 9 9 9 9 9 9 9 9 9 9 9 9 9 9 ",
"9 9 9 9 9 9 9 9 9 9 9 9 9 9 9 9 9 9 9 9 9 9 9 9 9 9 9 9 9 9 9 9 9 9 9 9 9 9 9 9 9 9 9 9 9 9 9 9 9 9 9 9 9 9 9 9 9 9 9 9 9 9 9 9 9 9 9 9 9 9 9 9 9 9 9 9 9 9 9 9 9 9 9 9 9 9 9 9 9 9 9 9 9 9 9 9 9 9 9 9 9 9 9 9 9 9 9 9 9 9 9 9 9 9 9 9 9 9 9 9 9 9 9 9 9 9 9 9 9 9 9 9 9 9 9 9 9 9 9 9 9 9 9 9 9 9 9 9 9 9 9 9 9 9 9 9 9 9 9 9 9 9 9 9 9 9 9 9 9 9 9 9 9 9 9 9 9 9 9 9 9 9 9 9 9 9 9 9 9 9 9 9 9 9 9 9 9 9 9 9 9 9 9 9 9 9 9 9 9 9 9 9 9 9 9 9 9 9 9 9 9 9 9 9 9 9 9 9 9 9 9 9 9 9 9 9 9 9 9 9 9 9 9 9 9 9 9 9 9 9 9 9 9 9 9 9 ",
"9 9 9 9 9 9 9 9 9 9 9 9 9 9 9 9 9 9 9 9 9 9 9 9 9 9 9 9 9 9 9 9 9 9 9 9 9 9 9 9 9 9 9 9 9 9 9 9 9 9 9 9 9 9 9 9 9 9 9 9 9 9 9 9 9 9 9 9 9 9 9 9 9 9 9 9 9 9 9 9 9 9 9 9 9 9 9 9 9 9 9 9 9 9 9 9 9 9 9 9 9 9 9 9 9 9 9 9 9 9 9 9 9 9 9 9 9 9 9 9 9 9 9 9 9 9 9 9 9 9 9 9 9 9 9 9 9 9 9 9 9 9 9 9 9 9 9 9 9 9 9 9 9 9 9 9 9 9 9 9 9 9 9 9 9 9 9 9 9 9 9 9 9 9 9 9 9 9 9 9 9 9 9 9 9 9 9 9 9 9 9 9 9 9 9 9 9 9 9 9 9 9 9 9 9 9 9 9 9 9 9 9 9 9 9 9 9 9 9 9 9 9 9 9 9 9 9 9 9 9 9 9 9 9 9 9 9 9 9 9 9 9 9 9 9 9 9 9 9 9 9 9 9 9 9 9 ",
"9 9 9 9 9 9 9 9 9 9 9 9 9 9 9 9 9 9 9 9 9 9 9 9 9 9 9 9 9 9 9 9 9 9 9 9 9 9 9 9 9 9 9 9 9 9 9 9 9 9 9 9 9 9 9 9 9 9 9 9 9 9 9 9 9 9 9 9 9 9 9 9 9 9 9 9 9 9 9 9 9 9 9 9 9 9 9 9 9 9 9 9 9 9 9 9 9 9 9 9 9 9 9 9 9 9 9 9 9 9 9 9 9 9 9 9 9 9 9 9 9 9 9 9 9 9 9 9 9 9 9 9 9 9 9 9 9 9 9 9 9 9 9 9 9 9 9 9 9 9 9 9 9 9 9 9 9 9 9 9 9 9 9 9 9 9 9 9 9 9 9 9 9 9 9 9 9 9 9 9 9 9 9 9 9 9 9 9 9 9 9 9 9 9 9 9 9 9 9 9 9 9 9 9 9 9 9 9 9 9 9 9 9 9 9 9 9 9 9 9 9 9 9 9 9 9 9 9 9 9 9 9 9 9 9 9 9 9 9 9 9 9 9 9 9 9 9 9 9 9 9 9 9 9 9 9 ",
"9 9 9 9 9 9 9 9 9 9 9 9 9 9 9 9 9 9 9 9 9 9 9 9 9 9 9 9 9 9 9 9 9 9 9 9 9 9 9 9 9 9 9 9 9 9 9 9 9 9 9 9 9 9 9 9 9 9 9 9 9 9 9 9 9 9 9 9 9 9 9 9 9 9 9 9 9 9 9 9 9 9 9 9 9 9 9 9 9 9 9 9 9 9 9 9 9 9 9 9 9 9 9 9 9 9 9 9 9 9 9 9 9 9 9 9 9 9 9 9 9 9 9 9 9 9 9 9 9 9 9 9 9 9 9 9 9 9 9 9 9 9 9 9 9 9 9 9 9 9 9 9 9 9 9 9 9 9 9 9 9 9 9 9 9 9 9 9 9 9 9 9 9 9 9 9 9 9 9 9 9 9 9 9 9 9 9 9 9 9 9 9 9 9 9 9 9 9 9 9 9 9 9 9 9 9 9 9 9 9 9 9 9 9 9 9 9 9 9 9 9 9 9 9 9 9 9 9 9 9 9 9 9 9 9 9 9 9 9 9 9 9 9 9 9 9 9 9 9 9 9 9 9 9 9 9 ",
"9 9 9 9 9 9 9 9 9 9 9 9 9 9 9 9 9 9 9 9 9 9 9 9 9 9 9 9 9 9 9 9 9 9 9 9 9 9 9 9 9 9 9 9 9 9 9 9 9 9 9 9 9 9 9 9 9 9 9 9 9 9 9 9 9 9 9 9 9 9 9 x 9 9 9 9 9 9 9 9 9 9 9 9 9 9 9 9 9 9 9 9 9 9 9 9 9 9 9 9 9 9 9 9 9 9 9 9 9 9 9 9 9 9 9 9 9 9 9 9 9 9 9 9 9 9 9 9 9 9 9 9 9 9 9 9 9 9 9 9 9 9 9 9 9 9 9 9 9 9 9 9 9 9 9 9 9 9 9 9 9 9 9 9 9 9 9 9 9 9 9 9 9 9 9 9 9 9 9 9 9 9 x 9 9 9 9 9 9 9 9 9 9 9 9 9 9 9 9 9 9 9 9 9 9 9 9 9 9 9 9 9 9 9 9 9 9 9 9 9 9 9 9 9 9 9 9 9 9 9 9 9 9 9 9 9 9 9 9 9 9 9 9 9 9 9 9 9 9 9 9 9 9 9 9 9 ",
"9 9 9 9 9 9 9 9 9 9 9 9 9 9 9 : ; 9 9 9 9 9 9 9 9 9 : 9 9 9 9 9 9 9 9 9 9 9 9 9 9 9 9 9 9 9 9 9 9 9 : 9 9 9 : 9 9 9 9 9 9 9 9 9 9 9 9 9 9 9 9 x 9 9 9 9 9 9 9 9 9 9 9 9 9 9 9 9 9 9 ; 9 9 9 9 9 9 9 9 9 9 9 9 9 9 9 9 9 9 9 9 9 9 9 9 9 9 9 9 9 9 9 9 9 9 9 : ; 9 9 9 9 9 9 9 9 9 : 9 9 9 9 9 9 9 9 9 9 9 9 9 9 9 9 9 9 9 9 9 9 9 : 9 9 9 : 9 9 9 9 9 9 9 9 9 9 9 9 9 9 9 9 x 9 9 9 9 9 9 9 9 9 9 9 ; 9 9 9 9 9 9 9 9 9 9 9 9 9 9 9 9 9 9 9 9 9 9 9 9 9 9 9 9 9 9 9 9 9 9 9 9 9 9 9 9 9 9 9 9 9 9 9 9 9 : ; 9 9 9 9 9 9 9 : 9 9 ",
"9 9 9 9 9 9 9 9 9 9 9 9 9 9 9 x n 9 ; : 9 ; 9 9 : 9 m ; = x c = : : 9 : 9 9 9 9 9 9 9 9 9 9 9 g h : j y ; : m 9 9 ; : 9 9 : : ; 9 9 9 9 9 9 9 x 9 9 9 9 9 9 9 9 9 9 9 9 9 9 9 9 9 h n 9 = 9 9 9 9 : ; 9 ; 9 ; 9 9 9 9 9 9 9 9 9 9 9 9 9 9 9 9 9 9 9 9 9 9 9 c v 9 ; : : ; 9 9 ; 9 n ; = c x = : 9 9 : 9 9 9 9 9 9 9 9 9 9 9 h h : j 9 = 9 m : 9 ; : 9 9 : ; ; 9 9 9 9 9 9 9 x 9 9 9 9 9 9 9 9 9 9 h m h : ; ; 9 : 9 9 9 9 9 9 9 9 9 9 9 9 9 9 9 9 9 9 9 h 9 h 9 h 9 ; 9 : 9 9 9 9 9 9 9 9 9 9 9 9 9 9 9 c n 9 : ; : 9 : 9 x 9 h ",
"9 9 9 9 9 9 9 9 9 9 9 9 9 9 9 B.a.,.c c h m 9 ; h <.M.y v m :.x n z y x 9 9 9 9 9 9 9 9 9 9 = >.F.= H.v v x <.x h v z j g j c :.9 9 9 9 9 9 9 x 9 9 9 9 9 9 9 9 9 9 9 9 9 9 9 9 9 V.n y :.j h g j x m g :.h m h 9 9 9 9 9 9 9 9 9 9 9 9 9 9 9 9 9 9 9 9 9 9 B.a.>.c x z n : ; h a.<.h c :.m c v j y x 9 9 9 9 9 9 9 9 9 9 = a.C.; J.x n x <.j h n j j g j v :.9 9 9 9 9 9 9 x 9 9 9 9 9 9 9 9 9 = a.<.B.x n n 9 x 9 9 9 9 9 9 9 9 9 9 9 9 9 9 9 9 9 9 ; >.v Z.v <.g n c V.9 9 9 9 9 9 9 9 9 9 9 9 9 9 9 C.,.<.j m c y h n F.c F.",
"9 9 9 9 9 9 9 9 9 9 9 9 9 9 : B.B.m C.x B.Z.,.g <.,.a.a.C.C.v c Z.B.>.>.; 9 9 9 9 9 9 9 9 9 ; n Z.c Z.c >.B.V.B.m Z.C.B.j a.B.,.,.; 9 9 9 9 9 x 9 9 9 9 9 9 9 9 9 9 9 9 9 9 9 9 9 <.m :.,.,.a.x ,.B.m ,.m >.Z.B.9 9 9 9 9 9 9 9 9 9 9 9 9 9 9 9 9 9 9 9 9 9 V.a.m C.x V.Z.:.h a.,.a.B.V.C.c n Z.a.>.:.; 9 9 9 9 9 9 9 9 9 ; :.V.v Z.j <.B.C.<.:.Z.C.<.x a.a.,.:.; 9 9 9 9 9 x 9 9 9 9 9 9 9 9 9 ; <.9 c Z.<.m ,.a.9 9 9 9 9 9 9 9 9 9 9 9 9 9 9 9 9 9 : x B.a.B.m <.C.C.a.9 9 9 9 9 9 9 9 9 9 9 9 9 9 9 <.* <.Z.m ,.,.>.:.:.a.M.",
"9 9 9 9 9 9 9 9 9 9 9 9 9 9 : V.h 9 M.: Z.,.m c a.v B.V.,.<.a.M.Z.:.F.h 9 9 9 9 9 9 9 9 9 9 ; m a.Z.<.B.B.V.Z.B.>.C.m B.m B.<.m <.; 9 9 9 9 9 x 9 9 9 9 9 9 9 9 9 9 9 9 9 9 9 9 9 9 B.Z.c ,.a.m a.a.y <.z ,.V.v 9 9 9 9 9 9 9 9 9 9 9 9 9 9 9 9 9 9 9 9 9 9 V.9 g <.9 F.:.m v <.n B.C.:.<.<.B.C.:.F.9 9 9 9 9 9 9 9 9 9 9 ; :.M.C.<.B.V.V.F.a.<.V.m a.:.B.,.m ,.; 9 9 9 9 9 x 9 9 9 9 9 9 9 9 9 ; a.c <.B.v ; F.m ; 9 9 9 9 9 9 9 9 9 9 9 9 9 9 9 9 9 9 9 H.v G.v B.<.:.<.; 9 9 9 9 9 9 9 9 9 9 9 9 9 9 B.x B.B.9 c F.v >.g J.c ",
"9 9 9 9 9 9 9 9 9 9 9 9 9 9 9 n 9 9 m : c ,.9 = c a.v x >.c c >.:.j C.: 9 9 9 9 9 9 9 9 9 9 : x c m x n ,.m c c c :.c v a.v C.a.h 9 9 9 9 9 9 x 9 9 9 9 9 9 9 9 9 9 9 9 9 9 9 9 9 ,.:.h a.v h a.m v y h a.x >.c 9 9 9 9 9 9 9 9 9 9 9 9 9 9 9 9 9 9 9 9 9 9 n 9 y n ; n >.9 = v M.c c >.c c ,.m c V.; 9 9 9 9 9 9 9 9 9 9 : c c m x m ,.m c c c >.c m a.v Z.<.g 9 9 9 9 9 9 x 9 9 9 9 9 9 9 9 9 : n B.v j c = C.j : 9 9 9 9 9 9 9 9 9 9 9 9 9 9 9 9 9 9 : :.y m g h ,.h ,.h 9 9 9 9 9 9 9 9 9 9 9 9 9 9 <.a.h v 9 h V.h x 9 >.9 ",
"9 9 9 9 9 9 9 9 9 9 9 9 9 9 9 : 9 9 : 9 : : 9 9 : ; : 9 : 9 : : = ,.v : 9 9 9 9 9 9 9 9 9 9 9 9 : ; 9 : : : : : : : 9 : ; 9 >.= 9 9 9 9 9 9 9 x 9 9 9 9 9 9 9 9 9 9 9 9 9 9 9 9 9 : : 9 ; : 9 ; ; : 9 9 ; 9 : 9 9 9 9 9 9 9 9 9 9 9 9 9 9 9 9 9 9 9 9 9 9 9 : 9 9 : 9 : : 9 9 : ; : : : 9 : : ; <.x : 9 9 9 9 9 9 9 9 9 9 9 9 : : 9 : : : : : : : 9 : = 9 >.= 9 9 9 9 9 9 9 x 9 9 9 9 9 9 9 9 9 9 : ; : 9 ; v ,.: 9 9 9 9 9 9 9 9 9 9 9 9 9 9 9 9 9 9 9 9 ; 9 ; 9 9 : 9 ; 9 9 9 9 9 9 9 9 9 9 9 9 9 9 9 ; ; 9 9 : ,.v ; 9 9 ; 9 ",
"9 9 9 9 9 9 9 9 9 9 9 9 9 9 9 9 9 9 9 9 9 9 9 9 9 9 9 9 9 9 9 9 9 9 9 9 9 9 9 9 9 9 9 9 9 9 9 9 9 9 9 9 9 9 9 9 9 9 9 9 9 9 9 9 9 9 9 9 9 9 9 x 9 9 9 9 9 9 9 9 9 9 9 9 9 9 9 9 9 9 9 9 9 9 9 9 9 9 9 9 9 9 9 9 9 9 9 9 9 9 9 9 9 9 9 9 9 9 9 9 9 9 9 9 9 9 9 9 9 9 9 9 9 9 9 9 9 9 9 9 9 9 9 9 9 9 9 9 9 9 9 9 9 9 9 9 9 9 9 9 9 9 9 9 9 9 9 9 9 9 9 9 9 9 9 9 9 9 9 9 9 9 x 9 9 9 9 9 9 9 9 9 9 9 9 9 9 9 9 9 9 9 9 9 9 9 9 9 9 9 9 9 9 9 9 9 9 9 9 9 9 9 9 9 9 9 9 9 9 9 9 9 9 9 9 9 9 9 9 9 9 9 9 9 9 9 9 9 9 9 9 9 9 9 9 9 ",
"9 9 9 9 9 9 9 9 9 9 9 9 9 9 9 9 9 9 9 9 9 9 9 9 9 9 9 9 9 9 9 9 9 9 9 9 9 9 9 9 9 9 9 9 9 9 9 9 9 9 9 9 9 9 9 9 9 9 9 9 9 9 9 9 9 9 9 9 9 9 9 x 9 9 9 9 9 9 9 9 9 9 9 9 9 9 9 9 9 9 9 9 9 9 9 9 9 9 9 9 9 9 9 9 9 9 9 9 9 9 9 9 9 9 9 9 9 9 9 9 9 9 9 9 9 9 9 9 9 9 9 9 9 9 9 9 9 9 9 9 9 9 9 9 9 9 9 9 9 9 9 9 9 9 9 9 9 9 9 9 9 9 9 9 9 9 9 9 9 9 9 9 9 9 9 9 9 9 9 9 9 9 x 9 9 9 9 9 9 9 9 9 9 9 9 9 9 9 9 9 9 9 9 9 9 9 9 9 9 9 9 9 9 9 9 9 9 9 9 9 9 9 9 9 9 9 9 9 9 9 9 9 9 9 9 9 9 9 9 9 9 9 9 9 9 9 9 9 9 9 9 9 9 9 9 9 ",
"9 9 9 9 9 9 9 9 9 9 9 9 9 9 9 9 9 9 9 9 9 9 9 8 8 8 8 9 9 9 9 9 9 9 9 9 9 9 9 9 9 9 9 9 9 9 9 9 9 9 9 9 9 9 8 8 8 8 9 9 9 9 9 9 9 9 9 9 9 9 9 x 9 9 9 9 9 9 9 9 9 9 9 9 9 9 9 9 9 9 9 9 9 9 9 9 9 9 9 9 9 9 9 9 9 9 9 9 9 9 9 9 9 9 9 9 9 9 9 9 9 9 9 9 9 9 9 9 9 9 9 9 9 9 - > > > : 9 9 9 9 9 9 9 9 9 9 9 9 9 9 9 9 9 9 9 9 9 9 9 9 9 9 > > > > 9 9 9 9 9 9 9 9 9 9 9 9 9 x 9 9 9 9 9 9 9 9 9 9 9 9 8 6 6 6 9 9 9 9 9 9 9 9 9 9 9 9 9 9 9 9 9 9 9 9 9 9 9 9 - - - - 9 9 9 9 9 9 9 9 9 9 9 9 9 9 9 9 9 9 9 9 9 9 9 9 8 6 6 6 9 ",
"9 9 9 9 9 9 9 9 9 9 9 9 9 9 9 9 9 9 9 9 9 8 9 t S S S e 9 8 9 9 9 9 9 9 9 9 9 9 9 9 9 9 9 9 9 9 9 9 9 8 8 9 S D D D e 8 9 9 9 9 9 9 9 9 9 9 9 x 9 9 9 9 9 9 9 9 9 9 9 9 9 9 9 9 9 9 9 9 9 9 9 9 9 9 9 9 9 9 9 9 9 9 9 9 9 9 9 9 9 9 9 9 9 9 9 9 9 9 9 9 9 9 9 9 9 9 9 9 : 9 &.6.;.6.0 : : 9 9 9 9 9 9 9 9 9 9 9 9 9 9 9 9 9 9 9 9 9 : : 0 ;.;.6.;.9 : 9 9 9 9 9 9 9 9 9 9 9 x 9 9 9 9 9 9 9 9 9 9 8 9 5  .4  .g 9 8 9 9 9 9 9 9 9 9 9 9 9 9 9 9 9 9 9 9 9 : 9 2.s.2.2.u : : 9 9 9 9 9 9 9 9 9 9 9 9 9 9 9 9 9 9 9 9 9 N W 4 W g ",
"9 9 9 9 9 9 9 9 9 9 9 9 9 9 9 9 9 9 9 9 9 D W.W.!.W.!.Z W.r 8 9 9 9 9 9 9 9 9 9 9 9 9 9 9 9 9 9 9 9 9 e )._.`.`._.`._.).9 8 9 9 9 9 9 9 9 9 9 x 9 9 9 9 9 9 9 9 9 9 9 9 9 9 9 9 9 9 9 9 9 9 9 9 9 9 9 9 9 9 9 9 9 9 9 9 9 9 9 9 9 9 9 9 9 9 9 9 9 9 9 9 9 9 9 9 9 9 9 9 5.;X;XhX;XhX;X-X0 : 9 9 9 9 9 9 9 9 9 9 9 9 9 9 9 9 9 9 9 : h 4X-XgXfXgXgX;X*X9 : 9 9 9 9 9 9 9 9 9 x 9 9 9 9 9 9 9 9 9 9  .%.$.$X$.$X#.#.3 8 9 9 9 9 9 9 9 9 9 9 9 9 9 9 9 9 9 9 l.yXyXVXyXZXyXwX0 : 9 9 9 9 9 9 9 9 9 9 9 9 9 9 9 9 9 9 W @.@.OX@.OX@.",
"9 9 9 9 9 9 9 9 9 9 9 9 9 9 9 9 9 9 8 e W.Z Q.Q.H D W.!.W.W.H 8 9 9 9 9 9 9 9 9 9 9 9 9 9 9 9 9 9 6 S _.).{._.K K _.{.Q._.D 8 9 9 9 9 9 9 9 9 x 9 9 9 9 9 9 9 9 9 9 9 9 9 9 9 9 9 9 9 9 9 9 9 9 9 9 9 9 9 9 9 9 9 9 9 9 9 9 9 9 9 9 9 9 9 9 9 9 9 9 9 9 9 9 9 9 9 > a fX-XhXgX=X5.;XhX;X;X*X> 9 9 9 9 9 9 9 9 9 9 9 9 9 9 9 9 9 > 8.kXtXxXfX5.*XfXhX-XfX;.> 9 9 9 9 9 9 9 9 x 9 9 9 9 9 9 9 6 3 %.#.$X].|  .$.$X$.$.| 6 9 9 9 9 9 9 9 9 9 9 9 9 9 9 > 2.yXqXZXyXl.l.yXZXqXyXs.> 9 9 9 9 9 9 9 9 9 9 9 9 9 9 6 g @.@.OXOX..Q @.OX",
"9 9 9 9 9 9 9 9 9 9 9 9 9 9 9 9 9 8 l H Q.W.l - @ @ % < S !.W.D 9 9 9 9 9 9 9 9 9 9 9 9 9 9 9 9 8 D ).{.).t = # # * t K [._.D 8 9 9 9 9 9 9 9 x 9 9 9 9 9 9 9 9 9 9 9 9 9 9 9 9 9 9 9 9 9 9 9 9 9 9 9 9 9 9 9 9 9 9 9 9 9 9 9 9 9 9 9 9 9 9 9 9 9 9 9 9 9 9 9 9 - ;.=XhX-Xa 6 O O * q 5.jX;X5.: 9 9 9 9 9 9 9 9 9 9 9 9 9 9 9 : 8.tXlX6Xq * O O = q =XjX-X;.- 9 9 9 9 9 9 9 x 9 9 9 9 9 9 6 4 | $X$.3 > @ # @ 3  .#X%.' 9 9 9 9 9 9 9 9 9 9 9 9 9 - 2.wXZXwXa = X O * p l.ZXyXs.- 9 9 9 9 9 9 9 9 9 9 9 9 8 N ..OX@.N ; @ @ @ 3 ",
"9 9 9 9 9 9 9 9 9 9 9 9 9 9 9 9 9 8 D ~.W.< o O = ; * o @ S !.Q.t 8 9 9 9 9 9 9 9 9 9 9 9 9 9 9 9 Q.[.).= o @ ; ; % o = W.`.W.9 9 9 9 9 9 9 9 x 9 9 9 9 9 9 9 9 9 9 9 9 9 y 9 9 9 9 9 9 9 9 9 9 9 9 9 y y 9 9 9 9 9 9 9 y y 9 9 9 9 9 9 9 9 9 9 9 9 9 9 9 9 9 9 : *XjX-X8 + O = ; * + , 5.jXfXq : 9 9 9 9 9 9 9 9 9 9 9 9 9 : u zXlX6X* + O ; ; @ + = =XjX-X9 9 9 9 9 9 9 9 x 9 9 9 9 9 9 8 ..#X$.3 . @ = ; * . @  .$X%.3 8 9 9 9 9 9 9 9 9 9 9 9 9 qXZXwX;   @ ; ; *   * l.ZXyXu : 9 9 9 9 9 9 9 9 9 9 9 6 Q OX@.3 . O = ; * . ",
"y 9 9 9 9 9 9 9 9 9 9 9 9 9 9 9 8 S W.H < o = x m m m x @ @ S Z W.e 9 9 9 9 9 9 9 9 9 9 9 9 9 8 W._.K = o 9 c m m m e + * D W.A 8 9 9 9 9 9 9 x 9 9 9 9 9 9 9 9 9 h j j j h j j j j j j j j j j j j j h h x j j j h h x h h j 9 9 9 9 9 9 9 9 9 9 9 9 9 9 9 9 > 5.fX*X0 + ; c m m m j O , 5.-X-X9 9 9 9 9 9 9 9 9 9 9 9 9 9 > tXzXk.* X : 9 n :.n 0 + 6 *X;X*X> 9 9 9 9 9 9 x 9 9 9 9 9 6  .%.| 3 . = x m m m j O @  .#.$.9 9 9 9 9 9 9 9 9 9 9 > l.yXl.8 + 9 c m m m h X * l.qXwX- 9 9 9 9 9 9 9 9 9 9 6 4 @...3 . = x m m m x ",
"h 9 9 9 9 9 9 9 9 9 9 9 9 9 9 9 8 S !.H # * c m m :.>.,.x O ; Q.Q.r 8 9 9 9 9 9 9 9 9 9 9 9 9 9 W.[.D o : v m m >.m 9 * o t ~.Z 9 9 9 9 9 9 9 x 9 9 9 9 9 9 9 9 9 h x x c c x h j j h h j j h j j h h c n h j j j h h g ,.,.g h 9 9 9 9 9 9 9 9 9 9 9 9 9 9 9 : 5.jX5.+ = c m m :.>.>.j X 0 hX;X0 : 9 9 9 9 9 9 9 9 9 9 9 9 0 tXlX2.+ 9 n 9 j >.>.>.9 + ;.jX=X: 9 9 9 9 9 9 x 9 9 9 9 9 8  .#X..# * c m m :.>.,.j o : $X%.3 9 9 9 9 9 9 9 9 9 9 9 l.ZXs.+ : v m m :.>.>.h   a ZXqX9 9 9 9 9 9 9 9 9 9 9 8 W OX..# * c m m :.>.,.",
"g 9 9 9 9 9 9 9 9 9 9 9 9 9 9 9 e W.!.l o 9 n n m m :.>.:.= @ Z !.D 8 9 9 9 9 9 9 9 9 9 9 9 8 S `.`.< O j n n m c 9 j n @ - Q.Q.l 8 9 9 9 9 9 x 9 9 9 9 9 9 9 9 : m Z.>.x V.c c j h m Z.h j a.j h c j Z.a.:.j j j h g v pXpXc g 9 9 9 9 9 9 9 9 9 9 9 9 9 9 : q fXhX9.+ h n n m m :.>.m * , ;XhX;.> 9 9 9 9 9 9 9 9 9 9 9 > 2.lXkX= O x m z 9 m :.>.v O 0 gXfXa : 9 9 9 9 9 x 9 9 9 9 9 g %.$X4 . g n n m m :.>.:.= @ #.$X .6 9 9 9 9 9 9 9 9 - b VXZXi X h n n m m :.>.m * = yXZX2.- 9 9 9 9 9 9 9 9 9 y @.OX4 . 9 n n m m :.>.",
"g 9 9 9 9 9 9 9 9 9 9 9 9 9 9 9 e Z Z < o h v v m m m :.:.9 o S W.D 8 9 9 9 9 9 9 9 9 9 9 9 8 l _.).* @ x v n m v c >.m * % H W.l 8 9 9 9 9 9 x 9 9 9 9 9 9 9 9 : ,.V.c a.a.,.Z.B.h v Z.j j C.h m Z.B.S.B.F.j j j h g m <.<.m g 9 9 9 9 9 9 9 9 9 9 9 9 9 9 : q -X-X6 O j v n m m m :.:.8 O 5.fX;.> 9 9 9 9 9 9 9 9 9 9 9 - 2.zX6XO * c v v v m m :.m * * =X;Xa : 9 9 9 9 9 x 9 9 9 9 9 g #.#.> o h v n m m h y g * o  .%. .6 9 9 9 9 9 9 9 9 : a yX6X* O x v n m m h g g O O l.yX2.- 9 9 9 9 9 9 9 9 9 9 @.@.3 . h v v m m :.:.",
"g 9 9 9 9 9 9 9 9 9 9 9 9 9 9 9 e W.).< o h v v x n m m m 9 o D Q.D 8 9 9 9 9 9 9 9 9 9 9 9 8 S `.).& @ x v v n m m m n * % Z Q.l 8 9 9 9 9 9 x 9 9 9 9 9 9 9 9 : >.Z.m B.a.Z.Z.M.j h V.x j V.9 B.Z.M.a.:.<.y j j h g :.G.G.m g 9 9 9 9 9 9 9 9 9 9 9 9 9 9 : q fX;X6 O h v c x n m m m ; X *XhX6.> 9 9 9 9 9 9 9 9 9 9 9 > 2.lXtXO * x v v m m m m v @ = ;XgX&.- 9 9 9 9 9 x 9 9 9 9 9 g %.%.> o h v v n m x j j * o C #.4 6 9 9 9 9 9 9 9 9 - b VXqX* O j v v n n j j h @ O l.wX&.- 9 9 9 9 9 9 9 9 9 9 @.@.3 . g v v n c c m ",
"h 9 9 9 9 9 9 9 9 9 9 9 9 9 9 9 9 A !.S o : v j 9 c n m v * @ W.Q.S 8 9 9 9 9 9 9 9 9 9 9 9 8 l _.`.< o g c c v n n m x O < Q.W.l 8 9 9 9 9 9 x 9 9 9 9 9 9 9 9 : >.:.g B.<.>.V.m h j B.x h Z.B.>.V.m a.m Z.x h j h h j R.T.j h 9 9 9 9 9 9 9 9 9 9 9 9 9 9 : 0 -XhX;.+ 9 v h 9 v n m c @ * fXfX;.> 9 9 9 9 9 9 9 9 9 9 9 - 2.kXkX8 X h v c v n n m h + 9.hX;Xa : 9 9 9 9 9 x 9 9 9 9 9 y O.$X4 . 9 c c v n m m v * * | O.4 8 9 9 9 9 9 9 9 9 : p qXZXa   y c c v n m m c O 8 wX6Xa : 9 9 9 9 9 9 9 9 9 9 ..OXW . : c c n h 9 m ",
"h 9 9 9 9 9 9 9 9 9 9 9 9 9 9 9 8 D ~.H # O g 9 h n n v 9 o : Q.Q.e 8 9 9 9 9 9 9 9 9 9 9 9 9 8 ).[.D o * j c v v n c = o l ~.Z 8 9 9 9 9 9 9 x 9 9 9 9 9 9 9 9 9 j x j j j h c c j j j j j x n j c c j h c x j j h h h n v h h 9 9 9 9 9 9 9 9 9 9 9 9 9 9 9 > 5.jX5.+ @ h 9 j n n v 8 + q hXfX0 9 9 9 9 9 9 9 9 9 9 9 9 9 : dXlX2.+ = x v v v n c * + ;.jX=X> 9 9 9 9 9 9 x 9 9 9 9 9 6 ' #X..# O h c v v n v : . : #.O.g 9 9 9 9 9 9 9 9 9 9 - 6XZXs.  & j c v v n c =   a qXl.9 9 9 9 9 9 9 9 9 9 9 6 W OX..# O g c v v 9 h ",
"9 9 9 9 9 9 9 9 9 9 9 9 9 9 9 9 8 l Z Z S # X * h x h ; o * H Z H 9 9 9 9 9 9 9 9 9 9 9 9 9 9 8 H Q.).t . * y j j h * o < Z Z D 8 9 9 9 9 9 9 x 9 9 9 9 9 9 9 9 9 y h j h h j h h j j h h j h h j h h h j h h j j h h j h h h 9 9 9 9 9 9 9 9 9 9 9 9 9 9 9 9 - ;.-X-X;.+ o = j x h ; + ; =X-X*X: 9 9 9 9 9 9 9 9 9 9 9 9 9 - k.tXtX0 + * g j j g * + &.-X-X6.> 9 9 9 9 9 9 x 9 9 9 9 9 6 4 #.#.4 # O 9 h x h ; . = ' '  .9 9 9 9 9 9 9 9 9 9 9 - s.qXqXa + % 9 j x h = + 0 l.l.-.: 9 9 9 9 9 9 9 9 9 9 8 3 @.@.W . O 9 h x y O ",
"9 9 9 9 9 9 9 9 9 9 9 9 9 9 9 9 9 8 D ~.Q.S @ X O O O O - H !.Q.e 8 9 9 9 9 9 9 9 9 9 9 9 9 9 9 8 _.[._.l @ X O O X O < W.~.W.8 9 9 9 9 9 9 9 x 9 9 9 9 9 9 9 9 9 9 9 9 9 9 9 9 9 9 9 9 9 9 9 9 9 9 9 9 9 9 9 9 9 9 9 9 9 9 9 9 9 9 9 9 9 9 9 9 9 9 9 9 9 9 9 9 > =XjXfX;.O . O O O O 0 -XhXgX9 : 9 9 9 9 9 9 9 9 9 9 9 9 9 9 9 zXlXdXa O X O O o O &.;XjX-X> 9 9 9 9 9 9 9 x 9 9 9 9 9 9 6 ..#X%.4 @ X O O O O : ' #.#.y 9 9 9 9 9 9 9 9 9 9 9 9 - qXZXyXs O o O O O O u l.qX6X: 9 9 9 9 9 9 9 9 9 9 9 9 6 Q OXOXW @ X O O O . ",
"9 9 9 9 9 9 9 9 9 9 9 9 9 9 9 9 9 9 e D !.W.9 9 = = ; 8 l ~.Z l 9 9 9 9 9 9 9 9 9 9 9 9 9 9 9 9 8 l ).[.K 8 : = = : 8 D ~.H t 9 9 9 9 9 9 9 9 x 9 9 9 9 9 9 9 9 9 9 9 9 9 9 9 9 9 9 9 9 9 9 9 9 9 9 9 9 9 9 9 9 9 9 9 9 9 9 9 9 9 9 9 9 9 9 9 9 9 9 9 9 9 9 9 9 : q *XjX-X- 9 = = ; > ;.jX=X&.9 9 9 9 9 9 9 9 9 9 9 9 9 9 9 9 : &.tXlXk.> 8 = = 8 > *XjX5.q : 9 9 9 9 9 9 9 x 9 9 9 9 9 9 9 g ..#X$.8 : = = ; 8 5 $.' 3 9 9 9 9 9 9 9 9 9 9 9 9 9 : a 6XZX6X- 9 = = : - 2.yXy.p 9 9 9 9 9 9 9 9 9 9 9 9 9 9 y Q OX@.9 9 = = ; 8 ",
"9 9 9 9 9 9 9 9 9 9 9 9 9 9 9 9 9 9 8 9 A l 8 9 9 9 9 9 8 H D 8 9 9 9 9 9 9 9 9 9 9 9 9 9 9 9 9 9 8 l ).r 8 9 9 9 9 9 e Z l 8 9 9 9 9 9 9 9 9 x 9 9 9 9 9 9 9 9 9 9 9 9 9 9 9 9 9 9 9 9 9 9 9 9 9 9 9 9 9 9 9 9 9 9 9 9 9 9 9 9 9 9 9 9 9 9 9 9 9 9 9 9 9 9 9 9 9 : 0 -X&.- 9 9 9 9 9 : =X;.> 9 9 9 9 9 9 9 9 9 9 9 9 9 9 9 9 9 > 2.tX0 9 9 9 9 9 : q -Xa > 9 9 9 9 9 9 9 9 x 9 9 9 9 9 9 9 8 9 #.4 6 9 9 9 9 9 8 ' 4 6 9 9 9 9 9 9 9 9 9 9 9 9 9 9 - a qXp : 9 9 9 9 9 9 l.s - 9 9 9 9 9 9 9 9 9 9 9 9 9 9 9 9 ..4 6 9 9 9 9 9 ",
"9 9 9 9 9 9 9 9 9 9 9 9 9 9 9 9 9 9 9 9 8 9 9 9 9 9 9 9 9 8 8 9 9 9 9 9 9 9 9 9 9 9 9 9 9 9 9 9 9 9 8 8 9 9 9 9 9 9 9 9 8 8 9 9 9 9 9 9 9 9 9 x 9 9 9 9 9 9 9 9 9 9 9 9 9 9 9 9 9 9 9 9 9 9 9 9 9 9 9 9 9 9 9 9 9 9 9 9 9 9 9 9 9 9 9 9 9 9 9 9 9 9 9 9 9 9 9 9 9 9 : - 9 9 9 9 9 9 9 9 : : 9 9 9 9 9 9 9 9 9 9 9 9 9 9 9 9 9 9 9 - - 9 9 9 9 9 9 9 9 - : 9 9 9 9 9 9 9 9 9 x 9 9 9 9 9 9 9 9 9 6 9 9 9 9 9 9 9 9 9 8 9 9 9 9 9 9 9 9 9 9 9 9 9 9 9 9 : - 9 9 9 9 9 9 9 9 : : 9 9 9 9 9 9 9 9 9 9 9 9 9 9 9 9 9 6 9 9 9 9 9 9 9 ",
"9 9 9 9 9 9 9 9 9 9 9 9 9 9 9 9 9 9 9 9 9 9 9 9 9 9 9 9 9 9 9 9 9 9 9 9 9 9 9 9 9 9 9 9 9 9 9 9 9 9 9 9 9 9 9 9 9 9 9 9 9 9 9 9 9 9 9 9 9 9 9 x 9 9 9 9 9 9 9 9 9 9 9 9 9 9 9 9 9 9 9 9 9 9 9 9 9 9 9 9 9 9 9 9 9 9 9 9 9 9 9 9 9 9 9 9 9 9 9 9 9 9 9 9 9 9 9 9 9 9 9 9 9 9 9 9 9 9 9 9 9 9 9 9 9 9 9 9 9 9 9 9 9 9 9 9 9 9 9 9 9 9 9 9 9 9 9 9 9 9 9 9 9 9 9 9 9 9 9 9 9 9 x 9 9 9 9 9 9 9 9 9 9 9 9 9 9 9 9 9 9 9 9 9 9 9 9 9 9 9 9 9 9 9 9 9 9 9 9 9 9 9 9 9 9 9 9 9 9 9 9 9 9 9 9 9 9 9 9 9 9 9 9 9 9 9 9 9 9 9 9 9 9 9 9 9 ",
"9 9 9 9 9 9 9 9 9 9 9 9 9 9 9 9 9 9 9 9 9 9 9 9 9 9 9 9 9 9 9 9 9 9 9 9 9 9 9 9 9 9 9 9 9 9 9 9 9 9 9 9 9 9 9 9 9 9 9 9 9 9 9 9 9 9 9 9 9 9 9 x 9 9 9 9 9 9 9 9 9 9 9 9 9 9 9 9 9 9 9 9 9 9 9 9 9 9 9 9 9 9 9 9 9 9 9 9 9 9 9 9 9 9 9 9 9 9 9 9 9 9 9 9 9 9 9 9 9 9 9 9 9 9 9 9 9 9 9 9 9 9 9 9 9 9 9 9 9 9 9 9 9 9 9 9 9 9 9 9 9 9 9 9 9 9 9 9 9 9 9 9 9 9 9 9 9 9 9 9 9 9 x 9 9 9 9 9 9 9 9 9 9 9 9 9 9 9 9 9 9 9 9 9 9 9 9 9 9 9 9 9 9 9 9 9 9 9 9 9 9 9 9 9 9 9 9 9 9 9 9 9 9 9 9 9 9 9 9 9 9 9 9 9 9 9 9 9 9 9 9 9 9 9 9 9 ",
"9 9 9 9 9 9 9 9 9 9 9 9 9 9 9 9 9 9 9 9 9 y 9 9 9 9 : g : 9 9 9 9 9 9 9 9 9 9 9 9 9 9 9 9 9 9 9 9 9 9 9 9 y 9 9 9 9 9 g 9 9 9 9 9 9 9 9 9 9 9 x 9 9 9 9 9 9 9 9 9 9 9 9 9 9 9 9 9 9 9 9 9 9 9 9 9 9 9 9 9 9 9 9 9 9 9 9 9 9 9 9 9 9 9 9 9 9 9 9 9 9 9 9 9 9 9 9 9 9 9 9 9 9 9 9 9 9 g : y 9 9 9 9 9 9 9 9 9 9 9 9 9 9 9 9 9 9 9 9 9 9 h 9 9 y 9 9 y 9 9 h 9 9 9 9 9 9 9 9 9 x 9 9 9 9 9 9 9 9 9 9 9 g 9 9 9 y : g 9 9 9 9 9 9 9 9 9 9 9 9 9 9 9 9 9 9 9 9 y 9 9 9 g 9 9 9 9 9 9 9 9 9 9 9 9 9 9 9 9 9 9 9 9 9 9 9 9 9 9 9 g : 9 ",
"9 9 9 9 9 9 9 9 9 9 9 9 9 9 9 9 9 9 9 9 ,.V.h 9 B.<.m V.n M.a.9 9 9 9 9 9 9 9 9 9 9 9 9 9 9 9 9 9 9 9 9 <.V.h 9 B.<.m C.c : 9 9 9 9 9 9 9 9 9 x 9 9 9 9 9 9 9 9 9 9 9 9 9 9 9 9 9 9 9 9 9 9 9 9 9 9 9 9 9 9 9 9 9 9 9 9 9 9 9 9 9 9 9 9 9 9 9 9 9 9 9 9 9 9 9 9 9 9 9 <.B.y g V.,.:.V.n B.<.9 9 9 9 9 9 9 9 9 9 9 9 9 9 9 9 9 9 9 : j B.>.,.B.h g B.,.v B.v : 9 9 9 9 9 9 9 x 9 9 9 9 9 9 9 9 9 : m C.c ; <.B.n V.:.: 9 9 9 9 9 9 9 9 9 9 9 9 9 9 9 9 9 h V.<.; v C.m <.B.y 9 9 9 9 9 9 9 9 9 9 9 9 9 9 9 9 9 9 9 9 V.v n V.n B.",
"9 9 9 9 9 9 9 9 9 9 9 9 9 9 9 9 9 9 9 h ,.c m c m :.Z.y G.v :.c : 9 9 9 9 9 9 9 9 9 9 9 9 9 9 9 9 9 9 h ,.v m c m :.Z.h <.; 9 9 9 9 9 9 9 9 9 x 9 9 9 9 9 9 9 9 9 9 9 9 9 9 9 9 9 9 9 9 9 9 9 9 9 9 9 9 9 9 9 9 9 9 9 9 9 9 9 9 9 9 9 9 9 9 9 9 9 9 9 9 9 9 9 9 9 : x >.n v v v <.C.g H.x ,.j : 9 9 9 9 9 9 9 9 9 9 9 9 9 9 9 9 9 y 9 g Z.<.>.m c ,.<.c <.m ; 9 9 9 9 9 9 9 x 9 9 9 9 9 9 9 9 9 9 <.x ,.g ,.c H.h <.9 9 9 9 9 9 9 9 9 9 9 9 9 9 9 9 9 ; :.v ,.h ,.h Z.:.m m ; 9 9 9 9 9 9 9 9 9 9 9 9 9 9 9 9 9 9 : >.:.,.h G.c ",
"9 9 9 9 9 9 9 9 9 9 9 9 9 9 9 9 9 9 9 h ,.n :.c :.>.Z.h F.n ,.c : 9 9 9 9 9 9 9 9 9 9 9 9 9 9 9 9 9 9 h ,.n :.c m >.Z.x <.; 9 9 9 9 9 9 9 9 9 x 9 9 9 9 9 9 9 9 9 9 9 9 9 9 9 9 9 9 9 9 9 9 9 9 9 9 9 9 9 9 9 9 9 9 9 9 9 9 9 9 9 9 9 9 9 9 9 9 9 9 9 9 9 9 9 9 9 : j >.m m n m <.V.j G.c <.h : 9 9 9 9 9 9 9 9 9 9 9 9 9 9 9 9 h ,.y <.h v Z.m 9 >.Z.h ,.,.; 9 9 9 9 9 9 9 x 9 9 9 9 9 9 9 9 9 9 <.c <.h ,.v G.j a.9 9 9 9 9 9 9 9 9 9 9 9 9 9 9 9 9 ; m n <.h ,.x Z.:.:.n ; 9 9 9 9 9 9 9 9 9 9 9 9 9 9 9 9 9 9 ; n :.>.x G.v ",
"9 9 9 9 9 9 9 9 9 9 9 9 9 9 9 9 9 9 9 : >.B.m v <.<.v V.c a.<.9 9 9 9 9 9 9 9 9 9 9 9 9 9 9 9 9 9 9 9 : >.B.m v a.<.n C.c : 9 9 9 9 9 9 9 9 9 x 9 9 9 9 9 9 9 9 9 9 9 9 9 9 u p =.d i 9 9 9 9 h 9 9 = 9 : h : 9 9 : : 9 9 9 9 9 9 9 9 9 9 9 9 9 9 9 9 9 9 9 9 9 9 9 9 <.a.m c B.>.m V.c B.,.9 9 9 9 9 9 9 9 9 9 9 9 9 9 9 9 9 9 9 = m F.n n ,.n c :.:.n a.v : 9 9 9 9 9 9 9 x 9 9 9 9 9 9 9 9 9 : n V.m n >.B.c V.m : 9 9 9 9 9 9 9 9 9 9 9 9 9 9 9 9 9 g B.,.m v V.n ,.B.9 9 9 9 9 9 9 9 9 9 9 9 9 9 9 9 9 9 9 9 ; v c c V.c a.",
"9 9 9 9 9 9 9 9 9 9 9 9 9 9 9 9 9 9 9 9 9 9 9 9 9 9 : 9 : 9 9 9 9 9 9 9 9 9 9 9 9 9 9 9 9 9 9 9 9 9 9 9 9 9 9 9 9 9 9 9 9 9 9 9 9 9 9 9 9 9 9 x 9 9 9 9 9 9 9 9 9 9 9 9 9 9 p b.CXbXu.u 9 9 : Z.v 9 m B.,.x x y j c c 9 9 9 9 9 9 9 9 9 9 9 9 9 9 9 9 9 9 9 9 9 9 9 9 9 9 9 9 9 9 9 9 : 9 9 9 9 9 9 9 9 9 9 9 9 9 9 9 9 9 9 9 9 9 9 9 9 9 y 9 9 9 y 9 9 9 : 9 9 9 9 9 9 9 9 x 9 9 9 9 9 9 9 9 9 9 9 9 9 9 9 9 : 9 9 9 9 9 9 9 9 9 9 9 9 9 9 9 9 9 9 9 9 9 9 9 9 9 9 9 9 9 9 9 9 9 9 9 9 9 9 9 9 9 9 9 9 9 9 9 9 9 9 9 9 9 9 : 9 ",
"9 9 9 9 9 9 9 9 9 9 9 9 9 9 9 9 9 9 9 9 9 9 9 9 9 9 9 9 9 9 9 9 9 9 9 9 9 9 9 9 9 9 9 9 9 9 9 9 9 9 9 9 9 9 9 9 : = 9 9 9 9 9 9 9 9 9 9 9 9 9 x 9 9 9 9 9 9 9 9 9 9 9 9 9 9 =.CXbXCXbXp 9 : x Z.,.,.v a.:.a.<.:.B.B.Z.h 9 9 9 9 9 9 9 9 9 9 9 9 9 9 9 9 9 9 9 9 9 9 9 9 9 9 9 9 9 9 9 9 9 9 9 9 9 9 9 9 9 9 9 9 9 9 9 9 9 9 9 9 9 9 9 9 9 9 9 : = 9 9 9 9 9 9 9 9 9 9 9 9 9 x 9 9 9 9 9 9 9 9 9 9 9 9 9 9 9 = 9 9 9 9 9 9 9 9 9 9 9 9 9 9 9 9 9 9 9 9 9 9 9 9 9 9 ; ; 9 9 9 9 9 9 9 9 9 9 9 9 9 9 9 9 9 9 9 9 9 9 9 9 9 : 9 9 9 ",
"9 9 9 9 9 9 9 9 9 9 9 9 9 9 9 9 9 9 9 9 9 9 : ; ; ; 9 ; 9 9 9 9 9 9 9 9 9 9 9 9 9 9 9 9 9 9 9 9 9 9 9 9 9 : 9 m j >.h 9 9 9 9 9 9 9 9 9 9 9 9 x 9 9 9 9 9 9 9 9 9 9 9 9 9 9 =.CXCXCX9Xp 9 ; <.a.B.Z.g >.m <.m F.v Z.:.g 9 9 9 9 9 9 9 9 9 9 9 9 9 9 9 9 9 9 9 9 9 9 9 9 9 ; ; ; : 9 ; 9 9 9 9 9 9 9 9 9 9 9 9 9 9 9 9 9 9 9 9 9 9 9 9 9 ; 9 m x :.g 9 9 9 9 9 9 9 9 9 9 9 9 x 9 9 9 9 9 9 9 9 9 9 9 9 = m j :.x 9 9 9 9 9 9 9 9 9 9 9 9 9 9 9 9 9 9 9 9 9 9 = x c v m 9 9 9 9 9 9 9 9 9 9 9 9 9 9 9 9 9 9 9 9 9 9 9 9 h x 9 g 9 ",
"9 9 9 9 9 9 9 9 9 9 9 9 9 9 9 9 9 9 9 9 9 9 v >.:.m y >.x 9 9 9 9 9 9 9 9 9 9 9 9 9 9 9 9 9 9 9 9 9 9 9 9 h a.B.<.,.M.9 9 9 9 9 9 9 9 9 9 9 9 x 9 9 9 9 9 9 9 9 9 9 9 9 9 9 i p.bX9Xr.u 9 9 m ; j m <.v >.v h ,.: :.m 9 9 9 9 9 9 9 9 9 9 9 9 9 9 9 9 9 9 9 9 9 9 9 9 9 9 m >.:.n g >.j 9 9 9 9 9 9 9 9 9 9 9 9 9 9 9 9 9 9 9 9 9 9 9 : j B.a.<.,.a.: 9 9 9 9 9 9 9 9 9 9 9 x 9 9 9 9 9 9 9 9 9 9 9 y >.V.,.<.B.g 9 9 9 9 9 9 9 9 9 9 9 9 9 9 9 9 9 9 9 9 9 c V.,.a.<.:.; 9 9 9 9 9 9 9 9 9 9 9 9 9 9 9 9 9 9 9 9 9 : >.a.<.c : ",
"9 9 9 9 9 9 9 9 9 9 9 9 9 9 9 9 9 9 9 9 9 : B.<.B.,.:.V.h 9 9 9 9 9 9 9 9 9 9 9 9 9 9 9 9 9 9 9 9 9 9 9 : <.:.<.<.V.<.: 9 9 9 9 9 9 9 9 9 9 9 x 9 9 9 9 9 9 9 9 9 9 9 9 9 9 y i p p u 9 9 9 : 9 9 ; ; : : : 9 ; 9 : 9 9 9 9 9 9 9 9 9 9 9 9 9 9 9 9 9 9 9 9 9 9 9 9 9 9 9 B.<.a.,.:.B.g 9 9 9 9 9 9 9 9 9 9 9 9 9 9 9 9 9 9 9 9 9 9 9 9 a.:.<.<.B.,.: 9 9 9 9 9 9 9 9 9 9 9 x 9 9 9 9 9 9 9 9 9 9 ; >.:.<.,.V.M.9 9 9 9 9 9 9 9 9 9 9 9 9 9 9 9 9 9 9 9 9 h <.>.,.B.B.v : 9 9 9 9 9 9 9 9 9 9 9 9 9 9 9 9 9 9 9 9 9 9 m Z.Z.<.9 ",
"9 9 9 9 9 9 9 9 9 9 9 9 9 9 9 9 9 9 9 9 9 9 a.c :.:.c >.<.; 9 9 9 9 9 9 9 9 9 9 9 9 9 9 9 9 9 9 9 9 9 9 : a.m a.a.:.B.9 9 9 9 9 9 9 9 9 9 9 9 x 9 9 9 9 9 9 9 9 9 9 9 9 9 9 9 9 9 9 9 9 9 9 9 9 9 9 9 9 9 9 9 9 9 9 9 9 9 9 9 9 9 9 9 9 9 9 9 9 9 9 9 9 9 9 9 9 9 9 9 9 9 <.v m >.z <.,.; 9 9 9 9 9 9 9 9 9 9 9 9 9 9 9 9 9 9 9 9 9 9 9 a.m a.a.:.B.9 9 9 9 9 9 9 9 9 9 9 9 x 9 9 9 9 9 9 9 9 9 9 ; ,.m a.<.>.B.j : 9 9 9 9 9 9 9 9 9 9 9 9 9 9 9 9 9 9 9 j <.>.<.a.>.<.; 9 9 9 9 9 9 9 9 9 9 9 9 9 9 9 9 9 9 9 9 9 9 y B.<.B.h ",
"9 9 9 9 9 9 9 9 9 9 9 9 9 9 9 9 9 9 9 9 9 9 c h x j x >.x 9 9 9 9 9 9 9 9 9 9 9 9 9 9 9 9 9 9 9 9 9 9 9 : h <.c v a.c 9 9 9 9 9 9 9 9 9 9 9 9 x 9 9 9 9 9 9 9 9 9 9 9 9 9 9 9 9 9 9 9 9 9 9 9 9 9 9 9 9 9 9 9 9 9 9 9 9 9 9 9 9 9 9 9 9 9 9 9 9 9 9 9 9 9 9 9 9 9 9 9 9 9 c h x x x ,.j 9 9 9 9 9 9 9 9 9 9 9 9 9 9 9 9 9 9 9 9 9 9 9 : x <.c n <.x 9 9 9 9 9 9 9 9 9 9 9 9 x 9 9 9 9 9 9 9 9 9 9 9 y ,.m x <.m 9 9 9 9 9 9 9 9 9 9 9 9 9 9 9 9 9 9 9 9 9 9 n <.j >.,.h 9 9 9 9 9 9 9 9 9 9 9 9 9 9 9 9 9 9 9 9 9 9 9 9 j h :.9 ",
"9 9 9 9 9 9 9 9 9 9 9 9 9 9 9 9 9 9 9 9 9 9 : 9 : 9 9 ; : 9 9 9 9 9 9 9 9 9 9 9 9 9 9 9 9 9 9 9 9 9 9 9 9 9 = : : = : 9 9 9 9 9 9 9 9 9 9 9 9 x 9 9 9 9 9 9 9 9 9 9 9 9 9 9 9 9 9 9 9 9 9 9 9 9 9 9 9 9 9 9 9 9 9 9 9 9 9 9 9 9 9 9 9 9 9 9 9 9 9 9 9 9 9 9 9 9 9 9 9 9 9 : 9 9 9 9 ; 9 9 9 9 9 9 9 9 9 9 9 9 9 9 9 9 9 9 9 9 9 9 9 9 9 : = : : = : 9 9 9 9 9 9 9 9 9 9 9 9 x 9 9 9 9 9 9 9 9 9 9 9 9 ; ; : = ; 9 9 9 9 9 9 9 9 9 9 9 9 9 9 9 9 9 9 9 9 9 9 : ; 9 ; ; 9 9 9 9 9 9 9 9 9 9 9 9 9 9 9 9 9 9 9 9 9 9 9 9 9 9 9 ; 9 ",
"9 9 9 9 9 9 9 9 9 9 9 9 9 9 9 9 9 9 9 9 9 9 9 9 9 9 9 9 9 9 9 9 9 9 9 9 9 9 9 9 9 9 9 9 9 9 9 9 9 9 9 9 9 9 9 9 9 9 9 9 9 9 9 9 9 9 9 9 9 9 9 x 9 9 9 9 9 9 9 9 9 9 9 9 9 9 9 9 9 9 9 9 9 9 9 9 9 9 9 9 9 9 9 9 9 9 9 9 9 9 9 9 9 9 9 9 9 9 9 9 9 9 9 9 9 9 9 9 9 9 9 9 9 9 9 9 9 9 9 9 9 9 9 9 9 9 9 9 9 9 9 9 9 9 9 9 9 9 9 9 9 9 9 9 9 9 9 9 9 9 9 9 9 9 9 9 9 9 9 9 9 9 x 9 9 9 9 9 9 9 9 9 9 9 9 9 9 9 9 9 9 9 9 9 9 9 9 9 9 9 9 9 9 9 9 9 9 9 9 9 9 9 9 9 9 9 9 9 9 9 9 9 9 9 9 9 9 9 9 9 9 9 9 9 9 9 9 9 9 9 9 9 9 9 9 9 ",
"9 9 9 9 9 9 9 9 9 9 9 9 9 9 9 9 9 9 9 9 9 9 9 9 9 9 9 9 9 9 9 9 9 9 9 9 9 9 9 9 9 9 9 9 9 9 9 9 9 9 9 9 9 9 9 9 9 9 9 9 9 9 9 9 9 9 9 9 9 9 9 h 9 9 9 9 9 9 9 9 9 9 9 9 9 9 9 9 9 9 9 9 9 9 9 9 9 9 9 9 9 9 9 9 9 9 9 9 9 9 9 9 9 9 9 9 9 9 9 9 9 9 9 9 9 9 9 9 9 9 9 9 9 9 9 9 9 9 9 9 9 9 9 9 9 9 9 9 9 9 9 9 9 9 9 9 9 9 9 9 9 9 9 9 9 9 9 9 9 9 9 9 9 9 9 9 9 9 9 9 9 9 h 9 9 9 9 9 9 9 9 9 9 9 9 9 9 9 9 9 9 9 9 9 9 9 9 9 9 9 9 9 9 9 9 9 9 9 9 9 9 9 9 9 9 9 9 9 9 9 9 9 9 9 9 9 9 9 9 9 9 9 9 9 9 9 9 9 9 9 9 9 9 9 9 9 ",
"9 9 9 9 9 9 9 9 9 9 9 9 9 9 9 9 9 9 9 9 9 9 9 9 9 9 9 9 9 9 9 9 9 9 9 9 9 9 9 9 9 9 9 9 9 9 9 9 9 9 9 9 9 9 9 9 9 9 9 9 9 9 9 9 9 9 9 9 9 9 9 9 9 9 9 9 9 9 9 9 9 9 9 9 9 9 9 9 9 9 9 9 9 9 9 9 9 9 9 9 9 9 9 9 9 9 9 9 9 9 9 9 9 9 9 9 9 9 9 9 9 9 9 9 9 9 9 9 9 9 9 9 9 9 9 9 9 9 9 9 9 9 9 9 9 9 9 9 9 9 9 9 9 9 9 9 9 9 9 9 9 9 9 9 9 9 9 9 9 9 9 9 9 9 9 9 9 9 9 9 9 9 9 9 9 9 9 9 9 9 9 9 9 9 9 9 9 9 9 9 9 9 9 9 9 9 9 9 9 9 9 9 9 9 9 9 9 9 9 9 9 9 9 9 9 9 9 9 9 9 9 9 9 9 9 9 9 9 9 9 9 9 9 9 9 9 9 9 9 9 9 9 9 9 9 9 ",
":.:.:.:.:.:.:.:.:.:.:.:.:.:.:.:.:.:.:.:.:.:.:.:.:.:.:.:.:.:.:.:.:.:.:.:.:.:.:.:.:.:.:.:.:.:.:.:.:.:.:.:.:.:.:.:.:.:.:.:.:.:.:.:.:.:.:.:.:.:.:.:.:.:.:.:.:.:.:.:.:.:.:.:.:.:.:.:.:.:.:.:.:.:.:.:.:.:.:.:.:.:.:.:.:.:.:.:.:.:.:.:.:.:.:.:.:.:.:.:.:.:.:.:.:.:.:.:.:.:.:.:.:.:.:.:.:.:.:.:.:.:.:.:.:.:.:.:.:.:.:.:.:.:.:.:.:.:.:.:.:.:.:.:.:.:.:.:.:.:.:.:.:.:.:.:.:.:.:.:.:.:.:.:.:.:.:.:.:.:.:.:.:.:.:.:.:.:.:.:.:.:.:.:.:.:.:.:.:.:.:.:.:.:.:.:.:.:.:.:.:.:.:.:.:.:.:.:.:.:.:.:.:.:.:.:.:.:.:.:.:.:.:.:.:.:.:.:.:.:.:.:.:.:.:.:.",
": : : : : : : : : : : : : : : : : : : : : : : : : : : : : : : : : : : : : : : : : : : : : : : : : : : : : : : : : : : : : : : : : : : : : : : : : : : : : : : : : : : : : : : : : : : : : : : : : : : : : : : : : : : : : : : : : : : : : : : : : : : : : : : : : : : : : : : : : : : : : : : : : : : : : : : : : : : : : : : : : : : : : : : : : : : : : : : : : : : : : : : : : : : : : : : : : : : : : : : : : : : : : : : : : : : : : : : : : : : : : : : : : : : : : : : : : : : : : : : : : : : : : : : : : : : : : : : : ",
"v v v v v v v v v v v v v v v v v v v v v v v v v v v v v v v v v v v v v v v v v v v v v v v v v v v v v v v v v v v v v v v v v v v v v v v v v v v v v v v v v v v v v v v v v v v v v v v v v v v v v v v v v v v v v v v v v v v v v v v v v v v v v v v v v v v v v v v v v v v v v v v v v v v v v v v v v v v v v v v v v v v v v v v v v v v v v v v v v v v v v v v v v v v v v v v v v v v v v v v v v v v v v v v v v v v v v v v v v v v v v v v v v v v v v v v v v v v v v v v v v v v v v v v v v v v v v v v v ",
"c c c c c c c c c c c c c c c c c c c c c c c c c c c c c c c c c c c c c c c c c c c c c c c c c c c c c c c c c c c c c c c c c c c c c c c c c c c c c c c c c c c c c c c c c c c c c c c c c c c c c c c c c c c c c c c c c c c c c c c c c c c c c c c c c c c c c c c c c c c c c c c c c c c c c c c c c c c c c c c c c c c c c c c c c c c c c c c c c c c c c c c c c c c c c c c c c c c c c c c c c c c c c c c c c c c c c c c c c c c c c c c c c c c c c c c c c c c c c c c c c c c c c c c c c c c c c c c c ",
": : : : : : : : : : : : : : : : : : : : : : : : : : : : : : : : : : : : : : : : : : : : : : : : : : : : : : : : : : : : : : : : : : : : : : : : : : : : : : : : : : : : : : : : : : : : : : : : : : : : : : : : : : : : : : : : : : : : : : : : : : : : : : : : : : : : : : : : : : : : : : : : : : : : : : : : : : : : : : : : : : : : : : : : : : : : : : : : : : : : : : : : : : : : : : : : : : : : : : : : : : : : : : : : : : : : : : : : : : : : : : : : : : : : : : : : : : : : : : : : : : : : : : : : : : : : : : : : ",
"9 9 9 9 9 9 9 9 9 9 9 9 9 9 9 9 9 9 9 9 9 9 9 9 9 9 9 9 9 9 9 9 9 9 9 9 9 9 9 9 9 9 9 9 9 9 9 9 9 9 9 9 9 9 9 9 9 9 9 9 9 9 9 9 9 9 9 9 9 9 9 9 9 9 9 9 9 9 9 9 9 9 9 9 9 9 9 9 9 9 9 9 9 9 9 9 9 9 9 9 9 9 9 9 9 9 9 9 9 9 9 9 9 9 9 9 9 9 9 9 9 9 9 9 9 9 9 9 9 9 9 9 9 9 9 9 9 9 9 9 9 9 9 9 9 9 9 9 9 9 9 9 9 9 9 9 9 9 9 9 9 9 9 9 9 9 9 9 9 9 9 9 9 9 9 9 9 9 9 9 9 9 9 9 9 9 9 9 9 9 9 9 9 9 9 9 9 9 9 9 9 9 9 9 9 9 9 9 9 9 9 9 9 9 9 9 9 9 9 9 9 9 9 9 9 9 9 9 9 9 9 9 9 9 9 9 9 9 9 9 9 9 9 9 9 9 9 9 9 9 9 9 9 9 9 9 ",
"9 9 9 9 9 9 9 9 9 9 9 9 x c x x c h 9 9 9 9 9 : 9 9 9 9 9 9 9 9 9 9 9 9 9 9 9 9 9 9 9 9 9 9 9 9 9 9 9 9 9 9 9 9 9 9 9 9 9 9 9 9 9 9 9 9 9 9 9 9 9 9 9 9 9 9 9 9 9 9 9 9 9 9 9 9 9 9 9 9 9 9 9 9 9 9 9 9 9 9 9 9 9 9 9 9 9 9 9 9 9 9 9 9 9 9 9 9 9 9 9 9 9 9 9 9 9 9 9 9 9 9 9 9 9 9 9 9 9 9 9 9 9 9 9 9 9 9 9 9 9 9 9 9 9 9 9 9 9 9 9 9 9 9 9 9 9 9 9 9 9 9 9 9 9 9 9 9 9 9 9 9 9 9 9 9 9 9 9 9 9 9 9 9 9 9 9 9 9 9 9 9 9 9 9 9 9 9 9 9 9 9 9 9 9 9 9 9 9 9 9 9 9 9 9 9 9 9 9 9 9 9 9 9 9 9 9 9 9 9 9 9 9 9 9 9 9 9 9 9 9 9 9 9 ",
": 9 9 - - - 9 9 9 9 9 9 c <.B.B.V.n ; 9 9 - u s - 9 9 : - - : 9 9 9 9 9 9 9 9 9 9 9 9 9 9 9 9 9 9 9 9 9 9 9 9 9 9 9 9 9 9 9 9 9 9 9 9 9 9 9 9 9 9 9 9 9 9 9 9 9 9 9 9 9 9 9 9 9 9 9 9 9 9 9 9 9 9 9 9 9 9 9 9 9 9 9 9 9 9 9 9 9 9 9 9 9 9 9 9 9 9 9 9 9 9 9 9 9 9 9 9 9 9 9 9 9 9 9 9 9 9 9 9 9 9 9 9 9 9 9 9 9 9 9 9 9 9 9 9 9 9 9 9 9 9 9 9 9 9 9 9 9 9 9 9 9 9 9 9 9 9 9 9 9 9 9 9 9 9 9 9 9 9 9 9 9 9 9 9 9 9 9 9 9 9 9 9 9 9 9 9 9 9 9 9 9 9 9 9 9 9 9 9 9 9 9 9 9 9 9 9 9 9 9 9 9 9 9 9 9 9 9 9 9 9 9 9 9 9 9 9 9 9 9 9 : ",
"u 9 9 s s s y 9 9 9 9 9 c :.n F.m c : 9 9 u u.d.p 9 9 p s s p 9 9 9 9 9 9 9 9 9 9 9 9 9 9 9 9 9 9 9 9 9 9 9 9 9 9 9 9 9 9 9 9 9 9 9 9 9 9 9 9 9 9 9 9 9 9 9 9 9 9 9 9 9 9 9 9 9 9 9 9 9 9 9 9 9 9 9 9 9 9 9 9 9 9 9 9 9 9 9 9 9 9 9 9 9 9 9 9 9 9 9 9 9 9 9 9 9 9 9 9 9 9 9 9 9 9 9 9 9 9 9 9 9 9 9 9 9 9 9 9 9 9 9 9 9 9 9 9 9 9 9 9 9 9 9 9 9 9 9 9 9 9 9 9 9 9 9 9 9 9 9 9 9 9 9 9 9 9 9 9 9 9 9 9 9 9 9 9 9 9 9 9 9 9 9 9 9 9 9 9 9 9 9 9 9 9 9 9 9 9 9 9 9 9 9 9 9 9 9 9 9 9 9 9 9 9 9 9 9 9 9 9 9 9 9 9 9 9 9 9 9 9 9 9 ; ",
"p - u y.y.y.u 9 9 9 9 9 c ; y Z.h j 9 9 : p d.c.e.9 : *.i.i.*.: 9 9 9 9 9 9 9 9 9 9 9 9 9 9 9 9 9 9 9 9 9 9 9 9 9 9 9 9 9 9 9 9 9 9 9 9 9 9 9 9 9 9 9 9 9 9 9 9 9 9 9 9 9 9 9 9 9 9 9 9 9 9 9 9 9 9 9 9 9 9 9 9 9 9 9 9 9 9 9 9 9 9 9 9 9 9 9 9 9 9 9 9 9 9 9 9 9 9 9 9 9 9 9 9 9 9 9 9 9 9 9 9 9 9 9 9 9 9 9 9 9 9 9 9 9 9 9 9 9 9 9 9 9 9 9 9 9 9 9 9 9 9 9 9 9 9 9 9 9 9 9 9 9 9 9 9 9 9 9 9 9 9 9 9 9 9 9 9 9 9 9 9 9 9 9 9 9 9 9 9 9 9 9 9 9 9 9 9 9 9 9 9 9 9 9 9 9 9 9 9 9 9 9 9 9 9 9 9 9 9 9 9 9 9 9 9 9 9 9 9 9 9 9 : ",
"- 9 9 - - - 9 9 9 9 9 9 v y z F.c x : 9 9 - i e.> 9 9 : - - - 9 9 9 9 9 9 9 9 9 9 9 9 9 9 9 9 9 9 9 9 9 9 9 9 9 9 9 9 9 9 9 9 9 9 9 9 9 9 9 9 9 9 9 9 9 9 9 9 9 9 9 9 9 9 9 9 9 9 9 9 9 9 9 9 9 9 9 9 9 9 9 9 9 9 9 9 9 9 9 9 9 9 9 9 9 9 9 9 9 9 9 9 9 9 9 9 9 9 9 9 9 9 9 9 9 9 9 9 9 9 9 9 9 9 9 9 9 9 9 9 9 9 9 9 9 9 9 9 9 9 9 9 9 9 9 9 9 9 9 9 9 9 9 9 9 9 9 9 9 9 9 9 9 9 9 9 9 9 9 9 9 9 9 9 9 9 9 9 9 9 9 9 9 9 9 9 9 9 9 9 9 9 9 9 9 9 9 9 9 9 9 9 9 9 9 9 9 9 9 9 9 9 9 9 9 9 9 9 9 9 9 9 9 9 9 9 9 9 9 9 9 9 9 9 ; ",
"9 9 9 9 9 9 9 9 9 9 9 9 z c c m v h 9 9 9 9 9 9 9 9 9 9 9 9 9 9 9 9 9 9 9 9 9 9 9 9 9 9 9 9 9 9 9 9 9 9 9 9 9 9 9 9 9 9 9 9 9 9 9 9 9 9 9 9 9 9 9 9 9 9 9 9 9 9 9 9 9 9 9 9 9 9 9 9 9 9 9 9 9 9 9 9 9 9 9 9 9 9 9 9 9 9 9 9 9 9 9 9 9 9 9 9 9 9 9 9 9 9 9 9 9 9 9 9 9 9 9 9 9 9 9 9 9 9 9 9 9 9 9 9 9 9 9 9 9 9 9 9 9 9 9 9 9 9 9 9 9 9 9 9 9 9 9 9 9 9 9 9 9 9 9 9 9 9 9 9 9 9 9 9 9 9 9 9 9 9 9 9 9 9 9 9 9 9 9 9 9 9 9 9 9 9 9 9 9 9 9 9 9 9 9 9 9 9 9 9 9 9 9 9 9 9 9 9 9 9 9 9 9 9 9 9 9 9 9 9 9 9 9 9 9 9 9 9 9 9 9 9 9 9 ",
"9 9 9 9 9 9 9 9 9 9 9 9 9 9 9 : 9 9 9 9 9 9 9 9 9 9 9 9 9 9 9 9 9 9 9 9 9 9 9 9 9 9 9 9 9 9 9 9 9 9 9 9 9 9 9 9 9 9 9 9 9 9 9 9 9 9 9 9 9 9 9 9 9 9 9 9 9 9 9 9 9 9 9 9 9 9 9 9 9 9 9 9 9 9 9 9 9 9 9 9 9 9 9 9 9 9 9 9 9 9 9 9 9 9 9 9 9 9 9 9 9 9 9 9 9 9 9 9 9 9 9 9 9 9 9 9 9 9 9 9 9 9 9 9 9 9 9 9 9 9 9 9 9 9 9 9 9 9 9 9 9 9 9 9 9 9 9 9 9 9 9 9 9 9 9 9 9 9 9 9 9 9 9 9 9 9 9 9 9 9 9 9 9 9 9 9 9 9 9 9 9 9 9 9 9 9 9 9 9 9 9 9 9 9 9 9 9 9 9 9 9 9 9 9 9 9 9 9 9 9 9 9 9 9 9 9 9 9 9 9 9 9 9 9 9 9 9 9 9 9 9 9 9 9 9 9 ",
"9 9 9 9 9 9 9 9 9 9 9 9 9 9 9 9 9 9 9 9 9 9 9 9 9 9 9 9 9 9 9 9 9 9 9 9 9 9 9 9 9 9 9 9 9 9 9 9 9 9 9 9 9 9 9 9 9 9 9 9 9 9 9 9 9 9 9 9 9 9 9 9 9 9 9 9 9 9 9 9 9 9 9 9 9 9 9 9 9 9 9 9 9 9 9 9 9 9 9 9 9 9 9 9 9 9 9 9 9 9 9 9 9 9 9 9 9 9 9 9 9 9 9 9 9 9 9 9 9 9 9 9 9 9 9 9 9 9 9 9 9 9 9 9 9 9 9 9 9 9 9 9 9 9 9 9 9 9 9 9 9 9 9 9 9 9 9 9 9 9 9 9 9 9 9 9 9 9 9 9 9 9 9 9 9 9 9 9 9 9 9 9 9 9 9 9 9 9 9 9 9 9 9 9 9 9 9 9 9 9 9 9 9 9 9 9 9 9 9 9 9 9 9 9 9 9 9 9 9 9 9 9 9 9 9 9 9 9 9 9 9 9 9 9 9 9 9 9 9 9 9 9 9 9 9 9 ",
"9 9 9 9 9 9 9 9 9 9 9 9 9 9 9 9 9 9 9 9 9 9 9 9 9 9 9 9 9 9 9 9 9 9 9 9 9 9 9 9 9 9 9 9 9 9 9 9 9 9 9 9 9 9 9 9 9 9 9 9 9 9 9 9 9 9 9 9 9 9 9 9 9 9 9 9 9 9 9 9 9 9 9 9 9 9 9 9 9 9 9 9 9 9 9 9 9 9 9 9 9 9 9 9 9 9 9 9 9 9 9 9 9 9 9 9 9 9 9 9 9 9 9 9 9 9 9 9 9 9 9 9 9 9 9 9 9 9 9 9 9 9 9 9 9 9 9 9 9 9 9 9 9 9 9 9 9 9 9 9 9 9 9 9 9 9 9 9 9 9 9 9 9 9 9 9 9 9 9 9 9 9 9 9 9 9 9 9 9 9 9 9 9 9 9 9 9 9 9 9 9 9 9 9 9 9 9 9 9 9 9 9 9 9 9 9 9 9 9 9 9 9 9 9 9 9 9 9 9 9 9 9 9 9 9 9 9 9 9 9 9 9 9 9 9 9 9 9 9 9 9 9 9 9 9 9 "
};
