/* XPM */
static char *impulse_responses_mono[] = {
/* columns rows colors chars-per-pixel */
"256 256 224 2 ",
"   c #050506",
".  c #0A0506",
"X  c #060709",
"o  c #0A0608",
"O  c #05090B",
"+  c #0B0A0D",
"@  c #110B0D",
"#  c #110608",
"$  c #0D0D11",
"%  c #060C13",
"&  c #120E12",
"*  c #170B1A",
"=  c #0F1013",
"-  c #0E1811",
";  c #0C1319",
":  c #121216",
">  c #15161A",
",  c #1B161B",
"<  c #17181D",
"1  c #18191E",
"2  c #1A1216",
"3  c #16331C",
"4  c #29281C",
"5  c #383717",
"6  c #322E1B",
"7  c #1D0F25",
"8  c #121524",
"9  c #1D1324",
"0  c #151B22",
"q  c #1B1C22",
"w  c #0F1A21",
"e  c #2B1F22",
"r  c #231D22",
"t  c #321F21",
"y  c #1E2026",
"u  c #1B242B",
"i  c #1A282F",
"p  c #1B2B33",
"a  c #1C2B35",
"s  c #1C333B",
"d  c #19343B",
"f  c #202125",
"g  c #23252C",
"h  c #26282F",
"j  c #2B262A",
"k  c #3B2122",
"l  c #352123",
"z  c #262730",
"x  c #272931",
"c  c #292B34",
"v  c #2D2F38",
"b  c #202E3E",
"n  c #2F313A",
"m  c #31333D",
"M  c #36363B",
"N  c #231C18",
"B  c #443B00",
"V  c #493E00",
"C  c #6B271F",
"Z  c #77291F",
"A  c #472422",
"S  c #572622",
"D  c #672923",
"F  c #792E25",
"G  c #7F3128",
"H  c #004600",
"J  c #004C00",
"K  c #08490A",
"L  c #005400",
"P  c #005C00",
"I  c #09570B",
"U  c #134918",
"Y  c #124916",
"T  c #0F5A12",
"R  c #006400",
"E  c #006B00",
"W  c #0A670D",
"Q  c #007300",
"!  c #017C01",
"~  c #09760B",
"^  c #0F6412",
"/  c #4D4606",
"(  c #554A00",
")  c #5A4D00",
"_  c #514701",
"`  c #5D5202",
"'  c #595709",
"]  c #474614",
"[  c #555311",
"{  c #645400",
"}  c #6C5B00",
"|  c #615E08",
" . c #705F00",
".. c #686505",
"X. c #7F6B00",
"o. c #746702",
"O. c #7A7605",
"+. c #1C3A44",
"@. c #1A3B45",
"#. c #343641",
"$. c #373844",
"%. c #393B46",
"&. c #3B3D4A",
"*. c #223A4F",
"=. c #1D434D",
"-. c #12454E",
";. c #1C4651",
":. c #1C4A55",
">. c #1C4D5A",
",. c #104B54",
"<. c #1D535D",
"1. c #0F4F58",
"2. c #3E414E",
"3. c #214C5B",
"4. c #1B5563",
"5. c #1D5A65",
"6. c #1C5C6B",
"7. c #0C5C66",
"8. c #26536E",
"9. c #1E626C",
"0. c #1B6473",
"q. c #1B6C7B",
"w. c #1F6C75",
"e. c #1F737C",
"r. c #096974",
"t. c #206A78",
"y. c #206E78",
"u. c #40424F",
"i. c #46464A",
"p. c #424552",
"a. c #464857",
"s. c #474958",
"d. c #4A4C5B",
"f. c #4D4D52",
"g. c #4D505F",
"h. c #56565B",
"j. c #4E5161",
"k. c #525465",
"l. c #545768",
"z. c #56596B",
"x. c #595C6E",
"c. c #5D5D61",
"v. c #5B5E71",
"b. c #4D4F60",
"n. c #5E6175",
"m. c #666669",
"M. c #62667A",
"N. c #65697E",
"B. c #686973",
"V. c #757579",
"C. c #882C1F",
"Z. c #9D2F1E",
"A. c #922D1F",
"S. c #9E301F",
"D. c #A12F1E",
"F. c #A7301E",
"G. c #B2321D",
"H. c #873127",
"J. c #933326",
"K. c #AF3928",
"L. c #CA3E29",
"P. c #D03F2A",
"I. c #88720A",
"U. c #867805",
"Y. c #8F7800",
"T. c #D6402A",
"R. c #E4432A",
"E. c #F1462B",
"W. c #008200",
"Q. c #08860A",
"!. c #028A02",
"~. c #009400",
"^. c #009E01",
"/. c #01A501",
"(. c #00B500",
"). c #8C8701",
"_. c #969100",
"`. c #AE9100",
"'. c #2B5D84",
"]. c #1B7384",
"[. c #1A7B8D",
"{. c #1C7886",
"}. c #1A7E91",
"|. c #0F7583",
" X c #286688",
".X c #217788",
"XX c #2E6A98",
"oX c #217D91",
"OX c #3175A9",
"+X c #337DB5",
"@X c #6A6E84",
"#X c #676A80",
"$X c #6F7289",
"%X c #6C7086",
"&X c #72768D",
"*X c #7C7D84",
"=X c #767A92",
"-X c #797D96",
";X c #7A7F98",
":X c #1F848E",
">X c #028997",
",X c #1D8694",
"<X c #00919F",
"1X c #21838E",
"2X c #218394",
"3X c #208A95",
"4X c #218B99",
"5X c #20929D",
"6X c #0095A3",
"7X c #1D8FA4",
"8X c #228DA2",
"9X c #2296A9",
"0X c #239DB5",
"qX c #3482BD",
"wX c #23A3BB",
"eX c #7D819B",
"rX c #368CCC",
"tX c #24ABC5",
"yX c #28BECC",
"uX c #399AE2",
"iX c #848488",
"pX c #8D8E96",
"aX c #8A8FAC",
"sX c #A2A2A4",
/* pixels */
"q q q q q q q q q q q q q q q q q q q q q q q q q q q q q q q q q q q q q q q q q q q q q q q q q q q q q q q q q q q q q q q q q q q q q q q q q q q q q q q q q q q q q q q q q q q q q q q q q q q q q q q q q q q q q q q q q q q q q q q q q q q q q q q q q q q q q q q q q q q q q q q q q q q q q q q q q q q q q q q q q q q q q q q q q q q q q q q q q q q q q q q q q q q q q q q q q q q q q q q q q q q q q q q q q q q q q q q q q q q q q q q q q q q q q q q q q q q q q q q q q q q q q q q q q q q q q q q q ",
"q q q q q q q q q q q q q q q q q q q q q q q q q q q q q q q q q q q q q q q q q q q q q q q q q q q q q q q q q q q q q q q q q q q q q q q q q q q q q q q q q q q q q q q q q q q q q q q q q q q q q q q q q q q q q q q q q q q q q q q q q q q q q q q q q q q q q q q q q q q q q q q q q q q q q q q q q q q q q q q q q q q q q q q q q q q q q q q q q q q q q q q q q q q q q q q q q q q q q q q q q q q q q q q q q q q q q q q q q q q q q q q q q q q q q q q q q q q q q q q q q q q q q q q q q q q q q q q q ",
"q q q q q q q q q q q q q q q q q q q q q q q q q q q q q q q q q q q q q q q q q q q q q q q q q q q q q q q q q q q q q q q q q q q q q q q q q q q q q q q q q q q q q q q q q q q q q q q q q q q q q q q q q q q q q q q q q q q q q q q q q q q q q q q q q q q q q q q q q q q q q q q q q q q q q q q q q q q q q q q q q q q q q q q q q q q q q q q q q q q q q q q q q q q q q q q q q q q q q q q q q q q q q q q q q q q q q q q q q q q q q q q q q q q q q q q q q q q q q q q q q q q q q q q q q q q q q q q q ",
"q q q q q q q q q q q q q q q q q q q q q q q q q q q q q q q q q q q q q q q q q q q q q q q q q q q q q q q q q q q q q q q q q q q q q q q q q q q q q q q q q q q q q q q q q q q q q q q q q q q q q q q q q q q q q q q q q q q q q q q q q q q q q q q q q q q q q q q q q q q q q q q q q q q q q q q q q q q q q q q q q q q q q q q q q q q q q q q q q q q q q q q q q q q q > > q < < q q > 1 q > : q q < q q < q 1 1 q q q > > q < : : q q q < : < q 1 > : < q > > q 1 : > q q q : > q q > q q < q q > > q 1 : : 1 ",
"q q q q q q q q q q q q q q q q q q q q q q q q q q q q q q q q q q q q q q q q q q q q q q q q q q q q q q q q q q q q q q q q q q q q q q q q q q q q q q q q q q q q q q q q q q q q q q q q q q q q q q q q q q q q q q q q q q q q q q q q q q q q q q q q q q q q q q q q q q q q q q q q q q q q q q q q q q q q q q q q q q q q q q q q q q q q q q q q q q q q q q q q q q q q 2.a.q #.#.1 q &.c g s.d.g q &.q q %.q m v 1 q y s.p.q #.j.j.z 1 q %.j.#.> c d.k.m q a.a.q m j.2.q 1 g s.2.q q &.g < #.z q p.a.y n d.k.c ",
"q q q q q q q q q q q q q q q q q q q q q q q q q q q q q q q q q q q q q q q q q q q q q q q q q q q q q q q q q q q q q q q q q q q q q q q q q q q q q q q q q q q q q q q q q q q q q q q q q q q q q q q q q q q q q q q q q q q q q q q q q q q q q q q q q q q q q q q q q q q q q q q q q q q q q q q q q q q q q q q q q q q q q q q q q q q q q q q q q q q q q q q q q q q < n.&X: #XeX> g aXa.%.-Xl.$Xg -Xg q =Xq v.j.: 1 N.v.x.h #Xv.p.z q q =Xz.&X%.d.$Xp.c n.M.x.c M.M.#Xl.q =Xx.N.M.< eXN.+ #X%.l.M.z.c v.N.p.c ",
"q q q q q q q q q q q q q q q q q q q q q q q q q q q q q q q q q q q q q q q q q q q q q q q q q q q q q q q q q q q q q q q q q q q q q q q q q q q q q q q q q q q q q q q q q q q q q q q q q q q q q q q q q q q q q q q q q q q q q q q q q q q q q q q q q q q q q q q q q q q q q q q q q q q q q q q q q q q q q q q q q q q q q q q q q q q q q q q q q q q q q q q q q q q : s.x.+ n.pXc &.aXp.&.M.q eXc &Xg y &Xq z.j.> < @Xx.< : @Xx.2.f q q &Xq v.j.a.%Xp.g M.n.q $ #X$.p.N.p.#X+ q =Xm N.=Xm v.%.x.N.q $ n.M.u.g ",
"q q q q q q q q q q q q q q q q q q q q q q q q q q q q q q q q q q q q q q q q q q q q q q q q q q q q q q q q q q q q q q q q q q q q q q q q q q q q q q q q q q q q q q q q q q q q q q q q q q q q q q q q q q q q q q q q q q q q q q q q q q q q q q q q q q q q q q q q q q q q q q q q q q q q q q q q q q q q q q q q q q q q q q q q q q q q q q q q q q q q q q q q q q q > d.v.$ v.M.b.k.N.a.#.aX%Xs.q =Xq 1 &Xy z.d.$ q q x.=Xh N.M.s.g q q &X-X-X< j.$Xd.v < l.-Xc v.;X@Xz j.v.$ > $X$.M.2.N.M.&.: k.-Xv x.#Xd.g ",
"q q q q q q q q q q q q q q q q q q q q q q q q q q q q q q q q q q q q q q q q q q q q q q q q q q q q q q q q q q q q q q q q q q q q q q q q q q q q q q q q q q q q q q q q q q q q q q q q q q q q q q q q q q q q q q q q q q q q q q q q q q q q q q q q q q q q q q q q q q q q q q q q q q q q q q q q q q q q q q q q q q q q q q q q q q q q q q q q q q q q q q q q q q q > k.M.$ N.p.=Xv.l.d.&.@X: < q &Xu.$.-X> v.v.h x n y =Xp.N.p.q y q q =X#.&Xv k.v.1 g m q $Xs.n.s.: > $.-Xv 2.-Xg &Xf j.aX%.c y @Xd.v.j.1 g ",
"q q q q q q q q q q q q q q q q q q q q q q q q q q q q q q q q q q q q q q q q q q q q q q q q q q q q q q q q q q q q q q q q q q q q q q q q q q q q q q q q q q q q q q q q q q q q q q q q q q q q q q q q q q q q q q q q q q q q q q q q q q q q q q q q q q q q q q q q q q q q q q q q q q q q q q q q q q q q q q q q q q q q q q q q q q q q q q q q q q q q q q q q q q q q n.@Xq k.n k.&.p.2.m l.> q < #.@X@X&.: s.&X$X2.l.$Xx.q l.&X@Xv < q n.y &.z.&.&X%X2.j.$Xv.q k.$.> q < a.@X#Xm 1 v.g q %Xm d.$Xn.q d.&X@X%.",
"q q q q q q q q q q q q q q q q q q q q q q q q q q q q q q q q q q q q q q q q q q q q q q q q q q q q q q q q q q q q q q q q q q q q q q q q q q q q q q q q q q q q q q q q q q q q q q q q q q q q q q q q q q q q q q q q q q q q q q q q q q q q q q q q q q q q q q q q q q q q q q q q q q q q q q q q q q q q q q q q q q q q q q q q q q q q q q q q q q q q q q q q q q q q 1 < q < q < 1 1 1 q < q q q < > < < q 1 < < q < < > q < < 1 q q q < q 1 1 q < 1 q < < > q 1 q q q q > < > < q < q q > q < < > q 1 < 1 q ",
"q q q q q q q q q q q q q q q q q q q q q q q q q q q q q q q q q q q q q q q q q q q q q q q q q q q q q q q q q q q q q q q q q q q q q q q q q q q q q q q q q q q q q q q q q q q q q q q q q q q q q q q q q q q q q q q q q q q q q q q q q q q q q q q q q q q q q q q q q q q q q q q q q q q q q q q q q q q q q q q q q q q q q q q q q q q q q q q q q q q q q q q q q q q q q q q q q q q q q q q q q q q q q q q q q q q q q q q q q q q q q q q q q q q q q q q q q q q q q q q q q q q q q q q q q q q q q q q q ",
"q q q q q q q q q q q q q q q q q q q q q q q q q q q q q q q q q q q q q q q q q q q q q q q q q q q q q q q q q q q q q q q q q q q q q q q q q q q q q q q q q q q q q q q q q q q q q q q q q q q q q q q q q q q q q q q q q q q q q q q q q q q q q q q q q q q q q q q q q q q q q q q q q q q q q q q q q q q q q q q q q q q q q q q q q q q q q q q q q q q q q q q q q q q q q q q q q q q q q q q q q q q q q q q q q q q q q q q q q q q q q q q q q q q q q q q q q q q q q q q q q q q q q q q q q q q q q q q q ",
"q q q q q q q q q q q q q q q q q q q q q q q q q q q q q q q q q q q q q q q q q q q q q q q q q q q q q q q q q q q q q q q q q q q q q q q q q q q q q q q q q q q q q q q q q q q q q q q q q q q q q q q q q q q q q q q q q q q q q q q q q q q q q q q q q q q q q q q q q q q q q q q q q q q q q q q q q q q q q q q q q q q q q q q q q q q q q q q q q q q q q q q q q q q q q q q q q q q q q q q q q q q q q q q q q q q q q q q q q q q q q q q q q q q q q q q q q q q q q q q q q q q q , , q q q q q q q q q q ",
"q q q q q q q q q q q q q q q q q q q q q q q q q q q q q q q q q q q q q q q q q q q q q q q q q q q q q q q q q q q q q q q q q q q q q q q q q q q q q q q q q q q q q q q q q q q q q q q q q q q q q q q q q q q q q q q q q q q q q q q q q q q q q q q q > < q q q q q q q q q q q q q q q q q q q q q q q q q q q q q q q q q q q q q q q q q q q q q q q q q q q q q q q q q q q q q q q q q q q q q q q q q q q q q q q q q q q q q q q q q q q q q y y q q q q q q q q q q q q q q q q q q y d d q q q q q q q q q q ",
"q q q q q q q q q q q q q q q q q q q q q q q q q q q q q q q q q q q q q q q q q q q q q q q q q q q q q q q q q q q q q q q q q q q q q q q q q q q q q q q q q q q q q q q q q q q q q q q q q q q q q q q q q q q q q q q q q q q q q q q q q q q q q q q g &.m q < > q p.q > < q 1 > q g < q q < > q q < < q > 1 q > < q > < q g < q q q q q q q q q q q q q q q q q q q q q q q q q q q q q q q q q q q q q 1 q q q q q q q q q q q q q q q q q q q q q ! Y 9 q q q q q q q q q q 1 q q q q q , -.|.7.r.y q q q q q q q q ",
"q q q q q q q q q q q q q q q q q q q q q q q q q q q q q q q q q q q q q q q q q q q q q q q q q q q q q q q q q q q q q q q q q q q q q q q q q q q q q q q q q q q q q q 1 q >.i 1 q q q q q q q q q q q q q q q q q q q q q q q q q q q q q q q q q q q q j.#.m q m $.q d.q #.#.< c &.$.x.m 1 g m &.g f m m g &.h q &.m q $.n c v.m q q q q q q q q q q q q q q q q q q q q q q q q q q q q q q q q q q q 1 +.:., q q q q q q q q q q q q q q q q q q 9 3 ! W q q q q q q 1 , , 2 y i , q q q q , ,.r.d |.u q q q q q q q q ",
"q q q q q q q q q q q q q q q q q q q q q q q q q q q q q q q q q q q q q q q q q q q q q q q q q q q q q q q q q q q q q q q q q q q q q q q q q q q q q q q q q q q q q q y <.s 1 q q q q q q q q q q q q q q q q q q q q q q q q q q q q q q q q q q q q 1 d.2.> m d.s.p.p.&.a.d.2.d.m #.k.x < v z.$.d.#.x.x d.p.d.d.a.g &.a.d.p.j.x q q q q q q q q q q q q q q q q q q q q q q q q q q q q q q q q q q q q 1 =.;.1 q q q q q q q q q q q q q q q q q 9 W W ~ 3 9 q q q , @.r.7.7.r.>Xp 1 q q q , -.|.r.r.y q q q q q q q q ",
"q q q q q q q q q q q q q q q q q q q q q q q q q q q q q q q q q q q q q q q q q q q q q q q q q q q q q q q q q q q q q q q q q q q q q q q q q q q q q q q q q q q q q q u 5.i 1 q q q q q q q q q q q q q q q q q q q q q q q q q q q q q q q q q q q q q 1 &.s.a.d.2.&.p.j.d.&.s.2.+ g p.> < v p.+ s.2.&.q x.&.p.v p.v d.s.p.%.p.> q q q q q q q q q q q q q q q q q q q q q q q q q q q q q q q q q q q q , +.<.q q q q q q q q q q q q q q q q q q y Q.W ! T 9 q q q 1 d 1.,.-.7.r.u q q q q 2 1.7.2 |.@., q q q q q q q ",
"q q q q q q q q q q q q q q q q q q q q q q q q q q q q q q q q q q q q q q q q q q q q q q q q q q q q q q q q q q q q q q q q q q q q q q q q q q q q q q q q q q q q q q 1 u 4.u q q q q q q q q q q q q q q q q q q q q q q q q q q q q q q q q q q q q q c h d.2.a.g h s.2.p.g c j.c c j.h < v l.n d.$.p.< j.m g g m j.p.2.g z k.h q q q q q q q q q q q q q q q q q q q q q q q q q q q q q q q q q q q 1 s >.q q q q q q q q q q q q q q q q q q 9 Y W 7 3 ~ q q q q q 1 , , 2 q q 1 q q q q , -.|.r.r.y q q q q q q q q ",
"q q q q q q q q q q q q q q q q q q q q q q q q q q q q q q q q q q q q q q q q q q q q q q q q q q q q q q q q q q q q q q q q q q q q q q q q q q q q q q q q q q q q q q q 1 y y q q q q q q q q q q q q q q q q q q q q q q q q q q q q q q q q q q q q q %.a.v 1 %.p.c m q &.p.g v a.h $.$.> c j.p.c g n > x a.$.n a.v q 2.p.f $.$.q q q q q q q q q q q q q q q q q q q q q q q q q q q q q q q q q q q q u q q q q q q q q q q q q q q q q q q q q y q q q y q q q q q q q q q q q q q q q q q q i p q q q q q q q q q q ",
"q q q q q q q q q q q q q q q q q q q q q q q q q q q q q q q q q q q q q q q q q q q q q q q q q q q q q q q q q q q q q q q q q q q q q q q q q q q q q q q q q q q q q q q q q q q q q q q q q q q q q q q q q q q q q q q q q q q q q q q q q q q q q q q < > 1 q < > 1 < q > > q 1 > q < 1 < n a.: q q 1 q 1 > < 1 > 1 q > > q < < q q q q q q q q q q q q q q q q q q q q q q q q q q q q q q q q q q q q q q q q q q q q q q q q q q q q q q q q q q q q q q q q q q q q q q q q q q q q q q q q 1 1 q q q q q q q q q q ",
"q q q q q q q q q q q q q q q q q q q q q q q q q q q q q q q q q q q q q q q q q q q q q q q q q q q q q q q q q q q q q q q q q q q q q q q q q q q q q q q q q q q q q q q q q q q q q q q q q q q q q q q q q q q q q q q q q q q q q q q q q q q q q q q q q q q q q q q q q q q q q q q q 1 g n q q q q q q q q q q q q q q q q q q q q q q q q q q q q q q q q q q q q q q q q q q q q q q q q q q q q q q q q q q q q q q q q q q q q q q q q q q q q q q q q q q q q q q q q q q q q q q q q q q q q q q q q q q q q q ",
"q q q q q q q q q q q q q q q q q q q q q q q q q q q q q q q q q q q q q q q q q q q q q q q q q q q q q q q q q q q q q q q q q q q q q q q q q q q q q q q q q q q q q q q q q q q q q q q q q q q q q q q q q q q q q q q q q q q q q q q q q q q q q q q q q q q q q q q q q q q q q q q q q q 1 q q q q q q q q q q q q q q q q q q q q q q q q q q q q q q q q q q q q q q q q q q q q q q q q q q q q q q q q q q q q q q q q q q q q q q q q q q q q q q q q q q q q q q q q q q q q q q q q q q q q q q q q q q q q q ",
"1 1 1 1 1 1 1 1 1 1 1 1 1 1 1 1 1 1 1 1 1 1 1 1 1 1 1 1 1 1 1 1 1 1 1 1 1 1 1 1 1 1 1 1 1 1 1 1 1 1 1 1 1 1 1 1 1 1 1 1 1 1 1 1 1 1 1 1 1 1 1 1 1 1 1 1 1 1 1 1 1 1 1 1 1 1 1 1 1 1 1 1 1 1 1 1 1 1 1 1 1 1 1 1 1 1 1 1 1 1 1 1 1 1 1 1 1 1 1 1 1 1 1 1 1 1 1 1 1 1 1 1 1 1 1 1 1 1 1 1 1 1 1 1 1 1 1 1 1 1 1 1 1 1 1 1 1 1 1 1 1 1 1 1 1 1 1 1 1 1 1 1 1 1 1 1 1 1 1 1 1 1 1 1 1 1 1 1 1 1 1 1 1 1 1 1 1 1 1 1 1 1 1 1 1 1 1 1 1 1 1 1 1 1 1 1 1 1 1 1 1 1 1 1 1 1 1 1 1 1 1 1 1 1 1 1 1 1 1 1 1 1 1 1 1 1 1 1 1 1 1 1 1 1 1 1 ",
"m m m m m m m m m m m m m m m m m m m m m m m m m m m m m m m m m m m m m m m m m m m m m m m m m m m m m m m m m m m m m m m m m m m m m m m m m m m m m m m m m m m m m m m m m m m m m m m m m m m m m m m m m m m m m m m m m m m m m m m m m m m m m m m m m m m m m m m m m m m m m m m m m m m m m m m m m m m m m m m m m m m m m m m m m m m m m m m m m m m m m m m m m m m m m m m m m m m m m m m m m m m m m m m m m m m m m m m m m m m m m m m m m m m m m m m m m m m m m m m m m m m m m m m m m m m m m m m m ",
"c c c c c c c c c c c c c c c c c c c c c c c c c c c c c c c c c c c c c c c c c c c c c c c c c c c c c c c c c c c c c c c c c c c c c c c c c c c c c c c c c c c c c c c c c c c c c c c c c c c c c c c c c c c c c c c c c c c c c c c c c c c c c c c c c c c c c c c c c c c c c c c c c c c c c c c c c c c c c c c c c c c c c c c c c c c c c c c c c c c c c c c c c c c c c c c c c c c c c c c c c c c c c c c c c c c c c c c c c c c c c c c c c c c c c c c c c c c c c c c c c c c c c c c c c c c c c c c c ",
"1 1 1 1 1 1 1 1 1 1 1 1 1 1 1 1 1 1 1 1 1 1 1 1 1 1 1 1 1 1 1 1 1 1 1 1 1 1 1 1 1 1 1 1 1 1 1 1 1 1 1 1 1 1 1 1 1 1 1 1 1 1 1 1 1 1 1 1 1 1 1 1 1 1 1 1 1 1 1 1 1 1 1 1 1 1 1 1 1 1 1 1 1 1 1 1 1 1 1 1 1 1 1 1 1 1 1 1 1 1 1 1 1 1 1 1 1 1 1 1 1 1 1 1 1 1 1 1 1 1 1 1 1 1 1 1 1 1 1 1 1 1 1 1 1 1 1 1 1 1 1 1 1 1 1 1 1 1 1 1 1 1 1 1 1 1 1 1 1 1 1 1 1 1 1 1 1 1 1 1 1 1 1 1 1 1 1 1 1 1 1 1 1 1 1 1 1 1 1 1 1 1 1 1 1 1 1 1 1 1 1 1 1 1 1 1 1 1 1 1 1 1 1 1 1 1 1 1 1 1 1 1 1 1 1 1 1 1 1 1 1 1 1 1 1 1 1 1 1 1 1 1 1 1 1 1 ",
"q q q q q q q q q q q q q q q q q q q q q q q q q q q q q q q q q q q q q q q q q q q q q q q q q q q q q q q q q q q q q q q q q q q q q q q q q q q q q q q q q q q q q q q q q q q q q q q q q q q q q q q q q q q q q q q q q q q q q q q q q q q q q q q q q q q q q q q q q q q q q q q q q q q q q q q q q q q q q q q q q q q q q q q q q q q q q q q q q q q q q q q q q q q q q q q q q q q q q q q q q q q q q q q q q q q q q q q q q q q q q q q q q q q q q q q q q q q q q q q q q q q q q q q q q q q q q q q q ",
"8 8 8 8 8 8 8 8 8 8 8 8 8 8 8 8 8 8 8 8 8 8 8 8 8 8 8 q q 9 9 9 9 9 9 9 9 9 9 9 9 9 9 9 9 9 9 9 9 9 9 9 q q q q q q q q q q q q q q q q q q q q q q q q q q q q q q q q q q q q q q q q q q q q q q q q q q q q q q q q q q q q q q q q q q q q q q q q q q q q q q q q q q q q q q q q q q q q q q q q q q q q q q q q q q q q q q q q q q q q q q q q q q q q q q q q q q q q q q q q q q q q q q q q q q q q q q q q q q q q q q q q q q q q q q q q q q q q q q q q q q q q q q q q q q q q q q q q q q q q q q q q q q q q ",
"I.I.I.I.I.I.I.I.I.I.I.I.I.I.I.I.I.I.I.I.I.I.I.I.I.I.I.4 0 ~ Q.Q.Q.Q.Q.Q.Q.Q.Q.Q.Q.Q.Q.Q.Q.Q.Q.Q.Q.Q.Q.T 9 q q q q q q q q q q q q q q q q q q q q q q q q q q q q q q q q q q q q q q q q q q q q q q q q q q q q q q q q q q q q q q q q q q q q q q q q q q q q q q q q q q q q q q q q q q q q q q q q q q q q q q q q q q q q q q q q q q q q q q q q q q q q q q q q q q q q q q q q q q q q q q q q q q q q q q q q q q q q q q q q q q q q q q q q q q q q q q q q q q q q q q q q q q q q q q q q q q q q q q q q q q q ",
"X.X.X.X.X.X.X.X.X.X.X.X.X.X.X.X.X.X.X.X.X.X.X.X.X.X.`.6 8 /.!.! W.W.W.W.! W.! W.! W.W.W.W.! W.W.W.! /.~ 7 q q q q q q q q q q q q q q q q q q q q q q q q q q q q q q q q q q q q q q q q q q q q q q q q q q q q q q q q q q q q q q q q q q q q q q q q q q q q q q q q q q q q q q q q q q q q q q q q q q q q q q q q q q q q q q q q q q q q q q q q q q q q q q q q q q q q q q q q q q q q q q q q q q q q q q q q q q q q q q q q q q q q q q q q q q q q q q q q q q q q q q q q q q q q q q q q q q q q q q q q q q q ",
"( ( ( ( ( ( ( ( ( ( ( ( ( ( ) ( ( ( ( ( ( ( ( ( ) ( Y.6 8 ~.R L P L P P P P P L P L L P P P P L P L W.W 7 q q q q q q q q q q q q q q q q q q q q q q q q q q q q q q q q q q q q q q q q q q q q q q q q q q q q q q q q q q q q q q q q q q q q q q q q q q q q q q q q q q q q q q q q q q q q q q q q q q q q q q q q q q q q q q q q q q q q q q q q q q q q q q q q q q q q q q q q q q q q q q q q q q q q q q q q q q q q q q q q q q q q q q q q q q q q q q q q q q q q q q q q q q q q q q q q q q q q q q q q q q q ",
"{ } { ` } { { ` { ` { { ` { ) } } } } } } { } { ) ) Y.6 8 !.E P R E R R P R P R P E E R R P R E R L W.W 7 1 1 1 1 1 1 1 1 1 1 1 1 1 1 1 1 1 1 1 1 1 1 1 1 1 1 1 1 1 1 1 1 1 1 1 1 1 1 1 1 1 1 1 1 1 1 1 1 1 1 1 1 1 1 1 1 1 1 1 1 1 1 1 1 1 1 1 1 1 1 1 1 1 1 1 1 1 1 1 1 1 1 1 1 1 1 1 1 1 1 1 1 1 1 1 1 1 1 1 1 1 1 1 1 1 1 1 1 1 1 1 1 1 1 1 1 1 1 1 1 1 1 1 1 1 1 1 1 1 1 1 1 1 1 1 1 1 1 1 1 1 1 1 1 1 1 1 1 1 1 1 1 1 1 1 1 1 1 1 1 1 1 1 1 1 1 1 1 1 1 1 1 1 1 1 1 1 1 1 1 1 1 1 1 1 1 1 1 1 1 1 1 1 1 1 1 1 q q q q q q ",
"} o.) o.} } o.) } `  .o.)  ._ o.{ } o.o.{ }  .o.) ( Y.6 > !.R L Q E R W.R E R W.L Q Q E Q L E Q P L ! W 7 1 < < < < < < < < < < < < < < < < < < < < < < < < < < < < < < < < < < < < < < < < < < < < < < < < < < < < < < < < < < < < < < < < < < < < < < < < < < < < < < < < < < < < < < < < < < < < < < < < < < < < < < < < < < < < < < < < < < < < < < < < < < < < < < < < < < < < < < < < < < < < < < < < < < < < < < < < < < < < < < < < < < < < < < < < < < < < < < < < < < < < < < < < < < < < < < < < < < 1 1 1 1 1 q q q ",
"{  .{ } V { o.( { ` } } ` { / } _ { )  .{ { } } _ _ U.4 > ! P J E E P Q Q R R Q P E Q R E L R Q P J Q W * < < < < < < < < < < < < < < < < < < < < < < < < < < < < < < < < < < < < < < < < < < < < < < < < < < < < < < < < < < < < < < < < < < < < < < < < < < < < < < < < < < < < < < < < < < < < < < < < < < < < < < < < < < < < < < < < < < < < < < < < < < < < < < < < < < < < < < < < < < < < < < < < < < < < < < < < < < < < < < < < < < < < < < < < < < < < < < < < < < < < < < < < < < < < < < < < < < < < < < < 1 1 1 q ",
"{ ` _ } _ { } ) { { } } { { / { { } _ } _ ` } { _ _ I.4 > ! P J R L P P E Q E Q E R P E E J R P J J E I * > > > > > > > > > > > > > > > > > > > > > > > > > > > > > > > > > > > > > > > > > > > > > > > > > > > > > > > > > > > > > > > > > > > > > > > > > > > > > > > > > > > > > > > > > > > > > > > > > > > > > > > > > > > > > > > > > > > > > > > > > > > > > > > > > > > > > > > > > > > > > > > > > > > > > > > > > > > > > > > > > > > > > > > > > > > > > > > > > > > > > > > > > > > > > > > > > > > > > < < < < 1 1 ",
"_ { ( ( } { / { ) ( _ _ ) { ) ` { { ) { { ( _ ) _ V X.4 ; Q L H P R L L L R L J P R R L R R P R L H E I * > > > > > > > > > > > > > > > > > > > > > > > > > > > > > > > > > > > > > > > > > > > > > > > > > > > > > > > > > > > > > > > > > > > > > > > > > > > > > > > > > > > > > > > > > > > > > > > > > > > > > > > > > > > > > > > > > > > > > > > > > > > > > > > > > > > > > > > > > > > > > > > > > > > > > > > > > > > > > > > > > > > > > > > > > > > > > > > > > > > > > > > > > > > > > > > > > > > > > > > < < < 1 ",
"B B B B V ( B B B B B B B B B B B B B B B B B B B B o.4 ; E L H H H H H H H H H H H H H H H H H H H R I * > > > > > > > > > > > > > > > > > > > > > > > > > > > > > > > > > > > > > > > > > > > > > > > > > > > > > > > > > > > > > > > > > > > > > > > > > > > > > > > > > > > > > > > > > > > > > > > > > > > > > > > > > > > > > > > > > > > > > > > > > > > > > > > > > > > > > > > > > > > > > > > > > > > > > > > > > > > > > > > > > > > > > > > > > > > > > > > > > > > > > > > > > > > > > > > > > : > > > > > > > < < ",
"B B B B B B B B B B B B B B B B B B B B B B B B B B } 4 ; E J H H H H H H H H H H H H H H H H H H H R K * : : : : : : : : : : : : : : : : : : : : : : : : : : : : : : : : : : : : : : : : : : : : : : : : : : : : : : : : : : : : : : : : : : : : : : : : : : : : : : : : : : : : : : : : : : : : : : : : : : : : : : : : : : : : : : : : : : : : : : : : : : : : : : : : : : : : : : : : : : : : : : : : : : : : : : : : : : : : : : : : : : : : : : : : : : : : : : : : : : : : : : : : : : : : : : : : : : : : : : > > > > < ",
"{ { { { { { { { { { { { { { { { { { { { { { { { { { } N $ P E R R R R R R R R R R R R R R R R R R R E K * : : : : : : : : : : : : : : : : : : : : : : : : : : : : : : : : : : : : : : : : : : : : : : : : : : : : : : : : : : : : : : : : : : : : : : : : : : : : : : : : : : : : : : : : : : : : : : : : : : : : : : : : : : : : : : : : : : : : : : : : : : : : : : : : : : : : : : : : : : : : : : : : : : : : : : : : : : : : : : : : : : : : : : : : : : : : : : : : : : : : : : : : : : : : : : : : : : : : : : : > > > > ",
"2 2 2 2 2 2 2 2 2 2 2 2 2 2 2 2 2 2 2 2 2 2 2 2 2 2 2 : = - - - - - - - - - - - - - - - - - - - - - - = $ = = = = = = = = = = = = = = = = = = = = = = = = = = = = = = = = = = = = = = = = = = = = = = = = = = = = = = = = = = = = = = = = = = = = = = = = = = = = = = = = = = = = = = = = = = = = = = = = = = = = = = = = = = = = = = = = = = = = = = = = = = = = = = = = = = = = = = = = = = = = = = = = = = = = = = = = = = = = = = = = = = = = = = = = = = = = = = = = = = = = = = = = = = = = = = = = = = : : : : : : : > > ",
": : : : : : : : : : : : : : : : : : : : : : : : : : : : : : : : : : : : : : : : : : : : : : : : : : : : : : : : : : : : : : : : : : : : : : : : : : : : : : : : : : : : : : : : : : : : : : : : : : : : : : : : : : : : : : : : : : : : : : : : : : : : : : : : : : : : : : : : : : : : : : : : : : : : : : : : : : : : : : : : : : : : : : : : : : : : : : : : : : : : : : : : : : : : : : : : : : : : : : : : : : : : : : : : : : : : : : : : : : : : : : : : : : : : : : : : : : : : : : : : : : : : : : : : + $ : : : : > > ",
"%.%.%.%.%.%.%.%.%.%.%.%.%.%.%.%.%.%.%.%.%.%.%.%.%.%.%.%.%.%.%.%.%.%.%.%.%.%.%.%.%.%.%.%.%.%.%.%.%.%.%.%.%.%.%.%.%.%.%.%.%.$.$.$.$.$.$.$.$.$.$.$.$.$.$.$.$.$.$.$.$.$.$.$.$.$.$.$.$.$.$.$.$.$.$.$.$.$.$.$.$.$.$.$.$.$.$.$.$.$.$.$.$.$.$.$.$.$.$.$.$.$.$.$.$.$.$.$.$.$.$.$.$.$.$.$.$.$.$.$.$.$.$.$.$.$.$.$.$.$.$.$.$.$.$.$.$.$.$.$.$.$.$.$.$.$.$.$.$.$.$.$.$.$.$.$.$.$.$.$.$.$.$.$.$.$.$.$.$.$.$.$.$.$.$.$.$.$.$.$.$.$.$.$.$.$.$.$.$.$.$.$.$.$.$.$.$.$.$.$.$.$.$.$.$.$.$.$.$.$.$.$.$.$.$.$.$.$.$.$.$.$.$.$.$.$.$.m h > $ : : : : : ",
"&.&.&.&.&.&.&.&.%.&.&.&.&.&.&.&.&.&.&.&.&.%.&.&.%.%.&.&.&.&.&.&.&.&.&.&.&.%.&.&.&.&.&.&.&.&.&.&.&.&.&.&.&.&.&.&.&.&.&.&.$.q q q q q q q q q q q q q q q q q q q q q q q q q q q q q q q q q q q q q q q q q q q q q q q q q q q q q q q q q q q q q q q q q q q q q q q q q q q q q q q q q q q q q q q q q q q q q q q q q q q q q q q q q q q q q q q q q q q q q q q q q q q q q q q q q q q q q q q q q q q q q q q q q q q q q q q q q q q q q q q q q q q q q q q q q q q q q q q q q q q q q q q q q q f c #.q = : > > > ",
"&.%.%.%.%.&.%.2.s.u.a.%.%.%.&.%.%.&.%.%.&.j.&.&.p.d.p.%.%.&.%.&.%.&.%.$.p.d.p.&.$.%.%.%.&.%.%.s.&.%.%.&.%.%.&.&.&.&.&.&.$.q q q q q q q q q q q q q q q q q q q q q q q q q q q q q q q q q q q q q q q q q q q q q q q q q q q q q q q q q q q q q q q q q q q q q q q q q q q q q q q q q q q q q q q q q q q q q q q q q q q q q q q q q q q q q q q q q q q q q q q q q q q q q q q q q q q q q q q q q q q q q q q q q q q q q q q q q q q q q q q q q q q q q q q q q q q q q q q q q q q q q q q q q q q < f $.g y g g h ",
"2.a.2.d.l.%.u.n.z.a.u.&.a.p.&.p.a.%.p.s.&.M.&.%.N.z.a.2.a.2.2.&.2.&.a.p.d.x.&.p.d.p.p.s.&.x.a.p.%.a.p.%.p.a.&.&.&.&.&.&.$.q q q q q q q q q q q q q q q q q q q q q q q q q q q q q q q q q q q q q q q q q q q q q q q q q q q q q q q q q q q q q q q q q q q q q q q q q q q q q q q q q q q q q q q q q q q q q q q q q q q q q q q q q q q q q q q q q q q q q q q q q q q q q q q q q q q q q q q q q q q q q q q q q q q q q q q q q q q q q q q q q q q q q q q q q q q q q q q q q q q q q q q q q q q q < v g $ : : : ",
"s.n.x.M.M.&.p.N.p.p.x.k.n.N.d.N.n.j.p.n.l.v.&.&.M.s.u.n.n.v.z.p.x.s.d.n.l.l.x.s.M.M.p.n.z.@Xk.x.d.M.n.s.N.n.z.$.&.&.&.&.$.q q q q q q q q q q q q q q q q q q q q q q q q q q q q q q q q q q q q q q q q q q q q q q q q q q q q q q q q q q q q q q q q q q q q q q q q q q q q q q q q q q q q q q q q q q q q q q q q q q q q q q q q q q q q q q q q q q q q q q q q q q q q q q q q q q q q q q q q q q q q q q q q q q q q q q q q q q q q q q q q q q q q q q q q q q q q q q q q q q q q q q q q q q q q q g m $ : : : ",
"z.M.x.n.s.$.%.u.M.z.x.n.%.x.k.l.p.v.s.n.n.v.&.%.N.k.j.z.%.v.x.2.z.d.j.M.v.k.v.&.l.p.d.M.v.z.&.v.v.&.k.x.z.&.n.$.&.&.&.&.m q q q q q q q q q q q q q q q q q q q q q q q q q q q q q q q q q q q q q q q q q q q q q q q q q q q q q q q q q q q q q q q q q q q q q q q q q q q q q q q q q q q q q q q q q q q q q q q q q q q q q q q q q q q q q q q q q q q q q q q q q q q q q q q q q q q q q q q q q q q q q q q q q q q q q q q q q q q q q q q q q q q q q q q q q q q q q q q q q q q q q q q q q q q q q g #.$ : : : ",
"d.M.a.k.n.%.u.s.z.v.x.z.z.M.k.z.a.n.n.n.n.n.&.&.N.d.a.n.z.v.l.x.M.x.M.n.n.l.x.z.N.d.N.n.v.n.j.v.k.x.v.j.v.p.n.$.&.&.&.&.v q q q q q q q q q q q q q q q q q q q q q q q q q q q q q q q q q q q q q q q q q q q q q q q q q q q q q q q q q q q q q q q q q q q q q q q q q q q q q q q q q q q q q q q q q q q q q q q q q q q q q q q q q q q q q q q q q q q q q q q q q q q q q q q q q q q q q q q q q q q q q q q q q q q q q q q q q q q q q q q q q q q q q q q q q q q q q q q q q q q q q q q q q q q q q g #.$ : : : ",
"%.d.j.2.j.2.&.k.j.&.p.2.j.N.a.p.2.p.a.j.p.a.&.%.d.z.p.p.z.n.&.k.d.2.j.d.p.p.p.s.l.d.s.j.u.a.d.p.&.k.s.&.a.&.a.%.&.&.&.%.y q q q q q q q q q q q q q q q q q q q q q q q q q q q q q q q q q q q q q q q q q q q q q q q q q q q q q q q q q q q q q q q q q q q q q q q q q q q q q q q q q q q q q q q q q q q q q q q q q q q q q q q q q q q q q q q q q q q q q q q q q q q q q q q q q q q q q q q q q q q q q q q q q q q q q q q q q q q q q q q q q q q q q q q q q q q q q q q q q q q q q q q q q q q q q g #.$ : : : ",
"&.%.%.&.%.&.&.%.%.&.%.d.n.z.&.&.&.&.&.%.&.&.&.&.%.$.&.%.2.x.%.%.%.&.%.%.&.&.&.&.$.%.%.%.&.&.%.&.&.%.&.&.&.&.&.&.&.&.%.g q q q q q q q q q q q q q q q q q q q q q q q q q q q q q q q q q q q q q q q q q q q q q q q q q q q q q q q q q q q q q q q q q q q q q q q q q q q q q q q q q q q q q q q q q q q q q q q q q q q q q q q q q q q q q q q q q q q q q q q q q q q q q q q q q q q q q q q q q q q q q q q q q q q q q q q q q q q q q q q q q q q q q q q q q q q q q q q q q q q q q q q q q q q q q q g #.$ : : : ",
"#.#.#.#.#.#.#.#.#.#.#.#.#.m #.#.#.#.#.#.#.#.#.#.#.#.#.#.#.m #.#.#.#.#.#.#.#.#.#.#.#.#.#.#.#.#.#.#.#.#.#.#.#.#.#.m c y q q q q q q q q q q q q q q q q q q q q q q q q q q q q q q q q q q q q q q q q q q q q q q q q q q q q q q q q q q q q q q q q q q q q q q q q q q q q q q q q q q q q q q q q q q q q q q q q q q q q q q q q q q q q q q q q q q q q q q q q q q q q q q q q q q q q q q q q q q q q q q q q q q q q q q q q q q q q q q q q q q q q q q q q q q q q q q q q q q q q q q q q q q q q q q q g #.$ : : : ",
"q q q q q q q q q q q q q q q q q q q q q q q q q q q q q q q q q q q q q q q q q q q q q q q q q q q q q q q q q q q q q q q q q q q q q q q q q q q q q q q q q q q q q q q q q q q q q q q q q q q q q q q q q q q q q q q q q q q q q q q q q q q q q q q q q q q q q q q q q q q q q q q q q q q q q q q q q q q q q q q q q q q q q q q q q q q q q q q q q q q q q q q q q q q q q q q q q q q q q q q q q q q q q q q q q q q q q q q q q q q q q q q q 9 9 9 9 9 9 9 9 9 9 9 9 9 9 9 9 9 9 9 9 9 9 q q q q g #.$ : : : ",
"q q q q q q q q q q q q q q q q q q q q q q q q q q q q q q q q q q q q q q q q q q q q q q q q q q q q q q q q q q q q q q q q q q q q q q q q q q q q q q q q q q q q q q q q q q q q q q q q q q q q q q q q q q q q q q q q q q q q q q q q q q q q q q q q q q q q q q q q q q q q q q q q q q q q q q q q q q q q q q q q q q q q q q q q q q q q q q q q q q q q q q q q q q q q q q q q q q q q q q q q q q q q q q q q q q q q q q q q q q q q q q q q U U U U U U U U U U U U U U U U U U U U U U 3 q q q g #.$ : : : ",
"q q q q q q q q q q q q q q q q q q q q q q q q q q q q q q q q q q q q q q q q q q q q q q q q q q q q q q q q q q q q q q q q q q q q q q q q q q q q q q q q q q q q q q q q q q q q q q q q q q q q q q q q q q q q q q q q q q q q q q q q q q q q q q q q q q q q q q q q q q q q q q q q q q q q q q q q q q q q q q q q q q q q q q q q q q q q q q q q q q q q q q q q q q q q q q q q q q q q q q q q q q q q q q q q q q q q q q q q q q q q q q q y /./.^.^.^.^.^.^.^.^.^.^.^.^.^.^.^.^.^.^.^.(.^ 9 q q g #.$ : : : ",
"q q q q q q q q q q q q q q q q q q q q q q q q q q q q q q q q q q q q q q q q q q q q q q q q q q q q q q q q q q q q q q q q q q q q q q q q q q q q q q q q q q q q q q q q q q q q q q q q q q q q q q q q q q q q q q q q q q q q q q q q q q q q q q q q q q q q q q q q q q q q q q q q q q q q q q q q q q q q q q q q q q q q q q q q q q q q q q q q q q q q q q q q q q q q q q q q q q q q q q q q q q q q q q q q q q q q q q q q q q q q q q q y ^.R P P P P P P P P P P P P P P P P P P L ~.^ 7 q q g #.> < 1 q ",
"q q q q q q q q q q q q q q q q q q q q q q q q q q q q q q q q q q q q q q q q q q q q q q q q q q q q q q q q q q q q q q q q q q q q q q q q q q q q q q q q q q q q q q q q q q q q q q q q q q q q q q q q q q q q q q q q q q q q q q q q q q q q q q q q q q q q q q q q q q q q q q q q q q q q q q q q q q q q q q q q q q q q q q q q q q q q q q q q q q q q q q q q q q q q q q q q q q q q q q q q q q q q q q q q q q q q q q q q q q q q q q q y ^.E R R E R R R R R R R R E R R R R E E P ~.^ 7 q q g #.: > > < ",
"q q q q q q q q q q q q q q q q q q q q q q q q q q q q q q q q q q q q q q q q q q q q q q q q q q q q q q q q q q q q q q q q q q q q q q q q q q q q q q q q q q q q q q q q q q q q q q q q q q q q q q q q q q q q q q q q q q q q q q q q q q q q q q q q q q q q q q q q q q q q q q q q q q q q q q q q q q q q q q q q q q q q q q q q q q q q q q q q q q q q q q q q q q q q q q q q q q q q q q q q q q q q q q q q q q q q q q q q q q q q q q q y ^.E R W.! ! W.E Q Q !.R W.W.Q ! R ! W.E P ~.^ 7 q q g #.+ $ : : ",
"q q q q q q q q q q q q q q q q q q q q q q q q q q q q q q q q q q q q q q q q q q q q q q q q q q q q q q q q q q q q q q q q q q q q q q q q q q q q q q q q q q q q q q q q q q q q q q q q q q q q q q q q q q q q q q q q q q q q q q q q q q q q q q q q q q q q q q q q q q q q q q q q q q q q q q q q q q q q q q q q q q q q q q q q q q q q q q q q q q q q q q q q q q q q q q q q q q q q q q q q q q q q q q q q q q q q q q q q q q q q q q q y ^.E R !.! Q ~.! Q ! !.E !.W.! W.R W.W.E P ~.^ 7 q q g m : < : : ",
"q q q q q q q q q q q q q q q q q q q q q q q q q q q q q q q q q q q q q q q q q q q q q q q q q q q q q q q q q q q q q q q q q q q q q q q q q q q q q q q q q q q q q q q q q q q q q q q q q q q q q q q q q q q q q q q q q q q q q q q q q q q q q q q q q q q q q q q q q q q q q q q q q q q q q q q q q q q q q q q q q q q q q q q q q q q q q q q q q q q q q q q q q q q q q q q q q q q q q q q q q q q q q q q q q q q q q q q q q q q q q q q y ^.E R W.E Q ! ~.! !.~.! ! Q W.! P W.Q R P ~.^ 7 q q g m q f $ > ",
"q q q q q q q q q q q q q q q q q q q q q q q q q q q q q q q q q q q q q q q q q q q q q q q q q q q q q q q q q q q q q q q q q q q q q q q q q q q q q q q q q q q q q q q q q q q q q q q q q q q q q q q q q q q q q q q q q q q q q q q q q q q q q q q q q q q q q q q q q q q q q q q q q q q q q q q q q q q q q q q q q q q q q q q q q q q q q q q q q q q q q q q q q q q q q q q q q q q q q q q q q q q q q q q q q q q q q q q q q q q q q q q y ^.E R W.! ! Q ! ~.! Q W.W.W.! !.Q W.W.E P ~.^ 7 q q g m q g z : ",
"q q q q q q q q q q q q q q q q q q q q q q q q q q q q q q q q q q q q q q q q q q q q q q q q q q q q q q q q q q q q q q q q q q q q q q q q q q q q q q q q q q q q q q q q q q q q q q q q q q q q q q q q q q q q q q q q q q q q q q q q q q q q q q q q q q q q q q q q q q q q q q q q q q q q q q q q q q q q q q q q q q q q q q q q q q q q q q q q q q q q q q q q q q q q q q q q q q q q q q q q q q q q q q q q q q q q q q q q q q q q q q q y ^.E R E Q E R R E R R E E E R E E E Q E P ~.^ 7 q q g m 1 &.q + ",
"q q q q q q q q q q q q q q q q q q q q q q q q q q q q q q q q q q q q q q q q q q q q q q q q q q q q q q q q q q q q q q q q q q q q q q q q q q q q q q q q q q q q q q q q q q q q q q q q q q q q q q q q q q q q q q q q q q q q q q q q q q q q q q q q q q q q q q q q q q q q q q q q q q q q q q q q q q q q q q q q q q q q q q q q q q q q q q q q q q q q q q q q q q q q q q q q q q q q q q q q q q q q q q q q q q q q q q q q q q q q q q q y ^.R P P P P P P P P P P P P P P P P P P L ~.^ 7 q q g m q v x q ",
"q q q q q q q q q q q q q q q q q q q q q q q q q q q q q q q q q q q q q q q q q q q q q q q q q q q q q q q q q q q q q q q q q q q q q q q q q q q q q q q q q q q q q q q q q q q q q q q q q q q q q q q q q q q q q q q q q q q q q q q q q q q q q q q q q q q q q q q q q q q q q q q q q q q q q q q q q q q q q q q q q q q q q q q q q q q q q q q q q q q q q q q q q q q q q q q q q q q q q q q q q q q q q q q q q q q q q q q q q q q q q q q y /.~.~.~.~.~.~.~.~.~.~.~.~.~.~.~.~.~.~.~.!.(.^ 7 q q g m > > q g ",
"q q q q q q q q q q q q q q q q q q q q q q q q q q q q q q q q q q q q q q q q q q q q q q q q q q q q q q q q q q q q q q q q q q q q q q q q q q q q q q q q q q q q q q q q q q q q q q q q q q q q q q q q q q q q q q q q q q q q q q q q q q q q q q q q q q q q q q q q q q q q q q q q q q q q q q q q q q q q q q q q q q q q q q q q q q q q q q q q q q q q q q q q q q q q q q q q q q q q q q q q q q q q q q q q q q q q q q q q q q q q q q q y T ^ ^ ^ ^ ^ ^ ^ ^ ^ ^ ^ ^ ^ ^ ^ ^ ^ ^ ^ ^ ^ 3 9 q q g #.$ : = = ",
"q q q q q q q q q q q q q q q q q q q q q q q q q q q q q q q q q q q q q q q q q q q q q q q q q q q q q q q q q q q q q q q q q q q q q q q q q q q q q q q q q q q q q q q q q q q q q q q q q q q q q q q q q q q q q q q q q q q q q q q q q q q q q q q q q q q q q q q q q q q q q q q q q q q q q q q q q q q q q q q q q q q q q q q q q q q q q q q q q q q q q q q q q q q q q q q q q q q q q q q q q q q q q q q q q q q q q q q q q q q q q q q q 9 7 7 7 7 7 7 7 7 7 7 7 7 7 7 7 7 7 7 7 9 7 9 q q q g #.$ : : : ",
"q q q q q q q q q q q q q q q q q q q q q q q q q q q q q q q q q q q q q q q q q q q q q q q q q q q q q q q q q q q q q q q q q q q q q q q q q q q q q q q q q q q q q q q q q q q q q q q q q q q q q q q q q q q q q q q q q q q q q q q q q q q q q q q q q q q q q q q q q q q q q q q q q q q q q q q q q q q q q q q q q q q q q q q q q q q q q q q q q q q q q q q q q q q q q q q q q q q q q q q q q q q q q q q q q q q q q q q q q q q q q q q q q q q q q q q q q q q q q q q q q q q q q q q q q 1 g #.$ : : : ",
"g g g g g g g g g g g g g g g g g g g g g g g g g g g g g g g g g f g g f g g g g g g g g g g g g g g g g g g g g g g g g g g g g g g g g g g g g g g g g g g g g g g g g g g g g g g g g g g g g g g g g g g g g g g g g g g g g g g g g g g g g g g g g g g g g g g g g g g g g g g g g g g g g g g g g g g g g g g g g g g g g g g g g g g g g g g g g g g g g g g g g g g g g g g g g g g g g g g g g g g g g g g g g g g f g g f g g g g g g g g g g g g g g g g g g g g g g g g g g g g g g g g g g g g f g q g #.$ : : : ",
"h h h h h h h h h h h h h h h h h h h h h h h h h h h h h h h h h h g h h h h h h h h h h h h h h h h h h h h h h h h h h h h h h h h h h h h h h h h h h h h h h h h h h h h h h h h h h h h h h h h h h h h h h h h h h h h h h h h h h h h h h h h h h h h h h h h h h h h h h h h h h h h h h h h h h h h h h h h h h h h h h h h h h h h h h h h h h h h h h h h h h h h h h h h h h h h h h h h h h h h h h h h h h h h h h h h h h h h h h h h h h h h h h h h h h h h h h h h h h h h h h h h h h h h h x q g #.$ : : : ",
"q q q q q q q q q q q q q q q q q q q q q q q q q q q q q q q q q 1 g q 1 q q q q q q q q q q q q q q q q q q q q q q q q q q q q q q q q q q q q q q q q q q q q q q q q q q q q q q q q q q q q q q q q q q q q q q q q q q q q q q q q q q q q q q q q q q q q q q q q q q q q q q q q q q q q q q q q q q q q q q q q q q q q q q q q q q q q q q q q q q q q q q q q q q q q q q q q q q q q q q q q q q q q q q q q q q 1 q y 1 q q q q q q q q q q q q q q q q q q q q q q q q q q q q q q q q q q q q q q 1 g #.$ $ $ : ",
"q q q q q q q q q q q q q q q q q q q q q q q q q q q q q q q q q q c y q q q q q q q q q q q q q q q q q q q q q q q q q q q q q q q q q q q q q q q q q q q q q q q q q q q q q q q q q q q q q q q q q q q q q q q q q q q q q q q q q q q q q q q q q q q q q q q q q q q q q q q q q q q q q q q q q q q q q q q q q q q q q q q q q q q q q q q q q q q q q q q q q q q q q q q q q q q q q q q q q q q q q q q q q q q q g h q q q q q q q q q q q q q q q q q q q q q q q q q q q q q q q q q q q q q q q q g #.$ q q : ",
"q q q q 1 q q q q q q q q q q q q q q q q q q q q q q q q q q q q q x q q q q q q q q q 1 > q q < q q q q q q q q q q q q q q q q 1 q q < q < > 1 q q q q q q q q q q q q q < 1 q > q 1 > < q q q q q q q q q q q q q q q q q < q q 1 q q q q q q q q q q q q q q q q 1 q 1 q q q q q q q q q q q q q q q 1 < q q q > q q q q q q q q q q q q q q q q q 1 q q < > 1 1 q q q q q q q q q q q q q q q 1 q 1 < q 1 q q q q q q q q g h q q q q q q q q q 1 q q q q q q q q q q q q q q q q q q q q q q q q q q q q q q g m q c c h ",
"q q q q h q q 1 > q q q 1 q q q q > 1 q q 1 q 1 q q q q q q q q q q x q q q q q q q q q c #.f g m q q q q q q q q q q q q q q q q c 1 g n y m m z q q q q q q q q q q q q q m h q m g x #.n q q q q q q q q q q q q q q g y g m q 1 h y q q q q q q q q q q q q q q q z q %.< q q q q q q q q q q q q q q x m q q f #.y m x > q q q q q q q q q q q q q x q y m m v $.< q q q q q q q q q q q q q q x 1 h v f %.> q q q q q q q g h q q q q q q q q q h q g g x 1 < > c m : q q q < < q q 1 q 1 q q q q q q q q q q g m 1 x x g ",
"q q q q s.q 1 g m q g y h y g 1 y m c f y h s.v q q q q q q q q q q x q q q q q q q q q j.#.g p.p.m < q q q q q q q q q q q q 1 $.l.q a.p.%.c s.u.> q q q q q q q q q q 1 x &.p.m %.a.v #.k.g q q q q q q q q q q q q q l.%.2.2.%.q v.c < q q q q q q q q q q q q 1 &.k.q a.q h q q q q q q q q q q q q q #.p.%.> c &.2.p.c h q q q q q q q q q q q < #.z.< f n p.d.&.y g q q q q q q q q q q q 1 &.k.q a.p.&.2.y g q q q q q q g h q q q q q q q q f s.$ %.#.f q m h n s.c q q q v v g q g &.2.q q q q q q q q q q g m 1 v q > ",
"q q q q a.q f a.2.2.&.&.d.%.m > p.%.&.#.v 2.d.n q q q q q q q q q q x q q q q q q q q q a.u.$.%.y p.< q q q q q q q q q q q q q y p.c &.y p.$ 2.x 1 q q q q q q q q q q q q > s.f < s.1 g 2.< q q q q q q q q q q q 1 v a.v 2.j.c n a.x 1 q q q q q q q q q q q q q g p.y s.u.x 1 q q q q q q q q q q q q : m &.< q q p.2.p.$.q q q q q q q q q q q f &.p.q q : &.n a.2.h q q q q q q q q q q q q g p.c &.y d.p.u.h q q q q q q g h q q q q q q q q q j.m s.&.&.%.2.j.m d.p.$.: m a.n a.q p.p.p.q q q q q q q q q q g m q g + > ",
"q q q q a.: x 2.> a.%.s.p.d.f q d.$ m m c %.&.1 q q q q q q q q q q x q q q q q q q q q : g l.$.f p.< q q q q q q q q q q q q q q p.x &.y p.g a.1 q q q q q q q q q q q q < %.n : &.v : p.v < q q q q q q q q q q 1 h d.s.a.%.$.d.s.d.$.< q q q q q q q q q q q q q q a.q v.a.> q q q q q q q q q q q q 1 g p.q 1 < &.g %.M.f 1 q q q q q q q q q < p.a.k.g < h a.q n.p.> q q q q q q q q q q q q q p.c &.f s.x.p.> q q q q q q g h q q q q q q q q q j.v a.&.&.p.< &.$.#.g 2.: p.c : a.q p.$.c > q q q q q q q q q g m : > : : ",
"q q q q j.&.v p.p.#.m d.m k.q 1 p.2.#.p.d.$.p.#.1 q q q q q q q q q x q q q q q q q q q #.p.$.2.s.m < q q q q q q q q q q q q q q s.q p.s.n %.#.< q q q q q q q q q q q < #.z.n 2.k.m h a.q q q q q q q q q q q q q f v s.a.2.&.p.c j.$.< q q q q q q q q q q q q q q a.f p.&.#.< q q q q q q q q q q q q k.p.v $.&.l.c p.%.p.q q q q q q q q q q q c #.j.&.x %.m f p.2.m < q q q q q q q q q q q q a.q p.a.&.2.2.m < q q q q q g h q q q q q q q q f a.= #.2.&.$.p.d.#.$.c 2.: n d.v a.p.s.m s.q q q q q q q q q q g #.$ = : : ",
"q q q q x m g f v q q g q g q q q n f x c q g c q q q q q q q q q q x q q q q q q q q q c v 1 g v q q q q q q q q q q q q q q q q g q g v q g q q q q q q q q q q q q q q g v v c v v f g q q q q q q q q q q q q q q > q q g n q > q q q q q q q q q q q q q q q q q g q g q g q q q q q q q q q q q q q c n c g z v v g q g q q q q q q q q q q q 1 < q f f g q q f q g q q q q q q q q q q q q q g q g v q f q g q q q q q q g h q q q q q q q q q g q f g f f m d.g y q g q q c x f v g q c q q q q q q q q q q g #.$ : : : ",
"q q q q 1 > q q < q q q q q q q q < q 1 < q q 1 q q q q q q q q q q x q q q q q q q q q < < q q < q q q q q q q q q q q q q q q q q q q < q q q q q q q q q q q q q q q q 1 < < 1 < < q q q q q q q q q q q q q q q q q q q q < q q q q q q q q q q q q q q q q q q q q q q q q q q q q q q q q q q q q q < < 1 q 1 < < q q 1 q q q q q q q q q q q q q q q q q q q q q q q q q q q q q q q q q q q q q q < q q q q q q q q q q g h q q q q q q q q q q q q q < v p.m 1 q q q q q < 1 q < q q < q q q q q q q q q q g #.$ : : : ",
"q q q q q q q q q q q q q q q q q q q q q q q q q q q q q q q q q q x q q q q q q q q q q q q q q q q q q q q q q q q q q q q q q q q q q q q q q q q q q q q q q q q q q q q q q q q q q q q q q q q q q q q q q q q q q q q q q q q q q q q q q q q q q q q q q q q q q q q q q q q q q q q q q q q q q q q q q q q q q q q q q q q q q q q q q q q q q q q q q q q q q q q q q q q q q q q q q q q q q q q q q q q q q q q q g h q q q q q q q q q q q q q q q 1 1 q q q q q q q q q q q q q q q q q q q q q q q g #.$ : : : ",
"q q q q q q q q q q q q q q q q q q q q q q q q q q q q q q q q q q x q q q q q q q q q q q q q q q q q q q q q q q q q q q q q q q q q q q q q q q q q q q q q q q q q q q q q q q q q q q q q q q q q q q q q q q q q q q q q q q q q q q q q q q q q q q q q q q q q q q q q q q q q q q q q q q q q q q q q q q q q q q q q q q q q q q q q q q q q q q q q q q q q q q q q q q q q q q q q q q q q q q q q q q q q q q q q g h q q q q q q q q q q q q q q q q q q q q q q q q q q q q q q q q q q q q q q q q g #.$ : : : ",
"q q q q q q q q q q q q q q q q q q q q q q q q q q q q q q q q q q x q q q q q q q q q q q q q q q q q q q q q q q q q q q q q q q q q q q q q q q q q q q q q q q q q q q q q q q q q q q q q q q q q q q q q q q q q q q q q q q q q q q q q q q q q q q q q q q q q q q q q q q q q q q q q q q q q q q q q q q q q q q q q q q q q q q q q q q q q q q q q q q q q q q q q q q q q q q q q q q q q q q q q q q q q q q q q g h q q q q q q q q q q q q q q q q q q q q q q q q q q q q q q q q q q q q q q q q g m + $ : : ",
"g g g g g g g g h g g g g g g g g g g g g g g f g g g g g q q q q q x q q q q q q q q q q q q q q q q q q q q q q q q q q q q q q q q q q q q q q q q q q q q q q q q q q q q q q q q q q q q q q q q q q q q q q q q q q q q q q q q q q q q q q q q q q q q q q q q q q q q q q q q q q q q q q q q q q q q q q q q q q q q q q q q q q q q q q q q q q q 1 1 1 q q q q q q q q q q q q q q q q q q q q q q q q q q q q q q q g h q q q q y g g g g g g g g g h g g g g g g g g g g g g g g f g g g g g q q q q q g $.g < f g ",
"g h g g h h h h g g g g h h h h h h h h h h h f h h h h h g q q q q x q q q q q q q q q q q 1 q q q q q q q q q q q q q q q q q q q q 1 1 q q q q q q q q q q q q q q q q q q q q 1 q q q q q q q q q q q q q q q q q q q q 1 1 q q q q q q q q q q q q q q q q q q q q 1 q q q q q q q q q q q q q q q q q q q q 1 1 q q q q q q q q q q q q q q q q q q q c v v f q q q q q q q q q q q q q q q q q q 1 1 q q q q q q q q q q g h q q q q h h g h g g h h h h g h g g h h h h h h h h h h h f h g z h h g q q q q g $.< c z g ",
"x g c n g h h f #.v c m h g x h g h h g g g g f h f k.d.y h q q q q x q q q q q q q q q q f v g q q q q q q q q q q q q q q q q q q q x c q q q q q q q q q q q q q q q q q q q f v g q q q q q q q q q q q q q q q q q q q c c q q q q q q q q q q q q q q q q q q q f v g q q q q q q q q q q q q q q q q q q q c c q q q q q q q q q q q q q q q q q q n #.v m #.q q q q q q q q q q q q q q q q q q c c q q q q q q q q q q g h q q q q h g x g c v g h h f $.c v n g g x h g h h g g g g f h g x.p.y h q q q q g $.g g g g ",
"z.g 2.g.%.g h x d.%.j.a.a.g a.c n x g c n p.n f g u.-X&X$.g q q q q x q q q q q q q q q g %.#.%.c q q q q q q q q q q q q q q q q q n %.#.$.y q q q q q q q q q q q q q q q q g %.#.%.c q q q q q q q q q q q q q q q q q m %.#.$.q q q q q q q q q q q q q q q q q g %.#.%.c q q q q q q q q q q q q q q q q q m %.#.$.q q q q q q q q q q q q q q q q q $.f > 1 $.f q q q q q q q q q q q q q q q q m %.$.#.q q q q q q q q q g h q q q q g u.k.g p.g.#.g h c d.$.j.a.2.h a.h n h g v m p.c f g s.eX$Xm g q q q q g $.< + g x ",
"d.c f #.a.q %.d.l.$.s.$.s.n p.&.g.p.n j.2.x.&.y g #.&.&.#.g q q q q x q q q q q q q q 1 n m h c %.y q q q q q q q q q q q q q q q f %.c h $.n 1 q q q q q q q q q q q q q q q m m h c %.q q q q q q q q q q q q q q q q g %.c h $.v 1 q q q q q q q q q q q q q q q m m h v %.q q q q q q q q q q q q q q q q g %.c h $.v 1 q q q q q q q q q q q q q q q $.g q q $.y q q q q q q q q q q q q q q q g %.c h $.v 1 q q q q q q q g h q q q q h m d.h y &.p.q 2.d.k.$.s.%.p.m 2.2.g.2.m g.2.v.$.y h $.&.&.m g q q q q g #.= $ f h ",
"d.h g s.c f d.x u.%.j.a.p.2.%.d.y a.d.$.1 d.g f g &.a.a.#.g q q q q x q q q q q q q q q #.n x x %.f q q q q q q q q q q q q q q 1 h $.x x m m 1 q q q q q q q q q q q q q q q #.v x x %.f q q q q q q q q q q q q q q 1 h $.x x m m 1 q q q q q q q q q q q q q q q #.v x c %.f q q q q q q q q q q q q q q 1 h $.x x m m 1 q q q q q q q q q q q q q q q $.g q q $.y q q q q q q q q q q q q q q 1 z $.x x m n 1 q q q q q q q g h q q q q h h d.g c s.h g d.g a.$.j.a.2.2.$.d.q d.d.n q d.y g h 2.p.a.m g q q q q g #.$ : : : ",
"j.z j.a.c f p.2.j.%.d.m k.d.h s.2.s.&.d.v j.#.y g &.-X&Xm g q q q q x q q q q q q q q q #.n x c %.f q q q q q q q q q q q q q q 1 g %.x x m m 1 q q q q q q q q q q q q q q q #.n x c %.f q q q q q q q q q q q q q q 1 h $.x x m m 1 q q q q q q q q q q q q q q q #.v x c %.y q q q q q q q q q q q q q q 1 h $.x x m n 1 q q q q q q q q q q q q q q q $.f < 1 $.y q q q q q q q q q q q q q q 1 z $.x x m n 1 q q q q q q q g h q q q q h x d.h l.2.c g s.2.k.%.d.m k.d.h d.2.a.&.s.n k.m y g p.eX@Xv g q q q q g #.$ : : : ",
"m c 2.p.$.g x 2.%.c &.p.m m g c p.n g &.%.m %.y h y d.p.y h q q q q x q q q q q q q q q #.n x x %.f q q q q q q q q q q q q q q 1 g %.x x m m 1 q q q q q q q q q q q q q q q #.n x c %.f q q q q q q q q q q q q q q 1 h $.x x m m 1 q q q q q q q q q q q q q q q #.v x c %.y q q q q q q q q q q q q q q 1 h $.x x m n 1 q q q q q q q q q q q q q q q #.$.m m %.y q q q q q q q q q q q q q q 1 z $.x x m n 1 q q q q q q q g h q q q q h h m c u.p.#.g c 2.%.c 2.p.m n g v p.v g 2.#.#.$.q h f k.&.y h q q q q g #.$ : : : ",
"g h f f g h h f g h g f g g h g f g h g g g g f h h h h h g q q q q x q q q q q q q q q #.n x x %.f q q q q q q q q q q q q q q 1 g %.x x m m 1 q q q q q q q q q q q q q q q #.n x c %.f q q q q q q q q q q q q q q 1 h $.x x m m 1 q q q q q q q q q q q q q q q #.v x c %.y q q q q q q q q q q q q q q 1 h $.x x m n 1 q q q q q q q q q q q q q q q #.v x c %.y q q q q q q q q q q q q q q 1 z $.x x m n 1 q q q q q q q g h q q q q h h g h f f g h g f g h f f g g h g f g h f g g g g h h h h z g q q q q g #.$ : : : ",
"g g g g g g g g g g g g g g g g g g g g g g g y g g g g g q q q q q x q q q q q q q q q #.n x x %.f q q q q q q q q q q q q q q 1 g %.x x m m 1 q q q q q q q q q q q q q q q #.n x c %.f q q q q q q q q q q q q q q 1 h $.x x m m 1 q q q q q q q q q q q q q q q #.v x c %.y q q q q q q q q q q q q q q 1 h $.x x m n 1 q q q q q q q q q q q q q q q $.f < 1 $.y q q q q q q q q q q q q q q 1 z $.x x m n 1 q q q q q q q g h q q q q q g g g g g g g g g g g g g g g g g g g g g g g g y g g g g g q q q q q g #.$ : : : ",
"q q q q q q q q q q q q q q q q q q q q q q q q q q q q q q q q q q x q q q q q q q q q #.n x x %.f q q q q q q q q q q q q q q 1 g %.x x m m 1 q q q q q q q q q q q q q q q #.n x c %.f q q q q q q q q q q q q q q 1 h $.x x m m 1 q q q q q q q q q q q q q q q #.v x c %.y q q q q q q q q q q q q q q 1 h $.x x m n 1 q q q q q q q q q q q q q q q $.g q q $.y q q q q q q q q q q q q q q 1 z $.x x m n 1 q q q q q q q g h q q q q q q q q q q q q q q q q q q q q q q q q q q q q q q q q q q q q q q q q g #.$ : : : ",
"q q q q q q q q q q q q q q q q q q q q q q q q q q q q q q q q q q x q q q q q q q q q #.n x x %.f q q q q q q q q q q q q q q 1 g %.x x m m 1 q q q q q q q q q q q q q q q #.n x c %.f q q q q q q q q q q q q q q 1 h $.x x m m 1 q q q q q q q q q q q q q q q #.v x c %.y q q q q q q q q q q q q q q 1 h $.x x m n 1 q q q q q q q q q q q q q q q $.g q q $.y q q q q q q q q q q q q q q 1 z $.x x m n 1 q q q q q q q g h q q q q q q q q q q q q q q q q q q q q q q q q q q q q q q q q q q q q q q q q g #.$ : : : ",
"q q q q q q q q q q q q q q q q q q q q q q q q q q q q q q q q q q x q q q q q q q q q #.n x x %.f q q q q q q q q q q q q q q 1 g %.x x m m 1 q q q q q q q q q q q q q q q #.n x c %.f q q q q q q q q q q q q q q 1 h $.x x m m 1 q q q q q q q q q q q q q q q #.v x c %.y q q q q q q q q q q q q q q 1 h $.x x m n 1 q q q q q q q q q q q q q q q $.g q q $.y q q q q q q q q q q q q q q 1 z $.x x m n 1 q q q q q q q g h q q q q q q q q q q q q q q q q q q q q q q q q q q q q q q q q q q q q q q q q g #.$ : : : ",
"q q q q q q q q q q q q q q q q q q q q q q q q q q q q q q q q q q x q q q q q q q q q #.n x x %.f q q q q q q q q q q q q q q 1 g %.x x m m 1 q q q q q q q q q q q q q q q #.n x c %.f q q q q q q q q q q q q q q 1 h $.x x m m 1 q q q q q q q q q q q q q q q #.v x c %.y q q q q q q q q q q q q q q 1 h $.x x m n 1 q q q q q q q q q q q q q q q $.g q q $.y q q q q q q q q q q q q q q 1 z $.x x m n 1 q q q q q q q g h q q q q q q q q q q q q q q q q q q q q q q q q q q q q q q q q q q q q q q q q g #.+ 1 q h ",
"c g.&.q 1 q q q 1 q q 1 q q q q q q 1 q q q 1 q q q q q q q q q q q x q q q q q q q q q #.n x x %.f q q q q q q q q q q q q q q 1 g %.x x m m 1 q q q q q q q q q q q q q q q #.n x c %.f q q q q q q q q q q q q q q 1 h $.x x m m 1 q q q q q q q q q q q q q q q #.v x c %.y q q q q q q q q q q q q q q 1 h $.x x m n 1 q q q q q q q q q q q q q q q $.g q q $.y q q q q q q q q q q q q q q 1 z $.x x m n 1 q q q q q q q g h q q q q q < m d.&.q q q q q 1 q q q q q q q q q 1 q q q 1 q q q q q q q q q q q g $.= : c m ",
"m 2.> m d.x $.p.z &.d.$.$.f %.z &.&.v s.a.g #.a.p.q &.g q q q q q q x q q q q q q q q q #.n x x %.f q q q q q q q q q q q q q q 1 g %.x x m m 1 q q q q q q q q q q q q q q q #.n x c %.f q q q q q q q q q q q q q q 1 h $.x x m m 1 q q q q q q q q q q q q q q q #.v x c %.y q q q q q q q q q q q q q q 1 h $.x x m n 1 q q q q q q q q q q q q q q q $.g q q $.y q q q q q q q q q q q q q q 1 z $.x x m n 1 q q q q q q q g h q q q q q > %.%.: $.s.h %.p.h 2.d.#.%.q &.h p.%.m s.a.f %.a.p.q &.y q q q q q q g #.> : m c ",
"n z.#.2.%.f k.u.k.%.x p.2.f &.2.d.p.d.$.v p.p.> %.%.p.q q q q q q q x q q q q q q q q q #.n x x %.f q q q q q q q q q q q q q q 1 g %.x x m m 1 q q q q q q q q q q q q q q q #.n x c %.f q q q q q q q q q q q q q q 1 h $.x x m m 1 q q q q q q q q q q q q q q q #.v x c %.y q q q q q q q q q q q q q q 1 h $.x x m n 1 q q q q q q q q q q q q q q q $.g q q $.y q q q q q q q q q q q q q q 1 z $.x x m n 1 q q q q q q q g h q q q q q > #.l.m p.m x j.p.k.m v u.p.q u.p.s.a.d.m m p.u.: 2.%.2.1 q q q q q q g m < q g q ",
"m &.$ &.m q k.m #.u.n 2.2.v s.%.d.c &.#.c p.p.g g l.m < q q q q q q x q q q q q q q q q #.n x c %.f q q q q q q q q q q q q q q 1 g %.x x m m 1 q q q q q q q q q q q q q q q #.n x c %.f q q q q q q q q q q q q q q 1 h $.x x m m 1 q q q q q q q q q q q q q q q #.v x c %.y q q q q q q q q q q q q q q 1 h $.x x m n 1 q q q q q q q q q q q q q q q $.g q q $.y q q q q q q q q q q q q q q 1 z $.x x m n 1 q q q q q q q g h q q q q q > %.#.$ p.x h j.v %.&.#.&.p.c d.&.d.x 2.v m p.p.q x z.v < q q q q q q g #.$ = = : ",
"c n > n c > m p.g #.d.u.g p.2.y $.%.n c h v v s.q d.z 1 q q q q q q x q q q q q q q q q #.v h z %.f q q q q q q q q q q q q q q 1 g $.h h m m 1 q q q q q q q q q q q q q q q #.n x c %.f q q q q q q q q q q q q q q 1 h $.h h m m 1 q q q q q q q q q q q q q q q #.v x c %.y q q q q q q q q q q q q q q 1 h $.h h m n 1 q q q q q q q q q q q q q q q $.g q q $.y q q q q q q q q q q q q q q 1 z $.h h m n 1 q q q q q q q g h q q q q q < v v > m h < #.2.g %.d.%.c a.&.q &.$.m h c c m p.q j.f q q q q q q q g #.$ : : : ",
"q 1 q 1 q q 1 1 q > g p.> 1 < q 1 1 1 q q 1 1 > $.2.1 q q q q q q q x q q q q q q q q q #.#.m m %.f q q q q q q q q q q q q q q q g %.m m $.m 1 q q q q q q q q q q q q q q q #.n x c %.f q q q q q q q q q q q q q q 1 h %.m m $.n 1 q q q q q q q q q q q q q q q #.v x c %.y q q q q q q q q q q q q q q 1 h %.m m $.n 1 q q q q q q q q q q q q q q q $.g q q $.y q q q q q q q q q q q q q q 1 h %.m m %.n 1 q q q q q q q g h q q q q q q 1 q q 1 q q 1 1 q : c 2.: 1 < q < q 1 q q q 1 > &.&.< q q q q q q q g #.$ : : : ",
"q q q q q q q q q q q y q q q q q q q q q q q q h q q q q q q q q q x q q q q q q q q q #.#.v m &.f q q q q q q q q q q q q q q q g &.n v $.m 1 q q q q q q q q q q q q q q q #.n x c %.f q q q q q q q q q q q q q q q g &.n v $.n 1 q q q q q q q q q q q q q q q #.v x c %.y q q q q q q q q q q q q q q 1 h &.n v $.n 1 q q q q q q q q q q q q q q q $.g q q $.y q q q q q q q q q q q q q q 1 h &.n v %.n 1 q q q q q q q g h q q q q q q q q q q q q q q q q q y q q q q q q q q q q q q z q q q q q q q q q g #.$ : : : ",
"q q q q q q q q q q q q q q q q q q q q q q q q 1 q q q q q q q q q x q q q q q q q q 1 #.g > 1 $.g q q q q q q q q q q q q q q 1 h #.< > x m 1 q q q q q q q q q q q q q q q #.n x c %.f q q q q q q q q q q q q q q 1 h #.< > x m 1 q q q q q q q q q q q q q q q #.v x c %.y q q q q q q q q q q q q q q 1 x m < > c m 1 q q q q q q q q q q q q q q q $.g q q $.y q q q q q q q q q q q q q q 1 x m < > c m 1 q q q q q q q g h q q q q q q q q q q q q q q q q q q q q q q q q q q q q q q 1 q q q q q q q q q g #.$ : : : ",
"q q q q q q q q q q q q q q q q q q q q q q q q q q q q q q q q q q x q q q q q q q q q #.g q q $.g q q q q q q q q q q q q q q 1 h #.q q c m 1 q q q q q q q q q q q q q q q #.n x c %.f q q q q q q q q q q q q q q 1 h #.q q c m 1 q q q q q q q q q q q q q q q #.v x c %.y q q q q q q q q q q q q q q 1 z m q q c m 1 q q q q q q q q q q q q q q q $.g q q $.y q q q q q q q q q q q q q q 1 x m q q c m 1 q q q q q q q g h q q q q q q q q q q q q q q q q q q q q q q q q q q q q q q q q q q q q q q q q g #.$ : : : ",
"q q q q q q q q q q q q q q q q q q q q q q q q q q q q q q q q q q x q q q q q q q q q #.g q q $.g q q q q q q q q q q q q q q 1 h #.q q c m 1 q q q q q q q q q q q q q q q #.n x c %.f q q q q q q q q q q q q q q 1 h #.q q c m 1 q q q q q q q q q q q q q q q #.v x c %.y q q q q q q q q q q q q q q 1 z m q q c m 1 q q q q q q q q q q q q q q q $.g q q $.y q q q q q q q q q q q q q q 1 x m q q c m 1 q q q q q q q g h q q q q q q q q q q q q q q q q q q q q q q q q q q q q q q q q q q q q q q q q g #.$ : : : ",
"q q q q q q q q q q , q q y y y q , q q q q q q q q q q q q q q q q x q q q q q q q q 1 #.g > 1 $.g q q q q q q q q q q q q q q 1 h #.< > x m 1 q q q q q q q q q q q q q q q #.n x c %.f q q q q q q q q q q q q q q 1 h m < > x m 1 q q q q q q q q q q q q q q q #.v x c %.y q q q q q q q q q q q q q q 1 x m > > x m 1 q q q q q q q q q q q q q q q $.g q q $.y q q q q q q q q q q q q q q 1 x m > > c m 1 q q q q q q q g h q q q q q q q q q q q q q q q 1 2 q y u u y 1 , q q q q q q q q q q q q q q q q g #.: = > 1 ",
"q q q q q q q q , u @.+.0.4.6.0.@.@.q , q q q q q q q q q q q q q q x q q q q q q q q q #.#.v n %.f q q q q q q q q q q q q q q q g &.n v $.m 1 q q q q q q q q q q q q q q q #.n x c %.f q q q q q q q q q q q q q q 1 g &.n v $.n 1 q q q q q q q q q q q q q q q #.v x c %.y q q q q q q q q q q q q q q 1 h &.n v $.n 1 q q q q q q q q q q q q q q q $.g q q $.y q q q q q q q q q q q q q q 1 h &.n v $.n 1 q q q q q q q g h q q q q q q q q q q q q q q , p :.;.8Xt.oXoX;.;.q , q q q q q q q q q q q q q q g $.x < v m ",
"q q q q q q q q s :.}.0.}.0.0.[.q.}.;.a q q q q q q q q q q q q q q x q q q q q q q q q #.m c c %.f q q q q q q q q q q q q q q 1 g %.c c m m 1 q q q q q q q q q q q q q q q #.n x c %.f q q q q q q q q q q q q q q 1 h $.c c m m 1 q q q q q q q q q q q q q q q #.v x c %.y q q q q q q q q q q q q q q 1 h $.c c m n 1 q q q q q q q q q q q q q q q $.g q q $.y q q q q q q q q q q q q q q 1 z $.c c #.n 1 q q q q q q q g h q q q q q q q q q q q q q y @.t.tX2XtX.X8XwX8XwX>.s 1 q q q q q q q q q q q q q g m < h c < ",
"q q q q q q 2 >.7X>.0.q.4.+.@.4.].0.4.}.@., q q q q q q q q q q q q x q q q q q q q q 1 #.g > < $.g q q q q q q q q q q q q q q 1 h m < > x m 1 q q q q q q q q q q q q q q q #.n x c %.f q q q q q q q q q q q q q q 1 z m > > x m 1 q q q q q q q q q q q q q q q #.v x c %.y q q q q q q q q q q q q q q 1 x m > > x m 1 q q q q q q q q q q q q q q q $.g q q $.y q q q q q q q q q q q q q q 1 x m > > c m 1 q q q q q q q g h q q q q q q q q q q q q 2 5.tX0.4X8Xt.=.3..X9X.X.XwX=., q q q q q q q q q q q q g #.g y c 1 ",
"q q q q q q 6.t.9X].p 0 @ + + + 0 a q.].5.=.1 q q q q q q q q q q q x q q q q q q q q q #.g q q $.g q q q q q q q q q q q q q q 1 h #.q q c m 1 q q q q q q q q q q q q q q q #.n x c %.f q q q q q q q q q q q q q q 1 h #.q q c m 1 q q q q q q q q q q q q q q q #.v x c %.y q q q q q q q q q q q q q q 1 z m q q c m 1 q q q q q q q q q q q q q q q $.g q q $.y q q q q q q q q q q q q q q 1 x m q q c m 1 q q q q q q q g h q q q q q q q q q q q q 0.t.wXoXp < + o o @ q +.9X9X.X:., q q q q q q q q q q q g $.q : q > ",
"q q q q 1 p 9XtX2Xp + X = : : = X + i 0.,Xq.u 1 q q q q q q q q q q x q q q q q q q q q #.g q q $.g q q q q q q q q q q q q q q 1 h #.q 1 c m 1 q q q q q q q q q q q q q q q #.n x c %.f q q q q q q q q q q q q q q 1 h #.1 1 c m 1 q q q q q q q q q q q q q q q #.v x c %.y q q q q q q q q q q q q q q 1 z m 1 1 c m 1 q q q q q q q q q q q q q q q $.g q q $.y q q q q q q q q q q q q q q 1 x m 1 1 c m 1 q q q q q q q g h q q q q q q q q q q , s 0XtX.Xu o + = > > $   @ s 8X7X0.q q q q q q q q q q q q g m + : = : ",
"q q q q y y.0..Xs .   > c n m v f $ . s 4.>.<.q q q q q q q q q q q x q q q q q q q q q #.g q q $.g q q q q q q q q q q q q q q 1 h #.q 1 c m 1 q q q q q q q q q q q q q q q #.n x c %.f q q q q q q q q q q q q q q 1 h #.1 1 c m 1 q q q q q q q q q q q q q q q #.v x c %.y q q q q q q q q q q q q q q 1 z m 1 1 c m 1 q q q q q q q q q q q q q q q $.g q q $.y q q q q q q q q q q q q q q 1 x m 1 1 c m 1 q q q q q q q g h q q q q q q q q q q i .X0.y.u . $ q c n n c y + . +.4.>.>.1 q q q q q q q q q q g #.$ : : : ",
"q q q , a 0XwX;.o $ q q c #.#.$.#.h + @ +.[.{.p 1 q q q q q q q q q x q q q q q q q q q #.g q q $.g q q q q q q q q q q q q q q 1 h #.q 1 c m 1 q q q q q q q q q q q q q q q #.n x c %.f q q q q q q q q q q q q q q 1 h #.1 1 c m 1 q q q q q q q q q q q q q q q #.v x c %.y q q q q q q q q q q q q q q 1 z m 1 1 c m 1 q q q q q q q q q q q q q q q $.g q q $.y q q q q q q q q q q q q q q 1 x m 1 1 c m 1 q q q q q q q g h q q q q q q q q q , +.wX0X+.o $ g n m m #.%.c :   & =.}.].u q q q q q q q q q q g #.$ : : : ",
"q q q 1 ;..X9Xa   1 v f q v #.#.$.#.q o p ].6.s 1 q q q q q q q q q x q q q q q q q q q #.g q q $.g q q q q q q q q q q q q q q 1 h #.q 1 c m 1 q q q q q q q q q q q q q q q #.n x c %.f q q q q q q q q q q q q q q 1 h #.1 1 c m 1 q q q q q q q q q q q q q q q #.v x c %.y q q q q q q q q q q q q q q 1 z m 1 1 c m 1 q q q q q q q q q q q q q q q $.g q q $.y q q q q q q q q q q q q q q 1 x m 1 1 c m 1 q q q q q q q g h q q q q q q q q q q >.oX8Xu X q v m m m m x q f < o s {.4.a 1 q q q q q q q q q g #.$ : : : ",
"q q q , oXtX2X: + f v v q g #.#.#.$.h + > 0.,X4., q q q q q q q q q x q q q q q q q q q #.g q q $.g q q q q q q q q q q q q q q 1 h #.q 1 c m 1 q q q q q q q q q q q q q q q #.v z x %.f q q q q q q q q q q q q q q 1 h #.1 1 c m 1 q q q q q q q q q q q q q q q #.v x c %.y q q q q q q q q q q q q q q 1 z m 1 1 c m 1 q q q q q q q q q q q q q q q $.g q q $.y q q q q q q q q q q q q q q 1 x m 1 1 c m 1 q q q q q q q g h q q q q q q q q q q 4XtX.X@ + g v n m m x 1 z $.g + 0 q.,X:., q q q q q q q q q g #.$ : : : ",
"q q q 1 4..X<.& + g v v v n m m m #.c + : ;.4.=.1 q q q q q q q q q x q q q q q q q q q #.g q q $.g q q q q q q q q q q q q q q 1 h #.q 1 c m 1 q q q q q q q q q q q q q q q #.%.$.$.&.y q q q q q q q q q q q q q q 1 h #.1 1 c m 1 q q q q q q q q q q q q q q q #.v x c %.y q q q q q q q q q q q q q q 1 z m 1 1 c m 1 q q q q q q q q q q q q q q q $.g q q $.y q q q q q q q q q q q q q q 1 x m 1 1 c m 1 q q q q q q q g h q q q q q q q q q q 6..X:.+ $ h v v n m n c #.#.z + > :.4.@.1 q q q q q q q q q g #.$ : : : ",
"q q q , .X0Xt.& + g v v n n m m m m x + : 5.{.<., q q q q q q q q q x q q q q q q q q q #.g q q $.g q q q q q q q q q q q q q q 1 h #.q 1 c m 1 q q q q q q q q q q q q q q q #.v g h %.f q q q q q q q q q q q q q q 1 h #.1 1 c m 1 q q q q q q q q q q q q q q q #.v x c %.y q q q q q q q q q q q q q q 1 z m 1 1 c m 1 q q q q q q q q q q q q q q q $.g q q $.y q q q q q q q q q q q q q q 1 x m 1 1 c m 1 q q q q q q q g h q q q q q q q q q q oX0X6.+ $ g v v n n m m m m g + < 6.].;., q q q q q q q q q g m 1 q g : ",
"q q q , 9.9X4X< X q c c v v n n m m q X 0 q.q.:., q q q q q q q q q x q q q q q q q q q #.g q q $.g q q q q q q q q q q q q q q 1 h #.q 1 c m 1 q q q q q q q q q q q q q q q #.g < 1 $.f q q q q q q q q q q q q q q 1 h #.1 1 c m 1 q q q q q q q q q q q q q q q #.v h x %.y q q q q q q q q q q q q q q 1 z m 1 1 c m 1 q q q q q q q q q q q q q q q $.g q q $.y q q q q q q q q q q q q q q 1 x m 1 1 c m 1 q q q q q q q g h q q q q q q q q q q t.9XoX: + y c c v n n n m n q o u ].q.=., q q q q q q q q q g m q g c : ",
"q q q 1 s 2XwX+.. = g c v v v n n x : . +.}.0.p 1 q q q q q q q q q x q q q q q q q q q #.g q q $.g q q q q q q q q q q q q q q 1 h #.q 1 c m 1 q q q q q q q q q q q q q q q #.g q q $.f q q q q q q q q q q q q q q 1 h #.1 1 c m 1 q q q q q q q q q q q q q q q #.#.m m %.y q q q q q q q q q q q q q q 1 z m 1 1 c m 1 q q q q q q q q q q q q q q q $.g q q $.y q q q q q q q q q q q q q q 1 x m 1 1 c m 1 q q q q q q q g h q q q q q q q q q , +.8X0Xp   : g c v v v n n h = o =.}.6.u q q q q q q q q q q g #.f f c : ",
"q q q 1 p 9X2X:.> X : g c c v c h >   1 +.0.].u q q q q q q q q q q x q q q q q q q q q #.g q q $.g q q q q q q q q q q q q q q 1 h #.q 1 c m 1 q q q q q q q q q q q q q q q #.g q q $.f q q q q q q q q q q q q q q 1 h #.1 1 c m 1 q q q q q q q q q q q q q q q #.$.m m &.y q q q q q q q q q q q q q q 1 z m 1 1 c m 1 q q q q q q q q q q q q q q q $.g q q $.y q q q q q q q q q q q q q q 1 x m 1 1 c m 1 q q q q q q q g h q q q q q q q q q , s 0X.X;.: X > g c v v c g :   q @.q.q.q q q q q q q q q q q g $.g y c : ",
"q q q q , =..X0X5.# X $ > q q < $ X & >.{.4.s 1 q q q q q q q q q q x q q q q q q q q q #.g q q $.g q q q q q q q q q q q q q q 1 h #.q 1 c m 1 q q q q q q q q q q q q q q q #.h 1 q $.f q q q q q q q q q q q q q q 1 h #.q 1 c m 1 q q q q q q q q q q q q q q q $.g < q $.f q q q q q q q q q q q q q q 1 z m 1 1 c m 1 q q q q q q q q q q q q q q q $.g q q $.y q q q q q q q q q q q q q q 1 x m 1 1 c m 1 q q q q q q q g h q q q q q q q q q q , :.oX0X>.# X $ < q q > + o 2 5.].4.p 1 q q q q q q q q q q g $.g f x g ",
"q q q q q y 8X9X9Xt.1 $ X X X + $ q <.].q.0.q q q q q q q q q q q q x q q q q q q q q q #.g q q $.g q q q q q q q q q q q q q q 1 h #.q q x m 1 q q q q q q q q q q q q q q q #.%.$.$.&.f q q q q q q q q q q q q q q 1 z m 1 q c m 1 q q q q q q q q q q q q q q q #.g q q $.f q q q q q q q q q q q q q q 1 x m 1 1 c m 1 q q q q q q q q q q q q q q q $.g q q $.f q q q q q q q q q q q q q q 1 x m 1 1 c m 1 q q q q q q q g h q q q q q q q q q q 1 p 9X8X9X5.> $ X X X + $ q 5.q.].6.1 q q q q q q q q q q q g #.: : > < ",
"q q q q q , p t.tX2Xq q q < < q q q q.[.=.y q q q q q q q q q q q q x q q q q q q q q 1 m c > q $.y q q q q q q q q q q q q q q q g $.q < n v 1 q q q q q q q q q q q q q q 1 m v q g $.q q q q q q q q q q q q q q q q g $.q < n v 1 q q q q q q q q q q q q q q q #.g q q $.f q q q q q q q q q q q q q q q g $.q < n v 1 q q q q q q q q q q q q q q q #.c > f $.q q q q q q q q q q q q q q q q g $.q < m v 1 q q q q q q q g h q q q q q q q q q q q , s y.tX.X1 q q < 1 q q u ].{.@.q q q q q q q q q q q q q g #.$ : : : ",
"q q q q q q , a 2X+., q q q q q q , +.0.i 1 q q q q q q q q q q q q x q q q q q q q q q g $.v $.v q q q q q q q q q q q q q q q q q m m n $.f q q q q q q q q q q q q q q q q g $.c #.v q q q q q q q q q q q q q q q q q m m n $.f q q q q q q q q q q q q q q q q $.f > 1 $.f q q q q q q q q q q q q q q q q m m n $.f q q q q q q q q q q q q q q q q g $.v $.v q q q q q q q q q q q q q q q q q m m n $.y q q q q q q q q g h q q q q q q q q q q q q , +.2Xs , q q q q q q , @.9.y 1 q q q q q q q q q q q q g #.$ : : : ",
"q q q q q q q , q q q q q q q q q q q q 1 q q q q q q q q q q q q q x q q q q q q q q q q f v x q q q q q q q q q q q q q q q q q q q x v y q q q q q q q q q q q q q q q q q q f v x q q q q q q q q q q q q q q q q q q q x v y q q q q q q q q q q q q q q q q q n m c n #.q q q q q q q q q q q q q q q q q q x v y q q q q q q q q q q q q q q q q q q f v z q q q q q q q q q q q q q q q q q q q x v q q q q q q q q q q g h q q q q q q q q q q q q q , q q q q q q q q q q q q q q q q q q q q q q q q q q g #.$ : : : ",
"q q q q q q q q q q q q q q q q q q q q q q q q q q q q q q q q q q x q q q q q q q q q q q 1 1 q q q q q q q q q q q q q q q q q q q 1 1 q q q q q q q q q q q q q q q q q q q q 1 q q q q q q q q q q q q q q q q q q q q 1 1 q q q q q q q q q q q q q q q q q q q v n v f q q q q q q q q q q q q q q q q q q 1 1 q q q q q q q q q q q q q q q q q q q q 1 q q q q q q q q q q q q q q q q q q q q 1 1 q q q q q q q q q q g h q q q q q q q q q q q q q q q q q q q q q q q q q q q q q q q q q q q q q q q q g #.$ : : : ",
"q q q q q q q q q q q q q q q q q q q q q q q q q q q q q q q q q q x q q q q q q q q q q q q q q q q q q q q q q q q q q q q q q q q q q q q q q q q q q q q q q q q q q q q q q q q q q q q q q q q q q q q q q q q q q q q q q q q q q q q q q q q q q q q q q q q 1 1 1 q q q q q q q q q q q q q q q q q q q q q q q q q q q q q q q q q q q q q q q q q q q q q q q q q q q q q q q q q q q q q q q q q q q q q q q q q q g h q q q q q q q q q q q q q q q q q q q q q q q q q q q q q q q q q q q q q q q q g #.$ : : : ",
"q q q q q q q q q q q q q q q q q q q q q q q q q q q q q q q q q q x q q q q q q q q q q q q q q q q q q q q q q q q q q q q q q q q q q q q q q q q q q q q q q q q q q q q q q q q q q q q q q q q q q q q q q q q q q q q q q q q q q q q q q q q q q q q q q q q q q q q q q q q q q q q q q q q q q q q q q q q q q q q q q q q q q q q q q q q q q q q q q q q q q q q q q q q q q q q q q q q q q q q q q q q q q q q q g h q q q q q q q q q q q q q q q q q q q q q q q q q q q q q q q q q q q q q q q q g #.$ : : : ",
"q q q q q q q q q q q q q q q q q q q q q q q q q q q q q q q q q q x q q q q q q q q q q q q q q q q q q q q q q q q q q q q q q q q q q q q q q q q q q q q q q q q q q q q q q q q q q q q q q q q q q q q q q q q q q q q q q q q q q q q q q q q q q q q q q q q q q q q q q q q q q q q q q q q q q q q q q q q q q q q q q q q q q q q q q q q q q q q q q q q q q q q q q q q q q q q q q q q q q q q q q q q q q q q q g h q q q q q q q q q q q q q q q q q q q q q q q q q q q q q q q q q q q q q q q q g m + $ : : ",
"q q q q q q q q q 1 < q 1 < q q q < q q q q q q q q q q q q q q q q x q q q q q q q 1 q q q q < q q 1 q q q q q q q q q q q q q < q q q 1 q q < q q q q q q q q q q q q q q 1 q q q q 1 q 1 1 q q q q q q q q q q q q < q q q 1 q q < q q q q q q q q q q q q q q q 1 < q q q < q q < q q q q q q q q q q q < q q q < q q < q q q q q q q q q q q q q q 1 < q q q < q q < q q q q q q q q q q q q < q q q < q q < q q q q q q q g h q q q q q q q q q q q q q q q q 1 1 q 1 1 q 1 q q 1 q q q q q q q q q q q q q q g %.q x q $ ",
"q q q q q q q q q x v q x v q q q v q q q q q q q q q q q q q q q q x q q q q q q q x g q q f c 1 g c q q q q q q q q q q q q q c q q q c f 1 c y q q q q q q q q q q q q q c g q q g c 1 x x q q q q q q q q q q q q c q q q c f 1 c y q q q q q q q q q q q q g q g c q q q c y q c q q q q q q q q q q y c q q q c f 1 c y q q q q q q q q q q q g q g c q q q c y q c q q q q q q q q q q q y c q q q c f 1 c y q q q q q q g h q q q q q q q q q q q q q q g 1 h h < z g < x g < c g q q q q q q q q q q q q q g $.c q c $ ",
"q q q q q q q q f j.m x d.m y 1 2.u.2.1 q q q q q q q q q q q q q q x q q q q q 1 c s.p.f q p.s.m p.s.v 1 q q q q q q q q q q u.s.#.> m d.&.#.s.2.q q q q q q q q q q q 1 n a.p.y q p.a.m $.s.v 1 q q q q q q q q q p.s.#.> m d.&.#.s.2.q q q q q q q q q q 1 $.l.q %.a.#.> #.d.&.$.d.&.q q q q q q q q q p.s.#.> m d.&.#.d.2.q q q q q q q q q 1 $.l.q %.a.#.> #.d.&.$.d.&.q q q q q q q q q q p.s.m > m d.&.$.d.2.q q q q q q g h q q q q q q q q q q q q q s.p.q d.p.m a.p.m s.p.m s.p.q q q q q q q q q q q q q g #.g > c > ",
"q q q q q q q q f d.%.x d.%.f < &.s.$.1 q q q q q q q q q q q q q q x q q q q q < &.x #.n g 2.q l.$.g p.< q q q q q q q q q g p.q a.< p.g %.k.q 2.x 1 q q q q q q q q q > p.x &.v z 2.h s.$ %.$.< q q q q q q q q g p.q a.< p.g %.k.q 2.z 1 q q q q q q q q q g a.q : m &.> p.y 2.j.q p.g q q q q q q 1 h u.q a.< p.g &.k.q p.h 1 q q q q q q q q g a.q : m &.> p.y 2.j.q p.g q q q q q q q 1 h 2.y a.> p.f &.k.q p.g 1 q q q q g h q q q q q q q q q q q q q n &.m m x z.x v z.g m z.f %.v < q q q q q q q q q q q g #.f > g g ",
"q q q q q q q q q > $.2.$ &.%.: &.u.&.q q q q q q q q q q q q q q q x q q q q q < &.h #.v f &.q l.#.g p.< q q q q q q q q q g 2.q a.: u.f %.k.q 2.x 1 q q q q q q q 1 n &.x 2.j.x < &.d.&.y p.1 q q q q q q q q 1 g 2.q a.: p.f %.k.q 2.x 1 q q q q q q q 2.c < a.q y p.q > p.q 2.j.1 p.g 1 q q q q q 1 h 2.q a.: p.y &.k.1 p.z 1 q q q q q q q q q a.q y p.q > p.q 2.j.1 p.g 1 q q q q q q 1 z &.q a.: p.q &.k.1 p.h 1 q q q q g h q q q q q q q q q q q q 1 z &.m m x x.g v z.f m z.q %.n < q q q q q q q q q q q g #.$ : : : ",
"q q q q q q q q f m 2.%.v u.%.m p.#.a.q q q q q q q q q q q q q q q x q q q q q < v p.p.%.v u.p.&.u.p.#.< q q q q q q q q q q p.p.2.m #.p.2.&.p.p.q q q q q q q q q q q q q #.2.m c h a.m k.&.g q q q q q q q q q q p.p.2.m #.p.2.&.p.p.q q q q q q q q q q q q s.q j.2.c #.$.p.2.&.p.p.q q q q q q q q q p.p.&.m $.p.2.&.p.p.q q q q q q q q q q q s.q j.2.c #.$.p.2.&.p.p.q q q q q q q q q q p.p.&.m $.p.2.&.p.p.q q q q q q g h q q q q q q q q q q q q 1 x p.g a.p.&.p.p.&.p.p.&.p.a.g q q q q q q q q q q q q g #.$ : : : ",
"q q q q q q q q q #.n q #.v y z g $.g q q q q q q q q q q q q q q q x q q q q q q q m c g g g #.q x m q q q q q q q q q q q q g #.q c q m x q #.h 1 q q q q q q q q q q q f $.f g g n c y #.#.x q q q q q q q q q q g #.q c q m z q #.g 1 q q q q q q q q q q q z y m #.v x q #.g q #.g q q q q q q q q q g #.q c q m h q #.g 1 q q q q q q q q q q z y m #.v x q #.g q #.g q q q q q q q q q q g #.q c q #.h q #.g 1 q q q q q g h q q q q q q q q q q q q q q h < v n < n v < m c 1 m x 1 q q q q q q q q q q q q g #.$ : : : ",
"q q q q q q q q q > < q > 1 q 1 q > q q q q q q q q q q q q q q q q x q q q q q q q < 1 q q q < q 1 > q q q q q q q q q q q q q > q 1 q < q q > 1 q q q q q q q q q q q q q > q q q 1 1 q > > 1 q q q q q q q q q q q > q 1 q < q q > 1 q q q q q q q q q q q q 1 q < > < q q < q q > q q q q q q q q q q q > q 1 q < q q > q q q q q q q q q q q q 1 q < > < 1 q < q q > q q q q q q q q q q q q > q 1 q < q q > q q q q q q q g h q q q q q q q q q q q q q q 1 q < < q < < q < 1 q < 1 q q q q q q q q q q q q q g #.$ : : : ",
"q q q q q q q q q q q q q q q q q q q q q q q q q q q q q q q q q q x q q q q q q q q q q q q 1 > q q q q q q q q q q q q q q q q q q q q > < q q q q q q q q q q q q q q q q q q q 1 > q q q q q q q q q q q q q q q q q q q q > < q q q q q q q q q q q q q q q q q q q < > q q q q q q q q q q q q q q q q q q q q > < q q q q q q q q q q q q q q q q q q q < < q q q q q q q q q q q q q q q q q q q q > < q q q q q q q q g h q q q q q q q q q q q q q q q q q q q q q q q q q q q q q q q q q q q q q q q q g #.$ : : : ",
"q q q q q q q q q q h f q x < > 1 q q q q q q q q q q q q q q q q q x q q q q q q q q q : m v c %.g q q q q q q q q q q q q q q q 1 1 &.f %.m q q q q q q q q q q q q q q q q : m v v %.g q q q q q q q q q q q q q q q 1 q &.f %.m q q q q q q q q q q q q q q q q : m c v %.g q q q q q q q q q q q q q q q 1 q &.f %.n q q q q q q q q q q q q q q q q : m c v %.g q q q q q q q q q q q q q q q < q &.g %.n q q q q q q q q g h q q q q q q q q q q q q q q q q y x q x q > < q q q q q q q q q q q q q q q q q g #.$ : : : ",
"q q q q q q q q q > u.x q a.v %.h q q q q q q q q q q q q q q q q q x q q q q q q q q q v s.m s.m d.q q q q q q q q q q q q q q 1 h %.p.$.2.2.$.< q q q q q q q q q q q q q q v s.m s.m d.q q q q q q q q q q q q q q 1 h %.p.%.&.2.#.< q q q q q q q q q q q q q q v s.m s.m s.q q q q q q q q q q q q q q 1 h %.p.%.&.2.#.< q q q q q q q q q q q q q q v s.m s.m s.q q q q q q q q q q q q q q 1 h &.p.%.&.u.m < q q q q q q g h q q q q q q q q q q q q q q q < c p.+ p.m #.n q q q q q q q q q q q q q q q q q g #.$ : : : ",
"q q q q q q q q q > 2.p.&.s.g l.v < q q q q q q q q q q q q q q q q x q q q q q q q < #.2.d.m a.&.p.q q q q q q q q q q q q q q q a.&.a.m a.p.v 1 q q q q q q q q q q q q < #.2.d.m a.&.p.q q q q q q q q q q q q q q q a.&.a.#.a.p.v 1 q q q q q q q q q q q q < $.2.d.m s.&.p.q q q q q q q q q q q q q q q a.&.a.#.a.a.c 1 q q q q q q q q q q q q < $.2.d.m s.&.p.q q q q q q q q q q q q q q y a.&.a.#.a.a.c 1 q q q q q q g h q q q q q q q q q q q q q q q 1 x j.#.j.x p.a.< q q q q q q q q q q q q q q q q g #.$ : : : ",
"q q q q q q q q q > 2.&.m p.h $.> q q q q q q q q q q q q q q q q q x q q q q q q q < p.g m #.p.v a.f q q q q q q q q q q q q 1 h p.> p.#.&.%.%.< q q q q q q q q q q q q < p.g m #.p.v a.f q q q q q q q q q q q q 1 h p.< p.$.&.%.$.< q q q q q q q q q q q q < p.f #.#.p.v a.y q q q q q q q q q q q q 1 x p.< p.$.&.%.$.< q q q q q q q q q q q q < p.y #.#.a.v a.y q q q q q q q q q q q q 1 x p.< p.$.&.&.$.< q q q q q q g h q q q q q q q q q q q q q q q 1 x d.x d.h %.q q q q q q q q q q q q q q q q q q g m y q v q ",
"q q q q q q q q q > 2.x q p.d.a.g q q q q q q q q q q q q q q q q q x q q q q q q q < v p.g.m s.%.s.y q q q q q q q q q q q q q q p.p.a.#.s.p.$.< q q q q q q q q q q q q < n p.j.n s.%.s.y q q q q q q q q q q q q q q p.a.a.#.a.p.#.< q q q q q q q q q q q q < m p.j.n d.%.a.q q q q q q q q q q q q q q q p.a.p.#.a.p.#.< q q q q q q q q q q q q < m p.j.n d.%.a.q q q q q q q q q q q q q q q p.a.p.$.a.p.m < q q q q q q g h q q q q q q q q q q q q q q q < c 2.$ &.a.j.v q q q q q q q q q q q q q q q q q g m q x n v ",
"q q q q q q q q q q y q q f g v g q q q q q q q q q q q q q q q q q x q q q q q q q q q z h q g v y q q q q q q q q q q q q q q q y c y q v x q q q q q q q q q q q q q q q q z h q g v y q q q q q q q q q q q q q q q y c y q v x q q q q q q q q q q q q q q q q z h q h v y q q q q q q q q q q q q q q q y c y q v x q q q q q q q q q q q q q q q q x g q h v q q q q q q q q q q q q q q q q y c y q v x q q q q q q q q g h q q q q q q q q q q q q q q q q q f q y g c x q q q q q q q q q q q q q q q q q g m < #.f %.",
"q q q q q q q q q q q q q q 1 < q q q q q q q q q q q q q q q q q q x q q q q q q q q q 1 1 q 1 < q q q q q q q q q q q q q q q q q 1 q q < 1 q q q q q q q q q q q q q q q q 1 1 q 1 < q q q q q q q q q q q q q q q q q 1 q q < 1 q q q q q q q q q q q q q q q q 1 1 q 1 < q q q q q q q q q q q q q q q q q 1 q q < 1 q q q q q q q q q q q q q q q q 1 1 q 1 < q q q q q q q q q q q q q q q q q 1 q q < 1 q q q q q q q q g h q q q q q q q q q q q q q q q q q q q q q < 1 q q q q q q q q q q q q q q q q q g #.: g > x ",
"q q q q q q q q q q q q q q q q q q q q q q q q q q q q q q q q q q x q q q q q q q q q q q q q q q q q q q q q q q q q q q q q q q q q q q q q q q q q q q q q q q q q q q q q q q q q q q q q q q q q q q q q q q q q q q q q q q q q q q q q q q q q q q q q q q q q q q q q q q q q q q q q q q q q q q q q q q q q q q q q q q q q q q q q q q q q q q q q q q q q q q q q q q q q q q q q q q q q q q q q q q q q q q q q g h q q q q q q q q q q q q q q q q q q q q q q q q q q q q q q q q q q q q q q q 1 c c + $ : : ",
"q q q q q q q q q q q q q q q q q q q q q q q q q q q q q q q q q q x y q q q q q q q q q q q q q q q q q q q q q q q q q q q q q q q q q q q q q q q q q q q q q q q q q q q q q q q q q q q q q q q q q q q q q q q q q q q q q q q q q q q q q q q q q q q q q q q q q q q q q q q q q q q q q q q q q q q q q q q q q q q q q q q q q q q q q q q q q q q q q q q q q q q q q q q q q q q q q q q q q q q q q q q q q q q q g h q q q q q q q q q q q q q q q q q q q q q q q q q q q q q q q q q q q q q q q q m < $ : : : ",
"< < < < < < < < < < < < < < < < < < < < < < < < < < < < < < < < 1 < 1 1 < < < < < < < < < < < < < < < < < < < < < < < < < < < < < < < < < < < < < < < < < < < < < < < < < < < < < < < < < < < < < < < < < < < < < < < < < < < < < < < < < < < < < < < < < < < < < < < < < < < < < < < < < < < < < < < < < < < < < < < < < < < < < < < < < < < < < < < < < < < < < < < < < < < < < < < < < < < < < < < < < < < < < < < < < < < < 1 1 < 1 < < < < < < < < < < < < < < < 1 1 1 1 1 1 1 1 1 1 1 1 1 1 1 1 1 1 1 1 q q m c $ : : > > ",
"n n n n n n n n n n n n n n n n n n n n n n n n n n n n n n n n n n n n n n n n n n n n n n n n n n n n n n n n n n n n n n n n n n n n n n n n n n n n n n n n n n n n n n n n n n n n n n n n n n n n n n n n n n n n n n n n n n n n n n n n n n n n n n n n n n n n n n n n n n n n n n n n n n n n n n n n n n n n n n n n n n n n n n n n n n n n n n n n n n n n n n n n n n n n n n n n n n n n n n n n n n n n n n n n n n n n n n n n n n n n n n n n n n n n n v v v v v v v v v v v v v v v v v v n $.$.g x c v n m ",
"h h h h h h h h h h h h h h h h h h h h h h h h h h h h h h h h h h h h h h h h h h h h h h h h h h h h h h h h h h h h h h h h h h h h h h h h h h h h h h h h h h h h h h h h h h h h h h h h h h h h h h h h h h h h h h h h h h h h h h h h h h h h h h h h h h h h h h h h h h h h h h h h h h h h h h h h h h h h h h h h h h h h h h h h h h h h h h h h h h h h h h h h h h h h h h h h h h h h h h h h h h h h h h h h h h h h h h h h h h h h h h h h h h h c x m m m m m m m m m m m m m m m m m m n x h c c v n m m ",
"$ $ $ $ $ $ $ $ $ $ $ $ $ $ $ $ $ $ $ $ $ $ $ $ $ $ $ $ $ $ $ $ $ $ $ $ $ $ $ $ $ $ $ $ $ $ $ $ $ $ $ $ $ $ $ $ $ $ $ $ $ $ $ $ $ $ $ $ $ $ $ $ $ $ $ $ $ $ $ $ $ $ $ $ $ $ $ $ $ $ $ $ $ $ $ $ $ $ $ $ $ $ $ $ $ $ $ $ $ $ $ $ $ $ $ $ $ $ $ $ $ $ $ $ $ $ $ $ $ $ $ $ $ $ $ $ $ $ $ $ $ $ $ $ $ $ $ $ $ $ $ $ $ $ $ $ $ $ $ $ $ $ $ $ $ $ $ $ $ $ $ $ $ $ $ $ $ $ $ $ $ $ $ $ $ $ $ $ $ $ $ $ $ $ $ $ $ $ $ $ $ $ $ $ $ $ $ $ $ $ $ $ $ $ $ $ $ $ $ $ $ $ $ $ $ $ + : : h g g g h h h h h h h h h h h h h h g h c c v n m m #.",
": : : : : : : : : : : : : : : : : : : : : : : : : : : : : : : : : : : : : : : : : : : : : : : : : : : : : : : : : : : : : : : : : : : : : : : : : : : : : : : : : : : : : : : : : : : : : : : : : : : : : : : : : : : : : : : : : : : : : : : : : : : : : : : : : : : : : : : : : : : : : : : : : : : : : : : : : : : : : : : : : : : : : : : : : : : : : : : : : : : : : : : : : : : : : : : : : : : : : : : : : : : : : : : : : : : : : : : : : : : : : : : : : : : 1 < c n #.n c c c c c c c c c c c c c c m m c &.m n m m #.",
": : : : : : : : : : : : : : : : : : : : : : : : : : : : : : : : : : : : : : : : : : : : : : : : : : : : : : : : : : : : : : : : : : : : : : : : : : : : : : : : : : : : : : : : : : : : : : : : : : : : : : : : : : : : : : : : : : : : : : : : : : : : : : : : : : : : : : : : : : : : : : : : : : : : : : : : : : : : : : : : : : : : : : : : : : : : : : : : : : : : : : : : : : : : : : : : : : : : : : : : : : : : : : : : : : : : : : : : : : : : : : : : : > : q < c s.p.a.#.m #.m n m m m #.m $.v v #.d.p.2.d.#.&.%.a.k.",
"> > > > > > > > > > > > > > > > > > > > > > > > > > > > > > > > > > > > > > > > > > > > > > > > > > > > > > > > > > > > > > > > > > > > > > > > > > > > > > > > > > > > > > > > > > > > > > > > > > > > > > > > > > > > > > > > > > > > > > > > > > > > > > > > > > > > > > > > > > > > > > > > > > > > > > > > > > > > > > > > > > > > > > > > > > > > > > > > > > > > > > > > > > > > > > > > > > > > > > > > > > > > > > > > > > > > > > > > > > > > > > > > > > > q 1 n d.m &.s.j.2.a.%.u.u.d.d.d.d.&.v %.d.p.a.d.%.a.k.l.v.",
"> > > > > > > > > > > > > > > > > > > > > > > > > > > > > > > > > > > > > > > > > > > > > > > > > > > > > > > > > > > > > > > > > > > > > > > > > > > > > > > > > > > > > > > > > > > > > > > > > > > > > > > > > > > > > > > > > > > > > > > > > > > > > > > > > > > > > > > > > > > > > > > > > > > > > > > > > > > > > > > > > > > > > > > > > > > > > > > > > > > > > > > > > > > > > > > > > > > > > > > > > > > > > > > > > > > > > > > > > > > > > > > > > > > q q m g.m &.g.g.n d.%.p.a.s.%.s.&.s.n &.l.p.M k.u.d.x.z.a.",
"< < < < < < < < < < < < < < < < < < < < < < < < < < < < < < < < < < < < < < < < < < < < < < < < < < < < < < < < < < < < < < < < < < < < < < < < < < < < < < < < < < < < < < < < < < < < < < < < < < < < < < < < < < < < < < < < < < < < < < < < < < < < < < < < < < < < < < < < < < < < < < < < < < < < < < < < < < < < < < < < < < < < < < < < < < < < < < < < < < < < < < < < < < < < < < < < < < < < < < < < < < < < < < < < < < < < < < < < < < < < < < < < < < > q q m z.d.l.p.k.m s.j.z.d.j.2.g.p.d.m u.k.m $.l.k.x.v.z.n.",
"1 1 1 1 1 1 1 1 1 1 1 1 1 1 1 1 1 1 1 1 1 1 1 1 1 1 1 1 1 1 1 1 1 1 1 1 1 1 1 1 1 1 1 1 1 1 1 1 1 1 1 1 1 1 1 1 1 1 1 1 1 1 1 1 1 1 1 1 1 1 1 1 1 1 1 1 1 1 1 1 1 1 1 1 1 1 1 1 1 1 1 1 1 1 1 1 1 1 1 1 1 1 1 1 1 1 1 1 1 1 1 1 1 1 1 1 1 1 1 1 1 1 1 1 1 1 1 1 1 1 1 1 1 1 1 1 1 1 1 1 1 1 1 1 1 1 1 1 1 1 1 1 1 1 1 1 1 1 1 1 1 1 1 1 1 1 1 1 1 1 1 1 1 1 1 1 1 1 1 1 1 1 1 1 1 1 1 1 1 1 1 1 1 1 1 1 1 1 1 1 1 1 1 1 1 1 1 1 1 1 1 1 1 1 1 1 1 1 1 1 1 1 1 1 1 1 < f q $.p.g.p.$.p.%.%.s.a.&.u.&.2.&.2.$.&.u.%.%.p.2.g.d.p.k.",
"q q q q q q q q q q q q q q q q q q q q q q q q q q q q q q q q q q q q q q q q q q q q q q q q q q q q q q q q q q q q q q q q q q q q q q q q q q q q q q q q q q q q q q q q q q q q q q q q q q q q q q q q q q q q q q q q q q q q q q q q q q q q q q q q q q q q q q q q q q q q q q q q q q q q q q q q q q q q q q q q q q q q q q q q q q q q q q q q q q q q q q q q q q q q q q q q q q q q q q q q q q q q q q q q q q q q q q q q q q q q q q q q q q 1 g q &.%.$.%.&.%.&.&.$.%.%.%.&.%.%.%.&.&.%.&.&.&.&.&.&.u.2.",
"q q q q q q q q q q q q q q q q q q q q q q q q q q q q q q q q q q q q q q q q q q q q q q q q q q q q q q q q q q q q q q q q q q q q q q q q q q q q q q q q q q q q q q q q q q q q q q q q q q q q q q q q q q q q q q q q q q q q q q q q q q q q q q q q q q q q q q q q q q q q q q q q q q q q q q q q q q q q q q q q q q q q q q q q q q q q q q q q q q q q q q q q q q q q q q q q q q q q q q q q q q q q q q q q q q q q q q q q q q q q q q q q q q q g f p.p.p.p.u.p.u.p.p.p.p.p.p.p.p.p.u.p.p.p.p.p.p.a.a.s.d.",
"q q q q q q q q q q q q q q q q q q q q q q q q q q q q q q q q q q q q q q q q q q q q q q q q q q q q q q q q q q q q q q q q q q q q q q q q q q q q q q q q q q q q q q q q q q q q q q q q q q q q q q q q q q q q q q q q q q q q q q q q q q q q q q q q q q q q q q q q q q q q q q q q q q q q q q q q q q q q q q q q q q q q q q q q q q q q q q q q q q q q q q q q q q q q q q q q q q q q q q q q q q q q q q q q q q q q q q q q q q q q q q q q q q q h q m m m m m m m m m m m m m m m m m m m m #.#.#.$.$.$.$.",
"q q q q q q q q q q q q q q q q q q q q q q q q q q q q q q q q q q q q q q q q q q q q q q q q q q q q q q q q q q q q q q q q q q q q q q q q q q q q q q q q q q q q q q q q q q q q q q q q q q q q q q q q q q q q q q q q q q q q q q q q q q q q q q q q q q q q q q q q q q q q q q q q q q q q q q q q q q q q q q q q q q q q q q q q q q q q q q q q q q q q q q q q q q q q q q q q q q q q q q q q q q q q q q q q q q q q q q q q q q q q q q q q q q q c h f g g g g g g g g g g g g g g g g g g g g g g g g g g ",
"q q q q q q q q q q q q q q q q q q q q q q q q q q q q q q q q q q q q q q q q q q q q q q q q q q q q q q q q q q q q q q q q q q q q q q q q q q q q q q q q q q q q q q q q q q q q q q q q q q q q q q q q q q q q q q q q q q q q q q q q q q q q q q q q q q q q q q q q q q q q q q q q q q q q q q q q q q q q q q q q q q q q q q q q q q q q q q q q q q q q q q q q q q q q q q q q q q q q q q q q q q q q q q q q q q q q q q q q q q q q q q q q q q q f g g g g g g g g g g g g g g g g g g g g g g g g g g g g ",
"q q q q q q q q q q q q q q q q q q q q q q q q q q q q q q q q q q q q q q q q q q q q q q q q q q q q q q q q q q q q q q q q q q q q q q q q q q q q q q q q q q q q q q q q q q q q q q q q q q q q q q q q q q q q q q q q q q q q q q q q q q q q q q q q q q q q q q q q q q q q q q q q q q q q q q q q q q q q q q q q q q q q q q q q q q q q q q q q q q q q q q q q q q q q q q q q q q q q q q q q q q q q q q q q q q q q q q q q q q q q q q q q q q q q q q q q q q q q q q q q q q q q q q q q q q q q q q q q ",
"q q q q q q q q q q q q q q q q q q q q q q q q q q q q q q q q q q q q q q q q q q q q q q q q q q q q q q q q q q q q q q q q q q q q q q q q q q q q q q q q q q q q q q q q q q q q q q q q q q q q q q q q q q q q q q q q q q q q q q q q q q q q q q q q q q q q q q q q q q q q q q q q q q q q q q q q q q q q q q q q q q q q q q q q q q q q q q q q q q q q q q q q q q q q q q q q q q q q q q q q q q q q q q q q q q q q q q q q q q q q q q q q q q q q q q q q q q q q q q q q q q q q q q q q q q q q q q q q ",
"q q q q q q q q q q q q q q q q q q q q q q q q q q q q q q q q q q q q q q q q q q q q q q q q q q q q q q q q q q q q q q q q q q q q q q q q q q q q q q q q q q q q q q q q q q q q q q q q q q q q q q q q q q q q q q q q q q q q q q q q q q q q q q q q q q q q q q q q q q q q q q q q q q q q q q q q q q q q q q q q q q q q q q q q q q q q q q q q q q q q q q q q q q q q q q q q q q q q q q q q q q q q q q q q q q q q q q q q q q q q q q q q q q q q q q q q q q q q q q q q q q q q q q q q q q q q q q q q ",
"q q q q q q q q q q q q q q q q q q q q q q q q q q q q q q q q q q q q q q q q q q q q q q q q q q q q q q q q q q q q q q q q q q q q q q q q q q q q q q q q q q q q q q q q q q q q q q q q q q q q q q q q q q q q q q q q q q q q q q q q q q q q q q q q q q q q q q q q q q q q q q q q q q q q q q q q q q q q q q q q q q q q q q q q q q q q q q q q q q q q q q q q q q q q q q q q q q q q q q q q q q q q q q q q q q q q q q q q q q q q q q q q q q q q q q n %.$.$.$.$.$.$.$.$.%.v < c %.$.$.$.$.$.$.$.$.%.m q ",
"q q q q q q q q q q q q q q q q q q q q q q q q q q q q q q q q q q q q q q q q q q q q q q q q q q q q q q q q q q q q q q q q q q q q q q q q q q q q q q q q q q q q q q q q q q q q q q q q q q q q q q q q q q q q q q q q q q q q q q q q q q q q q q q q q q q q q q q q q q q q q q q q q q q q q q q q q q q q q q q q q q q q q q q q q q q q q q q q q q q q q q q q q q q q q 1 < 1 < 1 1 < 1 < 1 1 < < 1 1 < < 1 < 1 1 < 1 < 1 1 < 1 < > < 1 < q q q q q q q 1 m m h c c c c c c h m m > v #.h c c c c c c x n #.q ",
"q q q q q q q q q q q q q q q q q q q q q q q q q q q q q q q q q q q q q q q q q q q q q q q q q q q q q q q q q q q q q q q q q q q q q q q q q q q q q q q q q q q q q q q q q q q q q q q q q q q q q q q q q q q q q q q q q q q q q q q q q q q q q q q q q q q q q q q q q q q q q q q q q q q q q q q q q q q q q q q q q q q q q q q q q q q q q q q q q q q q q q q q q q q q q < > $ < $ $ > + > $ $ < > $ $ 1 > : 1 $ $ > $ > $ $ : $ > 1 : $ > 1 q q q q q q 1 m v g g y y y f h g m m > v m g g q y y y g g c #.q ",
"q q q q q q q q q q q q q q q q q q q q q q q q q q q q q q q q q q q q q q q q q q q q q q q q q q q q q q q q q q q q q q q q q q q q q q q q q q q q q q q q q q q q q q q q q q q q q q q q q q q q q q q q q q q q q q q q q q q q q q q q q q q q q q q q q q q q q q q q q q q q q q q q q q q q q q q q q q q q q q q q q q q q q q q q q q q q q q q q q q q q q q q q q q q q q > q c.q h.h.h V.x h.h.: g m.f.: f i.: h.m.q c.g c.h.M V.c $ M B.c > q q q q q q 1 m n g %.j.d.d.p.h g m m > v m f m d.d.d.s.x g v #.q ",
"q q q q q q q q q q q q q q q q q q q q q q q q q q q q q q q q q q q q q q q q q q q q q q q q q q q q q q q q q q q q q q q q q q q q q q q q q q q q q q q q q q q q q q q q q q q q q q q q q q q q q q q q q q q q q q q q q q q q q q q q q q q q q q q q q q q q q q q q q q q q q q q q q q q q q q q q q q q q q q q q q q q q q q q q q q q q q q q q q q q q q q q q q q q q q : c pXi.B.m.pXh.*XV.V.g 1 h.iX$ i.m.$ v B.h.pXM c V.i.f.B.X m.*Xh.$ y q q q q q 1 m n g n d.-Xx.#.h g m m > v m g v $X-XeXv.g g v #.q ",
"q q q q q q q q q q q q q q q q q q q q q q q q q q q q q q q q q q q q q q q q q q q q q q q q q q q q q q q q q q q q q q q q q q q q q q q q q q q q q q q q q q q q q q q q q q q q q q q q q q q q q q q q q q q q q q q q q q q q q q q q q q q q q q q q q q q q q q q q q q q q q q q q q q q q q q q q q q q q q q q q q q q q q q q q q q q q q q q q q q q q q q q q q q q q q 1 : h.c.i.f.sX: iXiXiX> $ f.*X$ m.M $ $ B.1 c.c : V.X h.i.  h.sXi.$ q q q q q q 1 m n g y d.=Xn.g h g m m > v m g y &.&XN.x g g v #.q ",
"q q q q q q q q q q q q q q q q q q q q q q q q q q q q q q q q q q q q q q q q q q q q q q q q q q q q q q q q q q q q q q q q q q q q q q q q q q q q q q q q q q q q q q q q q q q q q q q q q q q q q q q q q q q q q q q q q q q q q q q q q q q q q q q q q q q q q q q q q q q q q q q q q q q q q q q q q q q q q q q q q q q q q q q q q q q q q q q q q q q q q q q q q q q q q < : B.i.B.B.iXc.pXm.V.i.g M *Xv V.q : iXB.$ B.M iXh.h.pXh x B.m.B.$ y q q q q q 1 m n f %.-X=XeXj.g g m m > v m g n a.&XN.2.x g v #.q ",
"q q q q q q q q q q q q q q q q q q q q q q q q q q q q q q q q q q q q q q q q q q q q q q q q q q q q q q q q q q q q q q q q q q q q q q q q q q q q q q q q q q q q q q q q q q q q q q q q q q q q q q q q q q q q q q q q q q q q q q q q q q q q q q q q q q q q q q q q q q q q q q q q q q q q q q q q q q q q q q q q q q q q q q q q q q q q q q q q q q q q q q q q q q q q q < > M q f.f.f m.g h.f.M M B.M q M : q m.m.x v v m.h.h.m.f.m m m.h > q q q q q q 1 m n g #.s.p.a.2.h g m m > v m g m s.p.a.p.x g v #.q ",
"q q q q q q q q q q q q q q q q q q q q q q q q q q q q q q q q q q q q q q q q q q q q q q q q q q q q q q q q q q q q q q q q q q q q q q q q q q q q q q q q q q q q q q q q q q q q q q q q q q q q q q q q q q q q q q q q q q q q q q q q q q q q q q q q q q q q q q q q q q q q q q q q q q q q q q q q q q q q q q q q q q q q q q q q q q q q q q q q q q q q q q q q q q q q q < < : < $ $ > + > $ $ : : + : > : 1 > $ $ > : : + $ $ + $ : : + > 1 q q q q q q 1 m v g g q y y y g g n m > v m g g q y y y g g c #.q ",
"q q q q q q q q q q q q q q q q q q q q q q q q q q q q q q q q q q q q q q q q q q q q q q q q q q q q q q q q q q q q q q q q q q q q q q q q q q q q q q q q q q q q q q q q q q q q q q q q q q q q q q q q q q q q q q q q q q q q q q q q q q q q q q q q q q q q q q q q q q q q q q q q q q q q q q q q q q q q q q q q q q q q q q q q q q q q q q q q q q q q q q q q q q q q q q < < < 1 1 < 1 < 1 1 < < 1 < < < < < 1 1 < < < 1 1 1 q 1 < < 1 < q q q q q q q 1 m m x c c c c c c x #.m > v $.x c c c c c c c m #.q ",
"q q q q q q q q q q q q q q q q q q q q q q q q q q q q q q q q q q q q q q q q q q q q q q q q q q q q q q q q q q q q q q q q q q q q q q q q q q q q q q q q q q q q q q q q q q q q q q q q q q q q q q q q q q q q q q q q q q q q q q q q q q q q q q q q q q q q q q q q q q q q q q q q q q q q q q q q q q q q q q q q q q q q q q q q q q q q q q q q q q q q q q q q q q q q q q q q q q q q q q q q q q q q q q q q q q q q q q q q q q q q q q q q q q q q q q v $.#.$.$.$.$.$.$.#.%.c < x %.#.$.$.$.$.$.$.$.$.n q ",
"q q q q q q q q q q q q q q q q q q q q q q q q q q q q q q q q q q q q q q q q q q q q q q q q q q q q q q q q q q q q q q q q q q q q q q q q q q q q q q q q q q q q q q q q q q q q q q q q q q q q q q q q q q q q q q q q q q q q q q q q q q q q q q q q q q q q q q q q q q q q q q q q q q q q q q q q q q q q q q q q q q q q q q q q q q q q q q q q q q q q q q q q q q q q q q q q q q q q q q q q q q q q q q q q q q q q q q q q q q q q q q q q q q q q q q q q q q q q q q q q q q q q q q q q q q q q q q q q ",
"q q q q q q q q q q q q q q q q q q q q q q q q q q q q q q q q q q q q q q q q q q q q q q q q q q q q q q q q q q q q q q q q q q q q q q q q q q q q q q q q q q q q q q q q q q q q q q q q q q q q q q q q q q q q q q q q q q q q q q q q q q q q q q q q q q q q q q q q q q q q q q q q q q q q q q q q q q q q q q q q q q q q q q q q q q q q q q q q q q q q q q q q q q q q q q q q q q q q q q q q q q q q q q q q q q q q q q q q q q q q q q q q q q q q q q q q q q q q q q q q q q q q q q q q q q q q q q q q ",
"q q q q q q q q q q q q q q q q q q q q q q q q q q q q q q q q q q q q q q q q q q q q q q q q q q q q q q q q q q q q q q q q q q q q q q q q q q q q q q q q q q q q q q q q q q q q q q q q q q q q q q q q q q q q q q q q q q q q q q q q q q q q q q q q q q q q q q q q q q q q q q q q q q q q q q q q q q q q q q q q q q q q q q q q q q q q q q q q q q q q q q q q q q q q q q q q q q q q q q q q q q q q q q q q q q q q q q q q q q q q q q q q q q q q q q q q q q q q q q q q q q q q q q q q q q q q q q q q ",
"q q q q q q q q q q q q q q q q q q q q q q q q q q q q q q q q q q q q q q q q q q q q q q q q q q q q q q q q q q q q q q q q q q q q q q q q q q q q q q q q q q q q q q q q q q q q q q q q q q q q q q q q q q q q q q q q q q q q q q q q q q q q q q q q q q q q q q q q q q q q q q q q q q q q q q q q q q q q q q q q q q q q q q q q q q q q q q q q q q q q q q q q q q q q q q q q q q q q q q q q q q q q q q q q q q q q q q q q y q q q q q q q q q q q q q q q q q q q q q q q q q q q q q q q q q q q q q q q ",
"q q q q q q q q q q q q q q q q q q q q q q q q q q q q q q q q q q q q q q q q q q q q q q q q q q q q q q q q q q q q q q q q q q q q q q q q q q q q q q q q q q q q q q q q q q q q q q q q q q q q q q q q q q q q q q q q q q q q q q q q q q q q q q q q q g g q q q q q q q q q q q q q q q q q q q q q q q q q q q q q q q q q q q q q q q q q q q q q q q q q q q q q q q q q q q q q q q q q q q q q q q q q q q q q q q q q q q q q c q q q q q q q q q q q q q q q q q q q q q q q q q q q q q q q q q q q q q q q ",
"q q q q q q q q q q q q q q q q q q q q q q q q q q q q q q q q q q q q q q q q q q q q q q q q q q 1 q q q q q 1 q q q q q q q q q q q q q q q q q q 1 q q q q q q q q q q q q q q q q q q q q q q q q q q q q q q q q q q q q q q q q q q q q q q q q q q q q q g g q q q q q q q q q q q q q q q q q q q q q q q q q q q q q q q q q q q q q q q q q q 1 q q q 1 q q q q q q q q q q q q q q q q q q q q q 1 q q q q q q q q q q q q q q q q c q q q q q q q q q q q q q q q q q q q q q q q q q q q q q q q q q q q q q q q ",
"q q q q q q q q 1 q q q q q q q q q q q q q q h h g q q q q q q q 1 q q q q q q q q q y q q q q q q c q q q q y h q q q q q q q q q q q q y q q q q 1 x y q q q q q q q q q q q 1 q q q q q q q q q q q q q q q q q g g q q q q q q q q q q q q q q q q q q q q q g g q q q q q q q q q q q q q q q q q q q q q q q q q q q q q q q q q q q q q q q q q q c q q q x f q q q q q q q q q q q q q q q q q q q q x f q q q q q q q q q q q q q q q c q q q q q q q q q q q q q q q q q q q q q q q q q q q q q q q q q q q q q 1 q ",
"q q q y q q q q m q q q q q q q y p.l.&.q y q q &.#.> q q q q q 1 v h q q q q q q 1 p.s.n q y 1 1 h s.> y q q q g 1 q q q q q q q q < m j.%.q y q q 1 a.h 1 q q q 1 q q q q q q m q q q q q q q q q q q q q < c $.> f y q q c c < q q 1 q q q q q q q q q q q q q g g q q q q q y u.p.g q q 1 q q q q q q 1 y q q q q q q q q < &.d.2.q q q q y q q q 1 g d.< f > p.v q q q q q q q q q q q < n j.: v g.q g > p.c < q y q q q q q q q q q q q q c q q q q q q q q < 2.d.p.g < q q q q q q q q q q q q q q q q q q q 1 x %.g d.q ",
"q 1 &.p.2.h m %.x.v 1 q q q q q q q a.< c a.m #.%.m : c s.%.%.f &.d.a.q q q q q q 1 s.g q v a.c &.d.p.h a.%.< c #.%.d.u.q q q q q q > $.%.< g p.%.v a.k.z &.p.g < #.d.#.m v v %.z.#.1 q q q q q q q q q q q < n 2.: m m p.$.d.d.c a.#.%.d.p.q q q q q q q q q q q g g q q q q 1 c j.q q p.s.z &.q &.n d.c %.a.v p.&.q q q q q > p.v a.m d.v m a.n > < &.d.s.g a.#.2.c m p.2.x m n < q q q q < m x.q &.k.f p.$.&.#.$.v a.m &.y &.m d.a.x 1 q q q c q q q q q q q q < p.g n p.2.2.p.g &.h 1 q q q q q q q q q q q q q q f p.m l.v ",
"q g s.= 2.x #.$.&.< q q q q q q q f p.q x p.a.2.%.m : p.g f p.q 2.%.h 1 q q q q q < d.d.c x a.d.&.f p.p.p.j.q c &.p.g p.g q q q q q > #.l.#.g %.d.d.y 2.&.d.s.$.1 s.1 p.2.v n %.&.q q q q q q q q q q q q q < v &.$ $.%.2.v $.c p.a.s.d.h 2.c 1 q q q q q q q q q g g q q q q q 1 #.a.&.$.g p.p.q 2.%.&.q d.: p.a.d.x 1 q q q > u.j.v v a.< k.u.d.#.n p.q p.p.a.s.s.c c d.p.&.p.g q q q q q < v s.#.&.p.g %.s.p.v.y d.p.d.d.q 2.&.$.x p.> q q q c q q q q q q q q < p.g y p.d.q m &.p.q q q q q q q q q q q q q q q q 1 2.p.$.d.",
"q f d.f &.#.a.#.a.y q q q q q q q g a.f d.p.s.2.&.#.: p.#.z a.m p.&.#.1 q q q q q q s.q g d.p.d.u.m s.&.p.c 1 v 2.p.y a.g 1 q q q q > %.$.= a.p.d.a.v s.$.d.n g q a.c p.%.%.p.%.a.g q q q q q q q q q q q q < n a.1 &.$.y d.s.#.&.a.g a.g 2.c < q q q q q q q q q g g q q q q q f q &.d.&.#.&.p.n d.%.$.q d.g 2.a.c q q q q q > p.c = n 2.> d.%.c x z a.v d.&.a.h u.2.a.d.#.a.a.< q q q q q > #.$.k.%.p.a.p.s.p.d.#.p.2.h a.v d.$.p.$.&.< q q q c q q q q q q q q > a.v &.&.p.q q l.$.< q q q q q q q q q q q q q q q < %.z.q n.",
"q 1 n p.x &.2.g $.m 1 q q q q q q q m q $.&.v n v x < g p.n #.p.v z 2.q q q q q q q m y q %.&.x m p.m q 2.#.1 g v n q m f q q q q q 1 c c < v 2.m x 2.&.q m &.g < c p.c q 2.2.g m #.1 q q q q q q q q q q q q g s.2.m c %.%.h &.g &.m m f v g q q q q q q q q q q g g q q q q q g p.&.q $.p.q c p.$.c v > n p.h %.$.q q q q q 1 n h < h n > x 2.v < < m p.#.q &.m n x %.&.q 2.$.> q q q q q 1 c x m h n v 2.m m g #.h 2.v c p.#.m j.&.f q q q q c q q q q q q q q < #.a.%.q m q > d.c 1 q q q q q q q q q q q q q q q 1 z #.< %.",
"q q 1 < q < < q < 1 q q q q q q q q 1 q < < 1 1 1 q q q > 1 < > 1 q < q q q q q q q < q q < < 1 1 > 1 q < 1 q q 1 1 q 1 q q q q q q q 1 1 q 1 < 1 q < < q < < q q 1 > 1 q < > q < 1 q q q q q q q q q q q q q q > < 1 1 < < q < q < 1 1 q 1 q q q q q q q q q q q g g q q q q q q < < q < < q 1 < < 1 1 q 1 < q < 1 q q q q q q 1 q q q 1 q 1 < q q q 1 < < q < 1 1 1 < > c s.q q q q q q q q q q < q 1 1 < 1 1 q < q < 1 1 < : m #.: q q q q q c q q q q q q q q q < > < q 1 1 #.p.1 q q q q q q q q q q q q q q q q q q < q < ",
"q q q q q q q q q q q q q q q q q q q q q q q q q q q q q q q q q q q q q q q q q q q q q q q q q q q q q q q q q q q q q q q q q q q q q q q q q q q q q q q q q q q q q q q q q q q q q q q q q q q q q q q q q q q q q q q q q q q q q q q q q q q q q q q q q g g q q q q q q q q q q q q q q q q q q q q q q q q q q q q q q q q q q q q q q q q q q q q q q q q q q g y q q q q q q q q q q q q q q q q q q q q q q q q q q q q q q q q q c q q q q q q q q q q q q q q q g q q q q q q q q q q q q q q q q q q q q q q q ",
"q q q q q q q q q q q q q q q q q q q q q q q q q q q q q q q q q q q q q q q q q q q q q q q q q q q q q q q q q q q q q q q q q q q q q q q q q q q q q q q q q q q q q q q q q q q q q q q q q q q q q q q q q q q q q q q q q q q q q q q q q q q q q q q q q g g q q q q q q q q q q q q q q q q q q q q q q q q q q q q q q q q q q q q q q q q q q q q q q q q q q q q q q q q q q q q q q q q q q q q q q q q q q q q q q q q q q q q q c q q q q q q q q q q q q q q q q q q q q q q q q q q q q q q q q q q q q q q q ",
"q q q q q q q q q q q q q q q q q q q q q q q q q q q q q q q q q q q q q q q q q q q q q q q q q q q q q q q q q q q q q q q q q q q q q q q q q q q q q q q q q q q q q q q q q q q q q q q q q q q q q q q q q q q q q q q q q q q q q q q q q q q q q q q q 1 g g 1 q q q q q q q q q q q q q q q q q q q q q q q q q q q q q q q q q q q q q q q q q q q q q q q q q q q q q q q q q q q q q q q q q q q q q q q q q q q q q q q q q q q q c q q q q q q q q q q q q q q q q q q q q q q q q q q q q q q q q q q q q q q q ",
"x x x x x x x x x x x x x x x x x x x x x x x x x x x x x x x x x x x x x x x x x x x x x x x x x x x x x x x x x x x x x x x x x x x x x x x x x x x x x x x x x x x x x x x x x x x x x x x x x x x x x x x x x x x x x x x x x x x x x x x x x x x x x x x c g g g g c x x x x x x x x x x x x x x x x x x x x x x x x x x x x x x x x x x x x x x x x x x x x x x x x x x x x x x x x x x x x x x x x x x x x x x x x x x x x x x x x x x y x y c x x x x x x x x x x x x x x x x x x x x x x x x x x x x x x x x x x x x x ",
"q q q q q q q q q q q q q q q q q q q q q q q q q q q q q q q q q q q q q q q q q q q q q q q q q q q q q q q q q q q q q q q q q q q q q q q q q q q q q q q q q q q q q q q q q q q q q q q q q q q q q q q q q q q q q q q q q q q q q q q q q q q q q q q q q g g q q q q q q q q q q q q q q q q q q q q q q q q q q q q q q q q q q q q q q q q q q q q q q q q q q q q q q q q q q q q q q q q q q q q q q q q q q q q q q q q q q q q q x q q q q q q q q q q q q q q q q q q q q q q q q q q q q q q q q q q q q q q q ",
"q q q q q q q q q q q q q q q q q q q q q q q q q q q q q q q q q q q q q q q q q q q q q q q q q q q q q q q q q q q q q q q q q q q q q q q q q q q q q q q q q q q q q q q q q q q q q q q q q q q q q q q q q q q q q q q q q q q q q q q q q q q q q q q q 1 g g 1 q q q q q q q q q q q q q q q q q q q q q q q q q q q q q q q q q q q q q q q 0 0 0 0 q q q q q q q q q q q q q q q q q q q q q q q q q 0 0 0 0 q q q q q q q q q q q q c q q q q q q q q q q q q 0 q 0 q q q q q q q q q q q q q q q q q q q q q q q 1 ",
"q q q q q q q q q q q q q q q q q q q q q q q q q 1 q 1 q q q q q q q q q q q q q q q q q q q q q q 1 1 1 q q q q q q q q q q q q q q q q q q q q q q q q 1 1 1 q q q q q q q q q q q q q q q q q q q q q q q q q q q q q q q q q q q q q q q q q q q q q q q q q g g q q q q q q q q q q q q q q q q q q q q q q q q q q q q q q q q q q q q q 0 0 q e r e r 0 0 q q q q q q q q q q q q q q q q q q q q 0 0 r l e l e 0 0 q q q q q q q q q q c q q q q q q q q q 0 8 q 4 4 4 4 q 0 q q q q q q q q q q q q q q q q q q 2 1 i ",
"u , , q q q q q q q q q q q q q q q q q q q , , u i u i q , q q q q q q q q q q q q q q q q q q 2 q p i p y , 1 q q q q q q q q q q q q q q q q q q q , 1 p i i i , , q q q q q q q q q q q q q q q q q q q q q q q q q q q q q q q q q q q q q q q q q q q q q q g g q q q q q q q q q q q q q q q q q q q q q q q q q q q q q q q q q q q q 0 k S S Z.D A.Z S S q 0 q q q q q q q q q q q q q q q q 0 0 S D F P.H.P.H.D S 0 0 q q q q q q q q c q q q q q q q q 8 6 [ ] O./ ' ' 5 5 q 0 q q q q q q q q q q q q q q , y 8.3.XX",
"4.;.=., 1 q q q q q q q q q q q q q q q 1 , @.;.4.0.4.q.@.<.q , q q q q q q q q q q q q q q 2 p 5.:.2X5.:X<.5.+.2 q q q q q q q q q q q q q q q q , 1 <.;.{.w.e.w.>.<., , q q q q q q q q q q q q q q q q q q q q q q q q q q q q q q q q q q q q q q q q q q q q g g q q q q q q q q q q q q q q q q q q q q q q q q q q q q q q q q q q q e A Z G.A.G.C Z.D.D.D.A k 0 q q q q q q q q q q q q q q q k D K.R.L.R.H.R.L.R.K.S k 0 q q q q q q q c q q q q q q q f ] ' _.O._./ | ......5 6 q q q q q q q q q q q q q q *.8.rXrXrX",
"{.[.6.:.a , q q q q q q q q q q q q q 1 s :.6.[.].q.5.[.].].:.@., q q q q q q q q q q q 1 y <.<.5X:X5X9.4X3X9X9.<.u 1 q q q q q q q q q q q q q 1 =.<.[.4X5Xw.{.5X5X{.<.s , q q q q q q q q q q q q q q q q q q q q q q q q q q q q q q q q q q q q q q q q q q q g g q q q q q q q q q q q q q q q q q q q q q q q q q q q q q q q q q q 0 Z G.C C.F S l A D A.C C.F.l 0 q q q q q q q q q q q q 0 r K.T.G K.J.D A D J.L.H.P.L.e 0 q q q q q q c q q q q q q 0 [ _.' o.o.] 6 6 ] | / ' o.6 0 q q q q q q q q q q , +.rXOX X+X'.",
"<.9.:.}.<.y q q q q q q q q q q q q q u >.}.>.0.4.+.s ;.0.:.q.q.p q q q q q q q q q q q q +.4Xe.9.e.:.s =.t.0.9.9X:.q q q q q q q q q q q q q q p e.4X5..X5.s +.5.e.<.5Xw.u q q q q q q q q q q q q q q q q q q q q q q q q q q q q q q q q q q q q q q q q q q q g g q q q q q q q q q q q q q q q q q q q q q q q q q q q q q q q q q e Z Z F.D q ; % O O % < k F.A.C.A 0 q q q q q q q q q q 0 A S.J.R.D q ; O O O % q D R.K.K.A 0 q q q q q c q q q q q y ..| )...f : % X O % < 4 ..| ' 5 0 q q q q q q q q , 8.XXOXrX+.> o ",
"@ , ;.{.q.q.q q q q q q q q q q q q q q.q.{.;.> + o o + : a ].q.].d , q q q q q q q q , 5.3X:X].u & o o o & q w.,X2X0., q q q q q q q q q q , s 3X{.3X+.: o o o + 2 =.4X[.1Xu 1 q q q q q q q q q q q q q q q q q q q q q q q q q q q q q q q q q q q q q q q q q g g q q q q q q q q q q q q q q q q q q q q q q q q q q q q q q q q 0 A F.G.D > O + : < > & X = l Z.G.Z q q q q q q q q q q q 0 F R.R.D ; X + > < > + X ; S T.R.G 0 q q q q q c q q q q 0 6 )._...1 O + + + > : X $ 4 ' o.' q q q q q q q q q q XXuXqXb + X $ ",
"= X & ;.].<.+.1 q q q q q q q q q 1 @.<.].=.& X $ < 1 : + + p ].6.;.y q q q q q q q 1 p 5.].e.q o + > 1 > $ X > w.:X4.s 1 q q q q q q q q q q >.0.:Xs + X = < < : X @ =.,X9.=.q q q q q q q q q q q q q q q q q q q q q q q q q q q q q q q q q q q q q q q q q q g g q q q q g z z h h h h h h h h h h z g g z h g h g q q q q q q 0 l C.C D > X : g v m m v q + % A C Z D 0 q q q q q q q q 0 S K.H.D ; o > h v m m c q o % D F K.D 0 q q q q c q q q 0 4 o.' [ 1 X : g g q v v f + % 6 ] / ] q q q q q q q 1 '.XX'.*.. + q x ",
"v q X > @.0.].u q q q q q q q q q y ].q.+.: X < x n m n g + + a 4.[.@., q q q q q q 2 9.5X<.y o $ g v m m c > o q <.3Xe.1 q q q q q q q q , s 5Xw.s @ X q c m m v q X : +.e.4Xp 1 q q q q q q q q q q q q q q q q q q q q q q q q q q q q q q q q q q q q q q q q g g q q q y g y g h h h h h g g h h h h g g h h m g h f q q q q q 0 A F.Z.e O : x m m #.#.$.#.f o ; D G.C.q q q q q q q q q 0 F E.K.1 X > c m m #.#.$.m q o ; K.E.J.0 q q q q c q q q 8 5 ).).6 O : g m c q n %.#.g + ; 5 o.| f q q q q q q q OXuX8.@ + q v m ",
"$.m > . +.}.4.p 1 q q q q q q q 1 a <.[.+.. : x m m #.$.#.f X 1 ].q.+.q q q q q q q y :.:Xy.@ + f n m m $.$.c = o 5.5X<.u q q q q q q q q q +.w.4Xu   1 c m m #.$.m 1 . s 9Xw.s 1 q q q q q q q q q q q q q q q q q q q q q q q q q q q q q q q q q q q q q q q q g g q q q q n p.#.x m g g y #.%.q h h g g g g 2.&X#.g g q q q q q r S C.C.: + f v n m m #.#.%.m > O A D.C t 0 q q q q q q 0 l H.L.J.% + g n n m m #.$.%.v : % G P.G e 0 q q q c q q q q ] o.O.1 X q v m v 1 c $.$.m 1 O 6 ../ 4 q q q q q , *. XrX*.. > c n m ",
"#.#.g o q q.[.>., q q q q q q q , >.[.q.q X q v m m m #.$.v = @ 4.[.0.q q q q q q , s 3X5X=.o : c n m m #.$.m q . +.4X5X+., q q q q q q q 1 e.5Xy.& + g n n m m #.$.h + < .X9X9., q q q q q q q q q q q q q q q q q q q q q q q q q q q q q q q q q q q q q q q q g g q q q q a.2.d.$.v c 2.m $.j.$.c k.&.f g c M.&Xv.x f q q q q q r Z.G.D % & h v n m m m #.#.#.y O e S.G.S 0 q q q q q q 0 A T.R.S O > c v n m m m n n v > O A R.R.A 0 q q q c q q q q O._.| % + g v n n g n #.#.#.g + 1 | o.] 8 q q q q 2 8.uXqXu . q v v m ",
"m #.x + > :.4.+.1 q q q q q q q 1 @.4.:.> X f v h v m m #.n : + +.4.;.q q q q q q 1 p 6.9.a o > c v n m m m #.y o u 5.9.s 1 q q q q q q q q <.9.=.& + h v v m m m #.c + : >.9.=.1 q q q q q q 1 1 1 1 1 1 1 1 1 1 1 1 1 1 1 q q q 1 1 1 1 1 1 1 1 1 1 1 1 1 1 q q g g q q q q p.d.a.&.a.p.p.k.%.j.p.2.j.$.f g c v c n c f q q q q q r D C k O : x v v v m m m m #.g X 1 D C k 0 q q q q q q 0 l H.H.l O > c v v n m c q q q $   l F F l 0 q q q c q q q q [ | 5 % $ h v v n m m m m #.h + > ] / 5 0 q q q q , *. X8.< X y v v n ",
"m m g X < 0.[.:., q q q q q q q , :.[.0.0 X 1 q 1 h m m m c = + :.{.0.q q q q q q 1 a 2X3X+.. : x v y x m m m q . a 1X4X+., q q q q q q q 1 w.5X9.& + g v f g m m m h + : y.5X9., q q q q q f c c c c c c c c c c c c c c x q q h c c c c c c c c c c c c c c h 1 g g q q q q p.d.s.n s.s.g p.2.&.n p.p.h g f n v.n.l.x f q q q q q r A.F.S % : z c f q v m m m m y O r A.F.A 0 q q q q q q 0 k T.T.A O > x v v n m v c v c < O k Z.Z.l 0 q q q c q q q q O.).[ % + g v v n n m m m m g O < ' ..] 0 q q q q 2 8.rXOXq X q c v v ",
"m v < . a {.6.+.1 q q q q q q q 1 d 6.[.s   + q x v v n n f X > 0.q.;.q q q q q q q i 5.3Xt.+ + g g q x n m x = o <.4X9.a 1 q q q q q q q q :.{.3Xq X q g q g n m v q . p 3Xe.=.1 q q q q 1 c &.m #.#.#.#.#.#.#.#.#.#.#.#.&.g 1 %.$.#.#.#.#.#.#.#.#.#.#.#.#.%.$.< g g q q q q p.m 2.a.2.&.s.k.&.&.m u.a.u.y g g j.eXp.g g q q q q q r C Z.D ; + q q q h v n n m v > O A D.C.A 0 q q q q q q 0 l J.T.F % $ g v c v n n m m c : O S D.Z t 0 q q q c q q q q [ U...> + q c c v v n n m n 1 X 4 ..' 5 0 q q q q , *.OXrXs . > x v v ",
"c q O & +.{.q.u q q q q q q q q q u q.[.+.@ X q x c v c g $ + u 0.[.@., q q q q q q , 5.9X9., X = < g v v x < X > <.9Xw.1 q q q q q q q q , +.5X:Xp + O : f v v c q + + +.,X3Xp 1 q q q q 1 c m f g g g g g g g g g g g g $.g 1 $.x g g g g g g g g g g g g c #.< g g q q q q c x h c x c %.j.c x z x x n g g g x p.g h f q q q q q 0 A D.Z.q   + q c v v v n v f + % D G.Z q q q q q q q q q 0 F R.K.; X < x c v v v n v q o ; C.G.D 0 q q q q c q q q 0 5 U.).4 X : g c v v v n n g + % 5 o.' f q q q q q q y XXuX8.. + q c v ",
": X o s 0.;.>.q q q q q q q q q q q 4.6.oX=.. X : 1 q > + . q 9.:.<.p 1 q q q q q q , =.9.9.9.&   X < q 1 : X @ <.w.<.:., q q q q q q q q 1 i 9.<.e.u .   : q q > O . s {.<.5.y q q q q q 1 c #.g h h h h h h h h h h h g %.g 1 $.c g h h h h h h h h h h g v #.< g g q q q q g h h h g #.s.$.g h h h h g g g x h g h h q q q q q q 0 A Z.C A ;   > g c c c c f + O e S A.Z 0 q q q q q q q q w D L.H.A % o 1 h c c c c q + % l S Z.D 0 q q q q c q q q 0 6 U...] >   : g c c c c g $ X 4 5 ' ' q q q q q q q 1 XXOX8.i . $ q x ",
"+ : +.q.{.].u q q q q q q q q q q 1 i 9X0X9X=.& + X X + $ i 0.].[.@., q q q q q q q q , 6.9X,X9.q + + X X + < <.,X5Xw.1 q q q q q q q q q q , s 5X,X.Xs + + X X + : +.1X4X3Xp 1 q q q q q 1 c #.g h h h h h h h h h h h g $.g 1 $.c g h h h g g g g h h h g v #.< g g q q q q q f f f f y q q f f f f f g y y f f f f q q q q q q q q 0 S F.T.S % X $ > q 1 : + O q A.F.D r q q q q q q q q q q q F L.T.k % o $ < q 1 : o % e Z.Z.S q q q q q q c q q q q 0 5 O._.] ; X + > q 1 : + + 0 ' ../ 4 q q q q q q q 1 a XXrXOX< o + : ",
"q 1 >.,X>.d q q q q q q q q q q q q 1 @.t.tX0., q q 1 q q s }.0.@.u q q q q q q q q q q i <.1X5Xu q q 1 q q q ].5X<.s 1 q q q q q q q q q q q q =.w.yX<., q q q q , >.9X9.+.q q q q q q q 1 c #.g h h h x g g h h h h h g $.g 1 $.c g h h x c c c c z h h g v #.< g g q q q q q q q q q q q q q q q q q q q q q q q q q q q q q q q q 0 k P.K.T.D > $ X X X + ; e A.A.A.D 0 q q q q q q q q q q 0 S T.K.P.S ; + X X + + ; k Z.C.Z.A 0 q q q q q c q q q q q 4 U.O.).[ 0 $ X X X + = f ' | ' / 0 q q q q q q q q ,  XqXqXOXi : + ",
"q q q 0.@.2 q q q q q q q q q q q q q 2 ;.2Xu 1 q q q q q , >.4., q q q q q q q q q q q , q .X:.2 q q q q q , s {.p , q q q q q q q q q q q q q 2 t.1X, q q q q q q q w.>.2 q q q q q q q 1 c #.g h h h x.d.h f g h h h g $.g 1 $.c g z f a.&X@X%X&X2.f z g v #.< g g q q q q q q q q q q q q q q q q q q q q q q q q q q q q q q q q q 0 l S.E.F 0 q q q q q q e F.Z.k q q q q q q q q q q q q q 0 A K.R.S 0 q q q q q 0 A G.C.e q q q q q q q c q q q q q 0 4 .._.| 0 q q q q q q y | ..6 q q q q q q q q q q q q 3.rXrXi q q ",
"q q q q 1 q q q q q q q q q q q q q q q , q q q q q q q q q q 1 q q q q q q q q q q q q q q q q q q q q q q q q q 1 q q q q q q q q q q q q q q q 1 q q q q q q q q q q 1 q q q q q q q q 1 c #.g h h h M.-XM.2.x h h h g $.g 1 $.c g x y d.-X&X&X-Xp.y x g v #.< g g q q q q q q q q q q q q q q q q q q q q q q q q q q q q q q q q q q 0 A J.r q q q q q q q 0 S D q q q q q q q q q q q q q q q 0 D H.0 q q q q q q q 0 D S 0 q q q q q q q c q q q q q q 0 6 ..4 0 q q q q q q 8 5 / q q q q q q q q q q q q q q '.3.2 q q ",
"q q q q q q q q q q q q q q q q q q q q q q q q q q q q q q q q q q q q q q q q q q q q q q q q q q q q q q q q q q q q q q q q q q q q q q q q q q q q q q q q q q q q q q q q q q q q q 1 c #.g h h h M.&X=X=X2.g h h g $.g 1 $.c g x y d.=X$X$X=Xp.f z g v #.< g g q q q q q q q q q q q q q q q q q q q q q q q q q q q q q q q q q q q 0 0 q q q q q q q q q q 0 q q q q q q q q q q q q q q q q 0 0 q q q q q q q q q q 0 q q q q q q q q c q q q q q q q 0 0 q q q q q q q q q q 0 q q q q q q q q q q q q q q , q q q q ",
"q q q q q q q q q q q q q q q q q q q q q q q q q q q q q q q q q q q q q q q q q q q q q q q q q q q q q q q q q q q q q q q q q q q q q q q q q q q q q q q q q q q q q q q q q q q q q 1 c #.g h h h M.-Xv.$.h h h h g $.g 1 $.c g x y d.;X&X&X-Xp.y x g v #.< g g q q q q q q q q q q q q q q q q q q q q q q q q q q q q q q q q q q q q q q q q q q q q q q q q q q q q q q q q q q q q q q q q q q q q q q q q q q q q q q q q q q q q q c q q q q q q q q q q q q q q q q q q q q q q q q q q q q q q q q q q q q q q q ",
"q q q q q q q q q q q q q q q q q q q q q q q q q q q q q q q q q q q q q q q q q q q q q q q q q q q q q q q q q q q q q q q q q q q q q q q q q q q q q q q q q q q q q q q q q q q q q 1 c #.g h h h k.p.g g h h h h g $.g 1 $.c g z f p.@XN.N.@X&.f z g v #.< g g q q q q q q q q q q q q q q q q q q q q q q q q q q q q q q q q q q q q q q q q q q q q q q q q q q q q q q q q q q q q q q q q q q q q q q q q q q q q q q q q q q q q q c q q q q q q q q q q q q q q q q q q q q q q q q q q q q q q q q q q q q q q q ",
"< 1 q q q q q q q q q q q q q q q q q q q q q q q q q 1 q q q q q q q q q q q q q q q q q q q q 1 q q < q q q q q q q q q q q q q q q q q q q q q q q < < q 1 < q < 1 q q q q q q q q q q 1 c #.g h h h g g h h h h h h g $.g 1 $.c g h h g g g g g g h h g v #.< g g q q q q q q q q q q q q q q q q q q q q q q q q q q q q q q q q q q q q q < 1 q q 1 < q q < q q q q q q q q q q q q q q q q q q q 1 q q q q q q 1 1 q < < q q q q q q q q c q q q q q q q q q < q q < q q q < 1 q q 1 q q q q q q q q q q q q q q < 1 q < ",
"c h 1 q q q q q q q q q q q q q q q q q q g g 1 g f 1 g y q q g q q q q q q q q q q q q q q q q g q y m f 1 q g q q q q q q q q q q q q q q q q q q q c c < x c < c z 1 q q q q q q q q q 1 c #.g h h h h h h h h h h h g $.g 1 $.c g h h h h h h h h h h g v #.< g g q q q q q q q q q q q q q q q q q q q q q q q q q q q q q q q q q q q q q c x 1 q c n 1 g v q q q q q q q q q q q q q q q q q q q g y q q g q q x x f m n f q q q q q q q c q q q q q q q q g m q g n q q q n g 1 q g q q q q q q q q q q q q q q n h q n ",
"s.p.g q q q q q q q q q q q q q q q q q q k.#.q z.m q x.v : 2.b.> q q q q q q q q q q q q q q g z.c x u.p.< p.d.> q q q q q q q q q q q q q q q q q f %.p.%.p.2.&.p.p.h q q q q q q q q q 1 c #.g h h h h h h h h h h h g $.g 1 $.c g h h h h h h h h h h g v #.< g g q q q q q q q q q q q q q q q q q q q q q q q q q q q q q q q q q q q < n p.p.z q #.p.%.p.a.n < q q q q q q q q q q q q q q q q g z.v : 2.j.: x p.p.#.m j.m < q q q q q q c q q q q q q q q n &.2.m p.&.> x &.s.q #.l.< q q q q q q q q q q q q z $.p.m &.",
"x #.m < q q q q q q q q q q q q q q q q 1 $.$.: &.m > 2.v q p.&.< q q q q q q q q q q q q q q 1 &.n > q a.h p.&.< q q q q q q q q q q q q q q q q q q : &.$.a.p.p.n $.$.> q q q q q q q q 1 c m f g g g g g g g g g g g g $.g 1 $.x g g g g g g g g g g g g c #.< g g q q q q q q q q q q q q q q q q q q q q q q q q q q q q q q q q q q q 1 x d.p.f q f 2.p.$.g p.< q q q q q q q q q q q q q q q q 1 &.v q p.2.: $.$.n &.: p.y q q q q q q q c q q q q q q q q q %.2.: x p.1 q > a.x &.p.1 q q q q q q q q q q q q q c s.f > ",
"z #.m < q q q q q q q q q q q q q q q q > m %.$ $.#.= &.v p.p.d.q q q q q q q q q q q q q q q > %.m : &.x p.p.d.1 q q q q q q q q q q q q q q q q q < c %.g 2.2.#.%.j.m < q q q q q q q q 1 c &.$.$.$.$.$.$.$.$.$.$.$.$.$.&.g 1 %.%.$.$.$.$.$.$.$.$.$.$.$.$.%.#.< g g q q q q q y y q q q q q q q q q q q q q q q q q q q q q q q q q q q q 1 v &.p.h > g &.s.$.g p.< q q q q q q q q q q q q q q q q > &.v p.p.d.q q &.g.m c 2.> q q q q q q q c q q q q q q &.m q %.p.q p.f < > $.v &.p.b.y q q q q q q q q q 1 v u.q c s.g #.",
"p.a.g q q q q q q q q q q q q q q q q q > #.%.= %.$.= &.m c 2.k.q q q q q q q q q q q q q q q > &.v %.k.v m 2.k.1 q q q q q q q q q q q q q q q q q g z.#.%.2.2.#.n a.y q q q q q q q q q q q g g g g g g g g g g g g g g g q q g g g g g g g g g g g g g g g g 1 g g q q q y u i i u u q q q q q 1 q q q q q q q q q q q q q q q q q q q q < #.2.&.2.m v &.2.2.a.m < q q q q q q q q q q q q q q q q > &.m c 2.j.%.z v a.f p.x 1 q q q q q q q c q q q q q q q q n $.p.d.s.c $.#.l.m m %.z.y q q q q q q q q q q q q x m p.p.k.",
"v x 1 q q q q q q q q q q q q q q q q q q f g 1 g f 1 g f > 1 g q q q q q q q q q q q q q q q q g y x m m < 1 f q q q q q q q q q q q q q q q q q q g n m g c v q m g q q q q q q q q q q q q q q q q q q q q q q q q q q q q q q 1 q q q q q q q q q q q q 1 q q g g q q y i -.r.r.-.i y q q q f x q q > q < g f 1 q q 1 > q q q q q q q q q q m c f g v m 1 g n q q q q q q q q q q q q q q q q q q q g f > 1 f g f m h q h q q q q q q q q q c q q q q q q q q c #.y c m v h x m m q > g q q q q q q q q q q q q q g #.h g m ",
"< 1 q q q q q q q q q q q q q q q q q q q q q q q q q q q q q q q q q q q q q q q q q q q q q q q q 1 < < q q q q q q q q q q q q q q q q q q q q q q < > q < < q > q q q q q q q q q q q q q q q q q q q q q q q q q q q q q q q q q q q q q q q q q q q q q q q g g q q u d >X6X6X>X@.u q q < %.k.< g #.2.p.g c f y g z m q q q q q q q q q q < 1 q 1 < < q 1 < q q q q q q q q q q q q q q q q q q q q q q q q q q < q q 1 q q q q q q q q q c q q q q q q q q 1 > q < < < q q < > q q q q q q q q q q q q q q q q q > 1 q < ",
"q q q q q q q q q q q q q q q q q q q q q q q q q q q q q q q q q q q q q q q q q q q q q q q q q q q q q q q q q q q q q q q q q q q q q q q q q q q q q q q q q q q q q q q q q q q q q q q q q q q q q q q q q q q q q q q q q q q q q q q q q q q q q q q q q g g q q u 1.6X>X>X6X7.u q q q u.p.x p.m p.u.$.a.$.m 2.p.s.$.< q q q q q q q q q q q q q q q q q q q q q q q q q q q q q q q q q q q q q q q q q q < < q q q q q q q q q q q q c q q q q q q q q q q q q q q > < q q q q q q q q q q q q q q q q q q q q q q q ",
"q > 1 q q q q q q q q q q q q q q q q q q q q > < < < q < < q q q q q q q q q q q q q q q q q q < > < > q q > q q q q q q q q q q q q q q q q q q q q 1 > < > 1 q > < q q q q q q q q q q q q q q q q q q q q q q q q q q q q q q q q q q q q q q q q q q q q q q g g q q u -.6X6X<X6X,.u q 1 x k.d.p.p.+ m c m #.2.p.m k.&.#.< q q q q q q q q q > < < < q < < q q q q q q q q q q q q q q q q q q q q q q q : %.x #.&.g q q q q q q q q q q q c q q q q q q q q q q q > &.g %.$.q q q q q q q q q q q q q q q q q q q q q : m ",
"q %.c q q q q q q q q q q q q q q q q q q q g $.m m m 1 m #.q q q q q q q q q q q q q q q q q q m $.v %.q g %.g q q q q q q q q q q q q q q q q q q q x %.n $.x q $.n q q q q q q q q q q q q q q q q q q q q q q q q q q q q q q q q q q q q q q q q q q q q q q g g q q u p 7.>X>Xr.a u q < &.v q p.p.&.#.p.2.c %.b.1 a.%.g q q q q q q q q q g $.m m m 1 n $.q q q q q q q q q q q q q q q q q q q q q q f #.d.m a.n s.1 q q q q q q q q q q c q q q q q q q q q q g $.s.m p.#.2.< q q q q q q q q q q q q q q q q q q q m d.",
"$.d.g q q q q q q q q q q q q q q q q q q > %.a.s.2.p.n j.v q q q q q q q q q q q q q q q q q y j.&.d.&.#.p.2.q q q q q q q q q q q q q q q q q q q > s.&.j.%.u.#.d.g q q q q q q q q q q q q q q q q q q q q q q q q q q q q q q q q q q q q q q q q q q q q q q g g q q q u i d @.i u q q q f q q f q v q h g q q f 1 f v f q q q q q q q q > #.s.a.u.p.n j.v q q q q q q q q q q q q q q q q q q q q q < 2.%.d.v d.p.&.< q q q q q q q q q q c q q q q q q q q q q p.$.d.n d.p.#.< q q q q q q q q q q q q q q q q q < #.2.a.",
"q %.%.1 q q q q q q q q q q q q q q q q q > %.v #.c %.c c p.y q q q q q q q q q q q q q q q q g p.g &.h &.q p.v 1 q q q q q q q q q q q q q q q q q < p.g 2.f p.y #.&.q q q q q q q q q q q q q q q q q q q q q q q q q q q q q q q q q q q q q q q q q q q q q q g g q q q q y u y y q q q q q q q q q < q 1 q q q q q q < q q q q q q q q q > #.n m c $.c c p.f q q q q q q q q q q q q q q q q q q q q 1 a.q &.m p.c a.q q q q q q q q q q q c q q q q q q q q q q s.> p.m 2.n p.1 q q q q q q q q q q q q q q q q q < 2.h m ",
"x p.p.1 q q q q q q q q q q q q q q q q q > $.n $.v %.v #.d.g q q q q q q q q q q q q q q q q f p.h &.c &.c s.#.< q q q q q q q q q q q q q q q q q < p.h 2.h 2.x 2.p.q q q q q q q q q q q q q q q q q q q q q q q q q q q q q q q q q q q q q q q q q q q q q q g g q q q q q q q q q q q q q q q q q q q q q q q q q q q q q q q q q q q q > #.m #.v $.n #.d.g 1 q q q q q q q q q q q q q q q q q q q < #.a.d.v d.&.p.q q q q q q q q q q q c q q q q q q q q q 1 &.a.d.v d.2.&.1 q q q q q q q q q q q q q q q q q 1 c a.d.",
"y c q q q q q q q q q q q q q q q q q q q q q q q q q q x f q q q q q q q q q q q q q q q q q q q q q q q g z q q q q q q q q q q q q q q q q q q q q q q q q q q c q q q q q q q q q q q q q q q q q q q q q q q q q q q q q q q q q q q q q q q q q q q q q q q g g q q q q q q q q q q q q q q q q q q q q q q q q q q q q q q q q q q q q q q q q q q q x g q q q q q q q q q q q q q q q q q q q q q q q h f q g c q q q q q q q q q q q q c q q q q q q q q q q q h y q z x q q q q q q q q q q q q q q q q q q q q q g g ",
"q 1 q q q q q q q q q q q q q q q q q q q q q q q q q q 1 q q q q q q q q q q q q q q q q q q q q q q q q q 1 q q q q q q q q q q q q q q q q q q q q q q q q q q 1 q q q q q q q q q q q q q q q q q q q q q q q q q q q q q q q q q q q q q q q q q q q q q q q g g q q q q q q q q q q q q q q q q q q q q q q q q q q q q q q q q q q q q q q q q q q q 1 q q q q q q q q q q q q q q q q q q q q q q q q 1 q q 1 1 q q q q q q q q q q q q c q q q q q q q q q q q 1 q q 1 1 q q q q q q q q q q q q q q q q q q q q q q q ",
"q q q q q q q q q q q q q q q q q q q q q q q q q q q q q q q q q q q q q q q q q q q q q q q q q q q q q q q q q q q q q q q q q q q q q q q q q q q q q q q q q q q q q q q q q q q q q q q q q q q q q q q q q q q q q q q q q q q q q q q q q q q q q q q q q g g q q q q q q q q q q q q q q q q q q q q q q q q q q q q q q q q q q q q q q q q q q q q q q q q q q q q q q q q q q q q q q q q q q q q q q q q q q q q q q q q q q q q q c q q q q q q q q q q q q q q q q q q q q q q q q q q q q q q q q q q q q q q q ",
"q q q q q q q q q q q q q q q q q q q q q q q q q q q q q q q q q q q q q q q q q q q q q q q q q q q q q q q q q q q q q q q q q q q q q q q q q q q q q q q q q q q q q q q q q q q q q q q q q q q q q q q q q q q q q q q q q q q q q q q q q q q q q q q q q g g q q q q q q q q q q q q q q q q q q q q q q q q q q q q q q q q q q q q q q q q q q q q q q q q q q q q q q q q q q q q q q q q q q q q q q q q q q q q q q q q q q q q q x q q q q q q q q q q q q q q q q q q q q q q q q q q q q q q q q q q q q q q q ",
"1 1 1 1 1 1 1 1 1 1 1 1 1 1 1 1 1 1 1 1 1 1 1 1 1 1 1 1 1 1 1 1 1 1 1 1 1 1 1 1 1 1 1 1 1 1 1 1 1 1 1 1 1 1 1 1 1 1 1 1 1 1 1 1 1 1 1 1 1 1 1 1 1 1 1 1 1 1 1 1 1 1 1 1 1 1 1 1 1 1 1 1 1 1 1 1 1 1 1 1 1 1 1 1 1 1 1 1 1 1 1 1 1 1 1 1 1 1 1 1 1 1 1 1 1 1 1 1 1 1 1 1 1 1 1 1 1 1 1 1 1 1 1 1 1 1 1 1 1 1 1 1 1 1 1 1 1 1 1 1 1 1 1 1 1 1 1 1 1 1 1 1 1 1 1 1 1 1 1 1 1 1 1 1 1 1 1 1 1 1 1 1 1 1 1 1 1 1 1 1 1 1 1 1 1 1 1 1 1 1 1 1 1 1 1 1 1 1 1 1 1 1 1 1 1 1 1 1 1 1 1 1 1 1 1 1 1 1 1 1 1 1 1 1 1 1 1 1 1 1 1 1 1 1 1 1 ",
"m m m m m m m m m m m m m m m m m m m m m m m m m m m m m m m m m m m m m m m m m m m m m m m m m m m m m m m m m m m m m m m m m m m m m m m m m m m m m m m m m m m m m m m m m m m m m m m m m m m m m m m m m m m m m m m m m m m m m m m m m m m m m m m m m m m m m m m m m m m m m m m m m m m m m m m m m m m m m m m m m m m m m m m m m m m m m m m m m m m m m m m m m m m m m m m m m m m m m m m m m m m m m m m m m m m m m m m m m m m m m m m m m m m m m m m m m m m m m m m m m m m m m m m m m m m m m m m m ",
"c c c c c c c c c c c c c c c c c c c c c c c c c c c c c c c c c c c c c c c c c c c c c c c c c c c c c c c c c c c c c c c c c c c c c c c c c c c c c c c c c c c c c c c c c c c c c c c c c c c c c c c c c c c c c c c c c c c c c c c c c c c c c c c c c c c c c c c c c c c c c c c c c c c c c c c c c c c c c c c c c c c c c c c c c c c c c c c c c c c c c c c c c c c c c c c c c c c c c c c c c c c c c c c c c c c c c c c c c c c c c c c c c c c c c c c c c c c c c c c c c c c c c c c c c c c c c c c c ",
"> > > > > > > > > > > > > > > > > > > > > > > > > > > > > > > > > > > > > > > > > > > > > > > > > > > > > > > > > > > > > > > > > > > > > > > > > > > > > > > > > > > > > > > > > > > > > > > > > > > > > > > > > > > > > > > > > > > > > > > > > > > > > > > > > > > > > > > > > > > > > > > > > > > > > > > > > > > > > > > > > > > > > > > > > > > > > > > > > > > > > > > > > > > > > > > > > > > > > > > > > > > > > > > > > > > > > > > > > > > > > > > > > > > > > > > > > > > > > > > > > > > > > > > > > > > > > > > > ",
"m m m m m m m m m m m m m m m m m m m m m m m m m m m m m m m m m m m m m m m m m m m m m m m m m m m m m m m m m m m m m m m m m m m m m m m m m m m m m m m m m m m m m m m m m m m m m m m m m m m m m m m m m m m m m m m m m m m m m m m m m m m m m m m m m m m m m m m m m m m m m m m m m m m m m m m m m m m m m m m m m m m m m m m m m m m m m m m m m m m m m m m m m m m m m m m m m m m m m m m m m m m m m m m m m m m m m m m m m m m m m m m m m m m m m m m m m m m m m m m m m m m m m m m m m m m m m m m m ",
"x x x x x x x x x x x x x x x x x x x x x x x x x x x x x x x x x x x x x x x x x x x x x x x x x x x x x x x x x x x x x x x x x x x x x x x x x x x x x x x x x x x x x x x x x x x x x x x x x x x x x x x x x x x x x x x x x x x x x x x x x x x x x x x x x x x x x x x x x x x x x x x x x x x x x x x x x x x x x x x x x x x x x x x x x x x x x x x x x x x x x x x x x x x x x x x x x x x x x x x x x x x x x x x x x x x x x x x x x x x x x x x x x x x x x x x x x x x x x x x x x x x x x x x x x x x x x x x x ",
"1 1 1 1 1 1 1 1 1 1 1 1 1 1 1 1 1 1 1 1 1 1 1 1 1 1 1 1 1 1 1 1 1 1 1 1 1 1 1 1 1 1 1 1 1 1 1 1 1 1 1 1 1 1 1 1 1 1 1 1 1 1 1 1 1 1 1 1 1 1 1 1 1 1 1 1 1 1 1 1 1 1 1 1 1 1 1 1 1 1 1 1 1 1 1 1 1 1 1 1 1 1 1 1 1 1 1 1 1 1 1 1 1 1 1 1 1 1 1 1 1 1 1 1 1 1 1 1 1 1 1 1 1 1 1 1 1 1 1 1 1 1 1 1 1 1 1 1 1 1 1 1 1 1 1 1 1 1 1 1 1 1 1 1 1 1 1 1 1 1 1 1 1 1 1 1 1 1 1 1 1 1 1 1 1 1 1 1 1 1 1 1 1 1 1 1 1 1 1 1 1 1 1 1 1 1 1 1 1 1 1 1 1 1 1 1 1 1 1 1 1 1 1 1 1 1 1 1 1 1 1 1 1 1 1 1 1 1 1 1 1 1 1 1 1 1 1 1 1 1 1 1 1 1 1 1 ",
"q q q q q q q q q q q q q q q q q q q q q q q q q q q q q q q q q q q q q q q q q q q q q q q q q q q q q q q q q q q q q q q q q q q q q q q q q q q q q q q q q q q q q q q q q q q q q q q q q q q q q q q q q q q q q q q q q q q q q q q q q q q q q q q q q q q q q q q q q q q q q q q q q q q q q q q q q q q q q q q q q q q q q q q q q q q q q q q q q q q q q q q q q q q q q q q q q q q q q q q q q q q q q q q q q q q q q q q q q q q q q q q q q q q q q q q q q q q q q q q q q q q q q q q q q q q q q q q q ",
"q q q q q q q q q q q q q q q q q q q q q q q q q q q q q q q q q q q q q q q q q q q q q q q q q q q q q q q q q q q q q q q q q q q q q q q q q q q q q q q q q q q q q q q q q q q q q q q q q q q q q q q q q q q q q q q q q q q q q q q q q q q q q q q q q q q q q q q q q q q q q q q q q q q q q q q q q q q q q q q q q q q q q q q q q q q q q q q q q q q q q q q q q q q q q q q q q q q q q q q q q q q q q q q q q q q q q q q q q q q q q q q q q q q q q q q q q q q q q q q q q q q q q q q q q q q q q q q q ",
"q q q q 1 q q q q q q q q q q q q q q q q q q q q q q q q q q q q q q q q q q q q q q q q q q q q q q q q q q q q q q q q q q q q q q q q q q q q q q q q q q q q q q q q q q q q q q q q q q q q q q q q q q q q q q q q q q q q q q q q q q q q q q q q q q q q q q q q q q q q q q q q q q q q q q q q q q q q q q q q q q q q q q q q q q q q q q q q q q q q q q q q q q q q q q q q q q q q q q q q q q q q q q q q q q q q q q q q q q q q q q q q q q q q q q q q q q q q q q q q q q q q q q q q q q q q q q q q q q q ",
"q q q 2 :.u , q q 1 , , , 1 q q q q q q q q q q q q q q q q q q q q q q q q q q q q q q q q q q q q q q q q q q q q q q q q q q q q q q q q q q q q q q q q q q q q q q q q q q q q q q q q q q q q q q q q q q q q q q q q q q q q q q q q q q q q q q q q q q q q q q q q q q q q q q q q q q q q q q q q q q q q q q q q q q q q q q q q q q q q q q q q q q q q q q q q q q q q q q q q q q q q q q q q q q q q q q q q q q q q q q q q q q q q q q q q q q q q q q q q q q q q q q q q q q q q q q q q q q q q q q q q q q ",
"q q u +.q.:.p q q i +.+.+.p q q q q q q q q q q q q q q q q q q q q q q q q q q q q q q q q q q q q q q q q q q q q q q q q q q q q q q q q q q q q q q q q q q q q q q q q q q q q q q q q q q q q q q q q q q q q q q q q q q q q q q q q q q q q q q q q q q q q q q q q q q q q q q q q q q q q q q q q q q q q q q q q q q q q q q q q q q q q q q q q q q q q q q q q q q q q q q q q q q q q q q q q q q q q q q q q q q q q q q q q q q q q q q q q q q q q q q q q q q q q q q q q q q q q q q q q q q q q q q q q q q ",
"q 1 p 4.q.6.+.1 1 s 5.<.5.s 1 q q q q q q q q q q q q q q q q q q q q q q q q q q q q q q q q q q q q q q q q q q q q q q q q q q q q q q q q q q q q q q q q q q q q q q q q q q q q q q q q q q q q q q q q q q q q q q q q q q q q q q q q q q q q q q q q q q q q q q q q q q q q q q q q q q q q q q q q q q q q q q q q q q q q q q q q q q q q q q q q q q q q q q q q q q q q q q q q q q q q q q q q q q q q q q q q q q q q q q q q q q q q q q q q q q q q q q q q q q q q q q q q q q q q q q q q q q q q q q q q q ",
"q q q 2 5.i , q q 1 , , , 1 q q q q q q q q q q q q q q q q q q q q q q q q q q q q q q q q q q q q q q q q q q q q q q q q q q q q q q q q q q q q q q q q q q q q q q q q q q q q q q q q q q q q q q q q q q q q q q q q q q q q q q q q q q q q q q q q q q q q q q q q q q q q q q q q q q q q q q q q q q q q q q q q q q q q q q q q q q q q q q q q q q q q q q q q q q q q q q q q q q q q q q q q q q q q q q q q q q q q q q q q q q q q q q q q q q q q q q q q q q q q q q q q q q q q q q q q q q q q q q q q q q ",
"q q q q u q q q q q q q q q q q q q q q q q q q q q q q q q q q q q q q q q q q q q q q q q q q q q q q q q q q q q q q q q q q q q q q q q q q q q q q q q q q q q q q q q q q q q q q q q q q q q q q q q q q q q q q q q q q q q q q q q q q q q q q q q q q q q q q q q q q q q q q q q q q q q q q q q q q q q q q q q q q q q q q q q q q q q q q q q q q q q q q q q q q q q q q q q q q q q q q q q q q q q q q q q q q q q q q q q q q q q q q q q q q q q q q q q q q q q q q q q q q q q q q q q q q q q q q q q q q ",
"q q q q q q q q q q q q q q q q q q q q q q q q q q q q q q q q q q q q q q q q q q q q q q q q q q q q q q q q q q q q q q q q q q q q q q q q q q q q q q q q q q q q q q q q q q q q q q q q q q q q q q q q q q q q q q q q q q q q q q q q q q q q q q q q q q q q q q q q q q q q q q q q q q q q q q q q q q q q q q q q q q q q q q q q q q q q q q q q q q q q q q q q q q q q q q q q q q q q q q q q q q q q q q q q q q q q q q q q q q q q q q q q q q q q q q q q q q q q q q q q q q q q q q q q q q q q q q q q ",
"q q q q q q q q q q q q q q q q q q q q q q q q q q q q q q q q q q q q q q q q q q q q q q q q q q q q q q q q q q q q q q q q q q q q q q q q q q q q q q q q q q q q q q q q q q q q q q q q q q q q q q q q q q q q q q q q q q q q q q q q q q q q q q q q q q q q q q q q q q q q q q q q q q q q q q q q q q q q q q q q q q q q q q q q q q q q q q q q q q q q q q q q q q q q q q q q q q q q q q q q q q q q q q q q q q q q q q q q q q q q q q q q q q q q q q q q q q q q q q q q q q q q q q q q q q q q q q q q ",
"q q q q q q q q q q q q q q q q q q q q q q q q q q q q q q q q q q q q q q q q q q q q q q q q q q q q q q q q q q q q q q q q q q q q q q q q q q q q q q q q q q q q q q q q q q q q q q q q q q q q q q q q q q q q q q q q q q q q q q q q q q q q q q q q q q q q q q q q q q q q q q q q q q q q q q q q q q q q q q q q q q q q q q q q q q q q q q q q q q q q q q q q q q q q q q q q q q q q q q q q q q q q q q q q q q q q q q q q q q q q q q q q q q q q q q q q q q q q q q q q q q q q q q q q q q q q q q q q ",
"q q q q q q q q q q q q q q q q q q q q q q q q q q q q q q q q q q q q q q q q q q q q q q q q q q q q q q q q q q q q q q q q q q q q q q q q q q q q q q q q q q q q q q q q q q q q q q q q q q q q q q q q q q q q q q q q q q q q q q q q q q q q q q q q q q q q q q q q q q q q q q q q q q q q q q q q q q q q q q q q q q q q q q q q q q q q q q q q q q q q q q q q q q q q q q q q q q q q q q q q q q q q q q q q q q q q q q q q q q q q q q q q q q q q q q q q q q q q q q q q q q q q q q q q q q q q q q q q "
};
