/* XPM */
static char *impulse_responses_stereo[] = {
/* columns rows colors chars-per-pixel */
"256 256 256 2 ",
"   c #3E391A",
".  c #791306",
"X  c #423A02",
"o  c #6E252C",
"O  c #024602",
"+  c #025D02",
"@  c #005300",
"#  c #016201",
"$  c #006B00",
"%  c #007800",
"&  c #137B12",
"*  c #5B4E01",
"=  c #524500",
"-  c #534908",
";  c #665700",
":  c #705F00",
">  c #776505",
",  c #534E31",
"<  c #675E37",
"1  c #373844",
"2  c #0E3368",
"3  c #11505F",
"4  c #094B5A",
"5  c #165462",
"6  c #1E5966",
"7  c #195663",
"8  c #104774",
"9  c #225C69",
"0  c #255D69",
"q  c #2A4C6E",
"w  c #0B6B74",
"e  c #2F6A74",
"r  c #3A4455",
"t  c #47474A",
"y  c #555557",
"u  c #53524C",
"i  c #655D50",
"p  c #447A41",
"a  c #69654B",
"s  c #7B7142",
"d  c #6A6757",
"f  c #726E57",
"g  c #77735B",
"h  c #726B45",
"j  c #5A5B62",
"k  c #47757E",
"l  c #506779",
"z  c #696867",
"x  c #7A7765",
"c  c #767572",
"v  c #7A7A78",
"b  c #686A79",
"n  c #8D312E",
"m  c #892522",
"M  c #D7321A",
"N  c #977D00",
"B  c #837C02",
"V  c #8F5634",
"C  c #983C43",
"Z  c #837A5B",
"A  c #817E68",
"S  c #887677",
"D  c #AF7670",
"F  c #A15753",
"G  c #D95D49",
"H  c #008200",
"J  c #008B00",
"K  c #009400",
"L  c #009B00",
"P  c #159215",
"I  c #2CAF2B",
"U  c #698E15",
"Y  c #63A260",
"T  c #79C974",
"R  c #8D8608",
"E  c #A49830",
"W  c #86826B",
"Q  c #89856E",
"!  c #8C8669",
"~  c #8A8671",
"^  c #8E8A74",
"/  c #868579",
"(  c #928E79",
")  c #918D75",
"_  c #95917D",
"`  c #99947A",
"'  c #908B6E",
"]  c #AA9D65",
"[  c #DC8575",
"{  c #001AB3",
"}  c #1233B8",
"|  c #0E3C8D",
" . c #144E95",
".. c #2E7683",
"X. c #1658A4",
"o. c #2C54B4",
"O. c #2F69AD",
"+. c #245685",
"@. c #4D7981",
"#. c #527C84",
"$. c #506985",
"%. c #777986",
"&. c #697385",
"*. c #4773B3",
"=. c #5470DB",
"-. c #2F66D9",
";. c #158FA5",
":. c #2791A8",
">. c #2C93A9",
",. c #3597AB",
"<. c #3998AC",
"1. c #228EA6",
"2. c #30969F",
"3. c #53898E",
"4. c #6F8B93",
"5. c #5387B6",
"6. c #6990B3",
"7. c #5CA6B4",
"8. c #56A5B4",
"9. c #49A9B5",
"0. c #6EABB4",
"q. c #2986CB",
"w. c #1F81CB",
"e. c #7691C5",
"r. c #74B6C6",
"t. c #5897D5",
"y. c #7BC2C5",
"u. c #868581",
"i. c #888785",
"p. c #8B8A86",
"a. c #8E8D89",
"s. c #84858C",
"d. c #918E83",
"f. c #949284",
"g. c #999683",
"h. c #9D9985",
"j. c #94938E",
"k. c #9E9B89",
"l. c #98978C",
"z. c #989793",
"x. c #999995",
"c. c #9E9D99",
"v. c #939393",
"b. c #898B94",
"n. c #A19E8C",
"m. c #A19D85",
"M. c #AF968F",
"N. c #A4A18D",
"B. c #A8A48D",
"V. c #A6A292",
"C. c #A9A695",
"Z. c #A4A39E",
"A. c #ADAA9B",
"S. c #ABA898",
"D. c #B1AD9D",
"F. c #B5B399",
"G. c #859DA3",
"H. c #999CB2",
"J. c #9297AA",
"K. c #8BA4A5",
"L. c #94A8A9",
"P. c #9EA2B4",
"I. c #91B5B7",
"U. c #A7A6A0",
"Y. c #A8A7A1",
"T. c #AAA9A2",
"R. c #ADADA9",
"E. c #A2A8AB",
"W. c #B1AFA2",
"Q. c #B0AFAA",
"!. c #B4B2A4",
"~. c #B4B2AC",
"^. c #B9B6A9",
"/. c #BCBAAD",
"(. c #B9B6A6",
"). c #A6A8B8",
"_. c #A9B7B9",
"`. c #B8B7B3",
"'. c #BEBCB2",
"]. c #BFBDB8",
"[. c #B4B5B9",
"{. c #ACB1AC",
"}. c #90B28C",
"|. c #CF958F",
" X c #CFA698",
".X c #C1BEB2",
"XX c #C4BDB7",
"oX c #CDB4AD",
"OX c #D8A9A2",
"+X c #B1D0AD",
"@X c #A2C790",
"#X c #D6CEAC",
"$X c #C4C1B5",
"%X c #C5C3BB",
"&X c #C8C6BB",
"*X c #CCCABF",
"=X c #CAC8B8",
"-X c #D1C9B6",
";X c #CBC39C",
":X c #8795CC",
">X c #8DBAC3",
",X c #95BCC3",
"<X c #8FADCF",
"1X c #B9BBC4",
"2X c #A8B7D1",
"3X c #9FAEE5",
"4X c #96C6CA",
"5X c #B6CAC9",
"6X c #B0C9CF",
"7X c #B5CEE0",
"8X c #C3C5C3",
"9X c #C8C7C1",
"0X c #C5CAC5",
"qX c #CDCBC2",
"wX c #CDCCC9",
"eX c #C4CDCB",
"rX c #D1CEC5",
"tX c #D0CEC9",
"yX c #DAC5C2",
"uX c #C8D1CD",
"iX c #D2D0C7",
"pX c #D4D3CC",
"aX c #D8D6CF",
"sX c #DCD9CB",
"dX c #C8D5D5",
"fX c #D7D6D0",
"gX c #D9D7D0",
"hX c #DAD9D2",
"jX c #DEDDD9",
"kX c #D4DAD7",
"lX c #C6CCD5",
"zX c #E3DDD4",
"xX c #E1DED9",
"cX c #E7DCD5",
"vX c #E1DACE",
"bX c #DEE1DB",
"nX c #E4E3DD",
"mX c #E9E3DB",
"MX c #E8E4D7",
"NX c #F1ECDF",
"BX c #E4E0CE",
"VX c #EADAE1",
"CX c #E7E6E0",
"ZX c #E9E7E2",
"AX c #EBEAE5",
"SX c #EDEDE9",
"DX c #E5EBE6",
"FX c #F0EFEA",
"GX c #F2ECE4",
"HX c #F3F2EC",
"JX c #F9F6EC",
"KX c #FAFBF5",
"LX c #EBEFEC",
"PX c #D3DAE2",
"IX c #CCBFC0",
"UX c #A57F81",
/* pixels */
"hXhXhXhXhXhXhXhXhXhXhXhXhXhXhXhXhXhXhXhXhXhXhXhXhXhXhXhXhXhXhXhXhXhXhXhXhXhXhXhXhXhXhXhXhXhXhXhXhXhXhXhXhXhXhXhXhXhXhXhXhXhXhXhXhXhXhXhXhXhXhXhXhXhXhXhXhXhXhXhXhXhXhXhXhXhXhXhXhXhXhXhXhXhXhXhXhXhXhXhXhXhXhXhXhXhXhXhXhXhXhXhXhXhXhXhXhXhXhXhXhXhXhXhXhXhXhXhXhXhXhXhXhXhXhXhXhXhXhXhXhXhXhXhXhXhXhXhXhXhXhXhXhXhXhXhXhXhXhXhXhXhXhXhXhXhXhXhXhXhXhXhXhXhXhXhXhXhXhXgXgXhXgXgXhXgXgXhXgXgXgXhXgXhXgXgXhXgXhXhXgXgXgXhXgXgXgXhXhXgXgXgXhXgXgXgXgXgXgXgXgXgXgXhXgXgXgXgXhXgXgXhXgXhXgXgXgXgXgXgXgXgXgXgXhXhXgXgXgXgXgXgXgXgXgXgX",
"hXhXhXhXhXhXhXhXhXhXhXhXhXhXhXhXhXhXhXhXhXhXhXhXhXhXhXhXhXhXhXhXhXhXhXhXhXhXhXhXhXhXhXhXhXhXhXhXhXhXhXhXhXhXhXhXhXhXhXhXhXhXhXhXhXhXhXhXhXhXhXhXhXhXhXhXhXhXhXhXhXhXhXhXhXhXhXhXhXhXhXhXhXhXhXhXhXhXhXhXhXhXhXhXhXhXhXhXhXhXhXhXhXhXhXhXhXhXhXhXhXhXhXhXhXhXhXhXhXhXhXhXhXhXhXhXhXhXhXhXhXhXhXhXhXhXhXhXhXhXhXhXhXhXhXhXhXhXhXhXhXhXhXhXhXhXhXhXhXhXhXhXhXhXhXhXhXhXgXhXjXhXhXhXgXhXjXhXhXzXhXhXhXhXhXhXhXhXhXgXhXzXjXhXhXjXhXgXhXhXjXjXhXhXjXhXhXjXzXhXhXzXjXgXhXzXzXhXgXjXhXhXhXhXjXzXhXhXjXhXhXjXzXhXgXhXhXzXhXhXjXjXhXhXjXhX",
"gXgXhXhXhXhXhXhXhXhXhXhXhXhXhXhXhXhXhXhXhXhXhXhXhXhXhXhXhXhXhXhXhXhXhXhXhXhXhXhXhXhXhXhXhXhXhXhXhXhXhXhXhXhXhXhXhXhXhXhXhXhXhXhXhXhXhXhXhXhXhXhXhXhXhXhXhXhXhXhXhXhXhXhXhXhXhXhXhXhXhXhXhXhXhXhXhXhXhXhXhXhXhXhXhXhXhXhXhXhXhXhXhXhXhXhXhXhXhXhXhXhXhXhXhXhXhXhXhXhXhXhXhXhXhXhXhXhXhXhXhXhXhXhXhXhXhXhXhXhXhXhXhXhXhXhXhXhXhXhXhXhXhXhXhXhXhXhXhXhXhXhXhXhXhXhXhXgXhX8X).pX1X1XzXtX_.fX[.).1XgX[.hXwX1XpX1XhXhXwX).[.pX[.).1XhXhX1X).1XhX[.).[.aX[.).pX1X).1XhXpX_.).wXhX[.pXpX1XhX1X).wX8X).).pX1X).wXhXhX8X).1X1X).).1X1X).[.",
"hXhXgXhXhXhXhXhXhXhXhXhXhXhXhXhXhXhXhXhXhXhXhXhXhXhXhXhXhXhXhXhXhXhXhXhXhXhXhXhXhXhXhXhXhXhXhXhXhXhXhXhXhXhXhXhXhXhXhXhXhXhXhXhXhXhXhXhXhXhXhXhXhXhXhXhXhXhXhXhXhXhXhXhXhXhXhXhXhXhXhXhXhXhXhXhXhXhXhXhXhXhXhXhXhXhXhXhXhXhXhXhXhXhXhXhXhXhXhXhXhXhXhXhXhXhXhXhXhXhXhXhXhXhXhXhXhXhXhXhXhXhXhXhXhXhXhXhXhXhXhXhXhXhXhXhXhXhXhXhXhXhXhXhXhXhXhXhXhXhXhXhXhXhXhXhXhXgXhX0XJ.hX).J.zX[.b.pXH.0XH.0XH.hX8X).pXH.hXjXH.[.wXwXH.8XwXhXhXH.8XH.8XP.1XpX[.P.wXpXH.8XH.0X).[.1XH.pXJ.).pX).5XH.0XpX).[.pX1XH.wXwXhXpXJ.8X0XpXP.).aXH.1XpX",
"4XhXgXhXhXhXhXhXhXhXhXhXhXhXhXhXhXhXhXhXhXhXhXhXhXhXhXhXhXhXhXhXhXhXhXhXhXhXhXhXhXhXhXhXhXhXhXhXhXhXhXhXhXhXhXhXhXhXhXhXhXhXhXhXhXhXhXhXhXhXhXhXhXhXhXhXhXhXhXhXhXhXhXhXhXhXhXhXhXhXhXhXhXhXhXhXhXhXhXhXhXhXhXhXhXhXhXhXhXhXhXhXhXhXhXhXhXhXhXhXhXhXhXhXhXhXhXhXhXhXhXhXhXhXhXhXhXhXhXhXhXhXhXhXhXhXhXhXhXhXhXhXhXhXhXhXhXhXhXhXhXhXhXhXhXhXhXhXhXhXhXhXhXhXhXhXhXgXhXwXP.jX[.H.0X).H.pXH.[.H.wXH.hX8X).pXP.hXhX1XH.8XpXJ.).8XhXhXP.[.P.wXP.H.1XwXH.1XhXP.[.P.8XH.hXMX).1X).).1X).pXH._.hX).H.[.pXP.).fXhXhX).).wXMX[.1XMXH.H.1X",
">X6XzXgXhXhXhXhXhXhXhXhXhXhXhXhXhXhXhXhXhXhXhXhXhXhXhXhXhXhXhXhXhXhXhXhXhXhXhXhXhXhXhXhXhXhXhXhXhXhXhXhXhXhXhXhXhXhXhXhXhXhXhXhXhXhXhXhXhXhXhXhXhXhXhXhXhXhXhXhXhXhXhXhXhXhXhXhXhXhXhXhXhXhXhXhXhXhXhXhXhXhXhXhXhXhXhXhXhXhXhXhXhXhXhXhXhXhXhXhXhXhXhXhXhXhXhXhXhXhXhXhXhXhXhXhXhXhXhXhXhXhXhXhXhXhXhXhXhXhXhXhXhXhXhXhXhXhXhXhXhXhXhXhXhXhXhXhXhXhXhXhXhXhXhXhXhXgXhXwXP.zX).[.H.[.).wXH.[.pXgXJ.hX1X).pXH.zXhXhXtXJ.8XP.fXgXgXhXP.P.H.jXH.wXhXhXhXH.1X).).wXhXJ.wXhXH.8X).wXJ.P.hXjX).[.).1XhXgXzX).).zXfXzX1XJ.MX).[.BXH.wXzX",
"8.4XfXhXgXhXhXhXhXhXhXhXhXhXhXhXhXhXhXhXhXhXhXhXhXhXhXhXhXhXhXhXhXhXhXhXhXhXhXhXhXhXhXhXhXhXhXhXhXhXhXhXhXhXhXhXhXhXhXhXhXhXhXhXhXhXhXhXhXhXhXhXhXhXhXhXhXhXhXhXhXhXhXhXhXhXhXhXhXhXhXhXhXhXhXhXhXhXhXhXhXhXhXhXhXhXhXhXhXhXhXhXhXhXhXhXhXhXhXhXhXhXhXhXhXhXhXhXhXhXhXhXhXhXhXhXhXhXhXhXhXhXhXhXhXhXhXhXhXhXhXhXhXhXhXhXhXhXhXhXhXhXhXhXhXhXhXhXhXhXhXhXhXhXhXhXhXgXhX1XJ.pX).8XH.8X).wX).gXhXhX[.H.H.0XpXJ.H.1X[.).).wXH.).1XhXhXP.aX).1X).H.[.1X).P.wX).pXjXhX1XH.P.[.aXP.zX).H.0X).P.0X).H.[.8X).P.1XzXpX).).[.MX_.1XMXH.H.1X",
"9.4X6XzXgXhXhXhXhXhXhXhXhXhXhXhXhXhXhXhXhXhXhXhXhXhXhXhXhXhXhXhXhXhXhXhXhXhXhXhXhXhXhXhXhXhXhXhXhXhXhXhXhXhXhXhXhXhXhXhXhXhXhXhXhXhXhXhXhXhXhXhXhXhXhXhXhXhXhXhXhXhXhXhXhXgXgXgXgXgXgXgXgXgXgXgXgXgXgXgXgXgXgXgXgXgXgXgXgXgXgXgXgXgXgXgXgXgXgXgXgXgXgXgXgXgXgXgXgXgXgXgXgXgXgXgXgXgXgXgXgXgXgXgXgXgXgXgXgXgXgXgXgXgXgXgXgXgXgXgXgXgXgXgXgXgXgXgXgXgXgXgXgXgXgXgXgXgXhXpXwXaXaXfXaXgXpXgXpXfXgXgXhXtXpXhXgXpXwXpXpXwXgXhXpXwXpXhXgXpXgXgXpXpXwXtXfXwXpXhXpXfXgXgXhXpXtXhXgXpXgXhXpXgXwXpXhXpXwXwXfXwXpXhXgXgXpXwXhXhXpXaXhXpXwXtX",
"9.>X4XzXgXhXhXhXhXhXhXhXhXhXhXhXhXhXhXhXhXhXhXhXhXhXhXhXhXhXhXhXhXhXhXhXhXhXhXhXhXhXhXhXhXhXhXhXhXhXhXhXhXhXhXhXhXhXhXhXhXhXhXhXhXhXhXhXhXhXhXhXhXhXhXhXhXhXhXhXhXhXhXhXgXhXhXhXhXhXhXhXhXhXhXhXhXhXhXhXhXhXhXhXhXhXhXhXhXhXhXhXhXhXhXhXhXhXhXhXhXhXhXhXhXhXhXhXhXhXhXhXhXhXhXhXhXhXhXhXhXhXhXhXhXhXhXhXhXhXhXhXhXhXhXhXhXhXhXhXhXhXhXhXhXhXhXhXhXhXhXhXhXhXhXhXhXhXhXjXjXhXhXhXhXhXjXhXjXhXhXhXhXjXjXhXhXjXjXjXjXjXhXhXjXzXjXhXhXhXhXhXhXhXjXhXhXjXhXhXhXhXhXhXhXhXjXhXhXhXhXhXhXhXjXhXhXhXjXjXhXjXhXhXhXhXhXjXhXhXhXhXhXjXjXjX",
"9.7.4XhXgXhXhXhXhXhXhXhXhXhXhXhXhXhXhXhXhXhXhXhXhXhXhXhXhXhXhXhXhXhXhXhXhXhXhXhXhXhXhXhXhXhXhXhXhXhXhXhXhXhXhXhXhXhXhXhXhXhXhXhXhXhXhXhXhXhXhXhXhXhXhXhXhXhXhXhXhXhXhXgXhXnXnXnXnXnXnXnXnXnXnXnXnXnXnXnXnXnXnXnXnXnXnXnXnXnXnXnXnXnXnXnXnXnXnXnXnXnXnXnXnXnXnXnXnXnXnXnXnXnXnXnXnXnXnXnXnXnXnXnXnXnXnXnXnXnXnXnXnXnXnXnXnXnXnXnXnXnXnXnXnXnXnXnXnXnXnXnXnXnXnXnXnXnXnXnXnXnXnXnXnXnXnXnXnXnXnXnXnXnXnXnXnXnXnXnXnXnXnXnXnXnXnXnXxXxXxXjXjXxXxXxXxXxXxXxXxXxXxXxXxXxXxXxXxXxXjXjXjXxXxXxXxXxXxXxXxXxXxXxXxXxXxXnXnXnXnXnXnXnXnXnX",
"9.r.4XzXgXhXhXhXhXhXhXhXhXhXhXhXhXhXhXhXhXhXhXhXhXhXhXhXhXhXhXhXhXhXhXhXhXhXhXhXhXhXhXhXhXhXhXhXhXhXhXhXhXhXhXhXhXhXhXhXhXhXhXhXhXhXhXhXhXhXhXhXhXhXhXhXhXhXhXhXhXhXgXhXnXnXnXnXnXnXnXnXnXnXnXnXnXnXnXnXnXnXnXnXnXnXnXnXnXnXnXnXnXnXnXnXnXnXnXnXnXnXnXnXnXnXnXnXnXnXnXCXnXnXnXnXnXnXnXnXnXnXnXnXnXnXnXnXnXnXnXnXnXnXnXnXnXnXnXnXnXnXnXnXnXnXnXnXnXnXnXnXnXnXnXnXnXnXnXnXnXnXnXnXnXnXnXnXnXnXnXnXnXnXnXnXnXnXnXnXnXnXnXnXnXnXnXxXxXxXjXnXnXjXxXxXxXxXxXxXxXxXxXxXxXxXxXxXxXxXmXmXmXjXxXxXxXxXxXxXxXxXxXxXxXxXnXnXnXnXnXnXnXnXnXnX",
"9.6X6XzXgXhXhXhXhXhXhXhXhXhXhXhXhXhXhXhXhXhXhXhXhXhXhXhXhXhXhXhXhXhXhXhXhXhXhXhXhXhXhXhXhXhXhXhXhXhXhXhXhXhXhXhXhXhXhXhXhXhXhXhXhXhXhXhXhXhXhXhXhXhXhXhXhXhXhXhXhXgXhXnXnXnXnXnXnXnXmXnXnXnXnXnXnXnXnXnXnXnXnXnXnXnXnXnXnXnXnXnXnXnXnXnXnXnXnXnXnXnXnXnXnXZXCXCXnXnXnXgXnXnXnXnXnXnXZXCXnXnXnXnXnXnXnXnXnXnXnXnXnXnXnXnXZXCXnXnXnXnXnXnXnXnXnXnXnXnXnXnXnXnXnXnXnXnXnXnXnXnXnXnXnXnXnXnXnXnXnXmXnXnXnXnXnXnXnXnXnXnXnXnXnXnXxXxXxXjXnX=X+XnXjXxXxXxXxXjXjXjXjXjXxXxXxXxXnXjX4X>XdXnXjXxXxXxXxXxXxXxXxXxXxXnXnXnXnXmXmXmXmXnXnXZX",
"9.4XuXhXgXhXhXhXhXhXhXhXhXhXhXhXhXhXhXhXhXhXhXhXhXhXhXhXhXhXhXhXhXhXhXhXhXhXhXhXhXhXhXhXhXhXhXhXhXhXhXhXhXhXhXhXhXhXhXhXhXhXhXhXhXhXhXhXhXhXhXhXhXhXhXhXhXhXhXhXgXhXnXnXnXnXnXnXnXmXdXbXnXnXnXnXnXnXnXnXnXnXnXnXnXnXnXnXnXnXnXnXnXnXnXnXnXnXnXnXnXnXnXnXCX(.h.$XAXjXSXm.pXCXnXZXnXnX.XrXCXnXCXnXZXCXnXnXnXnXAXxXnXZXjXAX$XqXCXnXnXnXnXnXnXnXnXnXnXnXnXnXnXnXnXnXnXnXnXnXnXnXnXnXnXnXnXnXnXnXnXdXmXnXnXnXnXnXnXnXnXnXnXnXnXxXxXxXxXjXAXY I ZXjXxXxXxXxXmXmXmXmXmXnXxXxXjXmX5X<.4X<.kXnXjXxXxXxXxXxXxXxXxXnXnXnXmXdX4X4X4X4XkXSXV.",
">X4XzXgXhXhXhXhXhXhXhXhXhXhXhXhXhXhXhXhXhXhXhXhXhXhXhXhXhXhXhXhXhXhXhXhXhXhXhXhXhXhXhXhXhXhXhXhXhXhXhXhXhXhXhXhXhXhXhXhXhXhXhXhXhXhXhXhXhXhXhXhXhXhXhXhXhXhXhXgXhXnXnXnXnXnXnXnXmX6X4XnXnXnXnXnXnXnXnXnXnXnXnXnXnXnXnXnXnXnXnXnXnXnXnXnXnXnXnXnXnXnXnXnXjXQ iXZX.Xh./.V.$XC.C.iXh.D.W h.ZXpXg.g.%X!.k.$XN.A./.h.$X%Xh.^.~ g.nXnXnXnXnXnXnXnXnXnXnXnXnXnXnXnXnXnXnXnXnXnXnXnXnXnXnXnXnXnXnXnXmX4X4XmXnXnXnXnXnXnXnXnXnXnXxXxXxXxXjXnXqXY Y +XCXjXxXxXjX5X6X5X4X0.jXxXxXjXmXuX<.0.9.jXxXxXxXxXxXxXxXxXxXnXnXnXnXmXdXr.r.r.r.kXFX_ ",
"4XfXhXgXhXhXhXhXhXhXhXhXhXhXhXhXhXhXhXhXhXhXhXhXhXhXhXhXhXhXhXhXhXhXhXhXhXhXhXhXhXhXhXhXhXhXhXhXhXhXhXhXhXhXhXhXhXhXhXhXhXhXhXhXhXhXhXhXhXhXhXhXhXhXhXhXhXhXgXhXnXnXnXnXnXnXnXmXdXr.GXnXnXnXnXnXnXnXnXnXnXnXnXnXnXnXnXnXnXnXnXnXnXnXnXnXnXnXnXnXnXnXnXnXZX$X` &X^ m._ C.` ` ` ^ /.HXV.rXSX*Xh.jXh.h.*XS._ _ m.n.hX^ k._ N.rXAXnXnXnXnXnXnXnXnXnXnXnXnXnXnXnXnXnXnXnXnXnXnXnXnXnXnXnXnXnXnXnXnXGXr.dXmXnXnXnXnXnXnXnXnXxXxXxXxXxXjXAX}.I I T GXjXjXnXkX7.9.8.9.;.dXmXjXjXmX5X9.dX9.5XmXjXxXxXxXxXxXxXnXnXnXnXnXmXdXr.r.r.>XkXZXA.",
"fXhXgXhXhXhXhXhXhXhXhXhXhXhXhXhXhXhXhXhXhXhXhXhXhXhXhXhXhXhXhXhXhXhXhXhXhXhXhXhXhXhXhXhXhXhXhXhXhXhXhXhXhXhXhXhXhXhXhXhXhXhXhXhXhXhXhXhXhXhXhXhXhXhXhXhXhXgXhXnXnXnXnXnXnXnXnXnXmX6X4XnXnXnXnXnXnXnXnXnXnXnXnXnXnXnXnXnXnXnXnXnXnXnXnXnXnXnXnXnXnXnXnXnXnXnX$X) _ /.gXN.g.N.hXS.A.SXk.$XSXqXg.rXm.N.pXS.N.iXjX/._ _ ^.hXn.$XAXnXnXnXnXnXnXnXnXnXnXnXnXnXnXnXnXnXnXnXnXnXnXnXnXnXnXnXnXnXnXnXmX4X4XmXnXnXnXnXnXnXnXnXxXxXxXxXxXxXxXnXI +X+XI hXnXjXxXxXnXnXmXkX5XmXjXxXjXmX5X,.I.9.dXnXjXxXxXxXxXxXnXnXnXnXnXnXmXdXr.r.r.r.kXAXV.",
"hXgXhXhXhXhXhXhXhXhXhXhXhXhXhXhXhXhXhXhXhXhXhXhXhXhXhXhXhXhXhXhXhXhXhXhXhXhXhXhXhXhXhXhXhXhXhXhXhXhXhXhXhXhXhXhXhXhXhXhXhXhXhXhXhXhXhXhXhXhXhXhXhXhXhXhXgXhXnXnXnXnXnXnXnXnXnXnXnXmXdXbXnXnXnXnXnXnXnXnXnXnXnXnXnXnXnXnXnXnXnXnXnXnXnXnXnXnXnXnXnXnXnXnXnXS.m.rX*Xh.$X^.rXC.S.aXN.W.$XN.CXiX^ k.qX/.pXjXN.D.$Xn..XqXh..X&XN.nXnXnXnXnXnXnXnXnXnXnXnXnXnXnXnXnXnXnXnXnXnXnXnXnXnXnXnXnXnXnXnXnXdXmXnXnXnXnXnXnXnXnXxXxXxXxXxXxXxXxXhX+XnXCX+XhXnXxXxXxXxXxXjXnXmXjXxXxXxXxXjX6X4XdXmXjXxXxXxXxXxXnXnXnXnXnXnXnXmXdX4X4X4X4XkXZX^.",
"gXhXhXhXhXhXhXhXhXhXhXhXhXhXhXhXhXhXhXhXhXhXhXhXhXhXhXhXhXhXhXhXhXhXhXhXhXhXhXhXhXhXhXhXhXhXhXhXhXhXhXhXhXhXhXhXhXhXhXhXhXhXhXhXhXhXhXhXhXhXhXhXhXhXhXgXhXnXnXnXnXnXnXnXnXnXnXnXnXnXmXnXnXnXnXnXnXnXnXnXnXnXnXnXnXnXnXnXnXnXnXnXnXnXnXnXnXnXnXnXnXnXnXnXnXCXZXCXZXZXnXZXCXZXnXCXAXnXZXCXAX*Xn.HXnXZXnXnXZXnXCXCXZXZXZXnXZXZXnXnXnXnXnXnXnXnXnXnXnXnXnXnXnXnXnXnXnXnXnXnXnXnXnXnXnXnXnXnXnXnXnXmXnXnXnXnXnXnXnXnXxXxXxXxXxXxXxXxXxXxXCXjXjXCXnXxXxXxXxXxXxXxXjXjXxXxXxXxXxXxXmXmXnXjXxXxXxXxXxXnXnXnXnXnXnXnXnXnXnXmXmXmXmXnXnXZX",
"gXgXgXgXgXgXgXgXgXgXgXgXgXgXgXgXgXgXgXgXgXgXgXgXgXgXgXgXgXgXgXgXgXgXgXgXgXgXgXgXgXgXgXgXgXgXgXgXgXgXgXgXgXgXgXgXgXgXgXgXgXgXgXgXgXgXgXgXgXgXgXgXgXgXgXhXnXnXnXnXnXnXnXnXnXnXnXnXnXnXnXnXnXnXnXnXnXnXnXnXnXnXnXnXnXnXnXnXnXnXnXnXnXnXnXnXnXnXnXnXnXnXnXnXnXnXnXnXnXnXnXnXnXnXnXnXnXnXnXnXCXhX&XnXnXnXnXnXnXnXnXnXnXnXnXnXnXnXnXnXnXnXnXnXnXnXnXnXnXnXnXnXnXnXnXnXnXnXnXnXnXnXnXnXnXnXnXnXnXnXnXnXnXnXnXnXnXnXxXjXxXxXxXxXxXxXxXxXxXxXjXxXxXjXjXxXxXxXxXxXxXxXxXxXxXxXxXxXxXjXjXjXjXxXxXxXxXxXnXnXnXnXnXnXnXnXnXnXnXnXnXnXnXnXnXnX",
"nXnXnXnXnXnXnXnXnXnXnXnXnXnXnXnXnXnXnXnXnXnXnXnXnXnXnXnXnXnXnXnXnXnXnXnXnXnXnXnXnXnXnXnXnXnXnXnXnXnXnXnXnXnXnXnXnXnXnXnXnXnXnXnXnXnXnXnXnXnXnXnXnXnXxXnXnXnXnXnXnXnXnXnXnXnXnXnXnXnXnXnXnXnXnXnXnXnXnXnXnXnXnXnXnXnXnXnXnXnXnXnXnXnXnXnXnXnXnXnXnXnXnXnXnXnXnXnXnXnXnXnXnXnXnXnXnXnXnXnXnXnXZXnXnXnXnXnXnXnXnXnXnXnXnXnXnXnXnXnXnXnXnXnXnXnXnXnXnXnXnXnXnXnXnXnXnXnXnXnXnXnXnXnXnXnXnXnXnXnXnXnXnXnXnXnXnXnXnXnXnXnXnXnXnXnXnXnXnXnXnXnXnXnXnXnXnXnXnXnXnXnXnXnXnXnXnXnXnXnXnXnXnXnXnXnXnXnXnXnXnXnXnXnXnXnXnXnXnXnXnXnXnXnXnXnX",
"nXnXnXnXnXnXnXnXnXnXnXnXnXnXnXnXnXnXnXnXnXnXnXnXnXnXnXnXnXnXnXnXnXnXnXnXnXnXnXnXnXnXnXnXnXnXnXnXnXnXnXnXnXnXnXnXnXnXnXnXnXnXnXnXnXnXnXnXnXnXnXnXnXnXnXnXnXnXnXnXnXnXnXnXnXnXnXnXnXnXnXnXnXnXnXnXnXnXnXnXnXnXnXnXnXnXnXnXnXnXnXnXnXnXnXnXnXnXnXnXnXnXnXnXnXnXnXnXnXnXnXnXnXnXnXnXnXnXnXnXnXnXnXnXnXnXnXnXnXnXnXnXnXnXnXnXnXnXnXnXnXnXnXnXnXnXnXnXnXnXnXnXnXnXnXnXnXnXnXnXnXnXnXnXnXnXnXnXnXnXnXnXnXnXnXnXnXnXnXnXnXnXnXnXnXnXnXnXnXnXnXnXnXnXnXnXnXnXnXnXnXnXnXnXnXnXnXnXnXnXnXnXnXnXnXnXnXnXnXnXnXnXnXnXnXnXnXnXnXnXnXnXnXnXnXnX",
"hXhXhXhXhXhXhXhXhXhXhXhXhXhXhXhXhXhXhXhXhXhXhXhXhXhXhXhXhXhXhXhXhXhXhXhXhXjXjXjXjXjXjXjXjXjXjXjXjXjXjXjXjXjXjXjXjXjXjXjXjXjXjXjXjXjXjXjXjXhXhXxXxXxXxXxXxXxXxXxXxXxXxXxXxXxXxXxXxXxXxXhXhXhXhXhXhXhXhXhXhXhXhXhXhXhXhXhXhXhXhXhXhXhXhXhXhXhXhXhXhXhXhXhXhXhXhXhXhXhXhXhXhXhXhXhXhXhXhXhXhXhXhXhXhXhXhXhXhXhXhXhXhXhXhXhXhXhXhXhXhXhXhXhXhXhXhXhXhXhXhXhXhXhXhXhXhXhXhXhXhXhXhXhXhXhXhXhXhXhXhXhXhXhXhXhXhXhXhXhXhXhXhXhXhXhXhXhXhXhXhXhXhXhXhXhXhXhXhXhXhXhXhXhXhXhXhXhXhXhXhXhXhXhXhXhXhXhXhXhXhXhXhXhXhXhXhXhXhXhXhXhXhXhXhXhX",
"hXhXhXhXgXgXgXgXgXhXhXhXhXhXhXhXhXhXhXhXhXhXhXhXhXhXhXhXhXhXhXhXgXgXgXgXhX-X#X#X#X#X#X#X#X#X#X#X#X#X#X#X#X#X#X#X#X#X#X#X#X#X#X#X#X#X#X#X#XhXiX+X+X+X+X+X+X+X+X+X+X+X+X+X+X+X+X+X+X+X+XgXhXgXgXgXgXgXgXgXgXgXgXgXgXgXgXgXgXgXgXgXgXgXgXgXgXgXgXgXgXgXgXgXgXgXgXgXgXgXgXgXgXgXgXgXgXgXgXgXgXgXgXgXgXgXgXgXgXgXgXgXgXgXgXgXgXgXgXgXgXgXgXgXgXgXgXgXgXgXgXgXgXgXgXgXgXgXgXgXgXgXgXgXgXgXgXgXgXgXgXgXgXgXgXgXgXgXgXgXgXgXgXgXgXgXgXgXgXgXgXgXgXgXgXgXgXgXgXgXgXgXgXgXgXgXgXgXgXgXgXgXgXgXgXgXgXgXgXgXgXgXgXgXgXgXgXgXgXgXgXgXgXgXgXgX",
"nXnXnXjXgXhXhXhXgXjXnXnXnXnXnXnXnXnXnXnXnXnXnXnXnXnXnXnXnXnXnXhXgXhXgXaXjXE N N N N N N N N N N N N N N N N N N N N N N N N N N N N N N R cX@XL K K K K K K K K K K K K K K K K K K P aXhXgXgXgXgXgXgXgXgXgXgXgXgXgXgXgXgXgXgXgXgXgXgXgXgXgXgXgXgXgXgXgXgXgXgXgXgXgXgXgXgXgXgXgXgXgXgXgXgXgXgXgXgXgXgXgXgXgXgXgXgXgXgXgXgXgXgXgXgXgXgXgXgXgXgXgXgXgXgXgXgXgXgXgXgXgXgXgXgXgXgXgXgXgXgXgXgXgXgXgXgXgXgXgXgXgXgXgXgXgXgXgXgXgXgXgXgXgXgXgXgXgXgXgXgXgXgXgXgXgXgXgXgXgXgXgXgXgXgXgXgXgXgXgXgXgXgXgXgXgXgXgXgXgXgXgXgXgXgXgXgXgXgXgX",
"CXnXnXjXgXhXhXhXgXjXnXAXAXnXZXZXnXnXnXnXZXZXnXxXnXnXnXAXnXjXjXpXiXpXpXiXkXE ; * * * * * * * * * * * * * * * * * * * * * * * * * * * * * R vX@XH + + + + + + + + + + + + + + + + + + P iXpXiXpXpXpXpXpXpXpXpXpXpXpXpXpXpXpXpXpXpXpXpXpXpXpXpXpXpXpXpXpXpXpXpXpXpXpXpXpXpXpXpXpXpXpXpXpXpXpXpXpXpXpXpXpXpXpXpXpXpXpXpXpXpXpXpXpXpXpXpXpXpXpXpXpXpXpXpXpXpXpXpXpXpXpXpXpXpXpXpXpXpXpXpXpXpXpXpXpXpXpXpXpXpXpXpXpXpXpXpXpXpXpXpXpXpXpXpXpXpXpXpXpXpXpXpXpXpXpXpXpXpXpXpXpXpXpXpXpXpXpXpXpXpXpXpXpXpXpXpXpXpXpXpXpXpXpXpXpXpXpXpXpXpX",
"$XSXnXjXgXhXhXhXgXjXnX&X&XpX&X&XSXAXnXnXqXrXZXxXnXnXCXB.iXhXpX9X9X9X9X&XwXE ; * ; ; ; * * ; ; * ; * * * * * * * * * ; ; ; ; ; ; ; ; * * R tX}.H + # $ # # + # # + # $ # # + # $ + + P &X9X9X9X9X9X9X9X9X9X9X9X9X9X9X9X9X9X9X9X9X9X9X9X9X9X9X9X9X9X9X9X9X9X9X9X9X9X9X9X9X9X9X9X9X9X9X9X9X9X9X9X9X9X9X9X9X9X9X9X9X9X9X9X9X9X9X9X9X9X9X9X9X9X9X9X9X9X9X9X9X9X9X9X9X9X9X9X9X9X9X9X9X9X9X9X9X9X9X9X9X9X9X9X9X9X9X9X9X9X9X9X9X9X9X9X9X9X9X9X9X9X9X9X9X9X9X9X9X9X9X9X9X9X9X9X9X9X9X9X9X9X9X9X9X9X9X9X9X9X9X9X9X9X9X9X9X9X9X9X9X9X9X9X9X",
"h hXCXjXgXhXhXhXaXnX*XQ $XpXW.A.jX$XZXxXA.( qXnXxXAXD.- ' fXqX%X].].].].8XE ; = > : : ; * > ; : : : : * : * > * : = > ; : > : ; : : * * R IX}.% @ $ % $ % # # $ $ $ % $ $ @ $ $ + + P ].XX].].].].].].].].].].].].].].].].].].].].].].].].].].].].].].].].].].].].].].].].].].].].].].].].].].].].].].].].].].].].].].].].].].].].].].].].].].].].].].].].].].].].].].].].].].].].].].].].].].].].].].].].].].].].].].].].].].].].].].].].].].].].].].].].].].].].].].].].].].].].].].].].].].].].].].].].].].].].].].].].].].].",
"=XaXCXjXgXhXhXhXaXnX*XW iXV.C.A.h.W /.ZXHXk.&XCXxXCX&X$X^.9X9X`.~.~.~.~.[.E * = ; ; : ; = : ; : = ; : = ; ; > ; ; = ; = ; * : * : ; = = B XXT % @ # $ + % $ # $ $ # $ $ $ @ $ $ @ @ P ~.~.~.~.~.~.~.~.~.~.~.~.~.~.~.~.~.~.~.~.~.~.~.~.~.~.~.~.~.~.~.~.~.~.~.~.~.~.~.~.~.~.~.~.~.~.~.~.~.~.~.~.~.~.~.~.~.~.~.~.~.~.~.~.~.~.~.~.~.~.~.~.~.~.~.~.~.~.~.~.~.~.~.~.~.~.~.~.~.~.~.~.~.~.~.~.~.~.~.~.~.~.~.~.~.~.~.~.~.~.~.~.~.~.~.~.~.~.~.~.~.~.~.~.~.~.~.~.~.~.~.~.~.~.~.~.~.~.~.~.~.~.~.~.~.~.~.~.~.~.~.~.~.~.~.~.~.~.~.~.~.~.~.~.~.",
"Z pXCXjXgXhXhXhXaXnX&XQ gXn.C.k.W V.$XHX!.A.SXjXnXAXD.< ^ qX%X~.R.T.T.T.R.E = = ; ; : * = ; = ; * ; ; * ; ; : ; ; = ; ; ; * ; = : ; = = B ~.Y $ O # + + + $ $ $ $ $ # # $ @ # + @ @ P T.T.T.T.T.T.T.T.T.T.T.T.T.T.T.T.T.T.T.T.T.T.T.T.T.T.T.T.T.T.T.T.T.T.T.T.T.T.T.T.T.T.T.T.T.T.T.T.T.T.T.T.T.T.T.T.T.T.T.T.T.T.T.T.T.T.T.T.T.T.T.T.T.T.T.T.T.T.T.T.T.T.T.T.T.T.T.T.T.T.T.T.T.T.T.T.T.T.T.T.T.T.T.T.T.T.T.T.T.T.T.T.T.T.T.T.T.T.T.T.T.T.T.T.T.T.T.T.T.T.T.T.T.T.T.T.T.T.T.T.T.T.T.T.T.T.T.T.T.T.T.T.T.T.T.T.T.T.T.T.T.T.T.T.T.",
"m.AXnXjXgXhXhXhXaXnX*XD.KXA.A./.A.N.jXhXg h.iXnXxXCXaXh !.wX].Q.U.Z.Z.Z.U.V = X * = = = = * * = ; * = * = = X = * * * * * = * = = = = X > Y.Y $ O @ + @ @ @ + O @ + + @ + + @ + @ O & Z.Z.Z.Z.Z.Z.Z.Z.Z.Z.Z.Z.Z.Z.Z.Z.Z.Z.Z.Z.Z.Z.Z.Z.Z.Z.Z.Z.Z.Z.Z.Z.Z.Z.Z.Z.Z.Z.Z.Z.Z.Z.Z.Z.Z.Z.Z.Z.Z.Z.Z.Z.Z.Z.Z.Z.Z.Z.Z.Z.Z.Z.Z.Z.Z.Z.Z.Z.Z.Z.Z.Z.Z.Z.Z.Z.Z.Z.Z.Z.Z.Z.Z.Z.Z.Z.Z.Z.Z.Z.Z.Z.Z.Z.Z.Z.Z.Z.Z.Z.Z.Z.Z.Z.Z.Z.Z.Z.Z.Z.Z.Z.Z.Z.Z.Z.Z.Z.Z.Z.Z.Z.Z.Z.Z.Z.Z.Z.Z.Z.Z.Z.Z.Z.Z.Z.Z.Z.Z.Z.Z.Z.Z.Z.Z.Z.Z.Z.Z.Z.Z.Z.Z.Z.Z.Z.Z.Z.Z.Z.Z.Z.Z.Z.Z.",
"nXnXnXjXgXhXhXhXgXjXnXnXnXnXnXnXnXaXnXnXnXgXnXnXnXnXCXhXpX9X].R.Z.c.z.z.c.V X X X X X X X X X X X X X X X X X X X X X X X X X X X X X X > c.Y # O O O O O O O O O O O O O O O O O O & z.z.z.z.z.z.z.z.z.z.z.z.z.z.z.z.z.z.z.z.z.z.z.z.z.z.z.z.z.z.z.z.z.z.z.z.z.z.z.z.z.z.z.z.z.z.z.z.z.z.z.z.z.z.z.z.z.z.z.z.z.z.z.z.z.z.z.z.z.z.z.z.z.z.z.z.z.z.z.z.z.z.z.z.z.z.z.z.z.z.z.z.z.z.z.z.z.z.z.z.z.z.z.z.z.z.z.z.z.z.z.z.z.z.z.z.z.z.z.z.z.z.z.z.z.z.z.z.z.z.z.z.z.z.z.z.z.z.z.z.z.z.z.z.z.z.z.z.z.z.z.z.z.z.z.z.z.z.z.z.z.z.z.z.z.",
"nXnXnXjXgXhXhXhXgXjXnXnXnXnXnXnXnXCXnXnXnXCXCXnXnXnXnXjXpX9X].R.Z.z.j.a.v.> = = = = = = = = = = = = = = = = = = = = = = = = = = = = = = : j.Y + @ @ @ @ @ @ @ @ @ @ @ @ @ @ @ @ @ @ $ a.a.a.a.a.a.a.a.a.a.a.a.a.a.a.a.a.a.a.a.a.a.a.a.a.a.a.a.a.a.a.a.a.a.a.a.a.a.a.a.a.a.a.a.a.a.a.a.a.a.a.a.a.a.a.a.a.a.a.a.a.a.a.a.a.a.a.a.a.a.a.a.a.a.a.a.a.a.a.a.a.a.a.a.a.a.a.a.a.a.a.a.a.a.a.a.a.a.a.a.a.a.a.a.a.a.a.a.a.a.a.a.a.a.a.a.a.a.a.a.a.a.a.a.a.a.a.a.a.a.a.a.a.a.a.a.a.a.a.a.a.a.a.a.a.a.a.a.a.a.a.a.a.a.a.a.a.a.a.a.a.a.a.a.a.",
"jXjXjXhXgXhXhXhXgXhXjXjXjXjXjXjXjXjXjXjXjXjXjXjXjXjXjXfXwX%X`.R.Z.z.a.u.u.g s s s s s s s s s s s s s s s s s s s s s s s s s s s s s s s i.Y p p p p p p p p p p p p p p p p p p p p / u.u.u.u.u.u.u.u.u.u.u.u.u.u.u.u.u.u.u.u.u.u.u.u.u.u.u.u.u.u.u.u.u.u.u.u.u.u.u.u.u.u.u.u.u.u.u.u.u.u.u.u.u.u.u.u.u.u.u.u.u.u.u.u.u.u.u.u.u.u.u.u.u.u.u.u.u.u.u.u.u.u.u.u.u.u.u.u.u.u.u.u.u.u.u.u.u.u.u.u.u.u.u.u.u.u.u.u.u.u.u.u.u.u.u.u.u.u.u.u.u.u.u.u.u.u.u.u.u.u.u.u.u.u.u.u.u.u.u.u.u.u.u.u.u.u.u.u.u.u.u.u.u.u.u.u.u.u.u.u.u.u.u.u.",
"aXaXaXgXgXgXgXgXgXgXaXaXaXaXaXaXaXaXaXaXaXaXaXgXaXaXaXiX&X].~.T.Z.z.a./ v v v v v v v v v v v v v v v v v v v v v v v v v v v v v v v v v c v S S S S S S S S S S S S S S S S S S S S c c c c c c c c c c c c c c c c c c c c c c c c c c c c c c c c c c c c c c c c c c c c c c c c c c c c c c c c c c c c c c c c c c c c c c c c c c c c c c c c c c c c c c c c c c c c c c c c c c c c c c c c c c c c c c c c c c c c c c c c c c c c c c c c c c c c c c c c c c c c c c c c c c c c c c c c c c c c c c c c c c c c c ",
"nXnXnXnXnXnXnXnXnXnXnXnXnXnXnXnXnXnXnXnXnXnXnXnXnXnXnXhXtX9X].~.Y.c.j.p.v Z.^.!.!.!.!.!.!.!.!.!.!.!.!.!.!.!.!.!.!.!.!.!.!.!.!.!.!.!.!.!.!.~.!.!.!.!.!.!.!.!.!.!.!.!.!.!.!.!.!.!.!.!.!.~.~.~.~.~.~.~.~.~.~.~.~.~.~.~.~.~.~.~.~.~.~.~.~.~.~.~.~.~.~.~.~.~.~.~.~.~.~.~.~.~.~.~.~.~.~.~.~.~.~.~.~.~.~.~.~.~.~.~.~.~.~.~.~.~.~.~.~.~.~.~.~.~.~.~.~.~.~.~.~.~.~.~.~.~.~.~.~.~.~.~.~.~.~.~.~.~.~.~.~.~.~.~.~.~.~.~.~.~.~.~.~.~.~.~.~.~.~.~.~.~.~.~.~.~.~.~.~.~.~.~.~.~.~.~.~.~.~.~.~.~.~.~.~.~.~.~.~.~.~.~.~.~.~.~.~.~.~.~.~.~.~.~.~.~.",
"nXnXnXnXnXnXnXnXnXnXnXnXnXnXnXnXnXnXnXnXnXnXnXnXnXnXnXjXpX9X].~.T.c.j.p.v ~.rX*XqXqXqX*XqX*X*X*X*X*X*XrXrXqXqX*X*X*X*X*X*X*X*XrXqX*XqXiXqX*X*X*X*X*X*X*X*XqXqXqX*X*X*X*X*X*X*XqX*X*X*X*X*X*X*X*X*X*X*X*X*X*X*X*X*X*X*X*X*X*X*X*X*X*X*X*X*X*X*X*X*X*X*X*X*X*X*X*X*X*X*X*X*X*X*X*X*X*X*X*X*X*X*X*X*X*X*X*X*X*X*X*X*X*X*X*X*X*X*X*X*X*X*X*X*X*X*X*X*X*X*X*X*X*X*X*X*X*X*X*X*X*X*X*X*X*X*X*X*X*X*X*X*X*X*X*X*X*X*X*X*X*X*X*X*X*X*X*X*X*X*X*X*X*X*X*X*X*X*X*X*X*X*X*X*X*X*X*X*X*X*X*X*X*X*X*X*X*X*X*X*X*X*X*X*X*X*X*X*X*X*X*X*X*X*X*X",
"&X&X&X&X&X&X&X&X&X&X&X&X&X&X&X&X&X&X&X&X&X&X&X&X&X&X&X$X/.Q.Z.c.j.p./ v z T.qX$X$X%X.X%X.X*XqX&XqX&X&X(.(./.$XqXqX&XqXqX&X*XqXD./.*X/.D..XqXqX&X&X&X&X*XqX!.!./.qXqX&XqX&XqX$X/.*XqX&X*XqX&X&X&X&X&X&X&X&X&X&X&X&X&X&X&X&X&X&X&X&X&X&X&X&X&X&X&X&X&X&X&X&X&X&X&X&X&X&X&X&X&X&X&X&X&X&X&X&X&X&X&X&X&X&X&X&X&X&X&X&X&X&X&X&X&X&X&X&X&X&X&X&X&X&X&X&X&X&X&X&X&X&X&X&X&X&X&X&X&X&X&X&X&X&X&X&X&X&X&X&X&X&X&X&X&X&X&X&X&X&X&X&X&X&X&X&X&X&X&X&X&X&X&X&X&X&X&X&X&X&X&X&X&X&X&X&X&X&X&X&X&X&X&X&X&X&X&X&X&X&X&X&X&X&X&X&X&X&X&X&X&X&X&X",
"&X&X&X&X&X&X&X&X&X&X&X&X&X&X&X&X&X&X&X&X&X&X&X&X&X&X&X$X^.R.Z.x.j.p./ v z T.rX/.m.S.) !.N.$X(.D.` qX!.` !.^.%X!.!.$X!.W.&XD./.m.D.rX) V.$X(.W..X.X$X.X!./.B.C..X!.D./.D./.` !..X.XS.&X/.A..X&X&X&X&X&X&X&X&X&X&X&X&X&X&X&X&X&X&X&X&X&X&X&X&X&X&X&X&X&X&X&X&X&X&X&X&X&X&X&X&X&X&X&X&X&X&X&X&X&X&X&X&X&X&X&X&X&X&X&X&X&X&X&X&X&X&X&X&X&X&X&X&X&X&X&X&X&X&X&X&X&X&X&X&X&X&X&X&X&X&X&X&X&X&X&X&X&X&X&X&X&X&X&X&X&X&X&X&X&X&X&X&X&X&X&X&X&X&X&X&X&X&X&X&X&X&X&X&X&X&X&X&X&X&X&X&X&X&X&X&X&X&X&X&X&X&X&X&X&X&X&X&X&X&X&X&X&X&X&X&X&X&X",
"&X&X&X&X&X&X&X&X&X&X&X&X&X&X&X&X&X&X&X&X&X&X&X&X&X&X&X$X^.W.Z.c.j.p./ v z T.qX&Xh.m.` m.D.` ` ' ` qX(.' $Xn.N.m.) N.` ` !.D.` h.!.qX) C.D.h.` m.C.D.C.(.) m.N.n.(.! /.` ` ) C.m.n.h.C.` h.h.qX&X&X&X&X&X&X&X&X&X&X&X&X&X&X&X&X&X&X&X&X&X&X&X&X&X&X&X&X&X&X&X&X&X&X&X&X&X&X&X&X&X&X&X&X&X&X&X&X&X&X&X&X&X&X&X&X&X&X&X&X&X&X&X&X&X&X&X&X&X&X&X&X&X&X&X&X&X&X&X&X&X&X&X&X&X&X&X&X&X&X&X&X&X&X&X&X&X&X&X&X&X&X&X&X&X&X&X&X&X&X&X&X&X&X&X&X&X&X&X&X&X&X&X&X&X&X&X&X&X&X&X&X&X&X&X&X&X&X&X&X&X&X&X&X&X&X&X&X&X&X&X&X&X&X&X&X&X&X&X&X&X",
"&X&X&X&X&X&X&X&X&X&X&X&X&X&X&X&X&X&X&X&X&X&X&X&X&X&X&X$X^.W.Z.c.j.p./ v z T.*XqXm.' A.W ^.! C.h.S.qX&X/.) ` ` !.S.m.A.W.` m.) ) !.qX) (.B.D.A.h.C.A.h.N.) ` N.B.D.!.A.) ) N.^.` m..X` h.$X` *X&X&X&X&X&X&X&X&X&X&X&X&X&X&X&X&X&X&X&X&X&X&X&X&X&X&X&X&X&X&X&X&X&X&X&X&X&X&X&X&X&X&X&X&X&X&X&X&X&X&X&X&X&X&X&X&X&X&X&X&X&X&X&X&X&X&X&X&X&X&X&X&X&X&X&X&X&X&X&X&X&X&X&X&X&X&X&X&X&X&X&X&X&X&X&X&X&X&X&X&X&X&X&X&X&X&X&X&X&X&X&X&X&X&X&X&X&X&X&X&X&X&X&X&X&X&X&X&X&X&X&X&X&X&X&X&X&X&X&X&X&X&X&X&X&X&X&X&X&X&X&X&X&X&X&X&X&X&X&X&X&X",
"&X&X&X&X&X&X&X&X&X&X&X&X&X&X&X&X&X&X&X&X&X&X&X&X&X&X&X$X^.W.Z.c.j.p./ v z T.*XqXD.h..X) qXN.N.(.` $X/.` B.N.!.n.' B.D.!.N.` m.m.(.qX` h.!.h.! D.m.) C.` m.n.S.V.) m.h.` C.m.m.A.C.) (.B./.n.*X&X&X&X&X&X&X&X&X&X&X&X&X&X&X&X&X&X&X&X&X&X&X&X&X&X&X&X&X&X&X&X&X&X&X&X&X&X&X&X&X&X&X&X&X&X&X&X&X&X&X&X&X&X&X&X&X&X&X&X&X&X&X&X&X&X&X&X&X&X&X&X&X&X&X&X&X&X&X&X&X&X&X&X&X&X&X&X&X&X&X&X&X&X&X&X&X&X&X&X&X&X&X&X&X&X&X&X&X&X&X&X&X&X&X&X&X&X&X&X&X&X&X&X&X&X&X&X&X&X&X&X&X&X&X&X&X&X&X&X&X&X&X&X&X&X&X&X&X&X&X&X&X&X&X&X&X&X&X&X&X&X",
"&X&X&X&X&X&X&X&X&X&X&X&X&X&X&X&X&X&X&X&X&X&X&X&X&X&X&X$X^.W.Z.c.j.p./ v z T.qX%X&X*X&X*X&X&X.X&X&X&X&X$X&X*X$XC.` .X*X&X*X%X&X&X&X&X&X$X%XqXm.D.qX%X*X%X&X&X&X&X&X$X&X$X*X&X%X&X&X%X*X&X&X&X&X&X&X&X&X&X&X&X&X&X&X&X&X&X&X&X&X&X&X&X&X&X&X&X&X&X&X&X&X&X&X&X&X&X&X&X&X&X&X&X&X&X&X&X&X&X&X&X&X&X&X&X&X&X&X&X&X&X&X&X&X&X&X&X&X&X&X&X&X&X&X&X&X&X&X&X&X&X&X&X&X&X&X&X&X&X&X&X&X&X&X&X&X&X&X&X&X&X&X&X&X&X&X&X&X&X&X&X&X&X&X&X&X&X&X&X&X&X&X&X&X&X&X&X&X&X&X&X&X&X&X&X&X&X&X&X&X&X&X&X&X&X&X&X&X&X&X&X&X&X&X&X&X&X&X&X&X&X&X&X&X&X",
"&X&X&X&X&X&X&X&X&X&X&X&X&X&X&X&X&X&X&X&X&X&X&X&X&X&X&X$X^.W.Z.c.j.p./ v z R.qX&X&X&X&X&X&X&X*X&X&X&X&X*X&X&X&XD./.*X&X&X&X&X&X&X&X&X&X*X&X*X$X$X*X&X&X&X&X&X&X&X&X*X&X&X&X&X&X&X&X&X&X&X&X&X&X&X&X&X&X&X&X&X&X&X&X&X&X&X&X&X&X&X&X&X&X&X&X&X&X&X&X&X&X&X&X&X&X&X&X&X&X&X&X&X&X&X&X&X&X&X&X&X&X&X&X&X&X&X&X&X&X&X&X&X&X&X&X&X&X&X&X&X&X&X&X&X&X&X&X&X&X&X&X&X&X&X&X&X&X&X&X&X&X&X&X&X&X&X&X&X&X&X&X&X&X&X&X&X&X&X&X&X&X&X&X&X&X&X&X&X&X&X&X&X&X&X&X&X&X&X&X&X&X&X&X&X&X&X&X&X&X&X&X&X&X&X&X&X&X&X&X&X&X&X&X&X&X&X&X&X&X&X&X&X&X&X",
"%X%X%X%X%X%X%X%X%X%X%X%X%X%X%X%X%X%X%X%X%X%X%X%X%X%X%X.X^.T.Z.x.j.i./ v z `.jXaXaXaXaXaXaXaXaXaXaXaXaXaXaXaXgXjXhXaXaXaXaXaXaXaXaXaXaXaXaXaXhXgXaXaXaXaXaXaXaXaXaXaXaXaXaXaXaXaXaXaXaXaXaXaXaXaXaXaXaXaXaXaXaXaXaXaXaXaXaXaXaXaXaXaXaXaXaXaXaXaXaXaXaXaXaXaXaXaXaXaXaXaXaXaXaXaXaXaXaXaXaXaXaXaXaXaXaXaXaXaXaXaXaXaXaXaXaXaXaXaXaXaXaXaXaXaXaXaXaXaXaXaXaXaXaXaXaXaXaXaXaXaXaXaXaXaXaXaXaXaXaXaXaXaXaXaXaXaXaXaXaXaXaXaXaXaXaXaXaXaXaXaXaXhXxXxXxXxXxXxXxXxXxXxXxXxXxXxXxXxXxXxXxXzXaXgXgXgXgXgXgXgXgXgXgXgXgXgXgXgXgXgXgXgXgXgX",
"rXrXrXrXrXrXrXrXrXrXrXrXrXrXrXrXrXrXrXrXrXrXrXrXrXrXrX*X.X^.R.Z.x.j.i./ z '.xXgXhXhXhXhXhXhXhXhXhXhXhXhXhXhXhXgXgXhXhXhXhXhXhXhXhXhXhXhXhXhXhXhXhXhXhXhXhXhXhXhXhXhXhXhXhXhXhXhXhXhXhXhXhXhXhXhXhXhXhXhXhXhXhXhXhXhXhXhXhXhXhXhXhXhXhXhXhXhXhXhXhXhXhXhXhXhXhXhXhXhXhXhXhXhXhXhXhXhXhXhXhXhXhXhXhXhXhXhXhXhXhXhXhXhXhXhXhXhXhXhXhXhXhXhXhXhXhXhXhXhXhXhXhXhXhXhXhXhXhXhXhXhXhXhXhXhXhXhXhXhXhXhXhXhXhXhXhXhXhXhXhXhXhXhXhXhXhXhXhXhXhXgXhX*X+X+X+X+X+X+X+X+X+X+X+X+X+X+X+X+X+X+X+X+XhXaXpXpXpXpXpXpXpXpXpXpXpXpXpXpXpXpXpXpXpXpX",
"HXHXHXHXHXHXHXHXHXHXHXHXHXHXHXHXHXHXHXHXHXHXHXHXHXHXHXAXjXpX9X].~.T.c.v.u.%XjXgXhXhXhXhXhXhXhXhXhXhXhXhXhXhXhXhXhXhXhXhXhXhXhXhXhXhXhXhXhXhXhXhXhXhXhXhXhXhXhXhXhXhXhXhXhXhXhXhXhXhXhXhXhXhXhXhXhXhXhXhXhXhXhXhXhXhXhXhXhXhXhXhXhXhXhXhXhXhXhXhXhXhXhXhXhXhXhXhXhXhXhXhXhXhXhXhXhXhXhXhXhXhXhXhXhXhXhXhXhXhXhXhXhXhXhXhXhXhXhXhXhXhXhXhXhXhXhXhXhXhXhXhXhXhXhXhXhXhXhXhXhXhXhXhXhXhXhXhXhXhXhXhXhXhXhXhXhXhXhXhXhXhXhXhXhXhXhXhXhXhXhXaXVXT L K K K K K K K K K K K K K K K K K K I xXqX&XqXqXqXqXqXqXqXqXqXqXqXqXqXqXqXqXqXqXqX",
"FXFXFXFXFXFXFXFXFXFXFXFXFXFXFXFXFXFXFXFXFXFXFXFXFXFXSXZXjXpX9X].~.Y.c.j./ XXjXgXhXhXhXhXhXhXhXhXhXhXhXhXhXhXhXhXhXhXhXhXhXhXhXhXhXhXhXhXhXhXhXhXhXhXhXhXhXhXhXhXhXhXhXhXhXhXhXhXhXhXhXhXhXhXhXhXhXhXhXhXhXhXhXhXhXhXhXhXhXhXhXhXhXhXhXhXhXhXhXhXhXhXhXhXhXhXhXhXhXhXhXhXhXhXhXhXhXhXhXhXhXhXhXhXhXhXhXhXhXhXhXhXhXhXhXhXhXhXhXhXhXhXhXhXhXhXhXhXhXhXhXhXhXhXhXhXhXhXhXhXhXhXhXhXhXhXhXhXhXhXhXhXhXhXhXhXhXhXhXhXhXhXhXhXhXhXhXhXhXhXhXaXVXT % + # + + # # # # # + + # # # + + + $ I xXqXiXhXhXxXjXxXjXxXjXjXjXhXxXjXjXxXhXhXxXjX",
"FXFXFXFXFXFXFXFXFXFXFXFXFXFXFXFXFXFXFXFXFXFXFXFXFXFXFXZXjXpX9X].~.Y.c.j./ XXjXgXhXhXhXhXhXhXhXhXhXhXhXhXhXhXhXhXhXhXhXhXhXhXhXhXhXhXhXhXhXhXhXhXhXhXhXhXhXhXhXhXhXhXhXhXhXhXhXhXhXhXhXhXhXhXhXhXhXhXhXhXhXhXhXhXhXhXhXhXhXhXhXhXhXhXhXhXhXhXhXhXhXhXhXhXhXhXhXhXhXhXhXhXhXhXhXhXhXhXhXhXhXhXhXhXhXhXhXhXhXhXhXhXhXhXhXhXhXhXhXhXhXhXhXhXhXhXhXhXhXhXhXhXhXhXhXhXhXhXhXhXhXhXhXhXhXhXhXhXhXhXhXhXhXhXhXhXhXhXhXhXhXhXhXhXhXhXhXhXhXhXhXaXVXT H # $ % $ $ $ $ $ $ $ % $ $ # $ % # $ I xXqXrXhXpX$X&X$X*X&XqX&X*XaX$XiXrX$XhXhX&XqX",
"FXFXFXFXFXFXFXFXFXFXFXFXFXFXFXFXFXFXFXFXFXFXFXFXFXFXFXZXjXpX9X].~.Y.c.j./ XXjXgXhXhXhXhXhXhXhXhXhXhXhXhXhXhXhXhXhXhXhXhXhXhXhXhXhXhXhXhXhXhXhXhXhXhXhXhXhXhXhXhXhXhXhXhXhXhXhXhXhXhXhXhXhXhXhXhXhXhXhXhXhXhXhXhXhXhXhXhXhXhXhXhXhXhXhXhXhXhXhXhXhXhXhXhXhXhXhXhXhXhXhXhXhXhXhXhXhXhXhXhXhXhXhXhXhXhXhXhXhXhXhXhXhXhXhXhXhXhXhXhXhXhXhXhXhXhXhXhXhXhXhXhXhXhXhXhXhXhXhXhXhXhXhXhXhXhXhXhXhXhXhXhXhXhXhXhXhXhXhXhXhXhXhXhXhXhXhXhXhXhXhXaXVXT H + % % % J % $ J % % J % % # H % # $ I xXqXrXxXS.W.$X` (.` .XN.S.D.m.$XC.C./.&Xm.&X",
"FXFXFXFXFXFXFXFXFXFXFXFXFXFXFXFXFXFXFXFXFXFXFXFXFXFXFXZXjXpX9X].~.Y.c.j./ XXjXgXhXhXhXhXhXhXhXhXhXhXhXhXhXhXhXhXhXhXhXhXhXhXhXhXhXhXhXhXhXhXhXhXhXhXhXhXhXhXhXhXhXhXhXhXhXhXhXhXhXhXhXhXhXhXhXhXhXhXhXhXhXhXhXhXhXhXhXhXhXhXhXhXhXhXhXhXhXhXhXhXhXhXhXhXhXhXhXhXhXhXhXhXhXhXhXhXhXhXhXhXhXhXhXhXhXhXhXhXhXhXhXhXhXhXhXhXhXhXhXhXhXhXhXhXhXhXhXhXhXhXhXhXhXhXhXhXhXhXhXhXhXhXhXhXhXhXhXhXhXhXhXhXhXhXhXhXhXhXhXhXhXhXhXhXhXhXhXhXhXhXhXaXVXT H + % % % J H % J % % H % % + H % # $ I xXqXrXjX.XS.aX!.qXh.&Xm.C.(.B.!.^.nXB.pXB.$X",
"FXFXFXFXFXFXFXFXFXFXFXFXFXFXFXFXFXFXFXFXFXFXFXFXFXFXFXZXjXpX9X].~.Y.c.j./ XXjXgXhXhXhXhXhXhXhXhXhXhXhXhXhXhXhXhXhXhXhXhXhXhXhXhXhXhXhXhXhXhXhXhXhXhXhXhXhXhXhXhXhXhXhXhXhXhXhXhXhXhXhXhXhXhXhXhXhXhXhXhXhXhXhXhXhXhXhXhXhXhXhXhXhXhXhXhXhXhXhXhXhXhXhXhXhXhXhXhXhXhXhXhXhXhXhXhXhXhXhXhXhXhXhXhXhXhXhXhXhXhXhXhXhXhXhXhXhXhXhXhXhXhXhXhXhXhXhXhXhXhXhXhXhXhXhXhXhXhXhXhXhXhXhXhXhXhXhXhXhXhXhXhXhXhXhXhXhXhXhXhXhXhXhXhXhXhXhXhXhXhXhXaXVXT H + % % % % K J H H H % H H $ H $ # $ I xXqXrXhXpXB.(.D.$XN.rXh.C.D.D.&XC.(.D.jX/.h.",
"FXFXFXFXFXFXFXFXFXFXFXFXFXFXFXFXFXFXFXFXFXFXFXFXFXFXFXZXjXpX9X].~.Y.c.j./ XXjXgXhXhXhXhXhXhXhXhXhXhXhXhXhXhXhXhXhXhXhXhXhXhXhXhXhXhXhXhXhXhXhXhXhXhXhXhXhXhXhXhXhXhXhXhXhXhXhXhXhXhXhXhXhXhXhXhXhXhXhXhXhXhXhXhXhXhXhXhXhXhXhXhXhXhXhXhXhXhXhXhXhXhXhXhXhXhXhXhXhXhXhXhXhXhXhXhXhXhXhXhXhXhXhXhXhXhXhXhXhXhXhXhXhXhXhXhXhXhXhXhXhXhXhXhXhXhXhXhXhXhXhXhXhXhXhXhXhXhXhXhXhXhXhXhXhXhXhXhXhXhXhXhXhXhXhXhXhXhXhXhXhXhXhXhXhXhXhXhXhXhXhXaXVXT H # $ % $ $ $ % # $ % % $ % % % % # $ I xXqXrXjX.X(.aX&XpXD..XqXrX$XD.*X$XD.aXrX!.*X",
"FXFXFXFXFXFXFXFXFXFXFXFXFXFXFXFXFXFXFXFXFXFXFXFXFXFXFXZXjXpX9X].~.Y.c.j./ XXjXgXhXhXhXhXhXhXhXhXhXhXhXhXhXhXhXhXhXhXhXhXhXhXhXhXhXhXhXhXhXhXhXhXhXhXhXhXhXhXhXhXhXhXhXhXhXhXhXhXhXhXhXhXhXhXhXhXhXhXhXhXhXhXhXhXhXhXhXhXhXhXhXhXhXhXhXhXhXhXhXhXhXhXhXhXhXhXhXhXhXhXhXhXhXhXhXhXhXhXhXhXhXhXhXhXhXhXhXhXhXhXhXhXhXhXhXhXhXhXhXhXhXhXhXhXhXhXhXhXhXhXhXhXhXhXhXhXhXhXhXhXhXhXhXhXhXhXhXhXhXhXhXhXhXhXhXhXhXhXhXhXhXhXhXhXhXhXhXhXhXhXhXaXVXT % + # + + # + + # # + + + + + + + + $ I xXqXiXjXjXnXhXjXhXnXxXjXjXxXnXjXxXnXhXjXnXjX",
"FXFXFXFXFXFXFXFXFXFXFXFXFXFXFXFXFXFXFXFXFXFXFXFXFXFXFXZXjXpX9X].~.Y.c.j./ XXjXgXhXhXhXhXhXhXhXhXhXhXhXhXhXhXhXhXhXhXhXhXhXhXhXhXhXhXhXhXhXhXhXhXhXhXhXhXhXhXhXhXhXhXhXhXhXhXhXhXhXhXhXhXhXhXhXhXhXhXhXhXhXhXhXhXhXhXhXhXhXhXhXhXhXhXhXhXhXhXhXhXhXhXhXhXhXhXhXhXhXhXhXhXhXhXhXhXhXhXhXhXhXhXhXhXhXhXhXhXhXhXhXhXhXhXhXhXhXhXhXhXhXhXhXhXhXhXhXhXhXhXhXhXhXhXhXhXhXhXhXhXhXhXhXhXhXhXhXhXhXhXhXhXhXhXhXhXhXhXhXhXhXhXhXhXhXhXhXhXhXhXhXaXVXT J % H H H % H H % H H H H H H H H % H I xXqX*XiXrXrXrXrXrXqXrXrXrXrXqXrXrXqXrXrXqXrX",
"FXFXFXFXFXFXFXFXFXFXFXFXFXFXFXFXFXFXFXFXFXFXFXFXFXFXFXZXjXpX9X].~.Y.c.j./ XXjXgXhXhXhXhXhXhXhXhXhXhXhXhXhXhXhXhXhXhXhXhXhXhXhXhXhXhXhXhXhXhXhXhXhXhXhXhXhXhXhXhXhXhXhXhXhXhXhXhXhXhXhXhXhXhXhXhXhXhXhXhXhXhXhXhXhXhXhXhXhXhXhXhXhXhXhXhXhXhXhXhXhXhXhXhXhXhXhXhXhXhXhXhXhXhXhXhXhXhXhXhXhXhXhXhXhXhXhXhXhXhXhXhXhXhXhXhXhXhXhXhXhXhXhXhXhXhXhXhXhXhXhXhXhXhXhXhXhXhXhXhXhXhXhXhXhXhXhXhXhXhXhXhXhXhXhXhXhXhXhXhXhXhXhXhXhXhXhXhXhXhXhXgXxX+XT T T T T T T T T T T T T T T T T T T @XjXpXrXrXrXrXrXrXrXrXrXrXrXrXrXrXrXrXrXrXrXrX",
"FXFXFXFXFXFXFXFXFXFXFXFXFXFXFXFXFXFXFXFXFXFXFXFXFXFXFXZXjXpX9X].~.Y.c.j./ XXjXaXgXgXgXgXgXgXgXgXgXgXgXgXgXgXgXgXgXgXgXgXgXgXgXgXgXgXgXgXgXgXgXgXgXgXgXgXgXgXgXgXgXgXgXgXgXgXgXgXgXgXgXgXgXgXgXgXgXgXgXgXgXgXgXgXgXgXgXgXgXgXgXgXgXgXgXgXgXgXgXgXgXgXgXgXgXgXgXgXgXgXgXgXgXgXgXgXgXgXgXgXgXgXgXgXgXgXgXgXgXgXgXgXgXgXgXgXgXgXgXgXgXgXgXgXgXgXgXgXgXgXgXgXgXgXgXgXgXgXgXgXgXgXgXgXgXgXgXgXgXgXgXgXgXgXgXgXgXgXgXgXgXgXgXgXgXgXgXgXgXgXgXgXaXzXVXVXVXVXVXVXVXVXVXVXVXVXVXVXVXVXVXVXVXcXaXhXhXhXhXhXhXhXhXhXhXhXhXhXhXhXhXhXhXhXhXhX",
"FXFXFXFXFXFXFXFXFXFXFXFXFXFXFXFXFXFXFXFXFXFXFXFXFXFXFXZXjXpX9X].~.Y.c.j./ %XnXhXhXhXhXhXhXhXhXhXhXhXhXhXhXhXhXhXhXhXhXhXhXhXhXhXhXhXhXhXhXhXhXhXhXhXjXjXjXjXjXjXjXjXjXjXjXjXjXjXjXjXjXjXjXjXjXjXjXjXjXjXjXjXjXjXjXjXjXjXjXjXjXjXjXjXjXjXjXjXjXjXjXjXjXjXjXjXjXjXjXjXjXjXjXjXjXjXjXjXjXjXjXjXjXjXjXjXjXjXjXjXjXjXjXjXjXjXjXjXjXjXjXjXjXjXjXjXjXjXjXjXjXjXjXjXjXjXjXjXjXjXjXjXjXjXjXjXjXjXjXjXjXjXjXjXjXjXjXjXjXjXjXjXjXjXjXjXjXjXjXjXjXjXjXhXhXhXhXhXhXhXhXhXhXhXhXhXhXhXhXhXhXhXhXhXhXhXhXhXhXhXhXhXhXhXhXhXhXhXhXhXhXhXhXhXhXhX",
"FXFXFXFXFXFXFXFXFXFXFXFXFXFXFXFXFXFXFXFXFXFXFXFXFXFXFXZXjXpX9X].~.Y.c.j./ wXSXZXZXZXZXZXZXZXZXZXZXZXZXZXZXZXZXZXZXZXZXZXZXZXZXZXZXZXZXZXZXZXZXZXZXZXnXnXnXnXnXnXnXnXnXnXnXnXnXnXnXnXnXnXnXnXnXnXnXnXnXnXnXnXnXnXnXnXnXnXnXnXnXnXnXnXnXnXnXnXnXnXnXnXnXnXnXnXnXnXnXnXnXnXnXnXnXnXnXnXnXnXnXnXnXnXnXnXnXnXnXnXnXnXnXnXnXnXnXnXnXnXnXnXnXnXnXnXnXnXnXnXnXnXnXnXnXnXnXnXnXnXnXnXnXnXnXnXnXnXnXnXnXnXnXnXnXnXnXnXnXnXnXnXnXnXnXnXnXnXnXnXnXnXnXnXnXnXnXnXnXnXnXnXnXnXnXnXnXnXnXnXnXnXCXZXZXZXZXZXZXZXZXZXZXZXZXZXZXZXZXZXZXZXZXZXZXZX",
"FXFXFXFXFXFXFXFXFXFXFXFXFXFXFXFXFXFXFXFXFXFXFXFXFXFXFXZXjXpX9X].~.Y.c.j.u.R.%XXX$X$X$X$X$X$X$X$X$X$X$X$X$X$X$X$X$X$X$X$X$X$X$X$X$X$X$X$X$X$X$X$X%XXXjXnXjXjXjXjXjXjXjXjXjXjXjXjXjXjXjXjXjXjXjXjXjXjXjXjXjXjXjXjXjXjXjXjXjXjXjXjXjXjXjXjXjXjXjXjXjXjXjXjXjXjXjXjXjXjXjXjXjXjXjXjXjXjXjXjXjXjXjXjXjXjXjXjXjXjXjXjXjXjXjXjXjXjXjXjXjXjXjXjXjXjXjXjXjXjXjXjXjXjXjXjXjXjXjXjXjXjXjXjXjXjXjXjXjXjXjXjXjXjXjXjXjXjXjXjXjXjXjXjXjXjXjXjXjXjXjXjXjXjXjXjXjXjXjXjXjXjXjXjXjXjXjXjXjXjXjXCXiX].%X$X$X$X$X$X$X$X$X$X$X$X$X$X$X$X$X$X$X$X$X$X",
"FXFXFXFXFXFXFXFXFXFXFXFXFXFXFXFXFXFXFXFXFXFXFXFXFXFXFXZXjXpX9X].~.Y.c.j.u.x.Y.Z.Z.Z.Z.Z.Z.Z.Z.Z.Z.Z.Z.Z.Z.Z.Z.Z.Z.Z.Z.Z.Z.Z.Z.Z.Z.Z.Z.Z.Z.Z.Z.Z.Z.Z.fXnXgXgXgXgXgXgXgXaXaXgXaXaXgXgXgXgXgXgXgXgXgXgXgXgXgXgXaXgXaXaXaXaXaXgXgXgXgXgXgXgXgXgXgXgXgXaXaXaXaXaXaXaXaXgXgXgXgXgXgXgXgXgXgXgXgXaXaXaXaXgXaXaXgXgXgXgXgXgXgXgXgXgXgXgXgXaXaXhXgXgXgXgXgXgXgXgXgXgXgXgXgXgXaXaXgXgXaXaXhXgXgXgXgXgXgXgXgXgXgXgXgXgXaXgXgXaXaXaXhXgXgXgXgXgXgXgXgXgXgXgXgXgXaXgXaXaXgXgXgXgXgXgXgXaXhXZX%XZ.Z.Z.Z.Z.Z.Z.Z.Z.Z.Z.Z.Z.Z.Z.Z.Z.Z.Z.Z.Z.Z.Z.",
"FXFXFXFXFXFXFXFXFXFXFXFXFXFXFXFXFXFXFXFXFXFXFXFXFXFXFXZXjXpX9X].~.Y.c.j.u.c.R.T.T.T.T.T.T.T.T.R.T.T.T.T.T.T.T.T.T.T.T.T.T.T.T.R.T.T.T.T.T.T.T.T.T.Y.gXnXhXhXhXhXhXhXgXxXnXhXxXnXhXhXhXhXhXhXhXhXhXhXhXhXgXjXnXgXnXnXjXnXnXhXhXhXhXhXhXhXhXhXhXgXhXnXjXjXnXjXxXnXjXgXhXhXhXhXhXhXhXhXhXhXgXnXjXnXxXaXxXjXgXhXhXhXhXhXhXhXhXhXhXhXhXnXjXaXgXgXhXhXhXhXhXhXhXhXhXhXhXhXnXxXgXhXnXxXaXaXgXhXhXhXhXhXhXhXhXhXhXgXnXhXhXxXnXjXaXgXhXhXhXhXhXhXhXhXhXhXgXhXnXgXxXnXgXaXgXhXhXhXhXgXhXZX%XZ.T.T.T.T.T.T.T.Q.T.Q.Y.Z.T.T.T.Y.T.T.T.T.T.T.",
"FXFXFXFXFXFXFXFXFXFXFXFXFXFXFXFXFXFXFXFXFXFXFXFXFXFXFXZXjXpX9X].~.Y.c.j.u.c.T.T.T.T.T.T.T.T.c.d.R.T.R.R.R.R.R.R.T.T.R.R.R.T.R.c.T.T.T.T.T.T.T.T.T.U.fXnXgXhXhXhXhXgXjX!.h.qXS.N.hXgXhXhXhXhXhXhXhXhXhXgXhXqXn.jXC.V./.g.g.aXhXgXhXhXhXhXhXhXgXhXqX_ ^./.g..Xn.( $XjXgXhXhXhXhXhXhXhXhXgXhXC.&Xn.W.nXD..XjXgXhXhXhXhXhXhXhXhXhXhXhXN.qXh.iXxXgXhXhXhXhXhXhXhXhXgXhXpXh.A.jXiXg.^.n.&XnXgXhXhXhXhXhXhXhXhXaXxXS.*XgXn.g._ A.ZXaXhXhXhXhXhXhXhXhXgXhXqXn.hXA.C.D.W.ZXaXhXhXhXgXhXZX%XZ.T.T.T.T.T.T.T.^ T.f.l.Z.Q.~.Z.x ~.T.Y.R.R.R.",
"FXFXFXFXFXFXFXFXFXFXFXFXFXFXFXFXFXFXFXFXFXFXFXFXFXFXFXZXjXpX9X].~.Y.c.j.u.c.T.T.T.T.T.T.T.R.l.g ~.l.f / ( d.~ d.x.T.x x ( c.Q < d.R.Y.T.T.T.T.T.T.U.fXnXgXhXhXhXhXaXnXW k.'.g.k.^.xXgXhXhXhXhXhXhXhXhXgXjX/.x .Xg.n.!.&XW hXhXgXhXhXhXhXhXhXgXhXqX$X~ &XA._ hX~ .XxXgXhXhXhXhXhXhXhXaXxX'.f V.( g.iXf W.nXaXhXhXhXhXhXhXhXhXgXhXaXx /.n.D.^.jXgXhXhXhXhXhXhXhXgXhXrX&X^ *XiX$X_ ( W.!.jXgXhXhXhXhXhXhXgXjXqXa .XhXpXk.~ S.D.pXhXgXhXhXhXhXhXhXgXjX$Xg $X_ S.W A.D.gXhXhXhXgXhXZX%XZ.T.T.T.T.T.T.T.d T.x x l.Q f d.a g l.~.l.g A ",
"FXFXFXFXFXFXFXFXFXFXFXFXFXFXFXFXFXFXFXFXFXFXFXFXFXFXFXZXjXpX9X].~.Y.c.j.u.c.T.T.T.T.T.T.T.R.l.x `.f l.g x f a f Y.^ A Z.x l.x x Y.T.T.T.T.T.T.T.T.U.fXnXgXhXhXhXhXgXhX&XC.x /./.C.nXaXhXhXhXhXhXhXhXhXhXaXxXk.D.!./.!.^.A.nXaXhXhXhXhXhXhXhXhXaXCX$Xn.SXn.$XpX_ xXgXhXhXhXhXhXhXhXgXhXqXg.g.!.A h.n._ W.nXaXhXhXhXhXhXhXhXhXhXaXnXS.'.( g hXhXgXhXhXhXhXhXhXhXhXaXnXrXg.xXCX&XV.g.a pXhXgXhXhXhXhXhXgXhXpXg.( /.CXaXg.'.< (.xXaXhXhXhXhXhXhXhXhXaXnXn.W.A.*Xx a '.xXaXhXhXgXhXZX%XZ.T.T.T.T.T.T.R.a g a x g W / x x ( x `.f Z.A ",
"FXFXFXFXFXFXFXFXFXFXFXFXFXFXFXFXFXFXFXFXFXFXFXFXFXFXFXZXjXpX9X].~.Y.c.j.u.c.T.T.T.T.T.T.T.R.l.a Z.x / x W a x a `.( g l.f x x g x.T.T.T.T.T.T.T.T.U.fXnXgXhXhXhXhXhXgXqX!.Q k._ /.xXgXhXhXhXhXhXhXhXhXhXgXhX( $Xg.g.(.( rXhXgXhXhXhXhXhXhXhXgXjX$Xg *Xk.~ jXk.D.nXaXhXhXhXhXhXhXhXgXjX$X( f A D.~ ^ g ( nXaXhXhXhXhXhXhXhXhXhXaXnXn.^.g.A /.jXgXhXhXhXhXhXhXhXgXhXqXx /..X/.x %Xg.x !.xXgXhXhXhXhXhXgXhXqX_ f ^ qXA.V.$Xg n.hXgXhXhXhXhXhXhXhXhXaXxX( $Xg.N.~ A V.jXgXhXhXgXhXZX%XZ.T.T.T.T.T.T.T.d R.A f x x x x x l.g `.g d.W ",
"FXFXFXFXFXFXFXFXFXFXFXFXFXFXFXFXFXFXFXFXFXFXFXFXFXFXFXZXjXpX9X].~.Y.c.j.u.c.T.T.T.T.T.T.T.T.Z.x A c.x l.Z.d.x.f.R.T.W ( d.x x.d.d.R.Y.T.T.T.T.T.T.U.fXnXgXhXhXhXhXgXhX!.k.aX!.S.jXgXhXhXhXhXhXhXhXhXhXhXgXhX/.hX!.S.pX/.jXgXhXhXhXhXhXhXhXhXgXjX/.g.S.V.k.^./.pXhXhXhXhXhXhXhXhXhXhXgXhXnX$XqXn.^.ZX*X*XjXgXhXhXhXhXhXhXhXhXhXgXjX$XqX$X&X^.jXgXhXhXhXhXhXhXhXgXjX%Xg.C.!.(.h.C.^.qX^.hXgXhXhXhXhXhXhXgXhXnX&X'.$X.XrXqX&X^.rXhXgXhXhXhXhXhXhXhXgXhX/.hX(.S.&X*X^.pXhXgXhXgXhXZX%XZ.T.T.T.T.T.T.T.d.T.l.f.c.f.a A x.V.f.R.c.x l.",
"FXFXFXFXFXFXFXFXFXFXFXFXFXFXFXFXFXFXFXFXFXFXFXFXFXFXFXZXjXpX9X].~.Y.c.j.u.c.T.T.T.T.T.T.T.T.T.~.~.T.~.R.T.R.R.R.Y.T.~.R.R.~.T.R.R.T.T.T.T.T.T.T.T.U.fXnXgXhXhXhXhXhXgXxXnXhXxXnXgXhXhXhXhXhXhXhXhXhXhXhXhXgXxXgXxXnXhXxXgXhXhXhXhXhXhXhXhXhXhXgXjXnXnXnXnXjXjXhXgXhXhXhXhXhXhXhXhXhXhXgXaXjXhXnXxXaXhXhXgXhXhXhXhXhXhXhXhXhXhXhXgXjXhXjXjXxXgXhXhXhXhXhXhXhXhXhXgXjXnXnXxXxXnXnXxXhXxXgXhXhXhXhXhXhXhXhXhXaXhXjXjXjXhXhXjXxXhXgXhXhXhXhXhXhXhXhXhXgXjXhXxXnXjXhXxXhXhXhXhXgXhXZX%XZ.T.T.T.T.T.T.T.R.T.R.R.T.W x c.Q.T.R.Y.T.~.R.",
"FXFXFXFXFXFXFXFXFXFXFXFXFXFXFXFXFXFXFXFXFXFXFXFXFXFXFXZXjXpX9X].~.Y.c.j.u.c.T.T.T.T.T.T.T.T.T.Y.Y.T.Y.Y.T.Y.T.Y.T.T.Y.Y.Y.Y.T.Y.Y.T.T.T.T.T.T.T.T.U.fXnXgXhXhXhXhXhXhXaXaXgXaXaXhXhXhXhXhXhXhXhXhXhXhXhXhXhXaXhXaXaXgXaXhXhXhXhXhXhXhXhXhXhXhXhXgXaXaXaXaXgXgXgXhXhXhXhXhXhXhXhXhXhXhXhXhXgXgXaXaXhXgXgXhXhXhXhXhXhXhXhXhXhXhXhXhXgXgXgXgXgXhXhXhXhXhXhXhXhXhXhXhXgXaXaXgXgXaXaXaXgXgXhXhXhXhXhXhXhXhXhXhXhXgXgXgXgXgXgXgXgXgXhXhXhXhXhXhXhXhXhXhXhXgXhXaXaXgXgXgXhXhXhXhXgXhXZX%XZ.T.T.T.T.T.T.T.Y.T.Y.Y.T.Y.T.T.Y.T.Y.T.T.Y.Y.",
"FXFXFXFXFXFXFXFXFXFXFXFXFXFXFXFXFXFXFXFXFXFXFXFXFXFXFXZXjXpX9X].~.Y.c.j.u.c.T.T.T.T.T.T.T.T.T.T.T.T.T.T.T.T.T.T.T.T.T.T.T.T.T.T.T.T.T.T.T.T.T.T.T.U.fXnXgXhXhXhXhXhXhXhXhXhXhXhXhXhXhXhXhXhXhXhXhXhXhXhXhXhXhXhXhXhXhXhXhXhXhXhXhXhXhXhXhXhXhXhXhXhXhXhXhXhXhXhXhXhXhXhXhXhXhXhXhXhXhXhXhXhXhXhXhXhXhXhXhXhXhXhXhXhXhXhXhXhXhXhXhXhXhXhXhXhXhXhXhXhXhXhXhXhXhXhXhXhXhXhXhXhXhXhXhXhXhXhXhXhXhXhXhXhXhXhXhXhXhXhXhXhXhXhXhXhXhXhXhXhXhXhXhXhXhXhXhXhXhXhXhXhXhXhXhXhXhXhXhXgXhXZX%XZ.T.T.T.T.T.T.T.T.T.T.T.T.T.T.T.T.T.T.T.T.T.T.",
"FXFXFXFXFXFXFXFXFXFXFXFXFXFXFXFXFXFXFXFXFXFXFXFXFXFXFXZXjXpX9X].~.Y.c.j.u.c.T.T.T.T.T.T.T.T.T.T.T.T.T.T.T.T.T.T.T.T.T.T.T.T.T.T.T.T.T.T.T.T.T.T.T.U.fXnXgXhXhXhXhXhXhXhXgXgXgXgXhXhXhXhXhXhXhXhXhXhXhXhXhXhXhXgXgXgXgXhXhXhXhXhXhXhXhXhXhXhXhXhXhXhXgXgXgXgXhXhXhXhXhXhXhXhXhXhXhXhXhXhXhXhXgXgXgXgXhXhXhXhXhXhXhXhXhXhXhXhXhXhXhXgXgXgXgXhXhXhXhXhXhXhXhXhXhXhXhXhXhXhXgXgXgXgXhXhXhXhXhXhXhXhXhXhXhXhXhXhXhXhXgXgXgXgXhXhXhXhXhXhXhXhXhXhXhXhXhXhXhXgXgXgXgXhXhXhXhXhXhXgXhXZX%XZ.T.T.T.T.T.T.T.T.T.T.T.T.T.T.T.T.T.T.T.T.T.T.",
"FXFXFXFXFXFXFXFXFXFXFXFXFXFXFXFXFXFXFXFXFXFXFXFXFXFXFXZXjXpX9X].~.Y.c.j.u.c.T.T.T.T.T.T.T.T.T.T.T.T.T.T.T.T.T.T.T.T.T.T.T.T.T.T.T.T.T.T.T.T.T.T.T.U.fXnXgXhXhXhXhXhXhXhXhXhXhXhXhXhXhXhXhXhXhXhXhXhXhXhXhXhXhXhXhXhXhXhXhXhXhXhXhXhXhXhXhXhXhXhXhXhXhXhXhXhXhXhXhXhXhXhXhXhXhXhXhXhXhXhXhXhXhXhXhXhXhXhXhXhXhXhXhXhXhXhXhXhXhXhXhXhXhXhXhXhXhXhXhXhXhXhXhXhXhXhXhXhXhXhXhXhXhXhXhXhXhXhXhXhXhXhXhXhXhXhXhXhXhXhXhXhXhXhXhXhXhXhXhXhXhXhXhXhXhXhXhXhXhXhXhXhXhXhXhXhXhXhXhXgXhXZX%XZ.T.T.T.T.T.T.T.T.T.T.T.T.T.T.T.T.T.T.T.T.T.T.",
"FXFXFXFXFXFXFXFXFXFXFXFXFXFXFXFXFXFXFXFXFXFXFXFXFXFXFXZXjXpX9X].~.Y.c.j.u.c.T.T.T.T.T.T.T.T.T.T.T.T.T.T.T.T.T.T.T.T.T.T.T.T.T.T.T.T.T.T.T.T.T.T.T.U.fXnXgXhXhXhXhXhXhXgXpXpXpXaXhXhXhXhXhXhXhXhXhXhXhXhXhXhXhXpXpXpXpXhXhXhXhXhXhXhXhXhXhXhXhXhXhXhXaXpXpXpXgXhXhXhXhXhXhXhXhXhXhXhXhXhXhXgXpXpXpXaXhXhXhXhXhXhXhXhXhXhXhXhXhXhXhXpXpXpXpXhXhXhXhXhXhXhXhXhXhXhXhXhXhXhXaXpXpXpXgXhXhXhXhXhXhXhXhXhXhXhXhXhXhXgXpXpXpXaXhXhXhXhXhXhXhXhXhXhXhXhXhXhXhXpXpXpXpXhXhXhXhXhXhXgXhXZX%XZ.T.T.T.T.T.T.T.T.T.T.T.T.T.T.T.T.T.T.T.T.T.T.",
"FXFXFXFXFXFXFXFXFXFXFXFXFXFXFXFXFXFXFXFXFXFXFXFXFXFXFXZXjXpX9X].~.Y.c.j.u.c.T.Y.Z.Z.Z.Z.Z.Z.Z.Z.Z.Z.Z.Z.Z.Z.Z.Z.Z.Z.Z.Z.Z.Z.Z.Z.Z.U.Z.Z.Z.Z.Z.Y.T.U.fXnXgXhXhXhXhXgXzX8X0 e 6 L.MXaXhXhXhXhXhXhXhXhXhXhXhXgXzX#.0 0 3.zXgXhXhXhXhXhXhXhXhXhXhXhXaXmXK.6 e e 0XjXgXhXhXhXhXhXhXhXhXhXhXgXjX0Xe e 6 L.mXaXhXhXhXhXhXhXhXhXhXhXhXgXzX3.0 0 #.zXgXhXhXhXhXhXhXhXhXhXhXhXaXMXL.6 e 0 0XzXgXhXhXhXhXhXhXhXhXhXhXgXhX0Xe e 6 K.mXaXhXhXhXhXhXhXhXhXhXhXhXfXzX3.9 0 #.zXgXhXhXhXhXgXhXZX%XZ.T.U.Z.Z.Z.Z.Z.Z.Z.Z.Z.Z.Z.Z.Z.Z.Z.Z.Z.Z.Z.Z.",
"FXFXFXFXFXFXFXFXFXFXFXFXFXFXFXFXFXFXFXFXFXFXFXFXFXFXFXZXjXpX9X].~.Y.c.j.u.c.T.Y.Z.Z.U.Y.Z.U.R.T.T.Z.Z.Z.Z.Z.Z.Z.Z.Z.Z.Z.Z.Z.Z.Z.Z.U.Z.Y.Y.Z.Z.Y.T.U.fXnXgXhXhXhXhXgXzX5X7 6 3 K.mXaXhXhXhXhXhXhXhXhXhXhXhXgXzXk 5 5 @.zXfXhXhXhXhXhXhXhXhXhXhXhXaXmXK.3 6 6 0XjXgXhXhXhXhXhXhXhXhXhXhXgXzX0X6 6 3 K.mXaXhXhXhXhXhXhXhXhXhXhXhXgXzX@.5 5 k zXgXhXhXhXhXhXhXhXhXhXhXhXaXmXK.3 6 7 8XzXgXhXhXhXhXhXhXhXhXhXhXgXjX0X9 6 3 G.mXaXhXhXhXhXhXhXhXhXhXhXhXfXMX#.5 5 k zXgXhXhXhXhXgXhXZX%XZ.T.Z.Z.Z.Y.Z.Z.T.T.T.Z.Z.Z.Z.Z.Z.Z.Z.Z.Z.Z.Z.",
"FXFXFXFXFXFXFXFXFXFXFXFXFXFXFXFXFXFXFXFXFXFXFXFXFXFXFXZXjXpX9X].~.Y.c.j.u.c.T.Y.Z.Y.Z.c.T.Z./ l.( Y.Z.Z.Z.Z.Z.Z.Z.Z.Z.Z.Z.Z.Z.Z.Z.Z.T.l.f.R.Z.Y.T.U.fXnXgXhXhXhXhXgXzX8X6 9 3 L.mXaXhXhXhXhXhXhXhXhXhXhXhXgXzXk 7 5 #.zXfXhXhXhXhXhXhXhXhXhXhXhXaXmXK.3 9 9 0XjXgXhXhXhXhXhXhXhXhXhXhXgXzX0X9 9 3 K.mXaXhXhXhXhXhXhXhXhXhXhXhXgXzX@.7 7 @.zXgXhXhXhXhXhXhXhXhXhXhXhXaXmXK.3 9 6 8XzXgXhXhXhXhXhXhXhXhXhXhXgXjX0X0 9 3 G.mXaXhXhXhXhXhXhXhXhXhXhXhXfXzX#.5 7 k zXgXhXhXhXhXgXhXZX%XZ.T.Z.Y.Z.x.Y.Y./ l./ Z.Z.Z.Z.Z.Z.Z.Z.Z.Z.Z.Z.",
"FXFXFXFXFXFXFXFXFXFXFXFXFXFXFXFXFXFXFXFXFXFXFXFXFXFXFXZXjXpX9X].~.Y.c.j.u.c.T.Y.Y.z.f d ( W f f x T.Z.Z.Z.Z.Z.Z.Z.Z.Z.Z.Z.Z.Z.Z.Z.U.Z., , c.U.U.T.U.fXnXgXhXhXhXhXgXzX8X6 9 3 L.mXaXhXhXhXhXhXhXhXhXhXhXhXgXzXk 7 5 #.zXfXhXhXhXhXhXhXhXhXhXhXhXaXmXK.3 9 9 0XjXgXhXhXhXhXhXhXhXhXhXhXgXzX0X9 9 3 K.mXaXhXhXhXhXhXhXhXhXhXhXhXgXzX@.5 7 @.zXgXhXhXhXhXhXhXhXhXhXhXhXaXmXK.3 9 6 8XzXgXhXhXhXhXhXhXhXhXhXhXgXjX0X9 9 3 G.mXaXhXhXhXhXhXhXhXhXhXhXhXfXzX#.5 7 k zXgXhXhXhXhXgXhXZX%XZ.T.Y.Z.f f W d.a x f T.Z.Z.Z.Z.Z.Z.Z.Z.Z.Z.Z.",
"FXFXFXFXFXFXFXFXFXFXFXFXFXFXFXFXFXFXFXFXFXFXFXFXFXFXFXZXjXpX9X].~.Y.c.j.u.c.T.Z.R.x / T.f f g a / T.Z.Z.Z.Z.Z.Z.Z.Z.Z.Z.Z.Z.Z.Z.Z.Y.x.~ ~ l.Y.U.T.U.fXnXgXhXhXhXhXgXzX8X6 9 3 L.mXaXhXhXhXhXhXhXhXhXhXhXhXgXzXk 7 5 #.zXfXhXhXhXhXhXhXhXhXhXhXhXaXmXK.3 9 9 0XjXgXhXhXhXhXhXhXhXhXhXhXgXzX0X9 9 3 K.mXaXhXhXhXhXhXhXhXhXhXhXhXgXzX@.5 7 @.zXgXhXhXhXhXhXhXhXhXhXhXhXaXmXK.3 9 6 8XzXgXhXhXhXhXhXhXhXhXhXhXgXjX0X9 9 3 G.mXaXhXhXhXhXhXhXhXhXhXhXhXfXzX#.5 7 k zXgXhXhXhXhXgXhXZX%XZ.T.R.W x ~.f g f f x T.Z.Z.Z.Z.Z.Z.Z.Z.Z.Z.Z.",
"FXFXFXFXFXFXFXFXFXFXFXFXFXFXFXFXFXFXFXFXFXFXFXFXFXFXFXZXjXpX9X].~.Y.c.j.u.c.T.Z.R.g d.R.f A f.x l.T.Z.Z.Z.Z.Z.Z.Z.Z.Z.Z.Z.Z.Z.Z.Z.Y.x.a a l.Y.Z.T.U.fXnXgXhXhXhXhXgXzX8X6 9 3 L.mXaXhXhXhXhXhXhXhXhXhXhXhXgXzXk 7 5 #.zXfXhXhXhXhXhXhXhXhXhXhXhXaXmXK.3 9 9 0XjXgXhXhXhXhXhXhXhXhXhXhXgXzX0X9 9 3 K.mXaXhXhXhXhXhXhXhXhXhXhXhXgXzX@.5 7 @.zXgXhXhXhXhXhXhXhXhXhXhXhXaXmXK.3 9 6 8XzXgXhXhXhXhXhXhXhXhXhXhXgXjX0X9 9 3 G.mXaXhXhXhXhXhXhXhXhXhXhXhXfXzX#.5 7 k zXgXhXhXhXhXgXhXZX%XZ.T.R.A x `.f A / / ( R.Z.Z.Z.Z.Z.Z.Z.Z.Z.Z.Z.",
"FXFXFXFXFXFXFXFXFXFXFXFXFXFXFXFXFXFXFXFXFXFXFXFXFXFXFXZXjXpX9X].~.Y.c.j.u.c.T.Y.T.f.d f / / / x l.T.Z.Z.Z.Z.Z.Z.Z.Z.Z.Z.Z.Z.Z.Z.Z.Z.T.a < U.Z.U.T.U.fXnXgXhXhXhXhXgXzX8X6 9 3 L.mXaXhXhXhXhXhXhXhXhXhXhXhXgXzXk 7 5 #.zXfXhXhXhXhXhXhXhXhXhXhXhXaXmXK.3 9 9 0XjXgXhXhXhXhXhXhXhXhXhXhXgXzX0X9 9 3 K.mXaXhXhXhXhXhXhXhXhXhXhXhXgXzX@.5 7 @.zXgXhXhXhXhXhXhXhXhXhXhXhXaXmXK.3 9 6 8XzXgXhXhXhXhXhXhXhXhXhXhXgXjX0X9 9 3 G.mXaXhXhXhXhXhXhXhXhXhXhXhXfXzX#.5 7 k zXgXhXhXhXhXgXhXZX%XZ.T.Y.c.f g x d.W / / T.Z.Z.Z.Z.Z.Z.Z.Z.Z.Z.Z.",
"FXFXFXFXFXFXFXFXFXFXFXFXFXFXFXFXFXFXFXFXFXFXFXFXFXFXFXZXjXpX9X].~.Y.c.j.u.c.T.Y.Z.T.x.l.T.Z.Z.Z.Z.Z.Z.Z.Z.Z.Z.Z.Z.Z.Z.Z.Z.Z.Z.Z.Z.Z.Y.Z.Z.T.Z.Y.T.U.fXnXgXhXhXhXhXgXzX8X6 9 3 L.mXaXhXhXhXhXhXhXhXhXhXhXhXgXzXk 7 5 #.zXfXhXhXhXhXhXhXhXhXhXhXhXaXmXK.3 9 9 0XjXgXhXhXhXhXhXhXhXhXhXhXgXzX0X9 9 3 K.mXaXhXhXhXhXhXhXhXhXhXhXhXgXzX@.5 7 @.zXgXhXhXhXhXhXhXhXhXhXhXhXaXmXK.3 9 6 8XzXgXhXhXhXhXhXhXhXhXhXhXgXjX0X9 9 3 G.mXaXhXhXhXhXhXhXhXhXhXhXhXfXzX#.5 7 k zXgXhXhXhXhXgXhXZX%XZ.T.Z.Y.Z.f.U.Z.Z.Z.Z.U.Z.Z.Z.Z.Z.Z.Z.Z.Z.Z.Z.",
"FXFXFXFXFXFXFXFXFXFXFXFXFXFXFXFXFXFXFXFXFXFXFXFXFXFXFXZXjXpX9X].~.Y.c.j.u.c.T.Y.Z.Z.Y.T.Z.U.U.U.Z.Z.Z.Z.Z.Z.Z.Z.Z.Z.Z.Z.Z.Z.Z.Z.Z.Z.Z.U.U.Z.Z.U.T.Z.fXnXgXhXhXhXhXgXzX8X6 9 3 L.mXaXhXhXhXhXhXhXhXhXhXhXhXgXzXk 7 5 #.zXfXhXhXhXhXhXhXhXhXhXhXhXaXmXK.3 9 9 0XjXgXhXhXhXhXhXhXhXhXhXhXgXzX0X9 9 3 K.mXaXhXhXhXhXhXhXhXhXhXhXhXgXzX@.5 7 @.zXgXhXhXhXhXhXhXhXhXhXhXhXaXmXK.3 9 6 8XzXgXhXhXhXhXhXhXhXhXhXhXgXjX0X9 9 3 G.mXaXhXhXhXhXhXhXhXhXhXhXhXfXzX#.5 7 k zXgXhXhXhXhXgXhXZX%XZ.T.Z.Z.U.T.Z.Z.U.U.U.Z.Z.Z.Z.Z.Z.Z.Z.Z.Z.Z.Z.",
"FXFXFXFXFXFXFXFXFXFXFXFXFXFXFXFXFXFXFXFXFXFXFXFXFXFXFXZXjXpX9X].~.Y.c.j.u.c.T.Y.U.U.Z.Z.U.U.U.U.U.U.U.U.U.U.U.U.U.U.U.U.U.U.U.Z.Z.U.U.U.Z.U.U.Y.T.U.fXnXgXhXhXhXhXgXzX8X6 9 3 L.mXaXhXhXhXhXhXhXhXhXhXhXhXgXzXk 7 5 #.zXfXhXhXhXhXhXhXhXhXhXhXhXaXmXK.3 9 9 0XjXgXhXhXhXhXhXhXhXhXhXhXgXzX0X9 9 3 K.mXaXhXhXhXhXhXhXhXhXhXhXhXgXzX@.5 7 @.zXgXhXhXhXhXhXhXhXhXhXhXhXaXmXK.3 9 6 8XzXgXhXhXhXhXhXhXhXhXhXhXgXjX0X9 9 3 G.mXaXhXhXhXhXhXhXhXhXhXhXhXfXzX#.5 7 k zXgXhXhXhXhXgXhXZX%XZ.T.Y.U.U.Z.U.U.U.U.U.U.U.U.U.U.U.U.U.U.U.U.U.",
"FXFXFXFXFXFXFXFXFXFXFXFXFXFXFXFXFXFXFXFXFXFXFXFXFXFXFXZXjXpX9X].~.Y.c.j.u.c.T.T.T.T.T.T.T.T.T.T.T.T.T.T.T.T.T.T.T.T.T.T.T.T.T.T.T.T.T.T.T.T.T.T.T.U.fXnXgXhXhXhXhXgXzX8X6 9 3 L.mXaXhXhXhXhXhXhXhXhXhXhXhXgXzXk 7 5 #.zXfXhXhXhXhXhXhXhXhXhXhXhXaXmXK.3 9 9 0XjXgXhXhXhXhXhXhXhXhXhXhXgXzX0X9 9 3 K.mXaXhXhXhXhXhXhXhXhXhXhXhXgXzX@.5 7 @.zXgXhXhXhXhXhXhXhXhXhXhXhXaXmXK.3 9 6 8XzXgXhXhXhXhXhXhXhXhXhXhXgXjX0X9 9 3 G.mXaXhXhXhXhXhXhXhXhXhXhXhXfXzX#.5 7 k zXgXhXhXhXhXgXhXZX%XZ.T.T.T.T.T.T.T.T.T.T.T.T.T.T.T.T.T.T.T.T.T.T.",
"FXFXFXFXFXFXFXFXFXFXFXFXFXFXFXFXFXFXFXFXFXFXFXFXFXFXFXZXjXpX9X].~.Y.c.j.u.c.T.T.T.T.T.T.T.T.T.T.T.T.T.T.T.T.T.T.T.T.T.T.T.T.T.T.T.T.T.T.T.T.T.T.T.U.fXnXgXhXhXhXhXgXzX8X6 9 3 L.mXaXhXhXhXhXhXhXhXhXhXhXhXgXzXk 7 5 #.zXfXhXhXhXhXhXhXhXhXhXhXhXaXmXK.3 9 9 0XjXgXhXhXhXhXhXhXhXhXhXhXgXzX0X9 9 3 K.mXaXhXhXhXhXhXhXhXhXhXhXhXgXzX@.5 7 @.zXgXhXhXhXhXhXhXhXhXhXhXhXaXmXK.3 9 6 8XzXgXhXhXhXhXhXhXhXhXhXhXgXjX0X9 9 3 G.mXaXhXhXhXhXhXhXhXhXhXhXhXfXzX#.5 7 k zXgXhXhXhXhXgXhXZX%XZ.T.T.T.T.T.T.T.T.T.T.T.T.T.T.T.T.T.T.T.T.T.T.",
"FXFXFXFXFXFXFXFXFXFXFXFXFXFXFXFXFXFXFXFXFXFXFXFXFXFXFXZXjXpX9X].~.Y.c.j.u.c.T.T.T.T.T.T.T.T.T.T.T.T.T.T.T.T.T.T.T.T.T.T.T.T.T.T.T.T.T.T.T.T.T.T.T.U.fXnXgXhXhXhXhXgXzX8X6 9 3 L.mXaXhXhXhXhXhXhXhXhXhXhXhXgXzXk 7 5 #.zXfXhXhXhXhXhXhXhXhXhXhXhXaXmXK.3 9 9 0XjXgXhXhXhXhXhXhXhXhXhXhXgXzX0X9 9 3 K.mXaXhXhXhXhXhXhXhXhXhXhXhXgXzX@.5 7 @.zXgXhXhXhXhXhXhXhXhXhXhXhXaXmXK.3 9 6 8XzXgXhXhXhXhXhXhXhXhXhXhXgXjX0X9 9 3 G.mXaXhXhXhXhXhXhXhXhXhXhXhXfXzX#.5 7 k zXgXhXhXhXhXgXhXZX%XZ.T.T.T.T.T.T.T.T.T.T.T.T.T.T.T.T.T.T.T.T.T.T.",
"FXFXFXFXFXFXFXFXFXFXFXFXFXFXFXFXFXFXFXFXFXFXFXFXFXFXFXZXjXpX9X].~.Y.c.j.u.c.T.T.T.T.T.T.T.T.T.T.T.T.T.T.T.T.T.T.T.T.T.T.T.T.T.T.T.T.T.T.T.T.T.T.T.U.fXnXgXhXhXhXhXgXzX8X6 9 3 L.mXaXhXhXhXhXhXhXhXhXhXhXhXgXzXk 7 5 #.zXfXhXhXhXhXhXhXhXhXhXhXhXaXmXK.3 9 9 0XjXgXhXhXhXhXhXhXhXhXhXhXgXzX0X9 9 3 K.mXaXhXhXhXhXhXhXhXhXhXhXhXgXzX@.5 7 @.zXgXhXhXhXhXhXhXhXhXhXhXhXaXmXK.3 9 6 8XzXgXhXhXhXhXhXhXhXhXhXhXgXjX0X9 9 3 G.mXaXhXhXhXhXhXhXhXhXhXhXhXfXzX#.5 7 k zXgXhXhXhXhXgXhXZX%XZ.T.T.T.T.T.T.T.T.T.T.T.T.T.T.T.T.T.T.T.T.T.T.",
"FXFXFXFXFXFXFXFXFXFXFXFXFXFXFXFXFXFXFXFXFXFXFXFXFXFXFXZXjXpX9X].~.Y.c.j.u.c.T.T.T.T.T.T.T.T.T.T.T.T.T.T.T.T.T.T.T.T.T.T.T.T.T.T.T.T.T.T.T.T.T.T.T.U.fXnXgXhXhXhXhXgXzX8X6 9 3 L.mXaXhXhXhXhXhXhXhXhXhXhXhXgXzXk 7 5 #.zXfXhXhXhXhXhXhXhXhXhXhXhXaXmXK.3 9 9 0XjXgXhXhXhXhXhXhXhXhXhXhXgXzX0X9 9 3 K.mXaXhXhXhXhXhXhXhXhXhXhXhXgXzX@.5 7 @.zXgXhXhXhXhXhXhXhXhXhXhXhXaXmXK.3 9 6 8XzXgXhXhXhXhXhXhXhXhXhXhXgXjX0X9 9 3 G.mXaXhXhXhXhXhXhXhXhXhXhXhXfXzX#.5 7 k zXgXhXhXhXhXgXhXZX%XZ.T.T.T.T.T.T.T.T.T.T.T.T.T.T.T.T.T.T.T.T.T.T.",
"FXFXFXFXFXFXFXFXFXFXFXFXFXFXFXFXFXFXFXFXFXFXFXFXFXFXFXZXjXpX9X].~.Y.c.j.u.c.T.T.T.T.T.T.T.T.T.T.T.T.T.T.T.T.T.T.T.T.T.T.T.T.T.T.T.T.T.T.T.T.T.T.T.U.fXnXgXhXhXhXhXgXzX8X6 9 3 L.mXaXhXhXhXhXhXhXhXhXhXhXhXgXzXk 7 5 #.zXfXhXhXhXhXhXhXhXhXhXhXhXaXmXK.3 9 9 0XjXgXhXhXhXhXhXhXhXhXhXhXgXzX0X9 9 3 K.mXaXhXhXhXhXhXhXhXhXhXhXhXgXzX@.5 7 @.zXgXhXhXhXhXhXhXhXhXhXhXhXaXmXK.3 9 6 8XzXgXhXhXhXhXhXhXhXhXhXhXgXjX0X9 9 3 G.mXaXhXhXhXhXhXhXhXhXhXhXhXfXzX#.5 7 k zXgXhXhXhXhXgXhXZX%XZ.T.T.T.T.T.T.T.T.T.T.T.T.T.T.T.T.T.T.T.T.T.T.",
"FXFXFXFXFXFXFXFXFXFXFXFXFXFXFXFXFXFXFXFXFXFXFXFXFXFXFXZXjXpX9X].~.Y.c.j.u.c.T.T.T.T.T.T.T.T.T.T.T.T.T.T.T.T.T.T.T.T.T.T.T.T.T.T.T.T.T.T.T.T.T.T.T.U.fXnXgXhXhXhXhXgXzX8X6 0 5 L.mXaXhXhXhXhXhXhXhXhXhXhXhXgXzX@.7 7 #.zXfXhXhXhXhXhXhXhXhXhXhXhXaXmXK.5 9 9 0XjXgXhXhXhXhXhXhXhXhXhXhXgXzX0X9 9 5 K.mXaXhXhXhXhXhXhXhXhXhXhXhXgXzX@.7 7 @.zXgXhXhXhXhXhXhXhXhXhXhXhXaXmXK.5 0 9 8XzXgXhXhXhXhXhXhXhXhXhXhXgXjX0X0 9 5 K.mXaXhXhXhXhXhXhXhXhXhXhXhXfXzX#.7 7 k zXgXhXhXhXhXgXhXZX%XZ.T.T.T.T.T.T.T.T.T.T.T.T.T.T.T.T.T.T.T.T.T.T.",
"FXFXFXFXFXFXFXFXFXFXFXFXFXFXFXFXFXFXFXFXFXFXFXFXFXFXFXZXjXpX9X].~.Y.c.j.u.c.T.T.T.T.T.T.T.T.T.T.T.T.T.T.T.T.T.T.T.T.T.T.T.T.T.T.T.T.T.T.T.T.T.T.T.U.fXnXgXhXhXhXhXgXzX5X5 6 4 K.mXaXhXhXhXhXhXhXhXhXhXhXhXgXzXk 3 3 @.zXfXhXhXhXhXhXhXhXhXhXhXhXaXmXK.4 7 7 0XjXgXhXhXhXhXhXhXhXhXhXhXgXzX0X7 6 4 K.mXaXhXhXhXhXhXhXhXhXhXhXhXfXzXk 3 3 k zXgXhXhXhXhXhXhXhXhXhXhXhXaXmXK.4 6 7 8XzXgXhXhXhXhXhXhXhXhXhXhXgXjX0X6 7 4 G.mXaXhXhXhXhXhXhXhXhXhXhXhXfXMX@.3 3 k zXgXhXhXhXhXgXhXZX%XZ.T.T.T.T.T.T.T.T.T.T.T.T.T.T.T.T.T.T.T.T.T.T.",
"FXFXFXFXFXFXFXFXFXFXFXFXFXFXFXFXFXFXFXFXFXFXFXFXFXFXFXZXjXpX9X].~.Y.c.j.u.c.T.T.T.T.T.T.T.T.T.T.T.T.T.T.T.T.T.T.T.T.T.T.T.T.T.T.T.T.T.T.T.T.T.T.T.U.fXnXgXhXhXhXhXgXzX0Xe e e L.MXaXhXhXhXhXhXhXhXhXhXhXhXgXzX3.e e 4.zXgXhXhXhXhXhXhXhXhXhXhXhXaXMXL.e e e 0XhXgXhXhXhXhXhXhXhXhXhXhXgXjX0Xe e e L.MXaXhXhXhXhXhXhXhXhXhXhXhXgXzX3.e e 3.zXgXhXhXhXhXhXhXhXhXhXhXhXaXMXL.e e e 0XjXgXhXhXhXhXhXhXhXhXhXhXgXhXwXe e e L.MXaXhXhXhXhXhXhXhXhXhXhXhXgXzX4.e e 3.zXgXhXhXhXhXgXhXZX%XZ.T.T.T.T.T.T.T.T.T.T.T.T.T.T.T.T.T.T.T.T.T.T.",
"FXFXFXFXFXFXFXFXFXFXFXFXFXFXFXFXFXFXFXFXFXFXFXFXFXFXFXZXjXpX9X].~.Y.c.j.u.c.T.T.T.T.T.T.T.T.T.T.T.T.T.T.T.T.T.T.T.T.T.T.T.T.T.T.T.T.T.T.T.T.T.T.T.U.fXnXgXhXhXhXhXhXgXhXnXnXnXjXgXhXhXhXhXhXhXhXhXhXhXhXhXhXgXnXnXnXnXgXhXhXhXhXhXhXhXhXhXhXhXhXhXgXjXnXnXnXhXgXhXhXhXhXhXhXhXhXhXhXhXhXgXhXnXnXnXjXgXhXhXhXhXhXhXhXhXhXhXhXhXhXgXnXnXnXnXgXhXhXhXhXhXhXhXhXhXhXhXhXhXgXjXnXnXnXhXgXhXhXhXhXhXhXhXhXhXhXhXhXgXhXnXnXnXjXgXhXhXhXhXhXhXhXhXhXhXhXhXhXgXnXnXnXnXgXhXhXhXhXhXgXhXZX%XZ.T.T.T.T.T.T.T.T.T.T.T.T.T.T.T.T.T.T.T.T.T.T.",
"SXFXFXFXFXFXFXFXFXFXFXFXFXFXFXFXFXFXFXFXFXFXFXFXHXHXFXZXjXpX9X].~.Y.c.j.u.c.T.T.T.T.T.T.T.T.T.T.T.T.T.T.T.T.T.T.T.T.T.T.T.T.T.T.T.T.T.T.T.T.T.T.T.U.fXnXgXhXhXhXhXhXgXhXnXnXnXjXgXhXhXhXhXhXhXhXhXhXhXhXhXhXgXnXnXnXnXgXhXhXhXhXhXhXhXhXhXhXhXhXhXgXjXnXnXnXhXgXhXhXhXhXhXhXhXhXhXhXhXhXgXhXnXnXnXjXgXhXhXhXhXhXhXhXhXhXhXhXhXhXgXnXnXnXnXgXhXhXhXhXhXhXhXhXhXhXhXhXhXgXjXnXnXnXhXgXhXhXhXhXhXhXhXhXhXhXhXhXgXhXnXnXnXjXgXhXhXhXhXhXhXhXhXhXhXhXhXhXgXnXnXnXnXgXhXhXhXhXhXgXhXZX%XZ.T.T.T.T.T.T.T.T.T.T.T.T.T.T.T.T.T.T.T.T.T.T.",
"KXSXFXFXFXFXFXFXFXFXFXFXFXFXFXFXFXFXFXFXFXFXSXKXOXOXKXCXjXpX9X].~.Y.c.j.u.c.T.T.T.T.T.T.T.T.T.T.T.T.T.T.T.T.Y.Y.Y.T.T.T.T.T.T.T.T.T.T.T.T.T.T.T.T.U.fXnXgXhXhXhXhXhXgXhXnXnXnXjXgXhXhXhXhXhXhXhXhXhXhXhXhXhXgXnXnXnXjXgXhXhXhXhXhXhXhXhXhXhXhXhXhXgXjXnXnXnXhXgXhXhXhXhXhXhXhXhXhXhXhXhXgXhXnXnXnXjXgXhXhXhXhXhXhXhXhXhXhXhXhXhXgXxXnXnXxXgXhXhXhXhXhXhXhXhXhXhXhXhXhXgXjXnXnXnXhXgXhXhXhXhXhXhXhXhXhXhXhXhXgXhXnXnXnXjXgXhXhXhXhXhXhXhXhXhXhXhXhXhXgXjXnXnXnXgXhXhXhXhXhXgXhXZX%XZ.T.T.T.T.T.T.T.T.T.T.T.T.T.T.T.T.T.T.T.T.T.T.",
"cXHXFXFXFXFXFXFXFXFXFXFXFXFXFXFXFXFXFXFXSXKXoX|.M.D KXCXjXpX9X].~.Y.c.j.u.c.T.T.T.T.T.T.T.T.T.T.T.T.T.Y.Y.T.R.Q.R.T.Y.T.T.T.T.T.T.T.T.T.T.T.T.T.T.U.fXnXgXhXhXhXhXhXgXhXZXZXGXxXgXhXhXhXhXhXhXhXhXhXhXhXhXhXgXmXAXAXmXgXhXhXhXhXhXhXhXhXhXhXhXhXhXgXxXGXZXZXhXgXhXhXhXhXhXhXhXhXhXhXhXhXgXhXZXZXGXxXgXhXhXhXhXhXhXhXhXhXhXhXhXhXgXmXAXAXmXgXhXhXhXhXhXhXhXhXhXhXhXhXhXgXxXGXZXZXhXgXhXhXhXhXhXhXhXhXhXhXhXhXgXhXZXZXGXxXgXhXhXhXhXhXhXhXhXhXhXhXhXhXgXmXAXAXmXgXhXhXhXhXhXgXhXZX%XZ.T.T.T.T.T.T.T.T.T.T.T.T.T.T.T.T.T.T.T.Y.T.T.",
"|.HXD cXHXFXFXFXFXFXFXFXFXFXFXFXFXFXFXFXSXKXOXF D F HXCXjXpX9X].~.Y.c.j.u.c.T.T.T.T.T.T.T.T.T.T.T.T.Y.R.R.c.v.j.z.T.!.T.Y.T.T.T.T.T.T.T.T.T.T.T.T.U.fXnXgXhXhXhXhXhXhXfX6X6X6XuXhXgXhXhXhXhXhXhXhXhXhXhXhXhXhX5X6X6X5XhXgXhXhXhXhXhXhXhXhXhXhXhXgXhXuX6X6X6XfXhXhXhXhXhXhXhXhXhXhXhXhXhXhXfX6X6X6XuXhXgXhXhXhXhXhXhXhXhXhXhXhXgXhX5X6X6X5XhXgXhXhXhXhXhXhXhXhXhXhXhXgXhXuX6X6X6XfXhXhXhXhXhXhXhXhXhXhXhXhXhXhXfX6X6X6XuXhXgXhXhXhXhXhXhXhXhXhXhXhXgXhX5X6X6X5XhXhXhXhXhXhXgXhXZX%XZ.T.T.T.T.T.T.T.T.T.T.T.T.T.T.U.c.c.c.Y.R.T.Y.",
"M.mXC aXHXSXSXSXFXFXSXFXFXFXSXFXFXSXSXSXAXKX XF D C SXAXjXpX9X%X~.Y.c.j.u.c.T.T.T.T.T.T.T.T.T.T.T.T.R.z.z t 1 1 1 y v Z.R.Y.T.T.T.T.T.T.T.T.T.T.T.U.fXnXgXhXhXhXhXgXzXeX:.>.1.,XcXfXhXhXhXhXhXhXhXhXhXhXhXgXzX8.1.1.8.zXgXhXhXhXhXhXhXhXhXhXhXhXfXcXI.1.>.>.uXhXgXhXhXhXhXhXhXhXhXhXhXgXhXeX>.>.1.>XcXfXhXhXhXhXhXhXhXhXhXhXhXgXzX8.1.1.8.zXgXhXhXhXhXhXhXhXhXhXhXhXfXcX,X1.>.:.eXzXgXhXhXhXhXhXhXhXhXhXhXgXhXuX>.>.1.I.cXfXhXhXhXhXhXhXhXhXhXhXhXgXzX7.1.1.8.zXgXhXhXhXhXgXhXZX%XZ.T.T.T.T.T.T.T.T.T.T.T.T.Z.b.&.b b b %.b.Z.T.",
"D vXn yXKXHXKXHXSXFXHXFXSXHXKXHXSXHXKXHXKXKX|.n F C zXnXnXkX9XZ.Q.Y.c.v.u.c.T.T.T.T.T.T.T.T.T.T.T.T.v 1 1 z s.v.s.y 1 y x.R.Y.T.T.T.T.T.T.T.T.T.T.U.fXnXgXhXhXhXhXgXzXeX,.<.>.,XcXfXhXhXhXhXhXhXhXhXhXhXhXgXzX7.,.>.7.zXgXhXhXhXhXhXhXhXhXhXhXhXfXcX,X:.<.<.uXhXgXhXhXhXhXhXhXhXhXhXhXgXhXuX<.<.:.,XcXfXhXhXhXhXhXhXhXhXhXhXhXgXzX7.>.,.7.zXgXhXhXhXhXhXhXhXhXhXhXhXfXcX,X:.<.,.eXhXgXhXhXhXhXhXhXhXhXhXhXgXhXuX<.<.:.>XcXfXhXhXhXhXhXhXhXhXhXhXhXgXzX7.>.,.8.zXgXhXhXhXhXgXhXZX%XZ.T.T.T.T.T.T.T.T.T.T.T.x.&.b 4.E.E.E.s.b &.c.",
"F D n oXoXoXOXoXKXHXcXHXKXAX XZXKXvX|.vX|.SX|.n C C F D *XD XXo c.{.c.a.u.Z.T.T.T.T.T.T.T.T.T.T.T.v.j j ].nXAXSXAXjXv.1 t c.R.Y.T.T.T.T.T.T.T.T.T.U.fXnXgXhXhXhXhXgXzXeX,.,.:.,XcXfXhXhXhXhXhXhXhXhXhXhXhXgXzX7.>.>.7.zXgXhXhXhXhXhXhXhXhXhXhXhXfXcX,X:.,.,.uXhXgXhXhXhXhXhXhXhXhXhXhXgXhXuX,.,.:.,XcXfXhXhXhXhXhXhXhXhXhXhXhXgXzX7.>.>.7.zXgXhXhXhXhXhXhXhXhXhXhXhXfXcX,X:.,.,.eXhXgXhXhXhXhXhXhXhXhXhXhXgXhXuX<.,.:.>XcXfXhXhXhXhXhXhXhXhXhXhXhXgXzX7.>.>.8.zXgXhXhXhXhXgXhXZX%XZ.T.T.T.T.T.T.T.T.T.T.x.&.%.[.nXZXAXAXnX[.%.b ",
"o o o C o m n n D  Xn XXyX|.m F oXF . F m OXD o n o o n n o UXo S c.j.o , x.R.Y.T.T.T.T.T.T.T.T.Z.&.4.pXsXnXnXnXnXnXHXU.1 j T.T.T.T.T.T.T.T.T.T.T.U.fXnXgXhXhXhXhXgXzXeX,.,.:.,XcXfXhXhXhXhXhXhXhXhXhXhXhXgXzX7.>.>.7.zXgXhXhXhXhXhXhXhXhXhXhXhXfXcX,X:.,.,.uXhXgXhXhXhXhXhXhXhXhXhXhXgXhXuX,.,.:.,XcXfXhXhXhXhXhXhXhXhXhXhXhXgXzX7.>.>.7.zXgXhXhXhXhXhXhXhXhXhXhXhXfXcX,X:.,.,.eXhXgXhXhXhXhXhXhXhXhXhXhXgXhXuX<.,.:.>XcXfXhXhXhXhXhXhXhXhXhXhXhXgXzX7.>.>.8.zXgXhXhXhXhXgXhXZX%XZ.T.T.T.T.T.T.T.T.T.U.%.%.0XAXnXnXnXnXZXHX0Xy ",
"D D D D D D D D D D D |.[ D D D D D D D D [ [ D D D D D D S D F Z Z f i , f.R.Y.T.T.T.T.T.T.T.T.s.b 8XzX< ` SXnXnXnXnXAXv 1 a.R.Y.T.T.T.T.T.T.T.T.U.fXnXgXhXhXhXhXgXzXeX,.,.:.,XcXfXhXhXhXhXhXhXhXhXhXhXhXgXzX7.>.>.7.zXgXhXhXhXhXhXhXhXhXhXhXhXfXcX,X:.,.,.uXhXgXhXhXhXhXhXhXhXhXhXhXgXhXuX,.,.:.,XcXfXhXhXhXhXhXhXhXhXhXhXhXgXzX7.>.>.7.zXgXhXhXhXhXhXhXhXhXhXhXhXfXcX,X:.,.,.eXhXgXhXhXhXhXhXhXhXhXhXhXgXhXuX<.,.:.>XcXfXhXhXhXhXhXhXhXhXhXhXhXgXzX7.>.>.8.zXgXhXhXhXhXgXhXZX%XZ.T.T.T.T.T.T.T.Y.R.v.b {.AXnXnXnXnXSX(.h MXv.",
"4.4.4.4.4.4.6.4.4.4.6.6.6.6.6.6.6.6.6.6.6.6.6.5.6.0.6.6.&.&.$.l l l j e r a.Q.Y.T.T.T.T.T.T.T.Y.%.4.nXZXS.- ` ZXnXnXnXAX`.1 c Q.Y.T.T.T.T.T.T.T.T.U.fXnXgXhXhXhXhXgXzXeX,.,.:.,XcXfXhXhXhXhXhXhXhXhXhXhXhXgXzX7.>.>.7.zXgXhXhXhXhXhXhXhXhXhXhXhXfXcX,X:.,.,.uXhXgXhXhXhXhXhXhXhXhXhXhXgXhXuX,.,.:.,XcXfXhXhXhXhXhXhXhXhXhXhXhXgXzX7.>.>.7.zXgXhXhXhXhXhXhXhXhXhXhXhXfXcX,X:.,.,.eXhXgXhXhXhXhXhXhXhXhXhXhXgXhXuX<.,.:.>XcXfXhXhXhXhXhXhXhXhXhXhXhXgXzX7.>.>.8.zXgXhXhXhXhXgXhXZX%XZ.T.T.T.T.T.T.T.T.T.4.&.fXnXnXnXnXCXN., ! nXwX",
"2 2 2 | | 2  .|  .| X.| O.X.O.X. .O.X.O.O.O.O.5.2X:X .X.| 8 2 2 2 2 2 q 2 %.~.Y.T.T.T.T.T.T.T.Z.&.J.ZXnXSXC.h.ZXnXnXnXCXpXt z R.Y.T.T.T.T.T.T.T.T.U.fXnXgXhXhXhXhXgXzXeX,.,.:.,XcXfXhXhXhXhXhXhXhXhXhXhXhXgXzX7.>.>.7.zXgXhXhXhXhXhXhXhXhXhXhXhXfXcX,X:.,.,.uXhXgXhXhXhXhXhXhXhXhXhXhXgXhXuX,.,.:.,XcXfXhXhXhXhXhXhXhXhXhXhXhXgXzX7.>.>.7.zXgXhXhXhXhXhXhXhXhXhXhXhXfXcX,X:.,.,.eXhXgXhXhXhXhXhXhXhXhXhXhXgXhXuX<.,.:.>XcXfXhXhXhXhXhXhXhXhXhXhXhXgXzX7.>.>.8.zXgXhXhXhXhXgXhXZX%XZ.T.T.T.T.T.T.T.T.Y.&.b.nXnXnXnXnXCX! m.SXCXnX",
"+.+. . .X.+.O. .X. .5.X.<Xe.5.O.e.7XO.7X7X5.e.KXKX<XO.*. . . . .8 q 2 l 2 4.!.Y.T.T.T.T.T.T.T.Z.b J.AXnXnXAXAXnXnXnXnXnXhXt j R.Y.T.T.T.T.T.T.T.T.U.fXnXgXhXhXhXhXgXzXeX,.,.:.,XcXfXhXhXhXhXhXhXhXhXhXhXhXgXzX7.>.>.7.zXgXhXhXhXhXhXhXhXhXhXhXhXfXcX,X:.,.,.uXhXgXhXhXhXhXhXhXhXhXhXhXgXhXuX,.,.:.,XcXfXhXhXhXhXhXhXhXhXhXhXhXgXzX7.>.>.7.zXgXhXhXhXhXhXhXhXhXhXhXhXfXcX,X:.,.,.eXhXgXhXhXhXhXhXhXhXhXhXhXgXhXuX<.,.:.>XcXfXhXhXhXhXhXhXhXhXhXhXhXgXzX7.>.>.8.zXgXhXhXhXhXgXhXZX%XZ.T.T.T.T.T.T.T.T.Y.&.b.nXnXnXnXnXnXCXAXnXnXCX",
" . .X. .X.X.O. .X. .6. .2X6X6Xe.dXAX<XHXKX:X2XJXJX6XO.6. .*.+.+.8 $.2 l 2 4.!.Y.T.T.T.T.T.T.T.Z.&.b.nXnXnXnXnXnXnXnXnXZX9Xr z Q.Y.T.T.T.T.T.T.T.T.U.fXnXgXhXhXhXhXgXzXeX,.,.:.,XcXfXhXhXhXhXhXhXhXhXhXhXhXgXzX7.>.>.7.zXgXhXhXhXhXhXhXhXhXhXhXhXfXcX,X:.,.,.uXhXgXhXhXhXhXhXhXhXhXhXhXgXhXuX,.,.:.,XcXfXhXhXhXhXhXhXhXhXhXhXhXgXzX7.>.>.7.zXgXhXhXhXhXhXhXhXhXhXhXhXfXcX,X:.,.,.eXhXgXhXhXhXhXhXhXhXhXhXhXgXhXuX<.,.:.>XcXfXhXhXhXhXhXhXhXhXhXhXhXgXzX7.>.>.8.zXgXhXhXhXhXgXhXZX%XZ.T.T.T.T.T.T.T.T.T.%.%.jXnXnXnXnXnXnXnXnXnXhX",
"X.X.X.X.X.X.5.X.O. .<Xe.dXJXHXHXFXHXJXSXSXHXHXSXHXbXlX6.*.zXG.4.8 $.2 b 2 4.!.Y.T.T.T.T.T.T.T.T.%.&.fXCXnXnXnXnXnXnXxXSXx.1 i.Q.Y.T.T.T.T.T.T.T.T.U.fXnXgXhXhXhXhXgXzXeX,.,.:.,XcXfXhXhXhXhXhXhXhXhXhXhXhXgXzX7.>.>.7.zXgXhXhXhXhXhXhXhXhXhXhXhXfXcX,X:.,.,.uXhXgXhXhXhXhXhXhXhXhXhXhXgXhXuX,.,.:.,XcXfXhXhXhXhXhXhXhXhXhXhXhXgXzX7.>.>.7.zXgXhXhXhXhXhXhXhXhXhXhXhXfXcX,X:.,.,.eXhXgXhXhXhXhXhXhXhXhXhXhXgXhXuX<.,.:.>XcXfXhXhXhXhXhXhXhXhXhXhXhXgXzX7.>.>.8.zXgXhXhXhXhXgXhXZX%XZ.T.T.T.T.T.T.T.Y.T.b.b 8XAXnXnXnXnXnXnXnXAX~.",
"X.X.O.O.<XO.6.X.*.X.2XKXSXSXSXFXFXSXSXFXFXSXFXFXSXFXKX6.*.zXiXP.+.4.2 &.q 4.!.Y.T.T.T.T.T.T.Y.T.v.b J.ZXnXnXnXnXnXnXFXwXt t Z.T.T.T.T.T.T.T.T.T.T.U.fXnXgXhXhXhXhXgXzXeX,.,.:.,XcXfXhXhXhXhXhXhXhXhXhXhXhXgXzX7.>.>.7.zXgXhXhXhXhXhXhXhXhXhXhXhXfXcX,X:.,.,.uXhXgXhXhXhXhXhXhXhXhXhXhXgXhXuX,.,.:.,XcXfXhXhXhXhXhXhXhXhXhXhXhXgXzX7.>.>.7.zXgXhXhXhXhXhXhXhXhXhXhXhXfXcX,X:.,.,.eXhXgXhXhXhXhXhXhXhXhXhXhXgXhXuX<.,.:.>XcXfXhXhXhXhXhXhXhXhXhXhXhXgXzX7.>.>.8.zXgXhXhXhXhXgXhXZX%XZ.T.T.T.T.T.T.T.T.T.c.&.b.nXZXnXnXnXnXnXAXxXj ",
"X.O.O.O.nXO.e.X.e.X.6XJXSXFXFXFXFXFXFXFXFXFXFXFXFXSXJX2XG.hX9X{.+.b.2 %.q 4.!.Y.T.T.T.T.T.T.T.T.T.s.b E.nXZXnXnXCXZX%Xj 1 i.Q.Y.T.T.T.T.T.T.T.T.T.U.fXnXgXhXhXhXhXgXzXeX,.,.:.,XcXfXhXhXhXhXhXhXhXhXhXhXhXgXzX7.>.>.7.zXgXhXhXhXhXhXhXhXhXhXhXhXfXcX,X:.,.,.uXhXgXhXhXhXhXhXhXhXhXhXhXgXhXuX,.,.:.,XcXfXhXhXhXhXhXhXhXhXhXhXhXgXzX7.>.>.7.zXgXhXhXhXhXhXhXhXhXhXhXhXfXcX,X:.,.,.eXhXgXhXhXhXhXhXhXhXhXhXhXgXhXuX<.,.:.>XcXfXhXhXhXhXhXhXhXhXhXhXhXgXzX7.>.>.8.zXgXhXhXhXhXgXhXZX%XZ.T.T.T.T.T.T.T.T.T.T.b.b b.hXZXnXnXnXZXtXb 1 ",
"e.X.O.O.SX<X<XX.<XX.7XJXSXFXFXFXFXFXFXFXFXFXFXFXFXFXFXAXxXpX9X].L.c.8 %.q 4.!.Y.T.T.T.T.T.T.T.T.T.U.%.b U.qXgXhXpX9Xb 1 v R.Y.T.T.T.T.T.T.T.T.T.T.U.fXnXgXhXhXhXhXgXzXeX,.,.:.,XcXfXhXhXhXhXhXhXhXhXhXhXhXgXzX7.>.>.7.zXgXhXhXhXhXhXhXhXhXhXhXhXfXcX,X:.,.,.uXhXgXhXhXhXhXhXhXhXhXhXhXgXhXuX,.,.:.,XcXfXhXhXhXhXhXhXhXhXhXhXhXgXzX7.>.>.7.zXgXhXhXhXhXhXhXhXhXhXhXhXfXcX,X:.,.,.eXhXgXhXhXhXhXhXhXhXhXhXhXgXhXuX<.,.:.>XcXfXhXhXhXhXhXhXhXhXhXhXhXgXzX7.>.>.8.zXgXhXhXhXhXgXhXZX%XZ.T.T.T.T.T.T.T.T.T.T.T.s.b v.qXfXhXpXqXu.1 z ",
"<XO.*.O.HXKX7XX.,XX.lXJXSXFXFXFXFXFXFXFXFXFXFXFXFXFXFXZXjXpX9X].`.U.q 4.q 4.!.Y.T.T.T.T.T.T.T.T.T.T.U.v.Y.Z.T.T.U.T.c.i.T.T.T.T.T.T.T.T.T.T.T.T.T.U.fXnXgXhXhXhXhXgXzXeX,.,.:.,XcXfXhXhXhXhXhXhXhXhXhXhXhXgXzX7.>.>.7.zXgXhXhXhXhXhXhXhXhXhXhXhXfXcX,X:.,.,.uXhXgXhXhXhXhXhXhXhXhXhXhXgXhXuX,.,.:.,XcXfXhXhXhXhXhXhXhXhXhXhXhXgXzX7.>.>.7.zXgXhXhXhXhXhXhXhXhXhXhXhXfXcX,X:.,.,.eXhXgXhXhXhXhXhXhXhXhXhXhXgXhXuX<.,.:.>XcXfXhXhXhXhXhXhXhXhXhXhXhXgXzX7.>.>.8.zXgXhXhXhXhXgXhXZX%XZ.T.T.T.T.T.T.T.T.T.T.T.T.v.Z.Z.Y.T.Y.Y.Z.u.Y.",
"<XO.5.O.HXJX7XO.6XO.dXJXSXFXFXFXFXFXFXFXFXFXFXFXFXFXFXZXjXpX9X].~.T.b.z.q %.!.Y.T.T.T.T.T.T.T.T.T.T.T.T.T.T.T.T.T.T.T.R.T.T.T.T.T.T.T.T.T.T.T.T.T.U.fXnXgXhXhXhXhXgXzXeX,.,.:.,XcXfXhXhXhXhXhXhXhXhXhXhXhXgXzX7.>.>.7.zXgXhXhXhXhXhXhXhXhXhXhXhXfXcX,X:.,.,.uXhXgXhXhXhXhXhXhXhXhXhXhXgXhXuX,.,.:.,XcXfXhXhXhXhXhXhXhXhXhXhXhXgXzX7.>.>.7.zXgXhXhXhXhXhXhXhXhXhXhXhXfXcX,X:.,.,.eXhXgXhXhXhXhXhXhXhXhXhXhXgXhXuX<.,.:.>XcXfXhXhXhXhXhXhXhXhXhXhXhXgXzX7.>.>.8.zXgXhXhXhXhXgXhXZX%XZ.T.T.T.T.T.T.T.T.T.T.T.T.T.T.T.T.T.T.T.T.Q.T.",
"<XO.5.*.HXJXlXO.dXO.dXJXSXFXFXFXFXFXFXFXFXFXFXFXFXFXFXZXjXpX9X].~.Y.c.z.b v.R.Y.T.T.T.T.T.T.T.T.T.T.T.T.T.T.T.T.T.T.T.Y.T.T.T.T.T.T.T.T.T.T.T.T.T.U.fXnXgXhXhXhXhXgXzXeX,.,.:.,XcXfXhXhXhXhXhXhXhXhXhXhXhXgXzX7.>.>.7.zXgXhXhXhXhXhXhXhXhXhXhXhXfXcX,X:.,.,.uXhXgXhXhXhXhXhXhXhXhXhXhXgXhXuX,.,.:.,XcXfXhXhXhXhXhXhXhXhXhXhXhXgXzX7.>.>.7.zXgXhXhXhXhXhXhXhXhXhXhXhXfXcX,X:.,.,.eXhXgXhXhXhXhXhXhXhXhXhXhXgXhXuX<.,.:.>XcXfXhXhXhXhXhXhXhXhXhXhXhXgXzX7.>.>.8.zXgXhXhXhXhXgXhXZX%XZ.T.T.T.T.T.T.T.T.T.T.T.T.T.T.T.T.T.T.T.T.Y.T.",
"2X*.6.*.JXJXdXO.DX*.PXJXSXFXFXFXFXFXFXFXFXFXFXFXFXFXFXZXjXpX9X].~.Y.c.j.i.c.T.T.T.T.T.T.T.T.T.T.T.T.T.T.T.T.T.T.T.T.T.T.T.T.T.T.T.T.T.T.T.T.T.T.T.U.fXnXgXhXhXhXhXgXzXeX,.<.>.,XcXfXhXhXhXhXhXhXhXhXhXhXhXgXzX7.,.>.7.zXgXhXhXhXhXhXhXhXhXhXhXhXfXcX,X>.<.<.uXhXgXhXhXhXhXhXhXhXhXhXhXgXhXuX<.<.>.,XcXfXhXhXhXhXhXhXhXhXhXhXhXgXzX7.,.,.7.zXgXhXhXhXhXhXhXhXhXhXhXhXfXcX,X>.<.,.eXhXgXhXhXhXhXhXhXhXhXhXhXgXhXuX<.<.>.>XcXfXhXhXhXhXhXhXhXhXhXhXhXgXzX7.>.,.7.zXgXhXhXhXhXgXhXZX%XZ.T.T.T.T.T.T.T.T.T.T.T.T.T.T.T.T.T.T.T.T.T.T.",
"2X*.6.5.JXHXPX*.SXPXSXHXFXFXFXFXFXFXFXFXFXFXFXFXFXFXFXZXjXpX9X].~.Y.c.j.u.c.T.T.T.T.T.T.T.T.T.T.T.T.T.T.T.T.T.T.T.T.T.T.T.T.T.T.T.T.T.T.T.T.T.T.T.U.fXnXgXhXhXhXhXgXzXeX:.>.;.,XcXfXhXhXhXhXhXhXhXhXhXhXhXgXzX8.1.1.8.zXgXhXhXhXhXhXhXhXhXhXhXhXfXcXI.;.>.>.uXhXgXhXhXhXhXhXhXhXhXhXhXgXhXeX:.>.;.>XcXfXhXhXhXhXhXhXhXhXhXhXhXgXzX8.1.1.8.zXgXhXhXhXhXhXhXhXhXhXhXhXfXcX,X;.>.:.eXzXgXhXhXhXhXhXhXhXhXhXhXgXhXuX>.>.;.I.cXfXhXhXhXhXhXhXhXhXhXhXhXgXzX7.1.1.8.zXgXhXhXhXhXgXhXZX%XZ.T.T.T.T.T.T.T.T.T.T.T.T.T.T.T.T.T.T.T.T.T.T.",
"6X5.e.5.JXSXSXbXFXHXHXFXFXFXFXFXFXFXFXFXFXFXFXFXFXFXFXZXjXpX9X].~.Y.c.j.u.c.T.T.T.T.T.T.T.T.T.T.T.T.T.T.T.T.T.T.T.T.T.T.T.T.T.T.T.T.T.T.T.T.T.T.T.U.fXnXgXhXhXhXhXgXhXuX0.0.0.5XzXgXhXhXhXhXhXhXhXhXhXhXhXgXhXI.0.0.>XzXgXhXhXhXhXhXhXhXhXhXhXhXgXzX6X0.0.0.pXhXgXhXhXhXhXhXhXhXhXhXhXgXhXuX0.0.0.5XzXgXhXhXhXhXhXhXhXhXhXhXhXgXhX>X0.0.I.hXgXhXhXhXhXhXhXhXhXhXhXhXgXzX5X0.0.0.uXhXgXhXhXhXhXhXhXhXhXhXhXgXhXpX0.0.0.6XzXgXhXhXhXhXhXhXhXhXhXhXhXgXzX>X0.0.I.hXgXhXhXhXhXgXhXZX%XZ.T.T.T.T.T.T.T.T.T.T.T.T.T.T.T.T.T.T.T.T.T.T.",
"6X5.e.6.KXSXFXHXFXSXFXFXFXFXFXFXFXFXFXFXFXFXFXFXFXFXFXZXjXpX9X].~.Y.c.j.u.c.T.T.T.T.T.T.T.T.T.T.T.T.T.T.T.T.T.T.T.T.T.T.T.T.T.T.T.T.T.T.T.T.T.T.T.U.fXnXgXhXhXhXhXhXgXhXcXcXcXhXgXhXhXhXhXhXhXhXhXhXhXhXhXhXgXzXcXcXzXgXhXhXhXhXhXhXhXhXhXhXhXhXhXgXzXcXcXcXhXgXhXhXhXhXhXhXhXhXhXhXhXhXgXhXcXcXcXhXgXhXhXhXhXhXhXhXhXhXhXhXhXhXgXzXcXcXzXgXhXhXhXhXhXhXhXhXhXhXhXhXhXgXhXcXcXcXhXgXhXhXhXhXhXhXhXhXhXhXhXhXgXhXcXcXcXzXgXhXhXhXhXhXhXhXhXhXhXhXhXhXgXzXcXcXzXgXhXhXhXhXhXgXhXZX%XZ.T.T.T.T.T.T.T.T.T.T.T.T.T.T.T.T.T.T.T.T.T.T.",
"CXdXe.e.KXSXFXSXFXFXFXFXFXFXFXFXFXFXFXFXFXFXFXFXFXFXFXZXjXpX9X].~.Y.c.j.u.c.T.T.T.T.T.T.T.T.T.T.T.T.T.T.T.T.T.T.T.T.T.T.T.T.T.T.T.T.T.T.T.T.T.T.T.U.fXnXgXhXhXhXhXhXhXgXfXfXfXgXhXhXhXhXhXhXhXhXhXhXhXhXhXhXhXgXfXfXgXhXhXhXhXhXhXhXhXhXhXhXhXhXhXhXgXfXfXfXgXhXhXhXhXhXhXhXhXhXhXhXhXhXhXgXfXfXfXgXhXhXhXhXhXhXhXhXhXhXhXhXhXhXhXgXfXfXgXhXhXhXhXhXhXhXhXhXhXhXhXhXhXhXgXfXfXfXgXhXhXhXhXhXhXhXhXhXhXhXhXhXhXhXfXfXfXgXhXhXhXhXhXhXhXhXhXhXhXhXhXhXhXgXfXfXgXhXhXhXhXhXhXgXhXZX%XZ.T.T.T.T.T.T.T.T.T.T.T.T.T.T.T.T.T.T.T.T.T.T.",
"JXKXe.e.KXSXFXFXFXFXFXFXFXFXFXFXFXFXFXFXFXFXFXFXFXFXFXZXjXpX9X].~.Y.c.j.u.c.T.T.T.T.T.T.T.T.T.T.T.T.T.T.T.T.T.T.T.T.T.T.T.T.T.T.T.T.T.T.T.T.T.T.T.U.fXnXgXhXhXhXhXhXhXhXhXhXhXhXhXhXhXhXhXhXhXhXhXhXhXhXhXhXhXhXhXhXhXhXhXhXhXhXhXhXhXhXhXhXhXhXhXhXhXhXhXhXhXhXhXhXhXhXhXhXhXhXhXhXhXhXhXhXhXhXhXhXhXhXhXhXhXhXhXhXhXhXhXhXhXhXhXhXhXhXhXhXhXhXhXhXhXhXhXhXhXhXhXhXhXhXhXhXhXhXhXhXhXhXhXhXhXhXhXhXhXhXhXhXhXhXhXhXhXhXhXhXhXhXhXhXhXhXhXhXhXhXhXhXhXhXhXhXhXhXhXhXhXhXhXgXhXZX%XZ.T.T.T.T.T.T.T.T.T.T.T.T.T.T.T.T.T.T.T.T.T.T.",
"JXHXdXdXJXSXFXFXFXFXFXFXFXFXFXFXFXFXFXFXFXFXFXFXFXFXFXZXjXpX9X].~.Y.c.j.u.c.T.T.T.T.T.T.T.T.T.T.T.T.T.Y.Y.T.Y.Y.T.T.Y.Y.T.T.T.T.T.T.T.T.T.T.T.T.T.U.fXnXgXhXhXhXhXgXaXhXhXgXaXhXaXgXhXhXhXhXhXhXhXhXhXhXgXaXgXhXgXaXgXgXaXhXhXhXhXhXhXhXhXhXhXhXaXgXhXhXaXgXgXaXgXhXhXhXhXhXhXhXhXhXhXgXaXhXhXgXaXhXaXgXhXhXhXhXhXhXhXhXhXhXgXaXgXhXgXaXgXgXaXhXhXhXhXhXhXhXhXhXhXhXaXgXhXhXaXgXgXaXgXhXhXhXhXhXhXhXhXhXhXgXaXhXhXgXaXhXaXgXhXhXhXhXhXhXhXhXhXhXgXaXgXhXgXaXgXgXaXhXhXhXhXgXhXZX%XZ.T.T.T.T.T.T.T.T.T.T.T.Y.T.T.Y.T.Y.Y.T.Y.T.T.",
"JXSXJXHXSXFXFXFXFXFXFXFXFXFXFXFXFXFXFXFXFXFXFXFXFXFXFXZXjXpX9X].~.Y.c.j.u.c.T.T.T.T.T.T.T.T.T.T.T.T.T.R.~.T.R.R.Y.T.R.R.Y.T.T.T.T.T.T.T.T.T.T.T.T.U.fXnXgXhXhXhXgXjXnXgXgXjXnXgXnXjXgXhXhXhXhXhXhXhXhXgXhXnXhXgXhXnXhXjXnXgXhXhXhXhXhXhXhXhXhXgXxXjXgXgXnXjXhXnXhXgXhXhXhXhXhXhXhXhXgXjXnXgXgXjXnXgXnXjXgXhXhXhXhXhXhXhXhXgXhXnXhXgXhXnXhXjXnXgXhXhXhXhXhXhXhXhXhXgXxXjXgXgXnXjXhXnXhXgXhXhXhXhXhXhXhXhXgXjXnXhXgXjXnXgXnXjXgXhXhXhXhXhXhXhXhXgXhXnXhXgXhXnXhXjXnXgXhXhXhXgXhXZX%XZ.T.T.T.T.T.T.T.T.T.T.T.R.T.T.~.T.R.R.T.~.T.T.",
"JXSXSXSXFXFXFXFXFXFXFXFXFXFXFXFXFXFXFXFXFXFXFXFXFXFXFXZXjXpX9X].~.Y.c.j.u.c.T.T.T.T.T.T.T.T.T.T.T.T.T.l./ Z.f.f.R.T.d.l.R.Y.T.T.T.T.T.T.T.T.T.T.T.U.fXnXgXhXhXgXjX&X!.hXjX%X(.jX!.&XjXgXhXhXhXhXhXhXgXhXpXD.iXjXpXD.aX%X(.jXgXhXhXhXhXhXhXhXgXjX^.$XjXhX(.%XaXD.pXhXgXhXhXhXhXhXhXgXjX&X!.hXjX&X!.jX(.%XjXgXhXhXhXhXhXhXgXhXaXW.rXjXpXD.aX&X!.jXgXhXhXhXhXhXhXhXgXjX^..XjXhX^.$XgXD.pXhXgXhXhXhXhXhXhXgXjX*X!.hXjX&X!.jX^.$XjXgXhXhXhXhXhXhXgXhXaXW.rXjXpXD.pX&X!.hXgXhXhXgXhXZX%XZ.T.T.T.T.T.T.T.T.T.T.T.l.Z.Z./ T.f.f.R./ Z.V.",
"HXFXFXFXFXFXFXFXFXFXFXFXFXFXFXFXFXFXFXFXFXFXFXFXFXFXFXZXjXpX9X].~.Y.c.j.u.c.T.T.T.T.T.T.T.T.T.T.T.Y.R.a W l.f f Z.l.f g c.T.T.T.T.T.T.T.T.T.T.T.T.U.fXnXgXhXgXhXpX( ( ^.gX^ g.g._ _ pXhXgXhXhXhXhXhXaXxXV.) k.nXn.( h._ ( /.xXgXhXhXhXhXhXgXxX.X^ _ pX/.^ h.g.( V.xXaXhXhXhXhXhXgXhXaX_ ( !.hX) g.g._ _ iXhXgXhXhXhXhXhXaXnXV.) k.nXn.( h._ ( ^.xXgXhXhXhXhXhXgXjX.X^ ( iX.X^ h.g.( n.jXgXhXhXhXhXhXhXhXgX_ ( !.jX( g.g._ _ rXhXgXhXhXhXhXhXaXnXC.) h.nXV.( h.g.( ^.xXaXhXgXhXZX%XZ.T.T.T.T.T.T.T.T.T.T.Z.< f.x g x g x x g x x ",
"FXFXFXFXFXFXFXFXFXFXFXFXFXFXFXFXFXFXFXFXFXFXFXFXFXFXFXZXjXpX9X].~.Y.c.j.u.c.T.T.T.T.T.T.T.T.T.T.T.T.R.Q x f l./ f.( f./ p.Q.Y.T.T.T.T.T.T.T.T.T.T.U.fXnXgXhXgXjX$XV.&XV.qXN.qXa iXn.$XxXgXhXhXhXhXhXgXhXg.pX_ hXg.hXg C.$Xn.nXaXhXhXhXhXhXaXnXC..XS.$XA.$XV.g hX( hXgXhXhXhXhXhXgXjX&Xn.*Xn.qXn.rXa rXV.'.xXgXhXhXhXhXhXgXjXg.pX_ hXg.gXx V.%Xk.nXaXhXhXhXhXhXaXnXS./.A..XD..XS.g hX_ gXhXhXhXhXhXhXgXjX&Xn.qXk.rXk.iXa qXV./.xXgXhXhXhXhXhXgXjXg.iXg.gXg.gXx n.&Xk.nXaXhXgXhXZX%XZ.T.T.T.T.T.T.T.T.T.Y.Q.W / x T., f.f., R.d g ",
"FXFXFXFXFXFXFXFXFXFXFXFXFXFXFXFXFXFXFXFXFXFXFXFXFXFXFXZXjXpX9X].~.Y.c.j.u.c.T.T.T.T.T.T.T.T.T.T.T.T.Z.Q.f.< / x ( ^ Q x f.R.Y.T.T.T.T.T.T.T.T.T.T.U.fXnXgXhXgXhXqXg.D.k.&Xh.!.g ^.g.&XjXgXhXhXhXhXhXgXjXg.^.( rXg./.A n.S.C.nXaXhXhXhXhXhXaXnXW.S.k./.A.A.k.A /._ jXgXhXhXhXhXhXgXhXqXg.!.h.&Xg.(.g (.g.%XjXgXhXhXhXhXhXaXxXh.(.( qXg./.W k.A.V.nXaXhXhXhXhXhXgXxX!.C.n.^.D.S.n.A /._ hXgXhXhXhXhXhXgXhXrXg.!.h.*Xg.^.g !.g.$XjXgXhXhXhXhXhXaXxXh.(.( qXg.^.W h.D.N.nXaXhXgXhXZX%XZ.T.T.T.T.T.T.T.T.T.Y.~.x ( x f.i Q ~ i f.f g ",
"FXFXFXFXFXFXFXFXFXFXFXFXFXFXFXFXFXFXFXFXFXFXFXFXFXFXFXZXjXpX9X].~.Y.c.j.u.c.T.T.T.T.T.T.T.T.T.T.T.T.T.A f x.x x / f.x x T.T.T.T.T.T.T.T.T.T.T.T.T.U.fXnXgXhXhXgXjXC._ !.^.S.( *X( V.jXgXhXhXhXhXhXhXgXjX$XQ !.D./.Q .XC.^ iXhXgXhXhXhXhXhXgXhXpX( V.D..X_ C..XQ /.jXgXhXhXhXhXhXhXgXjXS.( !.(.A.^ *X( N.jXgXhXhXhXhXhXhXgXjX$XQ !.D.'.Q '.S.^ iXhXgXhXhXhXhXhXgXhXaX_ N.W..X_ V.$XQ /.jXgXhXhXhXhXhXhXgXjXA.( !.!.A.^ *X_ n.hXgXhXhXhXhXhXhXgXjX%XQ W.A..XQ /.A.^ rXhXgXhXgXhXZX%XZ.T.T.T.T.T.T.T.T.T.Y.Q.^ z.f.d l.x x x.d ( ( ",
"FXFXFXFXFXFXFXFXFXFXFXFXFXFXFXFXFXFXFXFXFXFXFXFXFXFXFXZXjXpX9X].~.Y.c.j.u.c.T.T.T.T.T.T.T.T.T.T.T.T.T.T.T.R.R.R.R.T.R.R.T.T.T.T.T.T.T.T.T.T.T.T.T.U.fXnXgXhXhXhXhXjXjXjXhXjXjXhXjXjXhXhXhXhXhXhXhXhXhXgXjXjXjXjXhXjXhXjXjXhXgXhXhXhXhXhXhXhXgXhXjXjXjXhXjXhXhXjXjXgXhXhXhXhXhXhXhXhXgXjXjXjXhXjXjXhXjXjXhXhXhXhXhXhXhXhXhXgXjXjXjXjXhXjXhXjXjXhXgXhXhXhXhXhXhXhXgXhXjXjXjXhXjXhXhXjXjXgXhXhXhXhXhXhXhXhXgXjXjXjXhXjXjXhXjXjXhXhXhXhXhXhXhXhXhXgXhXjXjXjXhXjXhXjXjXhXgXhXhXgXhXZX%XZ.T.T.T.T.T.T.T.T.T.T.T.R.T.R.R.R.R.R.R.R.R.R.",
"FXFXFXFXFXFXFXFXFXFXFXFXFXFXFXFXFXFXFXFXFXFXFXFXFXFXFXZXjXpX9X].~.Y.c.j.u.c.T.T.T.T.T.T.T.T.T.T.T.T.T.T.T.T.T.T.Z.Y.Y.Y.T.T.T.T.T.T.T.T.T.T.T.T.T.U.fXnXgXhXhXhXhXgXgXaXhXhXxXnXgXgXhXhXhXhXhXhXhXhXhXhXgXgXaXgXjXjXnXhXaXgXhXhXhXhXhXhXhXhXhXgXgXgXaXjXhXnXjXaXgXhXhXhXhXhXhXhXhXhXhXgXgXaXhXhXxXnXhXgXhXhXhXhXhXhXhXhXhXhXgXgXaXaXjXhXnXhXaXgXhXhXhXhXhXhXhXhXhXgXgXgXaXjXhXnXjXaXgXhXhXhXhXhXhXhXhXhXhXgXgXaXhXhXjXnXhXaXhXhXhXhXhXhXhXhXhXhXgXgXaXaXjXhXnXhXaXgXhXhXhXgXhXZX%XZ.T.T.T.T.T.T.T.T.T.T.T.T.T.T.T.Y.T.T.Z.Y.T.Y.",
"FXFXFXFXFXFXFXFXFXFXFXFXFXFXFXFXFXFXFXFXFXFXFXFXFXFXFXZXjXpX9X].~.Y.c.j.u.c.T.T.T.T.T.T.T.T.T.T.T.T.T.T.V.Z.Z.c.~.~.T.T.T.T.T.T.T.T.T.T.T.T.T.T.T.U.fXnXgXhXhXhXhXhXaXZX.X/./.D.aXhXgXhXhXhXhXhXhXhXhXhXhXgXxXaXA.*XS.qXjXgXhXhXhXhXhXhXhXhXhXhXgXgXCXD.*XD./.hXgXhXhXhXhXhXhXhXhXhXhXhXaXZX.X/.'.D.aXhXgXhXhXhXhXhXhXhXhXhXhXgXxXgXA.qXS.*XjXgXhXhXhXhXhXhXhXhXhXhXgXgXZXD.*XD./.hXgXhXhXhXhXhXhXhXhXhXhXhXaXCX$X/..XA.pXhXgXhXhXhXhXhXhXhXhXhXhXgXjXhXA.qXS.*XjXgXhXhXhXgXhXZX%XZ.T.T.T.T.T.T.T.T.T.T.T.T.T.T.x.Y.c.Z.~.R.T.T.",
"FXFXFXFXFXFXFXFXFXFXFXFXFXFXFXFXFXFXFXFXFXFXFXFXFXFXFXZXjXpX9X].~.Y.c.j.u.c.T.T.T.T.T.T.T.T.T.T.T.T.Y.~.A f.Z.g ( Q Y.T.T.T.T.T.T.T.T.T.T.T.T.T.T.U.fXnXgXhXhXhXhXgXhX'.~ V.( n.k.nXaXhXhXhXhXhXhXhXhXhXgXjX*Xg.g.g.n.^ aXhXgXhXhXhXhXhXhXhXhXgXhXpXA.Q V.g._ /.xXgXhXhXhXhXhXhXhXhXhXgXhX.X~ V.( n.h.nXaXhXhXhXhXhXhXhXhXhXgXjX*Xh._ g.n.^ pXhXgXhXhXhXhXhXhXhXhXgXhXpXD.Q V.g._ ^.xXgXhXhXhXhXhXhXhXhXhXgXhX.X~ V.( n.g.xXaXhXhXhXhXhXhXhXhXhXgXjXqXk._ h.n.^ iXhXgXhXhXgXhXZX%XZ.T.T.T.T.T.T.T.T.T.T.T.T.T.T.f ~.A Q Q f.R.Y.",
"FXFXFXFXFXFXFXFXFXFXFXFXFXFXFXFXFXFXFXFXFXFXFXFXFXFXFXZXjXpX9X].~.Y.c.j.u.c.T.T.T.T.T.T.T.T.T.T.T.T.Y.~.W a f x ( a R.T.T.T.T.T.T.T.T.T.T.T.T.T.T.U.fXnXgXhXhXhXgXjX'.g._ C.^ ^ S.xXaXhXhXhXhXhXhXhXhXgXhXgX_ k.g.h.^ _ hXgXgXhXhXhXhXhXhXhXhXaXnXN.n.^ S.~ ^ %XjXgXhXhXhXhXhXhXhXhXgXjX.X_ _ C.^ ^ C.xXaXhXhXhXhXhXhXhXhXgXhXhX_ n.g.k.^ _ hXhXgXhXhXhXhXhXhXhXhXaXnXV.n.^ S.~ ^ $XjXgXhXhXhXhXhXhXhXhXgXjX$X_ _ V.^ ^ V.xXaXhXhXhXhXhXhXhXhXhXgXhX_ n.g.k.^ ( gXhXgXhXhXgXhXZX%XZ.T.T.T.T.T.T.T.T.T.T.T.T.Y.R.a x a l.f W ~.Y.",
"FXFXFXFXFXFXFXFXFXFXFXFXFXFXFXFXFXFXFXFXFXFXFXFXFXFXFXZXjXpX9X].~.Y.c.j.u.c.T.T.T.T.T.T.T.T.T.T.T.T.Y.~.A W ( x x z.R.Y.T.T.T.T.T.T.T.T.T.T.T.T.T.U.fXnXgXhXhXhXgXnXW.S.A.k._ D.( xXaXhXhXhXhXhXhXhXhXgXhXiX( %X_ g.W.^ qXhXgXhXhXhXhXhXhXhXhXaXnX_ $Xg.n.n.k.A.nXaXhXhXhXhXhXhXhXhXgXxX!.C.D.k._ W.( xXgXhXhXhXhXhXhXhXhXgXhXpX( %X_ g.W.^ qXjXgXhXhXhXhXhXhXhXhXaXnXg..Xh.n.n.n.S.nXaXhXhXhXhXhXhXhXhXgXxX^.V.!.k._ !.) jXgXhXhXhXhXhXhXhXhXgXhXpX( &X_ g.D.^ *XjXgXhXhXgXhXZX%XZ.T.T.T.T.T.T.T.T.T.T.T.T.T.R.a z.g ~ x R.T.T.",
"FXFXFXFXFXFXFXFXFXFXFXFXFXFXFXFXFXFXFXFXFXFXFXFXFXFXFXZXjXpX9X].~.Y.c.j.u.c.T.T.T.T.T.T.T.T.T.T.T.T.Y.Q.( l.Z.x a x Y.T.T.T.T.T.T.T.T.T.T.T.T.T.T.U.fXnXgXhXhXhXgXhXpXg.~ /._ ( !.jXgXhXhXhXhXhXhXhXhXhXgXjXA.Q A.C.^ n.gXhXgXhXhXhXhXhXhXhXhXgXjX$X^ g.^.~ g.&XjXgXhXhXhXhXhXhXhXhXgXhXaXh.~ /._ ( !.jXgXhXhXhXhXhXhXhXhXhXgXjXA.Q S.S.^ n.aXhXgXhXhXhXhXhXhXhXhXgXjX%X) _ /.~ g.&XjXgXhXhXhXhXhXhXhXhXgXhXaXh.~ ^.g.( W.jXgXhXhXhXhXhXhXhXhXhXaXxXD.Q C.S.^ n.aXhXgXhXhXgXhXZX%XZ.T.T.T.T.T.T.T.T.T.T.T.T.T.T.A R.d.g a f.R.Y.",
"FXFXFXFXFXFXFXFXFXFXFXFXFXFXFXFXFXFXFXFXFXFXFXFXFXFXFXZXjXpX9X].~.Y.c.j.u.c.T.T.T.T.T.T.T.T.T.T.T.T.T.T.T.T.T.R.R.Y.T.T.T.T.T.T.T.T.T.T.T.T.T.T.T.U.fXnXgXhXhXhXhXgXhXjXjXjXhXhXjXgXhXhXhXhXhXhXhXhXhXhXhXgXjXhXjXjXgXjXhXgXhXhXhXhXhXhXhXhXhXhXgXjXhXjXjXhXhXjXgXhXhXhXhXhXhXhXhXhXhXgXhXjXjXjXhXhXjXgXhXhXhXhXhXhXhXhXhXhXhXgXjXhXjXjXhXjXhXgXhXhXhXhXhXhXhXhXhXhXgXjXhXjXjXhXhXjXgXhXhXhXhXhXhXhXhXhXhXgXhXjXjXjXhXhXjXgXhXhXhXhXhXhXhXhXhXhXhXgXjXhXjXjXhXjXhXgXhXhXhXgXhXZX%XZ.T.T.T.T.T.T.T.T.T.T.T.T.T.T.R.T.T.R.T.Y.T.T.",
"FXFXFXFXFXFXFXFXFXFXFXFXFXFXFXFXFXFXFXFXFXFXFXFXFXFXFXZXjXpX9X].~.Y.c.j.u.c.T.Y.T.T.T.T.T.T.T.T.T.T.T.T.Y.T.T.Y.Y.T.T.T.T.T.T.T.T.T.T.T.T.T.T.T.T.Z.fXnXgXgXgXgXgXgXgXaXaXaXaXgXaXgXgXgXgXgXgXgXgXgXgXgXgXgXaXgXaXaXgXaXgXgXgXgXgXgXgXgXgXgXgXgXgXaXgXaXaXgXaXaXgXgXgXgXgXgXgXgXgXgXgXgXgXaXaXaXaXgXaXgXgXgXgXgXgXgXgXgXgXgXgXgXaXgXaXaXgXaXgXgXgXgXgXgXgXgXgXgXgXgXgXaXgXaXaXgXaXaXgXgXgXgXgXgXgXgXgXgXgXgXgXaXaXaXaXgXaXgXgXgXgXgXgXgXgXgXgXgXgXgXaXaXaXaXaXaXaXgXgXgXgXaXhXZX%XZ.T.Y.Y.T.Y.T.Y.Y.Y.Y.Y.Y.Y.Y.Y.Y.Y.Y.Y.Y.Y.Y.",
"FXFXFXFXFXFXFXFXFXFXFXFXFXFXFXFXFXFXFXFXFXFXFXFXFXFXFXZXjXpX9X].~.Y.c.j.u.c.R.T.T.T.T.T.T.T.T.T.T.T.T.T.T.T.T.T.T.T.T.T.T.T.T.T.T.T.T.T.T.T.T.T.T.Y.hXAXjXjXjXjXjXjXjXjXjXjXjXjXjXjXjXjXjXjXjXjXjXjXjXjXjXjXjXjXjXjXjXjXjXjXjXjXjXjXjXjXjXjXjXjXjXjXjXjXjXjXjXjXjXjXjXjXjXjXjXjXjXjXjXjXjXjXjXjXjXjXjXjXjXjXjXjXjXjXjXjXjXjXjXjXjXjXjXjXjXjXjXjXjXjXjXjXjXjXjXjXjXjXjXjXjXjXjXjXjXjXjXjXjXjXjXjXjXjXjXjXjXjXjXjXjXjXjXjXjXjXjXjXjXjXjXjXjXjXjXjXjXjXjXxXnXxXxXnXxXxXxXxXnXxXnXHXqXY.R.~.~.R.R.R.R.R.R.R.R.Q.R.R.R.R.R.R.R.R.R.R.",
"FXFXFXFXFXFXFXFXFXFXFXFXFXFXFXFXFXFXFXFXFXFXFXFXFXFXFXZXjXpX9X].~.Y.c.j.i.p.a.a.a.a.a.a.a.a.a.a.a.a.a.a.a.a.a.a.a.a.a.a.a.a.a.a.a.a.a.a.a.a.a.a.a.a.x.c.x.x.x.x.x.x.x.x.x.x.x.x.x.x.x.x.x.x.x.x.x.x.x.x.x.x.x.x.x.x.x.x.x.x.x.x.x.x.x.x.x.x.x.x.x.x.x.x.x.x.x.x.x.x.x.x.x.x.x.x.x.x.x.x.x.x.x.x.x.x.x.x.x.x.x.x.x.x.x.x.x.x.x.x.x.x.x.x.x.x.x.x.x.x.x.x.x.x.x.x.x.x.x.x.x.x.x.x.x.x.x.x.x.x.x.x.x.x.x.x.x.x.x.x.x.x.x.x.x.x.x.x.x.x.x.x.x.x.x.x.x.j.p.S d / z d x c x c z z z x d c c u u d d c d i d z i i c d d u d z z i i d ",
"FXFXFXFXFXFXFXFXFXFXFXFXFXFXFXFXFXFXFXFXFXFXFXFXFXFXFXZXjXpX9X].~.Y.c.j.a.p.p.p.p.p.p.p.p.p.p.p.p.p.p.p.p.p.p.p.p.p.p.p.p.p.p.p.p.p.p.p.p.p.p.p.p.p.i.i.i.i.i.i.i.i.i.i.i.i.i.i.i.i.i.i.i.i.i.i.i.i.i.i.i.i.i.i.i.i.i.i.i.i.i.i.i.i.i.i.i.i.i.i.i.i.i.i.i.i.i.i.i.i.i.i.i.i.i.i.i.i.i.i.i.i.i.i.i.i.i.i.i.i.i.i.i.i.i.i.i.i.i.i.i.i.i.i.i.i.i.i.i.i.i.i.i.i.i.i.i.i.i.i.i.i.i.i.i.i.i.i.i.i.i.i.i.i.i.i.i.i.i.i.i.i.i.i.i.i.i.i.i.i.i.i.i.i.i.i.p.v c d , z ,   y u u u , u t u , d d   i d , u   , , u   , d u   ,   u ,   ,   ",
"FXFXFXFXFXFXFXFXFXFXFXFXFXFXFXFXFXFXFXFXFXFXFXFXFXFXFXZXjXpX9X].~.Y.c.x.z.x.x.x.x.x.x.x.x.x.x.x.x.x.x.x.x.x.x.x.x.x.x.x.x.x.x.x.x.x.x.x.x.x.x.x.x.x.x.x.x.x.x.x.x.x.x.x.x.x.x.x.x.x.x.x.x.x.x.x.x.x.x.x.x.x.x.x.x.x.x.x.x.x.x.x.x.x.x.x.x.x.x.x.x.x.x.x.x.x.x.x.x.x.x.x.x.x.x.x.x.x.x.x.x.x.x.x.x.x.x.x.x.x.x.x.x.x.x.x.x.x.x.x.x.x.x.x.x.x.x.x.x.x.x.x.x.x.x.x.x.x.x.x.x.x.x.x.x.x.x.x.x.x.x.x.x.x.x.x.x.x.x.x.x.x.x.x.x.x.x.x.x.x.x.x.x.x.x.x.x.a./ c , , i i d z , , y d d d i c x u v z u u , i u i u d i d , d u d , u d , ",
"FXFXFXFXFXFXFXFXFXFXFXFXFXFXFXFXFXFXFXFXFXFXFXFXFXFXFXZXjXpX9X].~.T.U.Z.Z.Z.Z.Z.Z.Z.Z.Z.Z.Z.Z.Z.Z.Z.Z.Z.Z.Z.Z.Z.Z.Z.Z.Z.Z.Z.Z.Z.Z.Z.Z.Z.Z.Z.Z.Z.Z.Z.Z.Z.Z.Z.Z.Z.Z.Z.Z.Z.Z.Z.Z.Z.Z.Z.Z.Z.Z.Z.Z.Z.Z.Z.Z.Z.Z.Z.Z.Z.Z.Z.Z.Z.Z.Z.Z.Z.Z.Z.Z.Z.Z.Z.Z.Z.Z.Z.Z.Z.Z.Z.Z.Z.Z.Z.Z.Z.Z.Z.Z.Z.Z.Z.Z.Z.Z.Z.Z.Z.Z.Z.Z.Z.Z.Z.Z.Z.Z.Z.Z.Z.Z.Z.Z.Z.Z.Z.Z.Z.Z.Z.Z.Z.Z.Z.Z.Z.Z.Z.Z.Z.Z.Z.Z.Z.Z.Z.Z.Z.Z.Z.Z.Z.Z.Z.Z.Z.Z.Z.Z.Z.Z.Z.Z.Z.Z.Z.Z.Z.Z.Z.Z.Z.Z.Z.Z.Z.Z.Z.Z.Z.U.z.p.v v c S v v v c v v v v v v v v v v v v v c v v v v c v v v v v v c v v v ",
"FXFXFXFXFXFXFXFXFXFXFXFXFXFXFXFXFXFXFXFXFXFXFXFXFXFXFXZXjXpX9X].`.Q.R.R.R.R.R.R.R.R.R.R.R.R.R.R.R.R.R.R.R.R.R.R.R.R.R.R.R.R.R.R.R.R.R.R.R.R.R.R.R.R.R.R.R.R.R.R.R.R.R.R.R.R.R.R.R.R.R.R.R.R.R.R.R.R.R.R.R.R.R.R.R.R.R.R.R.R.R.R.R.R.R.R.R.R.R.R.R.R.R.R.R.R.R.R.R.R.R.R.R.R.R.R.R.R.R.R.R.R.R.R.R.R.R.R.R.R.R.R.R.R.R.R.R.R.R.R.R.R.R.R.R.R.R.R.R.R.R.R.R.R.R.R.R.R.R.R.R.R.R.R.R.R.R.R.R.R.R.R.R.R.R.R.R.R.R.R.R.R.R.R.R.R.R.R.R.R.R.R.R.R.R.R.R.Z.j./ / / / / / / / / / / / / / / / / / / / / / / / / / / / / / / / / / / / / ",
"FXFXFXFXFXFXFXFXFXFXFXFXFXFXFXFXFXFXFXFXFXFXFXFXFXFXFXZXjXpXqX%X].`.`.`.`.`.`.`.`.`.`.`.`.`.`.`.`.`.`.`.`.`.`.`.`.`.`.`.`.`.`.`.`.`.`.`.`.`.`.`.`.`.`.`.`.`.`.`.`.`.`.`.`.`.`.`.`.`.`.`.`.`.`.`.`.`.`.`.`.`.`.`.`.`.`.`.`.`.`.`.`.`.`.`.`.`.`.`.`.`.`.`.`.`.`.`.`.`.`.`.`.`.`.`.`.`.`.`.`.`.`.`.`.`.`.`.`.`.`.`.`.`.`.`.`.`.`.`.`.`.`.`.`.`.`.`.`.`.`.`.`.`.`.`.`.`.`.`.`.`.`.`.`.`.`.`.`.`.`.`.`.`.`.`.`.`.`.`.`.`.`.`.`.`.`.`.`.`.`.`.`.`.`.`.`.T.Z.f.f.f.f.f.f.f.f.f.f.f.f.f.f.f.f.f.f.f.f.f.f.f.f.f.f.f.f.f.f.f.f.f.f.f.f.f.",
"FXFXFXFXFXFXFXFXFXFXFXFXFXFXFXFXFXFXFXFXFXFXFXFXFXFXFXZXjXfXwX9X%X%X%X%X%X%X%X%X%X%X%X%X%X%X%X%X%X%X%X%X%X%X%X%X%X%X%X%X%X%X%X%X%X%X%X%X%X%X%X%X%X%X%X%X%X%X%X%X%X%X%X%X%X%X%X%X%X%X%X%X%X%X%X%X%X%X%X%X%X%X%X%X%X%X%X%X%X%X%X%X%X%X%X%X%X%X%X%X%X%X%X%X%X%X%X%X%X%X%X%X%X%X%X%X%X%X%X%X%X%X%X%X%X%X%X%X%X%X%X%X%X%X%X%X%X%X%X%X%X%X%X%X%X%X%X%X%X%X%X%X%X%X%X%X%X%X%X%X%X%X%X%X%X%X%X%X%X%X%X%X%X%X%X%X%X%X%X%X%X%X%X%X%X%X%X%X%X%X%X%X%X%X%X%X8X~.Z.T.T.T.T.T.T.T.T.T.T.T.T.T.T.T.T.T.T.T.T.T.T.T.T.T.T.T.T.T.T.T.T.T.T.T.T.T.",
"FXFXFXFXFXFXFXFXFXFXFXFXFXFXFXFXFXFXFXFXFXFXFXFXFXFXFXAXnXhXpXtXwXwXwXwXwXwXwXwXwXwXwXwXwXwXwXwXwXwXwXwXwXwXwXwXwXwXwXwXwXwXwXwXwXwXwXwXwXwXwXwXwXwXwXwXwXwXwXwXwXwXwXwXwXwXwXwXwXwXwXwXwXwXwXwXwXwXwXwXwXwXwXwXwXwXwXwXwXwXwXwXwXwXwXwXwXwXwXwXwXwXwXwXwXwXwXwXwXwXwXwXwXwXwXwXwXwXwXwXwXwXwXwXwXwXwXwXwXwXwXwXwXwXwXwXwXwXwXwXwXwXwXwXwXwXwXwXwXwXwXwXwXwXwXwXwXwXwXwXwXwXwXwXwXwXwXwXwXwXwXwXwXwXwXwXwXwXwXwXwXwXwXwXwXwXwXwXwXwXwXwXwXwXwXwXwX9X%X%X%X%X%X%X%X%X%X%X%X%X%X%X%X%X%X%X%X%X%X%X%X%X%X%X%X%X%X%X%X%X%X%X%X%X%X%X",
"FXFXFXFXFXFXFXFXFXFXFXFXFXFXFXFXFXFXFXFXFXFXFXFXFXFXFXSXnXjXjXhXgXgXgXgXgXgXgXgXgXgXgXgXgXgXgXgXgXgXgXgXgXgXgXgXgXgXgXgXgXgXgXgXgXgXgXgXgXgXgXgXgXgXgXgXgXgXgXgXgXgXgXgXgXgXgXgXgXgXgXgXgXgXgXgXgXgXgXgXgXgXgXgXgXgXgXgXgXgXgXgXgXgXgXgXgXgXgXgXgXgXgXgXgXgXgXgXgXgXgXgXgXgXgXgXgXgXgXgXgXgXgXgXgXgXgXgXgXgXgXgXgXgXgXgXgXgXgXgXgXgXgXgXgXgXgXgXgXgXgXgXgXgXgXgXgXgXgXgXgXgXgXgXgXgXgXgXgXgXgXgXgXgXgXgXgXgXgXgXgXgXgXgXgXgXgXgXgXgXgXgXgXgXgXgXgXhXhXhXhXhXhXhXhXhXhXhXhXhXhXhXhXhXhXhXhXhXhXhXhXhXhXhXhXhXhXhXhXhXhXhXhXhXhXhX",
"FXFXFXFXFXFXFXFXFXFXFXFXFXFXFXFXFXFXFXFXFXFXFXFXFXFXFXFXAXCXnXnXnXnXnXnXnXnXnXnXnXnXnXnXnXnXnXnXnXnXnXnXnXnXnXnXnXnXnXnXnXnXnXnXnXnXnXnXnXnXnXnXnXnXnXnXnXnXnXnXnXnXnXnXnXnXnXnXnXnXnXnXnXnXnXnXnXnXnXnXnXnXnXnXnXnXnXnXnXnXnXnXnXnXnXnXnXnXnXnXnXnXnXnXnXnXnXnXnXnXnXnXnXnXnXnXnXnXnXnXnXnXnXnXnXnXnXnXnXnXnXnXnXnXnXnXnXnXnXnXnXnXnXnXnXnXnXnXnXnXnXnXnXnXnXnXnXnXnXnXnXnXnXnXnXnXnXnXnXnXnXnXnXnXnXnXnXnXnXnXnXnXnXnXnXnXnXnXnXnXnXnXnXnXnXnXnXhXqXwXtXtXtXtXtXtXtXtXtXtXwXwXtXtXtXtXtXtXtXtXtXtXwXwXwXwXwXwXwXtXtXtXtXtXtXtX",
"FXFXFXFXFXFXFXFXFXFXFXFXFXFXFXFXFXFXFXFXFXFXFXFXFXFXFXFXFXSXSXSXSXSXSXSXSXSXSXSXSXSXSXSXSXSXSXSXSXSXSXSXSXSXSXSXSXSXSXSXSXSXSXSXSXSXSXSXSXSXSXSXSXSXSXSXSXSXSXSXSXSXSXSXSXSXSXSXSXSXSXSXSXSXSXSXSXSXSXSXSXSXSXSXSXSXSXSXSXSXSXSXSXSXSXSXSXSXSXSXSXSXSXSXSXSXSXSXSXSXSXSXSXSXSXSXSXSXSXSXSXSXSXSXSXSXSXSXSXSXSXSXSXSXSXSXSXSXSXSXSXSXSXSXSXSXSXSXSXSXSXSXSXSXSXSXSXSXSXSXSXSXSXSXSXSXSXSXSXSXSXSXSXSXSXSXSXSXSXSXSXSXSXSXSXSXSXSXSXSXSXSXSXSXSXSXSXnXpXaXpXiXiXiXiXiXiXiXiXiXpXaXiXiXiXiXiXiXiXiXiXiXpXaXaXaXaXaXpXiXiXiXiXiXiXiX",
"FXFXFXFXFXFXFXFXFXFXFXFXFXFXFXFXFXFXFXFXFXFXFXFXFXFXFXFXFXFXFXFXFXFXFXFXFXFXFXFXFXFXFXFXFXFXFXFXFXFXFXFXFXFXFXFXFXFXFXFXFXFXFXFXFXFXFXFXFXFXFXFXFXFXFXFXFXFXFXFXFXFXFXFXFXFXFXFXFXFXFXFXFXFXFXFXFXFXFXFXFXFXFXFXFXFXFXFXFXFXFXFXFXFXFXFXFXFXFXFXFXFXFXFXFXFXFXFXFXFXFXFXFXFXFXFXFXFXFXFXFXFXFXFXFXFXFXFXFXFXFXFXFXFXFXFXFXFXFXFXFXFXFXFXFXFXFXFXFXFXFXFXFXFXFXFXFXFXFXFXFXFXFXFXFXFXFXFXSXSXSXSXSXSXSXSXSXSXSXSXSXSXSXSXSXSXSXSXSXSXSXSXSXSXSXFXHXnXaXhX*XqXqXqXqXqXqXqXqX&XpXhX&XqXqXqXqXqXqXqXqX&XaXhXhXhXhXhXpX&XqXqXqXqXqXqX",
"FXFXFXFXFXFXFXFXFXFXFXFXFXFXFXFXFXFXFXFXFXFXFXFXFXFXFXFXFXFXFXFXFXFXFXFXFXFXFXFXFXFXFXFXFXFXFXFXFXFXFXFXFXFXFXFXFXFXFXFXFXFXFXFXFXFXFXFXFXFXFXFXFXFXFXFXFXFXFXFXFXFXFXFXFXFXFXFXFXFXFXFXFXFXFXFXFXFXFXFXFXFXFXFXFXFXFXFXFXFXFXFXFXFXFXFXFXFXFXFXFXFXFXFXFXFXFXFXFXFXFXFXFXFXFXFXFXFXFXFXFXFXFXFXFXFXFXFXFXFXFXFXFXFXFXFXFXFXFXFXFXFXFXFXFXFXFXFXFXFXFXFXFXFXFXFXFXFXFXFXFXFXFXFXFXFXSXHXKXKXKXKXKXKXKXKXKXKXKXKXKXKXKXKXKXKXKXKXKXKXKXKXKXKXKXFXHXnXaXhXqXgXhXxXxXxXxXhXjXqXpXhX*XhXhXxXxXxXjXhXhXqXpXhXgXhXgXhXpXqXjXhXhXhXhXhX",
"FXFXFXFXFXFXFXFXFXFXFXFXFXFXFXFXFXFXFXFXFXFXFXFXFXFXFXFXFXFXFXFXFXFXFXFXFXFXFXFXFXFXFXFXFXFXFXFXFXFXFXFXFXFXFXFXFXFXFXFXFXFXFXFXFXFXFXFXFXFXFXFXFXFXFXFXFXFXFXFXFXFXFXFXFXFXFXFXFXFXFXFXFXFXFXFXFXFXFXFXFXFXFXFXFXFXFXFXFXFXFXFXFXFXFXFXFXFXFXFXFXFXFXFXFXFXFXFXFXFXFXFXFXFXFXFXFXFXFXFXFXFXFXFXFXFXFXFXFXFXFXFXFXFXFXFXFXFXFXFXFXFXFXFXFXFXFXFXFXFXFXFXFXFXFXFXFXFXFXFXFXFXFXFXFXSXHXCXR.j.v.v.v.v.v.v.v.v.v.v.v.v.v.v.v.v.v.v.v.v.v.v.v.j.R.SXHXnXaXhX*XaXaX.X$X$X$XgXhXqXpXhX*XhXpX$X$X$X&XhXhXqXpXhXhXhXgXhXpXqXhXgXhXpXhXgX",
"FXFXFXFXFXFXFXFXFXFXFXFXFXFXFXFXFXFXFXFXFXFXFXFXFXFXFXFXFXFXFXFXFXFXFXFXFXFXFXFXFXFXFXFXFXFXFXFXFXFXFXFXFXFXFXFXFXFXFXFXFXFXFXFXFXFXFXFXFXFXFXFXFXFXFXFXFXFXFXFXFXFXFXFXFXFXFXFXFXFXFXFXFXFXFXFXFXFXFXFXFXFXFXFXFXFXFXFXFXFXFXFXFXFXFXFXFXFXFXFXFXFXFXFXFXFXFXFXFXFXFXFXFXFXFXFXFXFXFXFXFXFXFXFXFXFXFXFXFXFXFXFXFXFXFXFXFXFXFXFXFXFXFXFXFXFXFXFXFXFXFXFXFXFXFXFXFXFXFXFXFXFXFXFXFXSXKXx.1 t t t t t t t t t t t t t t t t t t t t t t t t t 1 U.KXnXaXhX*XgXpXN.< h C.aXhXqXpXhX*XhXpX< , , ) nXgXqXpXhXhXhXgXhXpXqXhXhXqXf *XjX",
"FXFXFXFXFXFXFXFXFXFXFXFXFXFXFXFXFXFXFXFXFXFXFXFXFXFXFXFXFXFXFXFXFXFXFXFXFXFXFXFXFXFXFXFXFXFXFXFXFXFXFXFXFXFXFXFXFXFXFXFXFXFXFXFXFXFXFXFXFXFXFXFXFXFXFXFXFXFXFXFXFXFXFXFXFXFXFXFXFXFXFXFXFXFXFXFXFXFXFXFXFXFXFXFXFXFXFXFXFXFXFXFXFXFXFXFXFXFXFXFXFXFXFXFXFXFXFXFXFXFXFXFXFXFXFXFXFXFXFXFXFXFXFXFXFXFXFXFXFXFXFXFXFXFXFXFXFXFXFXFXFXFXFXFXFXFXFXFXFXFXFXFXFXFXFXFXFXFXFXFXFXFXFXFXFXSXHXc t y y j y y y u u y y y y y y y u y y j y y y u y j t c KXnXaXhXqXpXxXrX< h gXhXhXqXpXhX*XaXnXW., h aXhXhXqXpXhXhXhXgXhXpXqXgXnX` - ` nX",
"FXFXFXFXFXFXFXFXFXFXFXFXFXFXFXFXFXFXFXFXFXFXFXFXFXFXFXFXFXFXFXFXFXFXFXFXFXFXFXFXFXFXFXFXFXFXFXFXFXFXFXFXFXFXFXFXFXFXFXFXFXFXFXFXFXFXFXFXFXFXFXFXFXFXFXFXFXFXFXFXFXFXFXFXFXFXFXFXFXFXFXFXFXFXFXFXFXFXFXFXFXFXFXFXFXFXFXFXFXFXFXFXFXFXFXFXFXFXFXFXFXFXFXFXFXFXFXFXFXFXFXFXFXFXFXFXFXFXFXFXFXFXFXFXFXFXFXFXFXFXFXFXFXFXFXFXFXFXFXFXFXFXFXFXFXFXFXFXFXFXFXFXFXFXFXFXFXFXFXFXFXFXFXFXFXSXJXz u E.z i.a.%.x.u z c.v t i.y c x.v Z.z v.i.i.v.t v U.z c KXnXaXhX*XaXjXg - - ! xXhXqXpXhX*XhXiXS., g .XhXhXqXpXhXhXhXgXhXpXqXxX.X, , , /.",
"FXFXFXFXFXFXFXFXFXFXFXFXFXFXFXFXFXFXFXFXFXFXFXFXFXFXFXFXFXFXFXFXFXFXFXFXFXFXFXFXFXFXFXFXFXFXFXFXFXFXFXFXFXFXFXFXFXFXFXFXFXFXFXFXFXFXFXFXFXFXFXFXFXFXFXFXFXFXFXFXFXFXFXFXFXFXFXFXFXFXFXFXFXFXFXFXFXFXFXFXFXFXFXFXFXFXFXFXFXFXFXFXFXFXFXFXFXFXFXFXFXFXFXFXFXFXFXFXFXFXFXFXFXFXFXFXFXFXFXFXFXFXFXFXFXFXFXFXFXFXFXFXFXFXFXFXFXFXFXFXFXFXFXFXFXFXFXFXFXFXFXFXFXFXFXFXFXFXFXFXFXFXFXFXFXSXHXc t a.z u v.t v.y z [.v y a.u t u.c a.y j i.t v.t v [.z c KXnXaXhX*XaXaXD.C.C.D.gXhXqXpXhX*XhXrXC.S.C.!.hXhXqXpXhXhXhXgXhXpXqXjX$XV.S.B.$X",
"FXFXFXFXFXFXFXFXFXFXFXFXFXFXFXFXFXFXFXFXFXFXFXFXFXFXFXFXFXFXFXFXFXFXFXFXFXFXFXFXFXFXFXFXFXFXFXFXFXFXFXFXFXFXFXFXFXFXFXFXFXFXFXFXFXFXFXFXFXFXFXFXFXFXFXFXFXFXFXFXFXFXFXFXFXFXFXFXFXFXFXFXFXFXFXFXFXFXFXFXFXFXFXFXFXFXFXFXFXFXFXFXFXFXFXFXFXFXFXFXFXFXFXFXFXFXFXFXFXFXFXFXFXFXFXFXFXFXFXFXFXFXFXFXFXFXFXFXFXFXFXFXFXFXFXFXFXFXFXFXFXFXFXFXFXFXFXFXFXFXFXFXFXFXFXFXFXFXFXFXFXFXFXFXFXSXHXc t i.z v.z i.u.t v c.u.c %.t v v.t a.z c.j v.c t i.c.v z KXnXaXhXqXgXhXnXnXnXnXhXjXqXpXhXqXhXjXnXnXnXnXhXhXqXpXhXhXhXgXhXpXqXhXjXCXnXCXjX",
"FXFXFXFXFXFXFXFXFXFXFXFXFXFXFXFXFXFXFXFXFXFXFXFXFXFXFXFXFXFXFXFXFXFXFXFXFXFXFXFXFXFXFXFXFXFXFXFXFXFXFXFXFXFXFXFXFXFXFXFXFXFXFXFXFXFXFXFXFXFXFXFXFXFXFXFXFXFXFXFXFXFXFXFXFXFXFXFXFXFXFXFXFXFXFXFXFXFXFXFXFXFXFXFXFXFXFXFXFXFXFXFXFXFXFXFXFXFXFXFXFXFXFXFXFXFXFXFXFXFXFXFXFXFXFXFXFXFXFXFXFXFXFXFXFXFXFXFXFXFXFXFXFXFXFXFXFXFXFXFXFXFXFXFXFXFXFXFXFXFXFXFXFXFXFXFXFXFXFXFXFXFXFXFXFXSXHXz t z z x.u.x.i.c z a.z z y t p.v.j z c c.%.x.u.z z v.y c KXnXaXhX*XqXrXqXqXqXqXrXiX&XpXhX&XrXrXqXqXqXrXrXrX&XpXhXhXhXgXhXpX&XiXrXqXqXqXrX",
"FXFXFXFXFXFXFXFXFXFXFXFXFXFXFXFXFXFXFXFXFXFXFXFXFXFXFXFXFXFXFXFXFXFXFXFXFXFXFXFXFXFXFXFXFXFXFXFXFXFXFXFXFXFXFXFXFXFXFXFXFXFXFXFXFXFXFXFXFXFXFXFXFXFXFXFXFXFXFXFXFXFXFXFXFXFXFXFXFXFXFXFXFXFXFXFXFXFXFXFXFXFXFXFXFXFXFXFXFXFXFXFXFXFXFXFXFXFXFXFXFXFXFXFXFXFXFXFXFXFXFXFXFXFXFXFXFXFXFXFXFXFXFXFXFXFXFXFXFXFXFXFXFXFXFXFXFXFXFXFXFXFXFXFXFXFXFXFXFXFXFXFXFXFXFXFXFXFXFXFXFXFXFXFXFXSXJXc t u t t t t t u t t t t u y t t u t t t t t t u t t 1 v KXnXaXhXiXrXrXrXrXrXrXrXrXrXaXhXiXrXrXrXrXrXrXrXrXiXgXhXhXhXhXhXaXrXrXrXrXrXrXrX",
"FXFXFXFXFXFXFXFXFXFXFXFXFXFXFXFXFXFXFXFXFXFXFXFXFXFXFXFXFXFXFXFXFXFXFXFXFXFXFXFXFXFXFXFXFXFXFXFXFXFXFXFXFXFXFXFXFXFXFXFXFXFXFXFXFXFXFXFXFXFXFXFXFXFXFXFXFXFXFXFXFXFXFXFXFXFXFXFXFXFXFXFXFXFXFXFXFXFXFXFXFXFXFXFXFXFXFXFXFXFXFXFXFXFXFXFXFXFXFXFXFXFXFXFXFXFXFXFXFXFXFXFXFXFXFXFXFXFXFXFXFXFXFXFXFXFXFXFXFXFXFXFXFXFXFXFXFXFXFXFXFXFXFXFXFXFXFXFXFXFXFXFXFXFXFXFXFXFXFXFXFXFXFXFXFXSXKX].u t t t t t t t t t t t t t t t t t t t t t t t t t y 9XKXnXaXhXhXhXhXhXhXhXhXhXhXhXhXgXhXhXhXhXhXhXhXhXhXhXgXgXgXgXgXgXhXhXhXhXhXhXhXhX",
"CXCXCXCXCXCXCXCXCXCXCXCXCXCXCXCXCXCXCXCXCXCXCXCXCXCXCXCXCXCXCXCXCXCXCXCXCXCXCXCXCXCXCXCXCXCXCXCXCXCXCXCXCXCXCXCXCXCXCXCXCXCXCXCXCXCXCXCXCXCXCXCXCXCXCXCXCXCXCXCXCXCXCXCXCXCXCXCXCXCXCXCXCXCXCXCXCXCXCXCXCXCXCXCXCXCXCXCXCXCXCXCXCXCXCXCXCXCXCXCXCXCXCXCXCXCXCXCXCXCXCXCXCXCXCXCXCXCXCXCXCXCXCXCXCXCXCXCXCXCXCXCXCXCXCXCXCXCXCXCXCXCXCXCXCXCXCXCXCXCXCXCXCXCXCXCXCXCXCXCXCXCXCXCXCXCXnXAXpX%X8X8X8X8X8X8X8X8X8X8X8X8X8X8X8X8X8X8X8X8X8X8X8X%XgXAXCXnXnXnXnXnXnXnXnXnXnXnXnXnXnXnXnXnXnXnXnXnXnXnXnXnXnXnXnXnXnXnXnXnXnXnXnXnXnXnX",
"nXnXnXnXnXnXnXnXnXnXnXnXnXnXnXnXnXnXnXnXnXnXnXnXnXnXnXnXnXnXnXnXnXnXnXnXnXnXnXnXnXnXnXnXnXnXnXnXnXnXnXnXnXnXnXnXnXnXnXnXnXnXnXnXnXnXnXnXnXnXnXnXnXnXnXnXnXnXnXnXnXnXnXnXnXnXnXnXnXnXnXnXnXnXnXnXnXnXnXnXnXnXnXnXnXnXnXnXnXnXnXnXnXnXnXnXnXnXnXnXnXnXnXnXnXnXnXnXnXnXnXnXnXnXnXnXnXnXnXnXnXnXnXnXnXnXnXnXnXnXnXnXnXnXnXnXnXnXnXnXnXnXnXnXnXnXnXnXnXnXnXnXnXnXnXnXnXnXnXnXnXnXnXnXnXnXnXnXnXAXZXZXZXZXZXZXZXZXZXZXZXZXZXZXZXZXZXZXZXZXZXZXZXAXnXnXnXnXnXnXnXnXnXnXnXnXnXnXnXnXnXnXnXnXnXnXnXnXnXnXnXnXnXnXnXnXnXnXnXnXnXnXnXnXnXnX",
"hXhXhXhXhXhXhXhXhXhXhXhXhXgXhXhXhXhXgXhXhXhXhXhXhXhXhXhXhXhXhXhXhXhXhXhXhXhXhXhXhXhXhXhXhXhXhXhXhXhXhXhXhXhXhXhXhXhXhXhXhXhXhXgXhXhXhXhXhXhXhXhXhXhXhXhXhXhXhXhXhXhXhXhXhXhXhXhXhXhXhXhXhXhXhXhXhXhXhXhXhXhXhXhXhXhXhXhXgXgXhXhXhXhXhXhXhXhXhXhXhXhXhXhXhXhXhXhXhXhXhXhXhXhXhXhXhXhXhXhXhXhXhXhXhXhXhXhXhXhXhXhXhXhXhXhXgXhXhXhXhXgXhXhXhXhXhXhXhXhXhXhXhXhXhXhXhXhXhXhXhXhXhXhXhXhXhXhXgXgXgXgXgXgXaXaXgXgXgXgXgXaXgXgXgXgXgXgXgXgXgXgXgXgXgXhXhXhXhXhXhXhXhXhXhXhXhXhXhXhXhXhXhXhXhXhXhXhXhXhXhXhXhXhXhXhXhXhXhXhXhXhXhXhXhXhX",
"hXhXhXhXhXhXhXhXhXgXjXhXgXjXaXgXgXaXjXgXgXhXhXhXhXhXhXhXhXhXhXhXhXhXhXhXhXhXhXhXhXhXhXhXhXhXhXhXhXhXhXgXhXhXhXhXgXgXhXgXgXgXgXjXgXhXgXgXgXgXgXgXgXhXhXhXhXhXhXhXhXhXhXhXhXhXhXhXhXhXhXhXhXhXhXhXhXhXhXhXgXhXjXjXhXgXgXhXjXjXgXhXgXgXgXgXgXgXgXhXhXhXhXhXhXhXhXhXhXhXhXhXhXhXhXhXhXhXhXhXhXhXhXhXhXhXhXhXgXjXjXhXgXgXgXhXjXaXgXgXhXjXgXgXgXhXhXhXhXhXhXhXhXhXhXhXhXhXhXhXhXhXhXhXhXhXhXhXhXhXhXhXhXgXhXjXhXgXgXgXgXjXgXgXgXhXgXgXgXgXgXgXgXgXhXhXhXhXhXhXhXhXhXhXhXhXhXhXhXhXhXhXhXhXhXhXhXhXhXhXhXhXhXhXhXhXhXhXhXhXhXhXhXhXhXhX",
"hXhXhXhXhXhXhXhXhXhXqXqXhX&XnXjXhXnX/.jXhXgXhXhXhXhXhXhXhXhXhXhXhXhXhXhXhXhXhXhXhXhXhXhXhXhXhXhXhXhXhXhXaXaXaXaXhXjXgXxXhXhXjX/.hXgXjXjXhXhXhXxXhXgXhXhXhXhXhXhXhXhXhXhXhXhXhXhXhXhXhXhXhXhXhXhXhXhXhXhXhXaX*X*XqXxXxXqX%X$XjXgXxXjXhXhXjXxXhXgXhXhXhXhXhXhXhXhXhXhXhXhXhXhXhXhXhXhXhXhXhXhXhXhXhXhXhXhXhXqX&XhXxXgXjXpX.XxXjXgXgX&XhXxXhXgXhXhXhXhXhXhXhXhXhXhXhXhXhXhXhXhXhXhXhXhXhXhXhXhXhXhXgXhXiX%XpXxXhXhXjX/.hXxXhXgXhXxXhXhXhXhXjXxXhXhXhXhXhXhXhXhXhXhXhXhXhXhXhXhXhXhXhXhXhXhXhXhXhXhXhXhXhXhXhXhXhXhXhXhXhXhXhXhXhXhX",
"hXhXhXhXhXhXhXgXjXqXQ _ !.iXn..XpX$X~ /.aXhXgXhXhXhXhXhXhXhXhXhXhXhXhXhXhXhXhXhXhXhXhXhXhXhXhXhXhXhXaXnXS..XrXN.aX%XhX'.iXhX/.~ jXhX&X%XpXaX*Xk.rXhXgXhXhXhXhXhXhXhXhXhXhXhXhXhXhXhXhXhXhXhXhXhXhXhXhXgXhXpXg.f ^.%XqXpXW.k.nXgX.X*XaXaX/.V.hXhXgXhXhXhXhXhXhXhXhXhXhXhXhXhXhXhXhXhXhXhXhXhXhXhXhXhXgXjX&XA W.qX.XgXaXV.h.jX.XjXaX&XpX.XrXhXgXhXhXhXhXhXhXhXhXhXhXhXhXhXhXhXhXhXhXhXhXhXhXhXhXhXhXhXQ N.*X$XrXhX/.Q jX.XaXhXhX.XaXpXpXaXD.A.hXgXhXhXhXhXhXhXhXhXhXhXhXhXhXhXhXhXhXhXhXhXhXhXhXhXhXhXhXhXhXhXhXhXhXhXhXhXhXhXhXhX",
"hXhXhXhXhXhXhXgXjX*X^ h.k.V.A V._ A.Q ^ k.xXaXhXhXhXhXhXhXhXhXhXhXhXhXhXhXhXhXhXhXhXhXhXhXhXhXhXhXhXaXnXV._ n._ h.W ^.V._ n.^ W nX'.^ V.V./._ g %XjXgXhXhXhXhXhXhXhXhXhXhXhXhXhXhXhXhXhXhXhXhXhXhXhXhXhXgXxXqXh.CXC.( n.n.V.AXV.g.g./.S.( A gXhXgXhXhXhXhXhXhXhXhXhXhXhXhXhXhXhXhXhXhXhXhXhXhXhXhXhXgXxX$XW *XqX( k.h.W h.V.A !.hXh.h.~ _ hXgXhXhXhXhXhXhXhXhXhXhXhXhXhXhXhXhXhXhXhXhXhXhXhXhXhXhXhXW ^.pXN._ n.^ ^ D.W h.nXC.^ V.k.$XN.~ ^ jXgXgXhXhXhXhXhXhXhXhXhXhXhXhXhXhXhXhXhXhXhXhXhXhXhXhXhXhXhXhXhXhXhXhXhXhXhXhXhXhXhX",
"hXhXhXhXhXhXhXgXjXqXx $X*Xg.V./._ HX) rX( jXgXhXhXhXhXhXhXhXhXhXhXhXhXhXhXhXhXhXhXhXhXhXhXhXhXhXhXhXaXnXV._ V.W x k.h.k.x ~ aX^ ZXn./.pXn./.g.N.nXaXhXhXhXhXhXhXhXhXhXhXhXhXhXhXhXhXhXhXhXhXhXhXhXhXhXhXgXjX$Xg.qXh.W ( n.V.ZXQ nXA.^.C.k.!.CXaXhXhXhXhXhXhXhXhXhXhXhXhXhXhXhXhXhXhXhXhXhXhXhXhXhXhXgXjX$XA .XD.( g n.qX^ A g.D.hXg.g.*X_ rXhXgXhXhXhXhXhXhXhXhXhXhXhXhXhXhXhXhXhXhXhXhXhXhXhXhXhXhXA D.^.h.x Q pX_ Q ) n.xX^ gXg.) &Xk.n.'.nXaXhXhXhXhXhXhXhXhXhXhXhXhXhXhXhXhXhXhXhXhXhXhXhXhXhXhXhXhXhXhXhXhXhXhXhXhXhXhXhXhX",
"hXhXhXhXhXhXhXgXjX&Xk.AX&Xn.N.n._ n.g.*Xg.jXgXhXhXhXhXhXhXhXhXhXhXhXhXhXhXhXhXhXhXhXhXhXhXhXhXhXhXhXaXnXC..XrXn.h.V.V.W g.n.^ ^ nX$XQ A._ A A.( /.jXgXhXhXhXhXhXhXhXhXhXhXhXhXhXhXhXhXhXhXhXhXhXhXhXhXhXgXjX&Xn..XA _ g.V.C.ZXS.( S.) W !.~ iXhXgXhXhXhXhXhXhXhXhXhXhXhXhXhXhXhXhXhXhXhXhXhXhXhXhXhXgXxX$Xn.FXg.Q k.h.W V.C.g.qXaXk.n.&Xh.iXhXgXhXhXhXhXhXhXhXhXhXhXhXhXhXhXhXhXhXhXhXhXhXhXhXhXhXaXg.ZXW.A g.n.^ ( !.) .XnXA.Q S.!.~ ^ W.^ hXhXgXhXhXhXhXhXhXhXhXhXhXhXhXhXhXhXhXhXhXhXhXhXhXhXhXhXhXhXhXhXhXhXhXhXhXhXhXhXhXhX",
"hXhXhXhXhXhXhXhXhXgXpXgXgXaXaXrXaX&XaXgXpXhXhXhXhXhXhXhXhXhXhXhXhXhXhXhXhXhXhXhXhXhXhXhXhXhXhXhXhXhXhXhXaXaXaXgXaX%XaXqXpXhX*XaXgXjXqXrXpXqXhXiXrXhXgXhXhXhXhXhXhXhXhXhXhXhXhXhXhXhXhXhXhXhXhXhXhXhXhXhXhXhXgXpXjXqXiXaXaXaXhXhX&XpXqXiXhXqXpXhXhXhXhXhXhXhXhXhXhXhXhXhXhXhXhXhXhXhXhXhXhXhXhXhXhXhXhXhXgXpXhXaX*XhXpXqXhXgX%XpXhXaXaXgXaXgXhXhXhXhXhXhXhXhXhXhXhXhXhXhXhXhXhXhXhXhXhXhXhXhXhXhXhXhXpXaXhXqXpXhX*XpXjX&XqXhXhX*XhXhXqXpXhXqXaXhXhXhXhXhXhXhXhXhXhXhXhXhXhXhXhXhXhXhXhXhXhXhXhXhXhXhXhXhXhXhXhXhXhXhXhXhXhXhXhXhX",
"hXhXhXhXhXhXhXhXhXhXhXhXhXhXhXhXhXjXhXhXhXhXhXhXhXhXhXhXhXhXhXhXhXhXhXhXhXhXhXhXhXhXhXhXhXhXhXhXhXhXhXhXhXhXhXhXhXjXhXjXhXhXjXhXhXgXjXhXhXjXhXhXhXgXhXhXhXhXhXhXhXhXhXhXhXhXhXhXhXhXhXhXhXhXhXhXhXhXhXhXhXhXhXhXgXjXhXhXhXhXhXgXjXhXjXhXgXjXhXhXhXhXhXhXhXhXhXhXhXhXhXhXhXhXhXhXhXhXhXhXhXhXhXhXhXhXhXhXhXhXgXhXjXhXhXjXhXhXjXhXhXhXhXhXhXhXhXhXhXhXhXhXhXhXhXhXhXhXhXhXhXhXhXhXhXhXhXhXhXhXhXhXhXhXhXhXhXjXhXhXjXhXgXjXhXhXgXjXhXgXjXhXhXjXhXhXhXhXhXhXhXhXhXhXhXhXhXhXhXhXhXhXhXhXhXhXhXhXhXhXhXhXhXhXhXhXhXhXhXhXhXhXhXhXhXhX",
"gXgXgXgXgXgXgXgXgXgXgXgXgXgXgXgXgXaXgXgXgXgXgXgXgXgXgXgXgXgXgXgXgXgXgXgXgXgXgXgXgXgXgXgXgXgXgXgXgXgXgXgXgXgXgXgXgXaXgXaXgXgXaXgXgXgXaXgXgXaXgXgXgXgXgXgXgXgXgXgXgXgXgXgXgXgXgXgXgXgXgXgXgXgXgXgXgXgXgXgXgXgXgXgXgXaXgXgXgXgXgXgXaXgXgXgXgXgXgXgXgXgXgXgXgXgXgXgXgXgXgXgXgXgXgXgXgXgXgXgXgXgXgXgXgXgXgXgXgXgXgXgXaXgXgXaXgXgXaXgXgXgXgXgXgXgXgXgXgXgXgXgXgXgXgXgXgXgXgXgXgXgXgXgXgXgXgXgXgXgXgXgXgXgXgXgXgXaXgXgXaXgXgXaXgXgXgXaXgXgXaXgXgXaXgXgXgXgXgXgXgXgXgXgXgXgXgXgXgXgXgXgXgXgXgXgXgXgXgXgXgXgXgXgXgXgXgXgXgXgXgXgXgXgXgXgX",
"jXjXjXjXjXjXjXjXjXjXjXjXjXjXjXjXjXjXjXjXjXjXjXjXjXjXjXjXjXjXjXjXjXjXjXjXjXjXjXjXjXjXjXjXjXjXjXjXjXjXjXjXjXjXjXjXjXjXjXjXjXjXjXjXjXjXjXjXjXjXjXjXjXjXjXjXjXjXjXjXjXjXjXjXjXjXjXjXjXjXjXjXjXjXjXjXjXjXjXjXjXjXjXjXjXjXjXjXjXjXjXjXjXjXjXjXjXjXjXjXjXjXjXjXjXjXjXjXjXjXjXjXjXjXjXjXjXjXjXjXjXjXjXjXjXjXjXjXjXjXjXjXjXjXjXjXjXjXjXjXjXjXjXjXjXjXjXjXjXjXjXjXjXjXjXjXjXjXjXjXjXjXjXjXjXjXjXjXjXjXjXjXjXjXjXjXjXjXjXjXjXjXjXjXjXjXjXjXjXjXjXjXjXjXjXjXjXjXjXjXjXjXjXjXjXjXjXjXjXjXjXjXjXjXjXjXjXjXjXjXjXjXjXjXjXjXjXjXjXjXjXjXjXjXjXjX",
"nXnXnXnXnXnXnXnXnXnXnXnXnXnXnXnXnXnXnXnXnXnXnXnXnXnXnXnXnXnXnXnXnXnXnXnXnXnXnXnXnXnXnXnXnXnXnXnXnXnXnXnXnXnXnXnXnXnXnXnXnXnXnXnXnXnXnXnXnXnXnXnXnXnXnXnXnXnXnXnXnXnXnXnXnXnXnXnXnXnXnXnXnXnXnXnXnXnXnXnXnXnXnXnXnXnXnXnXnXnXnXnXnXnXnXnXnXnXnXnXnXnXnXnXnXnXnXnXnXnXnXnXnXnXnXnXnXnXnXnXnXnXnXnXnXnXnXnXnXnXnXnXnXnXnXnXnXnXnXnXnXnXnXnXnXnXnXnXnXnXnXnXnXnXnXnXnXnXnXnXnXnXnXnXnXnXnXnXnXnXnXnXnXnXnXnXnXnXnXnXnXnXnXnXnXnXnXnXnXnXnXnXnXnXnXnXnXnXnXnXnXnXnXnXnXnXnXnXnXnXnXnXnXnXnXnXnXnXnXnXnXnXnXnXnXnXnXnXnXnXnXnXnXnXnXnX",
"hXhXhXhXhXhXhXhXhXhXhXhXhXhXhXjXjXhXhXhXhXhXhXhXhXhXhXhXhXhXhXhXhXhXhXhXhXhXhXhXhXhXhXhXhXhXhXhXhXhXhXhXhXhXhXhXhXhXhXhXhXjXjXjXhXhXhXhXhXhXhXhXhXhXhXhXhXhXhXhXhXhXhXhXhXhXhXhXhXhXhXhXhXhXhXhXhXhXhXhXhXhXhXhXhXhXhXhXhXjXjXhXhXhXhXhXhXhXhXhXhXhXhXhXhXhXhXhXhXhXhXhXhXhXhXhXhXhXhXhXhXhXhXhXhXhXhXhXhXhXhXhXhXhXhXhXjXjXhXhXhXhXhXhXhXhXhXhXhXhXhXhXhXhXhXhXhXhXhXhXhXhXhXhXhXhXhXhXhXhXhXhXhXhXhXhXhXhXhXhXhXhXhXjXjXhXhXhXhXhXhXhXhXhXhXhXhXhXhXhXhXhXhXhXhXhXhXhXhXhXhXhXhXhXhXhXhXhXhXhXhXhXhXhXhXhXhXhXhXhXhXhXhXhXhXhX",
"gXgXgXgXgXgXgXgXgXgXgXfXzXzXgXpXpXzXMXhXaXgXgXgXgXgXgXgXgXgXgXgXgXgXgXgXgXgXgXgXgXgXgXgXgXgXgXgXgXgXgXgXgXgXgXgXgXgXaXzXzXgXpXpXjXMXhXaXgXgXgXgXgXgXgXgXgXgXgXgXgXgXgXgXgXgXgXgXgXgXgXgXgXgXgXgXgXgXgXgXgXgXgXgXgXaXzXzXgXpXpXhXMXhXaXgXgXgXgXgXgXgXgXgXgXgXgXgXgXgXgXgXgXgXgXgXgXgXgXgXgXgXgXgXgXgXgXgXgXgXgXgXaXzXzXgXpXpXhXcXhXaXgXgXgXgXgXgXgXgXgXgXgXgXgXgXgXgXgXgXgXgXgXgXgXgXgXgXgXgXgXgXgXgXgXgXgXgXgXaXzXzXgXpXpXhXcXhXaXgXgXgXgXgXgXgXgXgXgXgXgXgXgXgXgXgXgXgXgXgXgXgXgXgXgXgXgXgXgXgXgXgXgXgXgXgXgXgXgXgXgXgXgXgXgXgX",
"hXhXhXhXhXhXhXhXhXgXhXzX5X0.9.2.0 #.L.pXzXfXhXhXhXhXhXhXhXhXhXhXhXhXhXhXhXhXhXhXhXhXhXhXhXhXhXhXhXhXhXhXhXhXhXhXgXhXzX+X4.e 0 0 @.K.pXzXfXhXhXhXhXhXhXhXhXhXhXhXhXhXhXhXhXhXhXhXhXhXhXhXhXhXhXhXhXhXhXhXhXhXhXgXhXzX+X4.e 0 0 @.K.tXzXgXhXhXhXhXhXhXhXhXhXhXhXhXhXhXhXhXhXhXhXhXhXhXhXhXhXhXhXhXhXhXhXhXhXhXgXhXzX5X4.3.e e 3.K.uXzXgXhXhXhXhXhXhXhXhXhXhXhXhXhXhXhXhXhXhXhXhXhXhXhXhXhXhXhXhXhXhXhXhXhXhXgXhXcX5X4.3.e e 3.K.uXzXgXhXhXhXhXhXhXhXhXhXhXhXhXhXhXhXhXhXhXhXhXhXhXhXhXhXhXhXhXhXhXhXhXhXhXhXhXhXhXhXhXhXhXhXhXhXhX",
"hXhXhXhXhXhXhXhXgXhXfX0.>.1.9.8.k 6 4 e _.zXfXhXhXhXhXhXhXhXhXhXhXhXhXhXhXhXhXhXhXhXhXhXhXhXhXhXhXhXhXhXhXhXhXgXhXaX4.5 4 e k k 9 4 e _.zXfXhXhXhXhXhXhXhXhXhXhXhXhXhXhXhXhXhXhXhXhXhXhXhXhXhXhXhXhXhXhXhXhXgXhXgX4.7 4 e k k 9 4 e _.zXfXhXhXhXhXhXhXhXhXhXhXhXhXhXhXhXhXhXhXhXhXhXhXhXhXhXhXhXhXhXhXhXhXgXhXhX0.w w ..3.3.e w e _.zXgXhXhXhXhXhXhXhXhXhXhXhXhXhXhXhXhXhXhXhXhXhXhXhXhXhXhXhXhXhXhXhXhXgXhXhX0.w w ..3.3.e w e I.zXgXhXhXhXhXhXhXhXhXhXhXhXhXhXhXhXhXhXhXhXhXhXhXhXhXhXhXhXhXhXhXhXhXhXhXhXhXhXhXhXhXhXhXhXhXhX",
"hXhXhXhXhXhXhXgXhXfX7.1.8.6XjXmXnXfXG.7 7 _.zXfXhXhXhXhXhXhXhXhXhXhXhXhXhXhXhXhXhXhXhXhXhXhXhXhXhXhXhXhXhXhXgXhXfX#.4 k _.jXmXnXfXK.7 5 _.zXfXhXhXhXhXhXhXhXhXhXhXhXhXhXhXhXhXhXhXhXhXhXhXhXhXhXhXhXhXhXhXgXhXhX3.4 k _.jXmXnXfXK.6 5 L.zXfXhXhXhXhXhXhXhXhXhXhXhXhXhXhXhXhXhXhXhXhXhXhXhXhXhXhXhXhXhXhXgXhXhX3.w 3._.kXmXnXkXI.w w I.cXfXhXhXhXhXhXhXhXhXhXhXhXhXhXhXhXhXhXhXhXhXhXhXhXhXhXhXhXhXhXhXgXgXhX4.w 2._.kXmXmXkXI.e w I.cXfXhXhXhXhXhXhXhXhXhXhXhXhXhXhXhXhXhXhXhXhXhXhXhXhXhXhXhXhXhXhXhXhXhXhXhXhXhXhXgXgXgXgXgXgX",
"hXhXhXhXhXhXhXfXzXI.1.0.nXGXnXg D.FXGX[.6 0 0XhXgXhXhXhXhXhXhXhXhXhXhXhXhXhXhXhXhXhXhXhXhXhXhXhXhXhXhXhXhXhXaXMX4.4 3.bXGXnXnXnXCXGX5X9 9 8XjXgXhXhXhXhXhXhXhXhXhXhXhXhXhXhXhXhXhXhXhXhXhXhXhXhXhXhXhXhXhXaXMXG.4 3.jXGXnXnXnXCXGX5X0 6 5XzXgXhXhXhXhXhXhXhXhXhXhXhXhXhXhXhXhXhXhXhXhXhXhXhXhXhXhXhXhXhXfXcXK.w 3.jXGXnXnXnXmXGX5Xe w 5XzXgXhXhXhXhXhXhXhXhXhXhXhXhXhXhXhXhXhXhXhXhXhXhXhXhXhXhXhXhXhXfXcXI.w 3.kXGXnXnXnXmXGXeX..w +XzXgXhXhXhXhXhXhXhXhXhXhXhXhXhXhXhXhXhXhXhXhXhXhXhXhXhXhXhXhXhXhXhXhXhXhXhXhXhXhXhXhXhXhXhX",
"hXhXhXhXhXhXgXhXeX,.9.nXmXnXjX< B.SXjXGXL.4 4.MXfXhXhXhXhXhXhXhXhXhXhXhXhXhXhXhXhXhXhXhXhXhXhXhXhXhXhXhXhXgXjX0X9 e jXZXnXnXnXnXnXbXGXL.4 4.zXfXhXhXhXhXhXhXhXhXhXhXhXhXhXhXhXhXhXhXhXhXhXhXhXhXhXhXhXhXgXhX0X0 e kXmXjXnXnXnXnXjXGX_.4 3.zXgXhXhXhXhXhXhXhXhXhXhXhXhXhXhXhXhXhXhXhXhXhXhXhXhXhXhXhXhXgXhXuX..e kXZXbXnXnXnXnXbXGX+Xw 3.zXgXhXhXhXhXhXhXhXhXhXhXhXhXhXhXhXhXhXhXhXhXhXhXhXhXhXhXhXhXgXhXpX..e dXAXbXnXnXnXnXbXGX5Xw 3.zXgXhXhXhXhXhXhXhXhXhXhXhXhXhXhXhXhXhXhXhXhXhXhXhXhXhXhXhXhXhXhXhXhXhXhXhXhXgXpXpXpXpXpXpX",
"hXhXhXhXhXhXgXzX,X1.4XGXbXnXjX< B.SXnXnXjXe e pXhXgXhXhXhXhXhXhXhXhXhXhXhXhXhXhXhXhXhXhXhXhXhXhXhXhXhXhXhXfXMXL.4 K.GXbXnXnXnXnXnXnXnXnXe 0 tXhXgXhXhXhXhXhXhXhXhXhXhXhXhXhXhXhXhXhXhXhXhXhXhXhXhXhXhXhXfXzXL.4 K.HXCXAXZXnXnXnXnXnXnXe 0 wXhXgXhXhXhXhXhXhXhXhXhXhXhXhXhXhXhXhXhXhXhXhXhXhXhXhXhXhXhXfXzX_.w 0.GXbXnXnXnXnXnXnXnXnX3.w 0XhXgXhXhXhXhXhXhXhXhXhXhXhXhXhXhXhXhXhXhXhXhXhXhXhXhXhXhXhXgXzX_.w 0.GXbXnXnXnXnXnXnXnXZX3.w 0XzXgXhXhXhXhXhXhXhXhXhXhXhXhXhXhXhXhXhXhXhXhXhXhXhXhXhXhXhXhXhXhXhXhXhXgXhXiX&XqXqXqXqXqX",
"hXhXhXhXhXhXgXzX0.>.dXmXnXnXnX!.*XZXnXnXAX3.7 8XzXgXhXhXhXhXhXhXhXhXhXhXhXhXhXhXhXhXhXhXhXhXhXhXhXhXhXhXhXfXMX4.5 5XZXnXnXnXnXnXnXnXnXAX4.5 5XzXgXhXhXhXhXhXhXhXhXhXhXhXhXhXhXhXhXhXhXhXhXhXhXhXhXhXhXhXaXmX4.4 5XsX$X$XqXnXnXnXnXnXAX4.3 +XzXgXhXhXhXhXhXhXhXhXhXhXhXhXhXhXhXhXhXhXhXhXhXhXhXhXhXhXhXfXcX0.w 5XAXnXnXnXnXnXnXnXnXGX0.w +XzXgXhXhXhXhXhXhXhXhXhXhXhXhXhXhXhXhXhXhXhXhXhXhXhXhXhXhXhXfXcX0.w 6XAXnXnXnXnXnXnXnXnXGX0.w _.zXfXhXhXhXhXhXhXhXhXhXhXhXhXhXhXhXhXhXhXhXhXhXhXhXhXhXhXhXhXhXhXhXhXhXgXhXiXrXjXhXhXhXhX",
"hXhXhXhXhXhXgXzX7.,.kXmXnXnXnXAXZXnXnXnXGX4.4 +XzXgXhXhXhXhXhXhXhXhXhXhXhXhXhXhXhXhXhXhXhXhXhXhXhXhXhXhXhXaXMX3.5 pXZXnXnXZXAXnXnXnXnXGX4.4 [.zXfXhXhXhXhXhXhXhXhXhXhXhXhXhXhXhXhXhXhXhXhXhXhXhXhXhXhXhXfXcX6...PX` , < ! ZXnXnXnXnXGXK.4 _.zXfXhXhXhXhXhXhXhXhXhXhXhXhXhXhXhXhXhXhXhXhXhXhXhXhXhXhXhXfXMX4.w eXZXnXnXCXAXnXnXnXnXGXI.w _.cXfXhXhXhXhXhXhXhXhXhXhXhXhXhXhXhXhXhXhXhXhXhXhXhXhXhXhXhXaXMX0.w 5XZXnXnXCXAXnXnXnXnXGXI.w I.cXfXhXhXhXhXhXhXhXhXhXhXhXhXhXhXhXhXhXhXhXhXhXhXhXhXhXhXhXhXhXhXhXhXhXgXhXiXrXhXgXhXgXgX",
"hXhXhXhXhXhXgXzX0.>.dXmXnXnXnXnXnXnXnXnXAX4.5 5XzXgXhXhXhXhXhXhXhXhXhXhXhXhXhXhXhXhXhXhXhXhXhXhXhXhXhXhXhXfXMX4.3 5XAXnXAXm.B.AXnXnXnXAX4.5 +XzXgXhXhXhXhXhXhXhXhXhXhXhXhXhXhXhXhXhXhXhXhXhXhXhXhXhXhXhXfXcX0.:.7XsX&X*XiXnXnXnXnXnXGX4.3 [.zXgXhXhXhXhXhXhXhXhXhXhXhXhXhXhXhXhXhXhXhXhXhXhXhXhXhXhXhXfXcX0.w 5XAXnXSXB.m.ZXnXnXnXGX0.w +XzXfXhXhXhXhXhXhXhXhXhXhXhXhXhXhXhXhXhXhXhXhXhXhXhXhXhXhXhXfXcX0.w +XAXnXAXB.m.ZXnXnXnXGXK.w _.zXfXhXhXhXhXhXhXhXhXhXhXhXhXhXhXhXhXhXhXhXhXhXhXhXhXhXhXhXhXhXhXhXhXhXgXhXiXrXhXgXgXhXjX",
"hXhXhXhXhXhXgXzX,X1.4XGXnXnXnXnXnXnXnXnXjXe e gXhXgXhXhXhXhXhXhXhXhXhXhXhXhXhXhXhXhXhXhXhXhXhXhXhXhXhXhXhXfXMXL.4 K.GXCX*X, B.AXnXnXnXbXe e aXhXgXhXhXhXhXhXhXhXhXhXhXhXhXhXhXhXhXhXhXhXhXhXhXhXhXhXhXhXgXzX4X1.>XGXCXAXZXnXnXnXnXnXnXe e pXhXgXhXhXhXhXhXhXhXhXhXhXhXhXhXhXhXhXhXhXhXhXhXhXhXhXhXhXhXfXzX_.w 0.GXCXiX, m.AXnXnXnXnX3.e pXhXgXhXhXhXhXhXhXhXhXhXhXhXhXhXhXhXhXhXhXhXhXhXhXhXhXhXhXhXfXzX_.w 0.GXCXiX, m.AXnXnXnXmX3.e uXhXgXhXhXhXhXhXhXhXhXhXhXhXhXhXhXhXhXhXhXhXhXhXhXhXhXhXhXhXhXhXhXhXhXhXgXhXiXrXhXgXhX*X&X",
"hXhXhXhXhXhXgXhXuX,.9.bXmXnXnXnXnXnXnXHXK.4 4.MXfXhXhXhXhXhXhXhXhXhXhXhXhXhXhXhXhXhXhXhXhXhXhXhXhXhXhXhXhXgXhXwX9 e kXFXg s AXnXnXnXHXL.4 4.MXfXhXhXhXhXhXhXhXhXhXhXhXhXhXhXhXhXhXhXhXhXhXhXhXhXhXhXhXhXgXhXpX<.9.kXmXnXnXnXnXnXnXHXL.4 4.zXfXhXhXhXhXhXhXhXhXhXhXhXhXhXhXhXhXhXhXhXhXhXhXhXhXhXhXhXhXgXhXpX..e dXHXZ h ZXnXnXnXGX_.w 3.zXgXhXhXhXhXhXhXhXhXhXhXhXhXhXhXhXhXhXhXhXhXhXhXhXhXhXhXhXhXgXhXaX..e uXHXZ h CXnXnXnXGX_.w 3.zXgXhXhXhXhXhXhXhXhXhXhXhXhXhXhXhXhXhXhXhXhXhXhXhXhXhXhXhXhXhXhXhXhXhXhXgXhXiXrXhXaXnXS.< ",
"hXhXhXhXhXhXhXgXzXI.1.0.bXnXnXnXnXnXnX_.7 e wXhXgXhXhXhXhXhXhXhXhXhXhXhXhXhXhXhXhXhXhXhXhXhXhXhXhXhXhXhXhXhXfXzXG.4 #.bX(.&XZXnXnXnX_.6 0 0XhXgXhXhXhXhXhXhXhXhXhXhXhXhXhXhXhXhXhXhXhXhXhXhXhXhXhXhXhXhXhXgXzX,X1.7.jXnXnXnXnXnXnX[.9 0 8XjXgXhXhXhXhXhXhXhXhXhXhXhXhXhXhXhXhXhXhXhXhXhXhXhXhXhXhXhXhXhXfXzXI.w 3.jX.X$XAXnXnXnX5Xe w 5XzXgXhXhXhXhXhXhXhXhXhXhXhXhXhXhXhXhXhXhXhXhXhXhXhXhXhXhXhXhXhXfXzXI.w 3.kX.X$XAXnXnXnX5X..w 5XzXgXhXhXhXhXhXhXhXhXhXhXhXhXhXhXhXhXhXhXhXhXhXhXhXhXhXhXhXhXhXhXhXhXhXhXgXhXiXrXhXaXxXD., ",
"hXhXhXhXhXhXhXgXhXhX0.;.0.mXnXnXnXmX5X3 6 _.zXfXhXhXhXhXhXhXhXhXhXhXhXhXhXhXhXhXhXhXhXhXhXhXhXhXhXhXhXhXhXhXgXhXjX4.3 7.AXCXnXnXmX5X5 7 _.zXfXhXhXhXhXhXhXhXhXhXhXhXhXhXhXhXhXhXhXhXhXhXhXhXhXhXhXhXhXhXhXhXgXzX0.;.7.nXnXnXnXmX0X7 5 E.zXfXhXhXhXhXhXhXhXhXhXhXhXhXhXhXhXhXhXhXhXhXhXhXhXhXhXhXhXhXhXhXhXgXzX4.w 9.ZXCXnXnXmXuXw w I.zXfXhXhXhXhXhXhXhXhXhXhXhXhXhXhXhXhXhXhXhXhXhXhXhXhXhXhXhXhXhXhXhXgXzX0.w 9.ZXCXnXnXnXuXe w I.zXgXhXhXhXhXhXhXhXhXhXhXhXhXhXhXhXhXhXhXhXhXhXhXhXhXhXhXhXhXhXhXhXhXhXhXhXgXhXiXrXhXaXxXA., ",
"hXhXhXhXhXhXhXhXgXhXhX0.4XzXhXhXhXhXpX4._.zXgXhXhXhXhXhXhXhXhXhXhXhXhXhXhXhXhXhXhXhXhXhXhXhXhXhXhXhXhXhXhXhXhXgXhXhX0.4XzXgXhXhXhXaX4.E.zXgXhXhXhXhXhXhXhXhXhXhXhXhXhXhXhXhXhXhXhXhXhXhXhXhXhXhXhXhXhXhXhXhXgXhXzX0.,XzXhXhXhXhXgX4.L.zXgXhXhXhXhXhXhXhXhXhXhXhXhXhXhXhXhXhXhXhXhXhXhXhXhXhXhXhXhXhXhXhXhXgXhXzXy.4XvXgXhXhXhXhX4.I.zXgXhXhXhXhXhXhXhXhXhXhXhXhXhXhXhXhXhXhXhXhXhXhXhXhXhXhXhXhXhXhXhXhXgXhXzXy.4XvXgXhXhXhXhX0.I.zXgXhXhXhXhXhXhXhXhXhXhXhXhXhXhXhXhXhXhXhXhXhXhXhXhXhXhXhXhXhXhXhXhXhXhXhXhXgXhXiXrXhXaXxXD.f ",
"hXhXhXhXhXhXhXhXhXgXhXzXhXhXgXgXgXgXhXzXzXgXhXhXhXhXhXhXhXhXhXhXhXhXhXhXhXhXhXhXhXhXhXhXhXhXhXhXhXhXhXhXhXhXhXhXgXhXzXhXhXgXgXgXgXhXzXzXgXhXhXhXhXhXhXhXhXhXhXhXhXhXhXhXhXhXhXhXhXhXhXhXhXhXhXhXhXhXhXhXhXhXhXgXhXzXhXhXgXgXgXgXhXzXzXgXhXhXhXhXhXhXhXhXhXhXhXhXhXhXhXhXhXhXhXhXhXhXhXhXhXhXhXhXhXhXhXhXhXhXgXhXzXhXhXgXgXgXgXhXzXzXgXhXhXhXhXhXhXhXhXhXhXhXhXhXhXhXhXhXhXhXhXhXhXhXhXhXhXhXhXhXhXhXhXhXhXgXhXzXhXhXgXgXgXgXhXzXzXgXhXhXhXhXhXhXhXhXhXhXhXhXhXhXhXhXhXhXhXhXhXhXhXhXhXhXhXhXhXhXhXhXhXhXhXhXhXgXhXiXrXhXgXhXpXhX",
"hXhXhXhXhXhXhXgXgXhXgXgXgXhXgXgXhXgXgXgXgXhXhXhXhXhXhXhXhXhXhXhXhXhXhXhXhXhXhXhXhXhXhXhXhXhXhXhXhXhXhXhXhXhXhXgXgXgXgXgXgXhXhXhXhXgXgXgXhXhXhXhXhXhXhXhXhXhXhXhXhXhXhXhXhXhXhXhXhXhXhXhXhXhXhXhXhXhXhXhXhXgXgXhXgXgXgXgXhXgXgXhXgXgXgXhXhXhXhXhXhXhXhXhXhXhXhXhXhXhXhXhXhXhXhXhXhXhXhXhXhXhXhXhXhXhXhXhXhXgXhXgXgXgXhXgXgXhXhXhXgXgXhXhXhXhXhXhXhXhXhXhXhXhXhXhXhXhXhXhXhXhXhXhXhXhXhXhXhXhXhXhXhXhXhXgXgXhXgXgXgXhXgXgXhXhXhXgXgXhXhXhXhXhXhXhXhXhXhXhXhXhXhXhXhXhXhXhXhXhXhXhXhXhXhXhXhXhXhXhXhXhXhXhXhXhXhXgXhXiXrXhXgXgXhXhX",
"hXhXhXhXhXhXgXhXjXgXgXhXjXaXhXhXgXjXhXgXgXgXgXgXhXhXhXhXhXhXhXhXhXhXhXhXhXhXhXhXhXhXhXhXhXhXhXhXhXhXhXhXhXhXgXhXjXgXgXhXjXgXhXgXgXgXgXhXgXgXhXhXhXhXhXhXhXhXhXhXhXhXhXhXhXhXhXhXhXhXhXhXhXhXhXhXhXhXhXhXgXjXhXaXjXhXhXjXaXhXhXgXhXgXgXgXgXhXgXgXhXhXhXhXhXhXhXhXhXhXhXhXhXhXhXhXhXhXhXhXhXhXhXhXhXhXhXhXgXhXhXgXhXhXgXhXhXgXhXgXgXgXgXhXgXgXhXhXhXhXhXhXhXhXhXhXhXhXhXhXhXhXhXhXhXhXhXhXhXhXhXhXhXhXgXhXjXhXgXhXhXgXhXhXgXhXgXgXgXgXhXgXgXhXhXhXhXhXhXhXhXhXhXhXhXhXhXhXhXhXhXhXhXhXhXhXhXhXhXhXhXhXhXhXhXhXhXgXhXiXrXhXhXhXhXhX",
"hXhXhXhXhXgXhXgXqXhXhXaX*XxXrXiXjX*XgXhXhXxXjXxXhXgXhXhXhXhXhXhXhXhXhXhXhXhXhXhXhXhXhXhXhXhXhXhXhXhXhXhXhXgXhXaXqXhXhXaXqXjXgXjXjXjXjXgXjXjXgXhXhXhXhXhXhXhXhXhXhXhXhXhXhXhXhXhXhXhXhXhXhXhXhXhXhXhXhXhXhX*XiXxX*XhXaXqXxXqXiXhXhXjXjXjXhXhXxXhXgXhXhXhXhXhXhXhXhXhXhXhXhXhXhXhXhXhXhXhXhXhXhXhXhXhXhXgXhXpXgXhXaXaXhXiXrXjXgXjXjXjXjXgXxXjXgXhXhXhXhXhXhXhXhXhXhXhXhXhXhXhXhXhXhXhXhXhXhXhXhXhXhXgXhXiX&XhXhXaXaXhXpXqXjXgXjXjXjXjXgXxXjXgXhXhXhXhXhXhXhXhXhXhXhXhXhXhXhXhXhXhXhXhXhXhXhXhXhXhXhXhXhXhXhXhXhXgXhXrXqXhXaXaXaXaX",
"hXhXhXhXhXgXjXn.W ^.nXk.Q W.^ g.A.W C.xXiX$XW.C.hXhXgXhXhXhXhXhXhXhXhXhXhXhXhXhXhXhXhXhXhXhXhXhXhXhXhXhXhXgXjXh.W .XxXg.Q $XjX*X$X*X&XjX%X%XhXgXhXhXhXhXhXhXhXhXhXhXhXhXhXhXhXhXhXhXhXhXhXhXhXhXhXhXgXhXiXh._ A.W C.n.~ W.^ _ pXgX$X&X$XrXhX'.qXhXgXhXhXhXhXhXhXhXhXhXhXhXhXhXhXhXhXhXhXhXhXhXhXhXhXgXjX'.g hXiXf rXaX) ^ qXhX&X&X&XqXjX.X*XhXgXhXhXhXhXhXhXhXhXhXhXhXhXhXhXhXhXhXhXhXhXhXhXhXhXhXgXjX^._ C.hXf qXgX( ^ qXjX&X%X&X*XjX$X&XhXgXhXhXhXhXhXhXhXhXhXhXhXhXhXhXhXhXhXhXhXhXhXhXhXhXhXhXhXhXhXhXhXhXgXhXpX*XqX*X*X*X*X",
"hXhXhXhXgXhXiXg.&Xg.aX_ qXa /.A.f rX( jX_ k.h.W hXhXgXhXhXhXhXhXhXhXhXhXhXhXhXhXhXhXhXhXhXhXhXhXhXhXhXhXgXjXqXh.$Xk.iXh.$Xk.xXA ~ Q _ !.x /.hXgXhXhXhXhXhXhXhXhXhXhXhXhXhXhXhXhXhXhXhXhXhXhXhXhXhXhXhXhXaXnXg.W rXQ _ qXa .XV..X.XA Q ^ n.C.Q rXhXgXhXhXhXhXhXhXhXhXhXhXhXhXhXhXhXhXhXhXhXhXhXhXhXhXgXhXpX^ pXW.W gX/.C.!.A.pXA ~ ~ g.D.A &XhXgXhXhXhXhXhXhXhXhXhXhXhXhXhXhXhXhXhXhXhXhXhXhXhXhXhXgXhXaXg.V.^.W pX.XV.^.S.aXA ~ ~ g.W.A %XhXgXhXhXhXhXhXhXhXhXhXhXhXhXhXhXhXhXhXhXhXhXhXhXhXhXhXhXhXhXhXhXhXhXhXhXhXhXgXgXgXgXgX",
"hXhXhXhXgXhXiXg.%Xg.aXg.qXf /.A.g rX( gX$Xn.h.^.nXaXhXhXhXhXhXhXhXhXhXhXhXhXhXhXhXhXhXhXhXhXhXhXhXhXhXhXgXhXqXh.$Xh.iXk..Xk.hX_ /.S.A.(.A.V.hXgXhXhXhXhXhXhXhXhXhXhXhXhXhXhXhXhXhXhXhXhXhXhXhXhXhXhXhXaXnXA.!.N.&XQ _ qXa .XN.$X^.A.C./.h.&Xh./.jXgXhXhXhXhXhXhXhXhXhXhXhXhXhXhXhXhXhXhXhXhXhXhXhXhXhXaXxXg.!.W g /..XC.!.D.qXn.!.!.N..XN.D.jXgXhXhXhXhXhXhXhXhXhXhXhXhXhXhXhXhXhXhXhXhXhXhXhXhXhXgXhXgXA.A Q g ^.$XV.!.S.rXh.!.W.V..XV.A.jXgXhXhXhXhXhXhXhXhXhXhXhXhXhXhXhXhXhXhXhXhXhXhXhXhXhXhXhXhXhXhXhXhXhXhXhXhXhXhXhXhXhX",
"hXhXhXhXhXaXjXV.Q C.W.V.W !.( _ W.W V.xX^.^ k.( pXhXgXhXhXhXhXhXhXhXhXhXhXhXhXhXhXhXhXhXhXhXhXhXhXhXhXhXhXgXjXn.~ C.!.n.W $XaXh./.A.A.(.n.( hXgXhXhXhXhXhXhXhXhXhXhXhXhXhXhXhXhXhXhXhXhXhXhXhXhXhXhXgXjX&Xf V.D.W C.N.Q !.( ( jX^.A.A./.N..X^ S.nXaXhXhXhXhXhXhXhXhXhXhXhXhXhXhXhXhXhXhXhXhXhXhXhXhXhXgXjXg.&X$X^ k.(.g.~ iX&XV.!.!.C./.g.h.xXaXhXhXhXhXhXhXhXhXhXhXhXhXhXhXhXhXhXhXhXhXhXhXhXhXhXgXhX!.g.h.%X^ k.(.h.Q qXqXn.!.!.C./.g.g.xXaXhXhXhXhXhXhXhXhXhXhXhXhXhXhXhXhXhXhXhXhXhXhXhXhXhXhXhXhXhXhXhXhXhXhXhXhXhXhXhXhXhX",
"hXhXhXhXhXhXhXgXqXhXpXgXqXxXiXiXjXqXhXhXqXqXjXqXaXhXhXhXhXhXhXhXhXhXhXhXhXhXhXhXhXhXhXhXhXhXhXhXhXhXhXhXhXgXhXaXqXhXpXaXqXjXgXaXgXaXaXaX&XgXhXgXhXhXhXhXhXhXhXhXhXhXhXhXhXhXhXhXhXhXhXhXhXhXhXhXhXhXhXhXpXqX&XgXqXhXgXqXxXrXpXhXaXaXaXaXgXiX*XjXgXhXhXhXhXhXhXhXhXhXhXhXhXhXhXhXhXhXhXhXhXhXhXhXhXhXhXhXhXaXhXnXjXaXaXpXrXjXaXaXaXaXgXpX&XhXhXhXhXhXhXhXhXhXhXhXhXhXhXhXhXhXhXhXhXhXhXhXhXhXhXhXhXgXhXrX&XjXnXjXaXaXpXrXjXaXaXaXaXgXpX&XhXhXhXhXhXhXhXhXhXhXhXhXhXhXhXhXhXhXhXhXhXhXhXhXhXhXhXhXhXhXhXhXhXhXhXhXhXhXhXhXhXhXhXhX",
"hXhXhXhXhXhXhXhXjXhXhXhXjXgXhXhXgXjXhXgXhXjXgXjXhXhXhXhXhXhXhXhXhXhXhXhXhXhXhXhXhXhXhXhXhXhXhXhXhXhXhXhXhXhXhXhXjXhXhXhXjXgXhXhXhXhXhXhXjXhXhXhXhXhXhXhXhXhXhXhXhXhXhXhXhXhXhXhXhXhXhXhXhXhXhXhXhXhXhXhXhXjXjXhXjXhXhXjXaXhXhXgXhXhXhXhXhXhXjXgXhXhXhXhXhXhXhXhXhXhXhXhXhXhXhXhXhXhXhXhXhXhXhXhXhXhXhXhXhXhXhXgXhXhXhXhXhXgXhXhXhXhXhXhXjXhXhXhXhXhXhXhXhXhXhXhXhXhXhXhXhXhXhXhXhXhXhXhXhXhXhXhXhXhXhXhXjXgXgXhXhXhXhXhXgXhXhXhXhXhXhXjXhXhXhXhXhXhXhXhXhXhXhXhXhXhXhXhXhXhXhXhXhXhXhXhXhXhXhXhXhXhXhXhXhXhXhXhXhXhXhXhXhXhXhXhX",
"gXgXgXgXgXgXgXgXgXgXgXgXgXgXgXgXgXaXgXgXgXgXgXgXgXgXgXgXgXgXgXgXgXgXgXgXgXgXgXgXgXgXgXgXgXgXgXgXgXgXgXgXgXgXgXgXgXgXgXgXgXgXgXgXgXgXgXgXgXgXgXgXgXgXgXgXgXgXgXgXgXgXgXgXgXgXgXgXgXgXgXgXgXgXgXgXgXgXgXgXgXaXaXgXgXgXgXgXgXgXgXgXgXgXgXgXgXgXaXgXgXgXgXgXgXgXgXgXgXgXgXgXgXgXgXgXgXgXgXgXgXgXgXgXgXgXgXgXgXgXgXgXgXgXgXgXgXgXgXgXgXgXgXgXaXgXgXgXgXgXgXgXgXgXgXgXgXgXgXgXgXgXgXgXgXgXgXgXgXgXgXgXgXgXgXgXaXgXgXgXgXgXgXgXgXgXgXgXgXgXgXaXgXgXgXgXgXgXgXgXgXgXgXgXgXgXgXgXgXgXgXgXgXgXgXgXgXgXgXgXgXgXgXgXgXgXgXgXgXgXgXgXgXgXgXgX",
"jXjXjXjXjXjXjXjXjXjXjXjXjXjXjXjXjXjXjXjXjXjXjXjXjXjXjXjXjXjXjXjXjXjXjXjXjXjXjXjXjXjXjXjXjXjXjXjXjXjXjXjXjXjXjXjXjXjXjXjXjXjXjXjXjXjXjXjXjXjXjXjXjXjXjXjXjXjXjXjXjXjXjXjXjXjXjXjXjXjXjXjXjXjXjXjXjXjXjXjXjXjXjXjXjXjXjXjXjXjXjXjXjXjXjXjXjXjXjXjXjXjXjXjXjXjXjXjXjXjXjXjXjXjXjXjXjXjXjXjXjXjXjXjXjXjXjXjXjXjXjXjXjXjXjXjXjXjXjXjXjXjXjXjXjXjXjXjXjXjXjXjXjXjXjXjXjXjXjXjXjXjXjXjXjXjXjXjXjXjXjXjXjXjXjXjXjXjXjXjXjXjXjXjXjXjXjXjXjXjXjXjXjXjXjXjXjXjXjXjXjXjXjXjXjXjXjXjXjXjXjXjXjXjXjXjXjXjXjXjXjXjXjXjXjXjXjXjXjXjXjXjXjXjXjXjX",
"nXnXnXnXnXnXnXnXnXnXnXnXnXnXnXnXnXnXnXnXnXnXnXnXnXnXnXnXnXnXnXnXnXnXnXnXnXnXnXnXnXnXnXnXnXnXnXnXnXnXnXnXnXnXnXnXnXnXnXnXnXnXnXnXnXnXnXnXnXnXnXnXnXnXnXnXnXnXnXnXnXnXnXnXnXnXnXnXnXnXnXnXnXnXnXnXnXnXnXnXnXnXnXnXnXnXnXnXnXnXnXnXnXnXnXnXnXnXnXnXnXnXnXnXnXnXnXnXnXnXnXnXnXnXnXnXnXnXnXnXnXnXnXnXnXnXnXnXnXnXnXnXnXnXnXnXnXnXnXnXnXnXnXnXnXnXnXnXnXnXnXnXnXnXnXnXnXnXnXnXnXnXnXnXnXnXnXnXnXnXnXnXnXnXnXnXnXnXnXnXnXnXnXnXnXnXnXnXnXnXnXnXnXnXnXnXnXnXnXnXnXnXnXnXnXnXnXnXnXnXnXnXnXnXnXnXnXnXnXnXnXnXnXnXnXnXnXnXnXnXnXnXnXnXnXnX",
"hXhXhXhXhXhXhXhXhXhXhXhXhXhXhXhXhXhXhXhXhXhXhXhXhXhXhXhXhXhXhXhXhXhXhXhXhXhXhXhXhXhXhXhXhXhXhXhXhXhXhXhXhXhXhXhXhXhXhXhXhXhXhXhXhXhXhXhXhXhXnXnXhXhXhXhXhXhXhXhXhXhXhXhXhXhXhXhXhXhXhXhXhXhXhXhXhXhXhXhXhXhXhXhXhXhXhXhXhXhXhXhXhXhXhXhXhXhXhXhXhXhXhXhXhXhXhXhXhXhXhXhXhXhXhXhXhXhXhXhXhXhXhXhXhXhXhXhXhXhXhXhXhXhXhXhXhXhXhXhXhXhXhXhXhXhXhXhXhXhXhXhXhXhXhXhXhXhXhXhXhXhXhXhXhXhXhXhXhXhXnXnXhXhXhXhXhXhXhXhXhXhXhXhXhXhXhXhXhXhXhXhXhXhXhXhXhXhXhXhXhXhXhXhXhXhXhXhXhXhXhXhXhXhXhXhXhXhXhXhXhXhXhXhXhXhXhXhXhXhXhXhXhXhXhXhX",
"gXgXgXgXgXgXgXgXgXgXgXaXaXaXgXgXgXgXgXgXgXgXhXhXgXgXhXhXgXgXgXgXgXgXgXgXgXgXgXgXgXgXgXgXgXgXaXgXgXaXgXgXhXhXgXgXgXgXgXgXgXgXgXgXgXgXgXgXgXgXnXnXhXgXgXgXgXgXgXgXgXgXgXgXgXgXgXgXgXgXgXaXgXgXgXgXgXgXgXgXgXgXgXgXgXgXgXgXgXgXgXgXgXgXgXgXgXgXgXgXgXgXgXgXgXgXgXgXgXgXgXaXaXaXgXgXgXgXgXgXgXgXhXhXgXgXhXhXgXgXgXgXgXgXgXgXgXgXgXgXgXgXgXgXgXgXaXgXgXaXgXgXhXhXgXgXgXgXgXgXgXgXgXgXgXgXgXgXgXgXnXnXhXgXgXgXgXgXgXgXgXaXgXaXgXgXgXgXgXgXgXgXgXgXgXgXgXgXgXgXgXgXgXgXgXgXgXgXgXaXaXaXgXgXgXaXgXgXgXgXgXgXgXgXgXgXgXgXgXgXgXgXaXaXaXgX",
"hXhXhXhXhXhXhXhXhXhXgXjXjXjXgXhXgXhXgXhXgXhXiXiXhXhXiXpXhXhXgXgXgXhXhXhXhXhXhXhXhXhXhXhXhXhXnXhXhXxXhXhXaXrXhXgXhXgXgXhXgXgXhXgXhXhXhXhXhXgXnXnXhXhXhXhXhXhXhXhXhXhXhXhXhXhXhXhXhXgXhXjXhXgXhXgXgXhXgXgXhXhXhXhXgXhXgXhXhXhXhXhXhXhXhXhXhXhXhXhXhXhXhXhXhXhXhXhXhXhXgXjXjXjXgXhXgXhXgXhXgXhXpXiXhXhXiXpXhXhXgXgXgXhXhXhXhXhXhXhXhXhXhXhXhXhXnXhXhXxXhXhXaXqXhXgXhXgXgXhXgXgXhXgXhXhXhXhXhXgXnXnXhXhXhXhXhXhXhXhXhXjXhXxXgXhXhXgXgXhXhXhXhXhXhXhXhXhXhXhXhXhXhXhXhXhXgXjXhXjXjXjXhXhXgXjXhXgXhXhXhXhXhXhXhXhXhXhXhXhXgXhXjXjXjXaX",
"hXhXhXhXhXhXhXhXhXaXxXk.^ !.nXaXhXaXhXaXgXnXC.D.nXxXC.!.jXaXjXhXhXgXhXhXhXhXhXhXhXhXhXgXhXpXQ hX.X( hXaXqX_ nXhXaXhXjXhXhXjXaXjXhXhXhXhXhXgXnXnXhXgXhXhXhXhXhXhXhXhXhXhXhXhXhXhXgXhXqXg.N.jXaXhXhXhXhXjXhXhXhXaXhXaXhXgXhXhXhXhXhXhXhXhXhXhXhXhXhXhXhXhXhXhXhXhXhXaXxXk.^ !.nXaXhXaXhXaXgXnXC.A.nXxXS.W.jXaXjXhXhXgXhXhXhXhXhXhXhXhXhXgXhXpXQ gX$X( hXaXqX_ nXhXaXhXjXhXhXjXaXjXhXhXhXhXhXgXnXnXhXgXhXhXhXhXhXgXjXg.^ A.xXhXaXhXhXhXhXhXhXhXhXhXhXhXhXhXhXhXhXhXhXgXxX^..XS./.^.$XjXjX$XqXhXgXhXhXhXhXhXhXhXhXhXhXgXjX$XQ _ &XnX",
"hXhXhXhXhXhXhXhXhXaXjX) C.( k.k.'.^ A.CXpXg.g D.V.h.h.(.!._ k.&Xn.hXhXhXhXhXhXhXhXhXhXgXhXpXa $XN.g qX( S.h.S.^.( V.N.*XC.V.W C.jXgXhXhXhXgXnXnXhXgXhXhXhXhXhXhXhXhXhXhXhXhXhXhXaXnX!.W xX/.W W.A.%XA.S.^ $X) A.N.( qXhXgXhXhXhXhXhXhXhXhXhXhXhXhXhXhXhXhXhXhXhXhXaXxX) C.( k.h.'.^ A.CXpXg.g D.V.h.h.!.!._ k.*Xn.gXhXhXhXhXhXhXhXhXhXgXhXpXa .XV.g qX( S.h.S.^.( V.N.*XC.V.W C.jXgXhXhXhXgXnXnXhXgXhXhXhXhXhXhXhX~ pX_ n.( h.$XC.&XjXgXhXhXhXhXhXhXhXhXhXhXhXhXhXgXxX^.n.~ g.k./.g.V.x _ xXgXhXhXhXhXhXhXhXhXhXhXaXnXW.V.$X( g.",
"hXhXhXhXhXhXhXhXhXaXxX~ ( rX~ iX( ~ ~ S.n.A.^.( A _ W !.!.A _ _ V.nXaXhXhXhXhXhXhXhXhXgXhXrX^ k.g._ .X^ _ a V.N.A ^ ~ iXg.( qX^ pXhXgXhXhXgXnXnXhXgXhXhXhXhXhXhXhXhXhXhXhXhXhXhXhXgXjXS._ ^ iXg.^ *Xn._ (.!.D.rXg ^ !.nXaXhXhXhXhXhXhXhXhXhXhXhXhXhXhXhXhXhXhXhXhXaXnX~ ) rX^ rX( ~ ~ S.N.A.^.( A _ W !.!.A _ _ N.nXaXhXhXhXhXhXhXhXhXgXhXrX^ k.g._ .X^ _ a V.V.A ^ Q iXg.( qX) iXhXgXhXhXgXnXnXhXgXhXhXhXhXhXhXgX( ZXC.A W.*X^ g.gXhXhXhXhXhXhXhXhXhXhXhXhXhXhXhXgXhXaXW k._ g.S.x _ ~ qXjXgXhXhXhXhXhXhXhXhXhXhXaXnX!.A.nX~ W ",
"hXhXhXhXhXhXhXhXhXgXjX) pXnX^ gXV.^ '.iX'._ ^ n.^ !.n._ Q A /.f %XjXgXhXhXhXhXhXhXhXhXgXjX*Xk.W h.g.Q W ^ ^ g.n.~ .X_ _ ( g.g._ hXgXhXhXhXgXnXnXhXgXhXhXhXhXhXhXhXhXhXhXhXhXhXhXgXhXqX(.( _ k.k.V.g.~ h./.$X^ ^.W S.iXhXgXhXhXhXhXhXhXhXhXhXhXhXhXhXhXhXhXhXhXhXhXgXjX( pXCX^ aXV.^ /.rX.X_ ^ n.^ W.N._ Q A /.f $XjXgXhXhXhXhXhXhXhXhXgXjX*Xk.Q g.g.Q W ^ ^ g.n.~ .X_ g.( g._ _ hXgXhXhXhXgXnXnXhXgXhXhXhXhXhXgXhXW V._ n.D.SXx V.nXaXhXhXhXhXhXhXhXhXhXhXhXhXhXhXhXaXnXx C.k.^ *XA '.g.V.xXgXhXhXhXhXhXhXhXhXhXhXaXnX!.^ k.N._ ",
"hXhXhXhXhXhXhXhXhXgXhX&XpXhX&XaXhX!.$XjXjX/.!.pX&X!.&XrX/..X&X~ hXhXgXhXhXhXhXhXhXhXhXhXhXpXqXqXqXqX&X(.&XqXqXqX^..XqXA.qX) V.rXhXgXhXhXhXgXnXnXhXgXhXhXhXhXhXhXhXhXhXhXhXhXhXhXgXhXrXC.&XhXA.rXaXD..XqXrXjX!..X*XW.pXhXgXhXhXhXhXhXhXhXhXhXhXhXhXhXhXhXhXhXhXhXhXgXhX&XpXhX&XaXhX!.$XjXjX'.!.pX&X!.&XrX/..X&X~ gXhXgXhXhXhXhXhXhXhXhXhXhXpXqXqXqXqX&X(.&XqXqXqX^.'.qXA.qX( N.rXjXgXhXhXhXgXnXnXhXgXhXhXhXhXhXgXhX/.C.iXrXqXjX^ %XjXgXhXhXhXhXhXhXhXhXhXhXhXhXhXhXhXgXjX&XiXqX*XxX/.^.qX^.hXhXhXhXhXhXhXhXhXhXhXhXgXhXiXA.(.jX%X",
"hXhXhXhXhXhXhXhXhXhXgXjXhXgXjXhXhXnXjXgXgXxXnXhXjXnXjXhXxXnXC./.xXgXhXhXhXhXhXhXhXhXhXhXgXhXjXjXhXjXjXnXjXhXjXhXnXxXhXnXnXW.hXjXgXhXhXhXhXgXnXnXhXgXhXhXhXhXhXhXhXhXhXhXhXhXhXhXhXgXhXnXjXhXnXhXhXnXjXjXhXgXnXxXjXnXhXgXhXhXhXhXhXhXhXhXhXhXhXhXhXhXhXhXhXhXhXhXhXhXgXjXhXgXjXhXhXnXjXgXgXxXnXhXjXnXjXhXxXnXC./.xXgXhXhXhXhXhXhXhXhXhXhXgXhXjXjXhXjXjXnXjXhXjXhXxXxXhXnXnXW.hXjXgXhXhXhXhXgXnXnXhXgXhXhXhXhXhXhXgXxXnXhXhXnX^.C.jXgXhXhXhXhXhXhXhXhXhXhXhXhXhXhXhXhXhXgXjXhXhXjXaXxXxXhXxXgXhXhXhXhXhXhXhXhXhXhXhXhXgXhXnXnXgXjX",
"hXhXhXhXhXhXhXhXhXhXhXgXhXhXgXhXhXaXgXhXhXgXaXgXgXaXgXgXaXaXjXjXgXhXhXhXhXhXhXhXhXhXhXhXhXgXgXgXgXgXgXaXgXgXgXgXaXgXgXaXaXxXgXgXhXhXhXhXhXgXnXnXhXgXhXhXhXhXhXhXhXhXhXhXhXhXhXhXhXhXgXaXgXgXaXgXgXaXgXgXgXhXaXgXgXaXgXhXhXhXhXhXhXhXhXhXhXhXhXhXhXhXhXhXhXhXhXhXhXhXhXgXgXhXgXhXhXaXgXhXhXgXaXgXgXaXgXgXaXaXjXjXgXhXhXhXhXhXhXhXhXhXhXhXhXgXgXgXgXgXgXaXgXgXgXgXaXgXgXaXaXxXgXgXhXhXhXhXhXgXnXnXhXgXhXhXhXhXhXhXhXaXaXgXgXgXjXxXgXhXhXhXhXhXhXhXhXhXhXhXhXhXhXhXhXhXhXhXgXgXgXgXhXaXaXgXaXhXhXhXhXhXhXhXhXhXhXhXhXhXhXgXaXaXhXgX",
"hXhXhXhXhXhXhXhXhXhXhXhXhXhXhXhXhXhXhXgXaXaXaXaXgXhXhXhXhXhXgXgXhXhXhXhXhXhXhXhXhXhXhXhXhXhXhXhXhXhXhXhXgXaXaXaXaXgXhXhXhXaXgXhXhXhXhXhXhXgXnXnXhXgXhXhXhXhXhXhXhXhXhXhXhXhXhXhXhXhXhXhXhXhXhXhXhXhXhXhXhXhXhXhXhXhXhXhXhXhXhXhXhXhXhXhXhXhXhXhXhXhXhXhXhXhXhXhXhXhXhXhXhXhXhXhXhXhXhXgXfXfXfXfXgXhXhXhXhXhXgXgXhXhXhXhXhXhXhXhXhXhXhXhXhXhXhXhXhXhXhXhXgXfXfXfXfXgXhXhXhXaXgXhXhXhXhXhXhXgXnXnXhXgXhXhXhXhXhXhXhXhXgXaXaXaXaXaXhXhXhXhXhXhXhXhXhXhXhXhXhXhXhXhXhXhXhXhXhXgXgXfXfXgXgXhXhXhXhXhXhXhXhXhXhXhXhXhXhXhXhXhXhXhXhXhX",
"hXhXhXhXhXhXhXhXhXhXhXhXhXhXhXhXhXgXaXjXbXnXnXbXhXaXgXhXhXhXhXhXhXhXhXhXhXhXhXhXhXhXhXhXhXhXhXhXhXhXgXaXjXbXbXbXbXhXaXgXhXhXhXhXhXhXhXhXhXgXnXnXhXgXhXhXhXhXhXhXhXhXhXhXhXhXhXhXhXhXhXhXhXhXhXhXhXhXhXhXhXhXhXhXhXhXhXhXhXhXhXhXhXhXhXhXhXhXhXhXhXhXhXhXhXhXhXhXhXhXhXhXhXhXhXhXhXgXfXhXMXMXMXBXhXfXgXhXhXhXhXhXhXhXhXhXhXhXhXhXhXhXhXhXhXhXhXhXhXhXgXgXzXMXMXMXBXhXfXgXhXhXhXhXhXhXhXhXhXgXnXnXhXgXhXhXhXhXhXhXgXaXhXjXVXVXjXjXaXaXhXhXhXhXhXhXhXhXhXhXhXhXhXhXhXhXhXgXfXhXzXcXcXzXhXfXgXhXhXhXhXhXhXhXhXhXhXhXhXhXhXhXhXhXhXhX",
"hXhXhXhXhXhXhXhXhXhXhXhXhXhXhXhXaXjXbX-XM.M.M. XpXnXhXgXhXhXhXhXhXhXhXhXhXhXhXhXhXhXhXhXhXhXhXhXhXaXhXbX-XOX|.|.OXaXbXhXgXhXhXhXhXhXhXhXhXgXnXnXhXgXhXhXhXhXhXhXhXhXhXhXhXhXhXhXhXhXhXhXhXhXhXhXhXhXhXhXhXhXhXhXhXhXhXhXhXhXhXhXhXhXhXhXhXhXhXhXhXhXhXhXhXhXhXhXhXhXhXhXhXhXhXhXfXhXBXeX<X:X:X2XfXMXhXgXhXhXhXhXhXhXhXhXhXhXhXhXhXhXhXhXhXhXhXhXhXgXhXBXeX<X:X:X2XfXMXhXgXhXhXhXhXhXhXhXhXgXnXnXhXgXhXhXhXhXhXgXhXjXpX;X] ]  X*XjXjXaXhXhXhXhXhXhXhXhXhXhXhXhXhXhXhXgXhXzXuX6X<X<X6XfXzXhXgXhXhXhXhXhXhXhXhXhXhXhXhXhXhXhXhXhXaX",
"hXhXhXhXhXhXhXhXhXhXhXhXhXhXhXaXbXrXD m . . . . n ` gXjXaXhXhXhXhXhXhXhXhXhXhXhXhXhXhXhXhXhXhXhXaXjXyX[ M M M M M G |.hXhXgXhXhXhXhXhXhXhXgXnXnXhXgXhXhXhXhXhXhXhXhXhXhXhXhXhXhXhXhXhXhXhXhXhXhXhXhXhXhXhXhXhXhXhXhXhXhXhXhXhXhXhXhXhXhXhXhXhXhXhXhXhXhXhXhXhXhXhXhXhXhXhXhXhXfXBXeX=.} { { { { } e.gXhXgXhXhXhXhXhXhXhXhXhXhXhXhXhXhXhXhXhXhXhXgXvXdX:X} { { { { } e.hXhXgXhXhXhXhXhXhXhXgXnXnXhXgXhXhXhXhXaXhXhX] R B B B B R ] -XjXaXhXhXhXhXhXhXhXhXhXhXhXhXhXgXzXfX<Xq.q.w.w.q.q.r.fXzXgXhXhXhXhXhXhXhXhXhXhXhXhXhXhXhXaXjX",
"hXhXhXhXhXhXhXhXhXhXhXhXhXhXaXbXoXn . C `  X X` n . F rXjXaXhXhXhXhXhXhXhXhXhXhXhXhXhXhXhXhXhXaXjXoXG M G |.OXOX[ G M G sXhXgXhXhXhXhXhXhXgXnXnXhXgXhXhXhXhXhXhXhXgXgXgXgXgXgXgXgXgXgXgXgXgXgXgXgXgXgXgXgXgXgXgXgXgXgXgXhXgXgXgXgXgXgXgXhXhXhXhXhXhXhXhXhXhXhXhXhXhXhXhXhXhXfXzX2X} { o.e.<X<Xe.} { o.wXhXgXhXhXhXhXhXhXhXhXhXhXhXhXhXhXhXhXhXgXvX7X=.-.=.e.2X<Xe.} { o.wXhXgXhXhXhXhXhXhXgXnXnXhXgXhXhXhXgXhXpXE B R ] ;X;X] E B R ;XjXaXhXhXhXhXhXhXhXhXhXhXhXgXzXeXt.w.t.<X6X6X<Xt.w.t.lXzXgXhXhXhXhXhXhXhXhXhXhXhXhXhXaXjX=X",
"hXhXhXhXhXhXhXhXhXhXhXhXhXaXjX&Xm . M.nXSXSXSXLXzXD . V hXhXgXhXhXhXhXhXhXhXhXhXhXhXhXhXhXhXgXjX-XM M |.nXDXDXDXDXcX[ M F gXhXgXhXhXhXhXhXgXnXnXhXgXhXhXhXhXhXgXhXnXnXnXnXnXnXnXnXnXnXnXnXnXnXnXnXnXnXnXnXnXnXnXnXnXnXnXjXnXnXnXnXnXnXnXhXhXhXhXhXhXhXhXhXhXhXhXhXhXhXhXhXgXzXeX} { e.nXNXNXNXGXjX=.{ o.gXhXgXhXhXhXhXhXhXhXhXhXhXhXhXhXhXhXgXhXlX=.=.3XnXBXGXNXGXjX=.{ o.hXhXgXhXhXhXhXhXgXnXnXhXgXhXhXgXhXhXE B E sXSXAXAXSXZX;XR R -XjXaXhXhXhXhXhXhXhXhXhXgXhXfXt.q.<XbXNXNXNXNXnX<Xq.t.fXhXgXhXhXhXhXhXhXhXhXhXhXhXgXhXpXU ",
"hXhXhXhXhXhXhXhXhXhXhXhXhXaXbXF . M.LXnXnXnXnXnXCXSXD . ` nXaXhXhXhXhXhXhXhXhXhXhXhXhXhXhXhXgXjX[ M OXLXnXnXnXnXZXpXnXD . ` nXaXhXhXhXhXhXgXnXnXhXgXhXhXhXhXhXgXhXnXnXnXCXCXCXnXnXnXnXnXnXnXnXnXnXnXnXnXnXAXnXnXnXnXnXnXxXnXnXnXZXnXnXnXhXhXhXhXhXhXhXhXhXhXhXhXhXhXhXhXhXgXBX*.{ :XGXnXnXnXnXnXmXNX=.{ e.MXfXhXhXhXhXhXhXhXhXhXhXhXhXhXhXhXgXvXe.-.3XJXD.< hXCXjXmXNX=.{ e.MXfXhXhXhXhXhXgXnXnXhXgXhXhXaXjXF.B E CXZXnXnXnXnXnXLX;XR E hXhXgXhXhXhXhXhXhXhXhXgXzX<Xw.<XNXnXnXnXnXnXnXNX<Xw.r.zXgXhXhXhXhXhXhXhXhXhXhXhXaXxX] U ",
"hXhXhXhXhXhXhXhXhXhXhXhXaXjXXX. F ZXnXnXnXnXnXnXnXCXhXm n pXhXgXhXhXhXhXhXhXhXhXhXhXhXhXhXaXjXoXM G DXnXnXnXnXAX$X< A.zXm n pXhXgXhXhXhXhXgXnXnXhXgXhXhXhXhXhXgXhXnXnXnXhXaXaXnXnXnXnXZXAXnXnXZXnXnXnXnXnX$XnXCXnXnXnXnXxXnXnXCXqXZXnXnXhXhXhXhXhXhXhXhXhXhXhXhXhXhXhXhXgXzX1X{ o.mXnXnXnXnXnXnXnXmXkX} } fXhXgXhXhXhXhXhXhXhXhXhXhXhXhXhXgXhXlX=.t.mXCXaX< m.SXnXnXmXkX} o.fXhXgXhXhXhXhXgXnXnXhXgXhXgXgXhXE R -XZXnXnXnXnXnXnXnXAXE B ;XjXaXhXhXhXhXhXhXhXgXhXuXq.t.bXnXnXnXnXnXnXnXnXnXt.q.uXhXgXhXhXhXhXhXhXhXhXhXgXhXiXU U ",
"hXhXhXhXhXhXhXhXhXhXhXhXaXbXM.. M.LXnXnXnXnXnXnXnXnXSXF . oXbXaXhXhXhXhXhXhXhXhXhXhXhXhXhXaXbX|.M OXDXnXnXnXAX(., ! jXSXF . oXjXaXhXhXhXhXgXnXnXhXgXhXhXhXhXhXgXhXnX( V.iX&Xh.SXhXCXZX.X_ ZXnXC.jXZXjXZX!._ '.gXnXnXnXnXxXnXAXD.- /.AXnXhXhXhXhXhXhXhXhXhXhXhXhXhXhXhXhXfXMX:X{ :XGXnXnXnXnXnXnXnXnXNX=.{ 2XBXfXhXhXhXhXhXhXhXhXhXhXhXhXhXgXBX3X-.3XNXxXSX` h CXnXnXnXNX=.{ 2XzXgXhXhXhXhXgXnXnXhXgXhXgXjX-XR E ZXnXnXnXnXnXZXAXAXLX;XB ] jXaXhXhXhXhXhXhXhXgXzX6Xq.<XNXnXnXnXnXnXAXAXAXGX<Xq.6XzXgXhXhXhXhXhXhXhXhXhXaXjX+XU ] ",
"hXhXhXhXhXhXhXhXhXhXhXhXaXnXD . oXDXnXnXCXZXnXnXnXnXSXM..  XbXaXhXhXhXhXhXhXhXhXhXhXhXhXhXaXbX[ M yXDXnXnXnXAX/.N.AXnXSXM..  XbXaXhXhXhXhXgXnXnXhXgXhXhXhXhXhXgXjXhX~ hX/.A.S./.^ .XSX%X~ CXCX( hXhXg.V.~ h.g !.AXnXnXnXxXnXnXD.m.(.nXnXhXhXhXhXhXhXhXhXhXhXhXhXhXhXhXhXfXMX=.{ 2XNXnXnXCXZXnXnXnXnXNX:X{ <XMXfXhXhXhXhXhXhXhXhXhXhXhXhXhXfXBX3X=.lXmXnXnXjXgXnXnXnXnXNX:X{ <XMXfXhXhXhXhXgXnXnXhXgXhXaXjX;XB ] SXnXnXnXnXCXN.Z Z A.sXB E xXaXhXhXhXhXhXhXhXfXcX,Xw.6XNXnXnXnXnXnX` Z g .X7Xw.<XcXfXhXhXhXhXhXhXhXhXhXaXxXF.U F.",
"hXhXhXhXhXhXhXhXhXhXhXhXaXnXD . oXAXnXZXpXiXnXnXnXnXLXM.. M.nXaXhXhXhXhXhXhXhXhXhXhXhXhXhXaXbX[ M yXDXnXnXnXnXZXAXnXxXLXM..  XnXaXhXhXhXhXgXnXnXhXgXhXhXhXhXhXgXjXxXx !.S.V.V.Q _ V.SXnXh.nXCXg.FX/.A k.g.*XN.nXnXnXnXnXxXnXCXW.m.(.nXnXhXhXhXhXhXhXhXhXhXhXhXhXhXhXhXhXfXMXe.{ 2XNXnXCXpXiXnXnXnXnXGX:X{ <XMXfXhXhXhXhXhXhXhXhXhXhXhXhXhXfXBX3X=.lXmXnXnXnXCXnXnXnXnXGX:X{ <XMXfXhXhXhXhXgXnXnXhXgXhXaXjX;XB ] SXnXnXnXnXCXN.Z Z D.sX= ! nXaXhXhXhXhXhXhXhXfXcX,Xw.6XNXnXnXnXnXnX` W Z $X6X8 G.MXfXhXhXhXhXhXhXhXhXhXaXxXF.U F.",
"hXhXhXhXhXhXhXhXhXhXhXhXaXnXM.. M.SXxXAXZ Z AXnXnXnXSXD . oXjXaXhXhXhXhXhXhXhXhXhXhXhXhXhXaXbX|.M  XDXnXnXnXnXnXnXnXnXAXD . XXjXaXhXhXhXhXgXnXnXhXgXhXhXhXhXhXgXjXhX_ KX!.n.C.N.h.iXZXxX_ nXZX~ A./.^ $XV.$Xh.^.AXnXnXnXxXnXAXD.- ^.AXnXhXhXhXhXhXhXhXhXhXhXhXhXhXhXhXhXfXMX:X{ :XNXxXAXZ Z AXnXnXnXNX=.{ 1XzXgXhXhXhXhXhXhXhXhXhXhXhXhXhXgXBX3X-.3XNXnXnXnXnXnXnXnXnXNX=.{ 1XzXgXhXhXhXhXgXnXnXhXgXhXaXjX-XR E ZXnXnXnXnXnXZXAXAXFXF.= ` nXaXhXhXhXhXhXhXhXgXzX6Xq.<XNXnXnXnXnXnXAXAXAXFXK.8 _.zXfXhXhXhXhXhXhXhXhXhXaXxXF.U ] ",
"hXhXhXhXhXhXhXhXhXhXhXhXgXjX&X. F ZXAXD., $XAXnXnXCXaXn n gXhXgXhXhXhXhXhXhXhXhXhXhXhXhXhXgXjX-XM G DXnXnXnXnXnXnXnXZXpXm n hXhXgXhXhXhXhXgXnXnXhXgXhXhXhXhXhXgXhXnXpXnXhXaXhXnX/.aXCXnXpXnXCXqX!.aXqX$XaXjXpX*XCXnXnXnXxXnXnXCX*XZXnXnXhXhXhXhXhXhXhXhXhXhXhXhXhXhXhXhXgXzXeX} o.mXAXD., $XAXnXnXmXkX} o.gXhXgXhXhXhXhXhXhXhXhXhXhXhXhXhXgXhXlX=.t.mXnXnXnXnXnXnXnXmXdX} o.hXhXgXhXhXhXhXgXnXnXhXgXhXhXgXjXE R sXZXnXnXnXnXnXnXnXAX! = /.xXaXhXhXhXhXhXhXhXgXhXfXq.t.nXnXnXnXnXnXnXnXnXnX..q wXhXgXhXhXhXhXhXhXhXhXhXgXhXpXU U ",
"hXhXhXhXhXhXhXhXhXhXhXhXhXgXbXF . M.KX' ' SXnXnXnXSXD . ` bXaXhXhXhXhXhXhXhXhXhXhXhXhXhXhXhXgXjXG M  XLXnXnXnXnXnXCXSXF . M.bXaXhXhXhXhXhXgXnXnXhXgXhXhXhXhXhXgXhXnXZXnXCXCXCXnXSXCXnXnXZXnXnXAXSXCXZXAXCXnXZXAXnXnXnXnXxXnXnXnXZXnXnXnXhXhXhXhXhXhXhXhXhXhXhXhXhXhXhXhXhXgXBX*.{ :XJX' ! SXnXnXnXNX=.{ e.BXfXhXhXhXhXhXhXhXhXhXhXhXhXhXhXhXgXhXe.-.3XNXnXnXnXnXnXnXNX=.{ e.BXfXhXhXhXhXhXgXnXnXhXgXhXhXaXjXF.B E ZXCXnXnXnXnXnXHXF.= s hXhXgXhXhXhXhXhXhXhXhXgXzX<Xw.<XNXnXnXnXnXnXnXGXG.8 4.zXgXhXhXhXhXhXhXhXhXhXhXhXaXxX] U ",
"hXhXhXhXhXhXhXhXhXhXhXhXhXgXjXrXn . |.nXnXnXnXnXhXF . F gXhXgXhXhXhXhXhXhXhXhXhXhXhXhXhXhXhXgXjX-XG M |.nXnXnXnXCXhXF . F hXhXgXhXhXhXhXhXgXnXnXhXgXhXhXhXhXhXgXhXnXnXnXnXnXnXnXxXnXnXnXnXnXnXnXxXnXnXnXnXnXnXnXnXnXnXnXjXnXnXnXnXnXnXnXhXhXhXhXhXhXhXhXhXhXhXhXhXhXhXhXhXgXhXeX} { <XnXnXnXnXnXjX=.{ o.fXhXgXhXhXhXhXhXhXhXhXhXhXhXhXhXhXhXgXhXlX=.=.3XnXnXnXnXnXkX=.{ o.hXhXgXhXhXhXhXhXgXnXnXhXgXhXhXhXgXjXE B E sXCXnXnXnXCXB.- - $XjXaXhXhXhXhXhXhXhXhXhXgXhXfXt.w.<XnXnXnXnXnXnX6.8 ..wXhXgXhXhXhXhXhXhXhXhXhXhXhXgXhXaXU ",
"hXhXhXhXhXhXhXhXhXhXhXhXhXhXaXbXXXn G jXjXxXxXjXiXn C rXjXaXhXhXhXhXhXhXhXhXhXhXhXhXhXhXhXhXhXaXjXoXM G jXjXxXxXnXrXm C rXjXgXhXhXhXhXhXhXgXnXnXhXgXhXhXhXhXhXhXhXgXgXgXgXgXgXgXgXgXgXgXgXgXgXgXgXgXgXgXgXgXgXgXgXgXgXgXgXgXgXgXgXgXgXgXhXhXhXhXhXhXhXhXhXhXhXhXhXhXhXhXhXhXfXBX1X-.t.hXjXxXxXxXfX} o.eXhXgXhXhXhXhXhXhXhXhXhXhXhXhXhXhXhXhXhXgXzXlX=.t.hXjXxXjXxXuX} o.wXhXgXhXhXhXhXhXhXgXnXnXhXgXhXhXhXgXhXaXE R -XxXxXxXjXnX! - F.xXaXhXhXhXhXhXhXhXhXhXhXhXgXhXuXt.t.fXxXxXxXjXhX..+.5XzXgXhXhXhXhXhXhXhXhXhXhXhXhXhXaXjXiX",
"hXhXhXhXhXhXhXhXhXhXhXhXhXhXhXaXbX-X-XjXaXgXgXaXjXoXrXjXaXhXhXhXhXhXhXhXhXhXhXhXhXhXhXhXhXhXhXhXaXbX-X-XjXaXgXgXaXjXoXrXjXaXhXhXhXhXhXhXhXgXnXnXhXgXhXhXhXhXhXhXhXhXhXhXhXhXhXhXhXhXhXhXhXhXhXhXhXhXhXhXhXhXhXhXhXhXhXhXhXhXhXhXhXhXhXhXhXhXhXhXhXhXhXhXhXhXhXhXhXhXhXhXhXhXhXfXzXlXlXsXgXgXgXgXzX1XwXzXgXhXhXhXhXhXhXhXhXhXhXhXhXhXhXhXhXhXhXhXgXvXlXlXhXgXgXgXgXzX1XwXzXgXhXhXhXhXhXhXhXgXnXnXhXgXhXhXhXhXaXjXaX#XjXaXgXgXaXjX*X$XxXaXhXhXhXhXhXhXhXhXhXhXhXhXhXgXzXuXeXzXgXgXgXgXzX8X0XzXgXhXhXhXhXhXhXhXhXhXhXhXhXhXhXhXaXjX",
"hXhXhXhXhXhXhXhXhXhXhXhXhXhXhXhXaXhXhXgXhXhXhXhXgXjXhXaXhXhXhXhXhXhXhXhXhXhXhXhXhXhXhXhXhXhXhXhXhXaXjXhXgXhXhXhXhXgXjXhXaXhXhXhXhXhXhXhXhXgXnXnXhXgXhXhXhXhXhXhXhXhXhXhXhXhXhXhXhXhXhXhXhXhXhXhXhXhXhXhXhXhXhXhXhXhXhXhXhXhXhXhXhXhXhXhXhXhXhXhXhXhXhXhXhXhXhXhXhXhXhXhXhXhXhXhXgXhXhXgXhXhXhXhXgXzXhXgXhXhXhXhXhXhXhXhXhXhXhXhXhXhXhXhXhXhXhXhXhXgXhXhXgXhXhXhXhXgXzXhXgXhXhXhXhXhXhXhXhXgXnXnXhXgXhXhXhXhXhXgXhXjXgXhXhXhXhXgXhXjXaXhXhXhXhXhXhXhXhXhXhXhXhXhXhXhXgXhXhXgXhXhXhXhXgXhXhXgXhXhXhXhXhXhXhXhXhXhXhXhXhXhXhXhXhXaX",
"hXhXhXhXhXhXhXhXhXhXhXhXhXhXhXhXhXaXgXhXhXgXhXgXgXgXaXgXhXhXhXhXhXhXhXhXhXhXhXhXhXhXhXhXhXhXhXhXhXhXgXaXgXhXhXgXgXhXaXgXhXhXhXhXhXhXhXhXhXgXnXnXhXgXhXhXhXhXhXhXhXhXhXhXhXhXhXhXhXhXhXhXhXhXhXhXhXhXhXhXhXhXhXhXhXhXhXhXhXhXhXhXhXhXhXhXhXhXhXhXhXhXhXhXhXhXhXhXhXhXhXhXhXhXhXhXhXgXgXhXhXgXhXgXgXgXgXgXhXhXhXhXhXhXhXhXhXhXhXhXhXhXhXhXhXhXhXhXhXhXgXgXhXgXgXhXhXgXfXgXgXgXhXhXhXhXhXhXhXgXnXnXhXgXhXhXhXhXhXhXgXaXgXhXhXgXgXhXaXaXhXhXhXhXhXhXhXhXhXhXhXhXhXhXhXhXhXgXgXgXhXhXgXgXhXgXgXhXhXhXhXhXhXhXhXhXhXhXhXhXhXhXhXhXhXhX",
"hXhXhXhXhXhXhXhXhXhXhXhXhXhXhXhXgXjXhXgXhXjXgXhXjXaXjXhXgXhXhXhXhXhXhXhXhXhXhXhXhXhXhXhXhXhXhXhXhXhXgXjXhXgXgXjXhXgXjXhXhXhXhXhXhXhXhXhXhXgXnXnXhXgXhXhXhXhXhXhXhXhXhXhXhXhXhXhXhXhXhXhXhXhXhXhXhXhXhXhXhXhXhXhXhXhXhXhXhXhXhXhXhXhXhXhXhXhXhXhXhXhXhXhXhXhXhXhXhXhXhXhXhXhXhXhXgXjXhXgXgXjXgXhXjXaXjXhXgXhXhXhXhXhXhXhXhXhXhXhXhXhXhXhXhXhXhXhXhXgXhXjXgXhXjXgXgXhXhXhXxXhXgXhXhXhXhXhXhXgXnXnXhXgXhXhXhXhXhXhXgXhXjXgXgXhXjXaXjXhXgXhXhXhXhXhXhXhXhXhXhXhXhXhXhXhXhXgXhXjXgXgXhXhXaXjXhXgXhXhXhXhXhXhXhXhXhXhXhXhXhXhXhXhXhXhX",
"hXhXhXhXhXhXhXhXhXhXhXhXhXhXhXhXhX&XaXhXhX&XhXpX&XxX*XiXhXgXhXhXhXhXhXhXhXhXhXhXhXhXhXhXhXhXhXhXhXgXjXqXiXhXhX*XiXhX&XhXhXhXhXhXhXhXhXhXhXgXnXnXhXgXhXhXhXhXhXhXhXhXhXhXhXhXhXhXhXhXhXhXhXhXhXhXhXhXhXhXhXhXhXhXhXhXhXhXhXhXhXhXhXhXhXhXhXhXhXhXhXhXhXhXhXhXhXhXhXhXhXhXhXhXhXhXhX&XaXhXhX&XhXpX&XxX*XiXhXgXhXhXhXhXhXhXhXhXhXhXhXhXhXhXhXhXhXhXgXhXiX$XjXrXqXjXhXqXqXgX.XaXhXgXhXhXhXhXhXgXnXnXhXgXhXhXhXhXhXgXhXpX&XhXhXpX*XxX*XiXhXgXhXhXhXhXhXhXhXhXhXhXhXhXhXhXgXjXrXqXhXhXqXqXxX&XaXhXgXhXhXhXhXhXhXhXhXhXhXhXhXhXhXhXhXhX",
"hXhXhXhXhXhXhXhXhXhXhXhXhXhXaXxXW.W V.nXA.W C.g.^ A.^ g.gXhXgXhXhXhXhXhXhXhXhXhXhXhXhXhXhXhXhXhXgXjX&XQ _ hX%XW k.V.W A.xXaXhXhXhXhXhXhXhXgXnXnXhXgXhXhXhXhXhXhXhXhXhXhXhXhXhXhXhXhXhXhXhXhXhXhXhXhXhXhXhXhXhXhXhXhXhXhXhXhXhXhXhXhXhXhXhXhXhXhXhXhXhXhXhXhXhXhXhXhXhXhXhXhXaXxX!.W V.nXA.W C.g.^ A.^ g.aXhXgXhXhXhXhXhXhXhXhXhXhXhXhXhXhXhXhXgXhXjX!.^ N.h.( qXiX( g.!.k.g.hXgXhXhXhXhXhXgXnXnXhXgXhXhXhXhXhXgXhXg.Q .XjX_ ^ A.~ g.gXhXgXhXhXhXhXhXhXhXhXhXhXhXhXgXhXiX^ ^ rXiX~ g.S.W V.jXgXhXhXhXhXhXhXhXhXhXhXhXhXhXhXhXhXgX",
"hXhXhXhXhXhXhXhXhXhXhXhXhXhXgXjXg.qX_ gX_ rXx k.&Xa &Xn.$XjXgXhXhXhXhXhXhXhXhXhXhXhXhXhXhXhXhXhXaXnXC./.V.%XS./.n.x iX_ jXgXhXhXhXhXhXhXhXgXnXnXhXgXhXhXhXhXhXhXhXhXhXhXhXhXhXhXgXgXgXgXgXhXhXhXhXhXhXhXhXgXgXhXhXhXhXhXhXhXhXhXhXhXhXhXhXhXhXhXhXhXhXhXhXhXhXhXhXhXhXhXhXhXgXjXg.*X_ gXg.rXA k.*Xa &Xn..XxXgXhXhXhXhXhXhXhXhXhXhXhXhXhXhXhXhXhXpXiXnX.Xx V.V.A.$Xk.V.A.D._ jXgXhXhXhXhXhXgXnXnXhXgXhXhXhXhXgXjX&Xk.$XN.qXk.&Xa *Xn.$XjXgXhXhXhXhXhXhXhXhXhXhXhXhXgXxX!.A.!.!./.A.(.f iX_ iXhXhXhXhXhXhXhXhXhXhXhXhXhXhXhXhXhXgX",
"hXhXhXhXhXhXhXhXhXhXhXhXhXhXgXjXg.%X( aXg.*XA k.$Xa %Xh.$XjXgXhXhXhXhXhXhXhXhXhXhXhXhXhXhXhXhXhXaXnXS.(.n.$XA.^.n.A qX( jXgXhXhXhXhXhXhXhXgXnXnXhXgXhXhXhXhXhXhXhXhXhXhXhXhXhXgXhXzXzXzXhXgXhXgXgXhXhXhXgXhXhXgXhXhXhXhXhXhXhXhXhXhXhXhXhXhXhXhXhXhXhXhXhXhXhXhXhXhXhXhXhXhXgXjXg.%X_ aXg.*XA k.$Xa $Xk.$XjXgXhXhXhXhXhXhXhXhXhXhXhXhXhXhXhXgXjX!.A.iXg.aXA.x !.jXS.x /./.^ aXhXgXhXhXhXhXgXnXnXhXgXhXhXhXhXgXjX*Xk./.n.qXk.$Xa %Xh.$XjXgXhXhXhXhXhXhXhXhXhXhXhXhXgXxX^.S.A.!./.S.!.f qX_ pXhXhXhXhXhXhXhXhXhXhXhXhXhXhXhXhXhXhX",
"hXhXhXhXhXhXhXhXhXhXhXhXhXhXaXxX^.W V.A.!.A D.n.~ ^.^ g.hXhXgXhXhXhXhXhXhXhXhXhXhXhXhXhXhXhXhXhXgXjXqX~ h.S.^.^ k.D.A !.xXgXhXhXhXhXhXhXhXgXnXnXhXgXhXhXhXhXhXhXhXhXhXhXhXhXhXhXuXuXuXuXuXhXgXjXxXaXgXhXjXpXrXhXgXgXgXgXgXhXhXhXhXhXhXhXhXhXhXhXhXhXhXhXhXhXhXhXhXhXhXhXhXhXaXxX/.W V.A.!.A A.n.~ ^.^ g.hXhXgXhXhXhXhXhXhXhXhXhXhXhXhXhXhXhXhXgXhXnX^ A /.A.k.W.^.D.k.^.h.k.hXhXhXhXhXhXhXgXnXnXhXgXhXhXhXhXhXgXjXk.^ S.!.n.~ ^.^ g.hXhXgXhXhXhXhXhXhXhXhXhXhXhXhXgXhXpX( _ S.(._ _ !.W V.jXgXhXhXhXhXhXhXhXhXhXhXhXhXhXhXhXhXhX",
"hXhXhXhXhXhXhXhXhXhXhXhXhXhXhXgXhXrXhXpXhXrXjXaXiXxXiXaXhXgXhXhXhXhXhXhXhXhXhXhXhXhXhXhXhXhXhXhXhXgXhXpXaXaXhXiXaXjXrXhXhXhXhXhXhXhXhXhXhXgXnXnXhXgXhXhXhXhXhXhXhXhXhXhXhXhXfXcX9.;.;.;.9.cXjX!.A.nXhXpX$XiXqXjXhXjXhXhXhXgXhXhXhXhXhXhXhXhXhXhXhXhXhXhXhXhXhXhXhXhXhXhXhXhXhXgXhXrXhXpXhXrXhXgXiXxXiXaXhXgXhXhXhXhXhXhXhXhXhXhXhXhXhXhXhXhXhXhXgXaXpXqXrXqXaXgXpXqXgXaX*XhXhXgXhXhXhXhXhXgXnXnXhXgXhXhXhXhXhXgXhXgXiXhXaXaXrXxXiXaXhXgXhXhXhXhXhXhXhXhXhXhXhXhXhXhXgXhXpXpXgXaXpXpXjXrXhXhXhXhXhXhXhXhXhXhXhXhXhXhXhXhXhXhXhXhX",
"hXhXhXhXhXhXhXhXhXhXhXhXhXhXhXhXgXhXgXhXgXhXgXhXhXaXhXhXgXhXhXhXhXhXhXhXhXhXhXhXhXhXhXhXhXhXhXhXhXhXgXhXgXhXjXjXxXgXhXgXhXhXhXhXhXhXhXhXhXgXnXnXhXgXhXhXhXhXhXhXhXhXhXhXhXhXfXcX9.;.;.;.9.cXjX_ ( gX_ g.f A.h././.A.h.n.hXhXgXhXhXhXhXhXhXhXhXhXhXhXhXhXhXhXhXhXhXhXhXhXhXhXhXhXgXhXgXhXgXhXgXhXhXaXhXhXgXhXhXhXhXhXhXhXhXhXhXhXhXhXhXhXhXhXhXhXhXhXhXjXhXjXjXhXxXjXgXhXjXgXgXhXhXhXhXhXhXgXnXnXhXgXhXhXhXhXhXhXgXhXhXaXxXhXxXhXhXhXgXhXhXhXhXhXhXhXhXhXhXhXhXhXhXhXhXgXhXhXhXjXhXxXgXhXhXgXhXhXhXhXhXhXhXhXhXhXhXhXhXhXhXhXhXhX",
"hXhXhXhXhXhXhXhXhXhXhXhXhXhXhXhXhXgXhXxXjXjXhXhXxXhXgXhXhXhXhXhXhXhXhXhXhXhXhXhXhXhXhXhXhXhXhXhXhXhXhXaXjXiX.XpX.XhXhXgXhXhXhXhXhXhXhXhXhXgXnXnXhXgXhXhXhXhXhXhXhXhXhXhXhXhXfXcX9.;.;.;.9.cX9Xg W h.A.jXh..X( k.k.( W Q *XjXgXhXhXhXhXhXhXhXhXhXhXhXhXhXhXhXhXhXhXhXhXhXhXhXhXhXhXgXhXxXjXjXhXhXxXhXgXhXhXhXhXhXhXhXhXhXhXhXhXhXhXhXhXhXhXhXhXhXhXhXhXaXjXpX'.pX.XgXhXgXgXhXhXhXhXhXhXhXhXgXnXnXhXgXhXhXhXhXhXhXhXgXhXxX/.pX$XiXjXgXhXhXhXhXhXhXhXhXhXhXhXhXhXhXhXhXhXhXgXhXhX/.aX.XpXhXgXhXhXhXhXhXhXhXhXhXhXhXhXhXhXhXhXhXhXhX",
"hXhXhXhXhXhXhXhXhXhXhXhXhXhXhXhXgXhXaX$X&X.XiXaX/.rXhXgXhXhXhXhXhXhXhXhXhXhXhXhXhXhXhXhXhXhXhXhXhXhXgXhXpXV.h.g._ h.jXgXhXhXhXhXhXhXhXhXhXgXnXnXhXgXhXhXhXhXhXhXhXhXhXhXhXhXfXcX9.;.;.;.9.NXV.C.W.A g..X^ V.A.h.W .XA (.aXhXgXhXhXhXhXhXhXhXhXhXhXhXhXhXhXhXhXhXhXhXhXhXhXhXhXhXgXhXaX$X&X$XiXgX/.rXhXgXhXhXhXhXhXhXhXhXhXhXhXhXhXhXhXhXhXhXhXhXhXhXgXhXpXV.h.g._ g.hXgXhXhXhXhXhXhXhXhXhXgXnXnXhXgXhXhXhXhXhXhXgXhXaX'.) V.( _ *XjXgXhXhXhXhXhXhXhXhXhXhXhXhXhXhXhXhXgXhXaXW._ n._ _ aXhXgXhXhXhXhXhXhXhXhXhXhXhXhXhXhXhXhXhXhX",
"hXhXhXhXhXhXhXhXhXhXhXhXhXhXhXhXaXnX!.W W ^ V.n.^ iXhXgXhXhXhXhXhXhXhXhXhXhXhXhXhXhXhXhXhXhXhXhXhXgXhXaX_ ~ k.g.h._ jXgXhXhXhXhXhXhXhXhXhXgXnXnXhXgXhXhXhXhXhXhXhXhXhXhXhXhXgXhX6X4X4X4X6XzX$XgXhX%X!.^..X(.rXqX$XxX(.!.hXhXhXhXhXhXhXhXhXhXhXhXhXhXhXhXhXhXhXhXhXhXhXhXhXhXhXhXaXnX!.W W ^ N.n.~ iXhXgXhXhXhXhXhXhXhXhXhXhXhXhXhXhXhXhXhXhXhXhXhXgXhXaX_ ~ k.g.h._ jXgXhXhXhXhXhXhXhXhXhXgXnXnXhXgXhXhXhXhXhXhXaXxXV.( ^ V.g.) qXjXgXhXhXhXhXhXhXhXhXhXhXhXhXhXhXhXhXgXjXh.^ _ k.h.( aXhXgXhXhXhXhXhXhXhXhXhXhXhXhXhXhXhXhXhXhX",
"hXhXhXhXhXhXhXhXhXhXhXhXhXhXhXhXaXnXS.!.V..Xh.&Xg..XjXgXhXhXhXhXhXhXhXhXhXhXhXhXhXhXhXhXhXhXhXhXhXgXjX&Xg.*Xg._ V.( aXhXgXhXhXhXhXhXhXhXhXgXnXnXhXgXhXhXhXhXhXhXhXhXhXhXhXhXhXgXzXcXcXcXzXgXjXhXhXjXxXxXjXxXhXjXjXaXnXnXhXhXhXhXhXhXhXhXhXhXhXhXhXhXhXhXhXhXhXhXhXhXhXhXhXhXhXhXaXnXA.!.V..Xh.&Xg.'.jXgXhXhXhXhXhXhXhXhXhXhXhXhXhXhXhXhXhXhXhXhXhXgXjX&Xg.*Xg.g.V.( aXhXgXhXhXhXhXhXhXhXhXgXnXnXhXgXhXhXhXhXhXhXgXjX^ iXg.n.h._ .XjXgXhXhXhXhXhXhXhXhXhXhXhXhXhXhXhXgXhXpX( iXg.h.V.( qXhXgXhXhXhXhXhXhXhXhXhXhXhXhXhXhXhXhXhXhX",
"hXhXhXhXhXhXhXhXhXhXhXhXhXhXhXhXaXnXW.!.C./.N..X~ W.nXaXhXhXhXhXhXhXhXhXhXhXhXhXhXhXhXhXhXhXhXhXhXhXhXhXg.W V.g._ g.hXhXhXhXhXhXhXhXhXhXhXgXnXnXhXgXhXhXhXhXhXhXhXhXhXhXhXhXhXhXgXfXfXfXgXhXgXgXgXgXaXaXgXaXgXgXgXhXaXaXhXhXhXhXhXhXhXhXhXhXhXhXhXhXhXhXhXhXhXhXhXhXhXhXhXhXhXhXaXnX!.!.C./.N..X~ W.nXaXhXhXhXhXhXhXhXhXhXhXhXhXhXhXhXhXhXhXhXhXhXhXgXhXh.W V.g._ g.hXhXgXhXhXhXhXhXhXhXhXgXnXnXhXgXhXhXhXhXhXhXaXxXA.~ ( S.^ _ %XjXgXhXhXhXhXhXhXhXhXhXhXhXhXhXhXhXhXgXjXn.Q k.n.( _ iXhXgXhXhXhXhXhXhXhXhXhXhXhXhXhXhXhXhXhXhX",
"hXhXhXhXhXhXhXhXhXhXhXhXhXhXhXhXhXhXgXgXaXgXgXrXqXjXgXhXhXhXhXhXhXhXhXhXhXhXhXhXhXhXhXhXhXhXhXhXhXhXgXhXaXqXhXpX&XhXhXgXhXhXhXhXhXhXhXhXhXgXnXnXhXgXhXhXhXhXhXhXhXhXhXhXhXhXhXhXhXhXhXhXhXhXhXhXhXhXhXhXhXhXhXhXhXhXhXhXhXhXhXhXhXhXhXhXhXhXhXhXhXhXhXhXhXhXhXhXhXhXhXhXhXhXhXhXhXhXgXgXaXgXgXiXqXjXgXhXhXhXhXhXhXhXhXhXhXhXhXhXhXhXhXhXhXhXhXhXhXhXgXhXaXqXhXpX&XhXhXgXhXhXhXhXhXhXhXhXhXgXnXnXhXgXhXhXhXhXhXhXhXhXhXqXaXgX&XiXjXgXhXhXhXhXhXhXhXhXhXhXhXhXhXhXhXhXhXhXhXhXqXgXaX&XaXhXgXhXhXhXhXhXhXhXhXhXhXhXhXhXhXhXhXhXhXhX",
"hXhXhXhXhXhXhXhXhXhXhXhXhXhXhXhXhXhXhXhXhXhXhXhXjXgXhXhXhXhXhXhXhXhXhXhXhXhXhXhXhXhXhXhXhXhXhXhXhXhXhXgXhXjXhXhXjXhXhXhXhXhXhXhXhXhXhXhXhXgXnXnXhXhXhXhXhXhXhXhXhXhXhXhXhXhXhXhXhXhXhXhXhXhXhXhXhXhXhXhXhXhXhXhXhXhXhXhXhXhXhXhXhXhXhXhXhXhXhXhXhXhXhXhXhXhXhXhXhXhXhXhXhXhXhXhXhXhXhXhXhXhXhXhXjXgXhXhXhXhXhXhXhXhXhXhXhXhXhXhXhXhXhXhXhXhXhXhXhXhXhXgXhXjXhXhXjXhXhXhXhXhXhXhXhXhXhXhXhXgXnXnXhXhXhXhXhXhXhXhXhXhXgXjXhXhXjXhXgXhXhXhXhXhXhXhXhXhXhXhXhXhXhXhXhXhXhXhXhXhXjXhXhXjXhXgXhXhXhXhXhXhXhXhXhXhXhXhXhXhXhXhXhXhXhXhX",
"gXgXgXgXgXgXgXgXgXgXgXgXgXgXgXgXgXgXgXgXgXgXgXgXgXgXgXgXgXgXgXgXgXgXgXgXgXgXgXgXgXgXgXgXgXgXgXgXgXgXgXgXgXgXgXgXaXgXgXgXgXgXgXgXgXgXgXgXgXaXnXnXgXgXgXgXgXgXgXgXgXgXgXgXgXgXgXgXgXgXgXgXgXgXgXgXgXgXgXgXgXgXgXgXgXgXgXgXgXgXgXgXgXgXgXgXgXgXgXgXgXgXgXgXgXgXgXgXgXgXgXgXgXgXgXgXgXgXgXgXgXgXgXgXgXgXgXgXgXgXgXgXgXgXgXgXgXgXgXgXgXgXgXgXgXgXgXgXgXgXgXgXgXgXgXgXaXgXgXgXgXgXgXgXgXgXgXgXgXaXnXnXgXgXgXgXgXgXgXgXgXgXgXgXgXgXaXgXgXgXgXgXgXgXgXgXgXgXgXgXgXgXgXgXgXgXgXgXgXgXgXgXgXaXgXgXgXgXgXgXgXgXgXgXgXgXgXgXgXgXgXgXgXgXgXgX",
"jXjXjXjXjXjXjXjXjXjXjXjXjXjXjXjXjXjXjXjXjXjXjXjXjXjXjXjXjXjXjXjXjXjXjXjXjXjXjXjXjXjXjXjXjXjXjXjXjXjXjXjXjXjXjXjXjXjXjXjXjXjXjXjXjXjXjXjXjXjXnXnXxXjXjXjXjXjXjXjXjXjXjXjXjXjXjXjXjXjXjXjXjXjXjXjXjXjXjXjXjXjXjXjXjXjXjXjXjXjXjXjXjXjXjXjXjXjXjXjXjXjXjXjXjXjXjXjXjXjXjXjXjXjXjXjXjXjXjXjXjXjXjXjXjXjXjXjXjXjXjXjXjXjXjXjXjXjXjXjXjXjXjXjXjXjXjXjXjXjXjXjXjXjXjXjXjXjXjXjXjXjXjXjXjXjXjXjXjXjXnXnXxXjXjXjXjXjXjXjXjXjXjXjXjXjXjXjXjXjXjXjXjXjXjXjXjXjXjXjXjXjXjXjXjXjXjXjXjXjXjXjXjXjXjXjXjXjXjXjXjXjXjXjXjXjXjXjXjXjXjXjXjXjXjXjX",
"nXnXnXnXnXnXnXnXnXnXnXnXnXnXnXnXnXnXnXnXnXnXnXnXnXnXnXnXnXnXnXnXnXnXnXnXnXnXnXnXnXnXnXnXnXnXnXnXnXnXnXnXnXnXnXnXnXnXnXnXnXnXnXnXnXnXnXnXnXnXnXnXnXnXnXnXnXnXnXnXnXnXnXnXnXnXnXnXnXnXnXnXnXnXnXnXnXnXnXnXnXnXnXnXnXnXnXnXnXnXnXnXnXnXnXnXnXnXnXnXnXnXnXnXnXnXnXnXnXnXnXnXnXnXnXnXnXnXnXnXnXnXnXnXnXnXnXnXnXnXnXnXnXnXnXnXnXnXnXnXnXnXnXnXnXnXnXnXnXnXnXnXnXnXnXnXnXnXnXnXnXnXnXnXnXnXnXnXnXnXnXnXnXnXnXnXnXnXnXnXnXnXnXnXnXnXnXnXnXnXnXnXnXnXnXnXnXnXnXnXnXnXnXnXnXnXnXnXnXnXnXnXnXnXnXnXnXnXnXnXnXnXnXnXnXnXnXnXnXnXnXnXnXnXnXnX",
"hXhXhXhXhXhXhXjXxXjXjXjXxXhXhXhXhXhXhXhXhXhXhXhXhXhXhXhXhXhXhXhXhXhXhXhXhXhXhXhXhXhXhXhXhXhXhXhXhXhXhXhXhXhXhXhXhXhXhXhXhXhXhXhXhXhXhXhXhXhXhXhXhXhXhXhXhXhXhXhXhXhXhXhXhXhXhXhXhXhXhXhXhXhXhXhXhXhXhXhXhXhXhXhXhXhXhXhXhXhXhXhXhXhXhXhXhXhXhXhXhXhXhXhXhXhXhXhXhXhXhXhXhXhXhXhXhXhXhXhXhXhXhXhXhXhXhXhXhXhXhXhXhXhXhXhXhXhXhXhXhXhXhXhXhXhXhXhXhXhXhXhXhXhXhXhXhXhXhXhXhXhXhXhXhXhXhXhXhXhXhXhXhXhXhXhXhXhXhXhXhXhXhXhXhXhXhXhXhXhXhXhXhXhXhXhXhXhXhXhXhXhXhXhXhXhXhXhXhXhXhXhXhXhXhXhXhXhXhXhXhXhXhXhXhXhXhXhXhXhXhXhXhXhXhXhX",
"gXgXgXgXgXgXhXtX`.%XXX%X].pXhXgXgXgXhXhXgXgXgXgXgXgXgXgXgXgXgXgXgXgXgXgXgXgXgXgXgXgXgXgXgXgXgXgXgXgXgXgXgXgXgXgXgXgXgXgXgXgXgXgXgXgXgXgXgXgXgXgXgXgXgXgXgXgXgXgXgXgXgXgXgXgXgXgXgXgXgXgXgXgXgXgXgXgXgXgXgXgXgXgXgXgXgXgXgXgXgXgXgXgXgXgXgXgXgXgXgXgXgXgXgXgXgXgXgXgXgXgXgXgXgXgXgXgXgXgXgXgXgXgXgXgXgXgXgXgXgXgXgXgXgXgXgXgXgXgXgXgXgXgXgXgXgXgXgXgXgXgXgXgXgXgXgXgXgXgXgXgXgXgXgXgXgXgXgXgXgXgXgXgXgXgXgXgXgXgXgXgXgXgXgXgXgXgXgXgXgXgXgXgXgXgXgXgXgXgXgXgXgXgXgXgXgXgXgXgXgXgXgXgXgXgXgXgXgXgXgXgXgXgXgXgXgXgXgXgXgXgXgXgXgXgX",
"hXhXhXhXhXgXjX8XU.b.b.v.%.9XjXgXhXhXpXwXhXhXhXhXhXhXhXhXhXhXhXhXhXhXhXhXhXhXhXhXhXhXhXhXhXhXhXhXhXhXhXhXhXhXhXhXhXhXhXhXhXhXhXhXhXhXhXhXhXhXhXhXhXhXhXhXhXhXhXhXhXhXhXhXhXhXhXhXhXhXhXhXhXhXhXhXhXhXhXhXhXhXhXhXhXhXhXhXhXhXhXhXhXhXhXhXhXhXhXhXhXhXhXhXhXhXhXhXhXhXhXhXhXhXhXhXhXhXhXhXhXhXhXhXhXhXhXhXhXhXhXhXhXhXhXhXhXhXhXhXhXhXhXhXhXhXhXhXhXhXhXhXhXhXhXhXhXhXhXhXhXhXhXhXhXhXhXhXhXhXhXhXhXhXhXhXhXhXhXhXhXhXhXhXhXhXhXhXhXhXhXhXhXhXhXhXhXhXhXhXhXhXhXhXhXhXhXhXhXhXhXhXhXhXhXhXhXhXhXhXhXhXhXhXhXhXhXhXhXhXhXhXhXhXhXhX",
"hXhXhXhXhXgXhXwXv.%.b b s.%XxXgXgXxX].4.mXgXhXhXhXhXhXhXhXhXhXhXhXhXhXhXhXhXhXhXhXhXhXhXhXhXhXhXhXhXhXhXhXhXhXhXhXhXhXhXhXhXhXhXhXhXhXhXhXhXhXhXhXhXhXhXhXhXhXhXhXhXhXhXhXhXhXhXhXhXhXhXhXhXhXhXhXhXhXhXhXhXhXhXhXhXhXhXhXhXhXhXhXhXhXhXhXhXhXhXhXhXhXhXhXhXhXhXhXhXhXhXhXhXhXhXhXhXhXhXhXhXhXhXhXhXhXhXhXhXhXhXhXhXhXhXhXhXhXhXhXhXhXhXhXhXhXhXhXhXhXhXhXhXhXhXhXhXhXhXhXhXhXhXhXhXhXhXhXhXhXhXhXhXhXhXhXhXhXhXhXhXhXhXhXhXhXhXhXhXhXhXhXhXhXhXhXhXhXhXhXhXhXhXhXhXhXhXhXhXhXhXhXhXhXhXhXhXhXhXhXhXhXhXhXhXhXhXhXhXhXhXhXhXhXhX",
"&.8XjXgXhXgXjX8X`.NXb.%.9X8XjXaXzX{.l l 4.pXxX].&.4.4.0XhXgXhXhXhXhXhXhXhXhXhXhXhXhXhXhXhXhXhXhXhXhXhXhXhXhXhXhXhXhXhXhXhXhXhXhXhXhXhXhXhXhXhXhXhXhXhXhXhXhXhXhXhXhXhXhXhXhXhXhXhXhXhXhXhXhXhXhXhXhXhXhXhXhXhXhXhXhXhXhXhXhXhXhXhXhXhXhXhXhXhXhXhXhXhXhXhXhXhXhXhXhXhXhXhXhXhXhXhXhXhXhXhXhXhXhXhXhXhXhXhXhXhXhXhXhXhXhXhXhXhXhXhXhXhXhXhXhXhXhXhXhXhXhXhXhXhXhXhXhXhXhXhXhXhXhXhXhXhXhXhXhXhXhXhXhXhXhXhXhXhXhXhXhXhXhXhXhXhXhXhXhXhXhXhXhXhXhXhXhXhXhXhXhXhXhXhXhXhXhXhXhXhXhXhXhXhXhXhXhXhXhXhXhXhXhXhXhXhXhXhXhXhXhXhXhXhXhX",
"0XaXhXhXhXgXjX%X].GXs.%.8X8XjXgXhXgXE.&.pXaXhXpX0X0X0XaXhXhXhXhXhXhXhXhXhXhXhXhXhXhXhXhXhXhXhXhXhXhXhXhXhXhXhXhXhXhXhXhXhXhXhXhXhXhXhXhXhXhXhXhXhXhXhXhXhXhXhXhXhXhXhXhXhXhXhXhXhXhXhXhXhXhXhXhXhXhXhXhXhXhXhXhXhXhXhXhXhXhXhXhXhXhXhXhXhXhXhXhXhXhXhXhXhXhXhXhXhXhXhXhXhXhXhXhXhXhXhXhXhXhXhXhXhXhXhXhXhXhXhXhXhXhXhXhXhXhXhXhXhXhXhXhXhXhXhXhXhXhXhXhXhXhXhXhXhXhXhXhXhXhXhXhXhXhXhXhXhXhXhXhXhXhXhXhXhXhXhXhXhXhXhXhXhXhXhXhXhXhXhXhXhXhXhXhXhXhXhXhXhXhXhXhXhXhXhXhXhXhXhXhXhXhXhXhXhXhXhXhXhXhXhXhXhXhXhXhXhXhXhXhXhXhXhXhX",
"jXhXgXhXhXgXjX8XE.8Xs.%.R.9XjXgXgXjXpX].zXgXgXhXjXjXjXhXhXhXhXhXhXhXhXhXhXhXhXhXhXhXhXhXhXhXhXhXhXhXhXhXhXhXhXhXhXhXhXhXhXhXhXhXhXhXhXhXhXhXhXhXhXhXhXhXhXhXhXhXhXhXhXhXhXhXhXhXhXhXhXhXhXhXhXhXhXhXhXhXhXhXhXhXhXhXhXhXhXhXhXhXhXhXhXhXhXhXhXhXhXhXhXhXhXhXhXhXhXhXhXhXhXhXhXhXhXhXhXhXhXhXhXhXhXhXhXhXhXhXhXhXhXhXhXhXhXhXhXhXhXhXhXhXhXhXhXhXhXhXhXhXhXhXhXhXhXhXhXhXhXhXhXhXhXhXhXhXhXhXhXhXhXhXhXhXhXhXhXhXhXhXhXhXhXhXhXhXhXhXhXhXhXhXhXhXhXhXhXhXhXhXhXhXhXhXhXhXhXhXhXhXhXhXhXhXhXhXhXhXhXhXhXhXhXhXhXhXhXhXhXhXhXhXhXhX",
"gXhXhXhXhXhXhXaX9X9XwXwX9XgXhXhXhXgXhXzXgXhXhXgXgXgXgXhXhXhXhXhXhXhXhXhXhXhXhXhXhXhXhXhXhXhXhXhXhXhXhXhXhXhXhXhXhXhXhXhXhXhXhXhXhXhXhXhXhXhXhXhXhXhXhXhXhXhXhXhXhXhXhXhXhXhXhXhXhXhXhXhXhXhXhXhXhXhXhXhXhXhXhXhXhXhXhXhXhXhXhXhXhXhXhXhXhXhXhXhXhXhXhXhXhXhXhXhXhXhXhXhXhXhXhXhXhXhXhXhXhXhXhXhXhXhXhXhXhXhXhXhXhXhXhXhXhXhXhXhXhXhXhXhXhXhXhXhXhXhXhXhXhXhXhXhXhXhXhXhXhXhXhXhXhXhXhXhXhXhXhXhXhXhXhXhXhXhXhXhXhXhXhXhXhXhXhXhXhXhXhXhXhXhXhXhXhXhXhXhXhXhXhXhXhXhXhXhXhXhXhXhXhXhXhXhXhXhXhXhXhXhXhXhXhXhXhXhXhXhXhXhXhXhXhXhX",
"hXhXhXhXhXhXhXhXjXjXhXhXjXhXhXhXhXhXgXgXhXhXhXhXhXhXhXhXhXhXhXhXhXhXhXhXhXhXhXhXhXhXhXhXhXhXhXhXhXhXhXhXhXhXhXhXhXhXhXhXhXhXhXhXhXhXhXhXhXhXhXhXhXhXhXhXhXhXhXhXhXhXhXhXhXhXhXhXhXhXhXhXhXhXhXhXhXhXhXhXhXhXhXhXhXhXhXhXhXhXhXhXhXhXhXhXhXhXhXhXhXhXhXhXhXhXhXhXhXhXhXhXhXhXhXhXhXhXhXhXhXhXhXhXhXhXhXhXhXhXhXhXhXhXhXhXhXhXhXhXhXhXhXhXhXhXhXhXhXhXhXhXhXhXhXhXhXhXhXhXhXhXhXhXhXhXhXhXhXhXhXhXhXhXhXhXhXhXhXhXhXhXhXhXhXhXhXhXhXhXhXhXhXhXhXhXhXhXhXhXhXhXhXhXhXhXhXhXhXhXhXhXhXhXhXhXhXhXhXhXhXhXhXhXhXhXhXhXhXhXhXhXhXhXhXhX"
};
