/* XPM */
static char *impulse_responses_mono[] = {
/* columns rows colors chars-per-pixel */
"256 256 248 2 ",
"   c #2B3B0D",
".  c #7B1608",
"X  c #781003",
"o  c #433A02",
"O  c #483E00",
"+  c #014A01",
"@  c #034302",
"#  c #015C01",
"$  c #015401",
"%  c #016301",
"&  c #006A00",
"*  c #007400",
"=  c #007D00",
"-  c #4A4300",
";  c #5B4C00",
":  c #544A01",
">  c #5C5204",
",  c #504817",
"<  c #645500",
"1  c #695900",
"2  c #6C5C03",
"3  c #726206",
"4  c #595229",
"5  c #625A31",
"6  c #6F6938",
"7  c #407C3B",
"8  c #3F3F42",
"9  c #094B5A",
"0  c #0F505E",
"q  c #10505F",
"w  c #114F5D",
"e  c #155361",
"r  c #1A5664",
"t  c #1D5966",
"y  c #235D69",
"u  c #01646E",
"i  c #086972",
"p  c #177179",
"a  c #2B626E",
"s  c #326772",
"d  c #386B76",
"f  c #317079",
"g  c #4B4B4D",
"h  c #434446",
"j  c #4E4E50",
"k  c #535355",
"l  c #625E45",
"z  c #4D7C4A",
"x  c #6B664A",
"c  c #7D754A",
"v  c #726E54",
"b  c #7A765D",
"n  c #787359",
"m  c #6E694F",
"M  c #46757E",
"N  c #636364",
"B  c #7E7A62",
"V  c #7A7769",
"C  c #757471",
"Z  c #7A7979",
"A  c #6D726D",
"S  c #5E5E60",
"D  c #822416",
"F  c #862A1C",
"G  c #D73219",
"H  c #D83C25",
"J  c #847800",
"K  c #934538",
"L  c #D74832",
"P  c #9B564A",
"I  c #867959",
"U  c #817D65",
"Y  c #837F68",
"T  c #80777B",
"R  c #A66D62",
"E  c #D86957",
"W  c #DA6A57",
"Q  c #008D00",
"!  c #008400",
"~  c #059604",
"^  c #0AAA09",
"/  c #17A617",
"(  c #2FB32D",
")  c #5FA55B",
"_  c #6DC265",
"`  c #8F8A0C",
"'  c #A89417",
"]  c #86826B",
"[  c #89856E",
"{  c #8C8769",
"}  c #8A8671",
"|  c #8D8A74",
" . c #86857D",
".. c #8B8877",
"X. c #918D75",
"o. c #918E79",
"O. c #95917D",
"+. c #99957C",
"@. c #989378",
"#. c #928E6D",
"$. c #A69569",
"%. c #DA8778",
"&. c #C5BB77",
"*. c #82C57D",
"=. c #2C7C83",
"-. c #107781",
";. c #4E7A82",
":. c #717E89",
">. c #1091A6",
",. c #2691A8",
"<. c #2B92A9",
"1. c #2692A7",
"2. c #3496AB",
"3. c #3A98AC",
"4. c #3895A8",
"5. c #228FA7",
"6. c #229CA6",
"7. c #548A8F",
"8. c #64888E",
"9. c #779599",
"0. c #7A989C",
"q. c #689195",
"w. c #449CAF",
"e. c #489EB0",
"r. c #7295A2",
"t. c #55A4B3",
"y. c #4CA9B2",
"u. c #71ABB3",
"i. c #75B9C5",
"p. c #6AC5CA",
"a. c #868580",
"s. c #8B8A87",
"d. c #8D8C89",
"f. c #888783",
"g. c #908E85",
"h. c #999683",
"j. c #9D9985",
"k. c #95938E",
"l. c #9E9B89",
"z. c #979380",
"x. c #829C9E",
"c. c #969592",
"v. c #9E9D96",
"b. c #9E9D9B",
"n. c #9A9499",
"m. c #938E91",
"M. c #A19E8C",
"N. c #A19D85",
"B. c #B2968D",
"V. c #A4A18E",
"C. c #A9A68D",
"Z. c #A6A292",
"A. c #A9A695",
"S. c #A5A39E",
"D. c #ADAA9B",
"F. c #ACA997",
"G. c #B0AD9E",
"H. c #B8A794",
"J. c #B9B693",
"K. c #9296AE",
"L. c #989BB2",
"P. c #8890A9",
"I. c #96AAAA",
"U. c #8AB8BD",
"Y. c #96ACB1",
"T. c #A2A2A1",
"R. c #A8A7A3",
"E. c #AEACA6",
"W. c #A8ABAB",
"Q. c #B2AFA0",
"!. c #B2A5AA",
"~. c #B5B2A4",
"^. c #B3B2AD",
"/. c #B9B6A9",
"(. c #BCBAAD",
"). c #B9B6A6",
"_. c #A6A8B8",
"`. c #AAB9B8",
"'. c #BCBBB5",
"]. c #B0BCB9",
"[. c #B4B6BA",
"{. c #B8ABB5",
"}. c #A59BA4",
"|. c #D5A896",
" X c #C1BEB2",
".X c #C8BBB7",
"XX c #CBB5AA",
"oX c #D79C90",
"OX c #86CB81",
"+X c #9CCA96",
"@X c #B8C1BE",
"#X c #BAD2B3",
"$X c #A3CB9D",
"%X c #C4C1B5",
"&X c #C6C4BB",
"*X c #C8C6BB",
"=X c #CAC8BE",
"-X c #CBCAB7",
";X c #CEC7B4",
":X c #DCC4B2",
">X c #97BFC3",
",X c #8CBDC4",
"<X c #BABBC2",
"1X c #93C3C7",
"2X c #A6C5C6",
"3X c #B9CAC8",
"4X c #B5D1D1",
"5X c #C6CBC6",
"6X c #CECCC4",
"7X c #CCCCCA",
"8X c #C4C6C7",
"9X c #D1CEC5",
"0X c #D3CCC7",
"qX c #CCD6C4",
"wX c #CAD1CD",
"eX c #C6D3CB",
"rX c #D2D0C7",
"tX c #D6D4CD",
"yX c #D8D6CF",
"uX c #D8D7CB",
"iX c #D6D5D0",
"pX c #D9D7D0",
"aX c #DAD8D1",
"sX c #DFDED8",
"dX c #D4DBD8",
"fX c #C9D5D4",
"gX c #E3DDD4",
"hX c #E0DFD8",
"jX c #E8DDD5",
"kX c #E2D5CD",
"lX c #DDE1DB",
"zX c #E4E3DD",
"xX c #E9E3DB",
"cX c #E5E1D6",
"vX c #F1E6DD",
"bX c #E9DAE1",
"nX c #E7E6E1",
"mX c #E9E7E2",
"MX c #EBEAE5",
"NX c #EEEEE9",
"BX c #E5EAE4",
"VX c #F0EFEA",
"CX c #F3EAE4",
"ZX c #F3F2ED",
"AX c #FBFAF6",
"SX c #EAEFED",
"DX c #D3E3E0",
"FX c #C9BCC7",
/* pixels */
"aXaXaXaXaXaXaXaXaXaXaXaXaXaXaXaXaXaXaXaXaXaXaXaXaXaXaXaXaXaXaXaXaXaXaXaXaXaXaXaXaXaXaXaXaXaXaXaXaXaXaXaXaXaXaXaXaXaXaXaXaXaXaXaXaXaXaXaXaXaXaXaXaXaXaXaXaXaXaXaXaXaXaXaXaXaXaXaXaXaXaXaXaXaXaXaXaXaXaXaXaXaXaXaXaXaXaXaXaXaXaXaXaXaXaXaXaXaXaXaXaXaXaXaXaXaXaXaXaXaXaXaXaXaXaXaXaXaXaXaXaXaXaXaXaXaXaXaXaXaXaXaXaXaXaXaXaXaXaXaXaXaXaXaXaXaXaXaXaXaXaXaXaXaXaXaXaXaXaXaXaXaXaXaXaXaXaXaXaXpXpXaXaXpXaXaXaXpXaXaXpXpXaXaXpXaXaXpXaXaXpXaXaXaXaXpXaXaXpXpXpXaXaXaXpXpXpXaXaXpXpXpXaXaXpXpXaXpXpXpXaXaXaXpXpXaXaXaXpXaXaXpXaXaXpXpX",
"aXaXaXaXaXaXaXaXaXaXaXaXaXaXaXaXaXaXaXaXaXaXaXaXaXaXaXaXaXaXaXaXaXaXaXaXaXaXaXaXaXaXaXaXaXaXaXaXaXaXaXaXaXaXaXaXaXaXaXaXaXaXaXaXaXaXaXaXaXaXaXaXaXaXaXaXaXaXaXaXaXaXaXaXaXaXaXaXaXaXaXaXaXaXaXaXaXaXaXaXaXaXaXaXaXaXaXaXaXaXaXaXaXaXaXaXaXaXaXaXaXaXaXaXaXaXaXaXaXaXaXaXaXaXaXaXaXaXaXaXaXaXaXaXaXaXaXaXaXaXaXaXaXaXaXaXaXaXaXaXaXaXaXaXaXaXaXaXaXaXaXaXaXaXaXaXaXaXaXaXaXaXaXaXaXaXaXaXaXaXaXaXaXaXaXaXaXaXaXaXsXaXaXaXaXaXaXaXaXaXaXaXaXaXaXsXaXaXaXsXsXaXaXaXaXsXaXpXaXaXsXsXaXpXaXaXaXaXsXaXpXaXpXaXaXaXpXaXaXaXaXaXaXpXaXaX",
"aXaXaXaXaXaXaXaXaXaXaXaXaXaXaXaXaXaXaXaXaXaXaXaXaXaXaXaXaXaXaXaXaXaXaXaXaXaXaXaXaXaXaXaXaXaXaXaXaXaXaXaXaXaXaXaXaXaXaXaXaXaXaXaXaXaXaXaXaXaXaXaXaXaXaXaXaXaXaXaXaXaXaXaXaXaXaXaXaXaXaXaXaXaXaXaXaXaXaXaXaXaXaXaXaXaXaXaXaXaXaXaXaXaXaXaXaXaXaXaXaXaXaXaXaXaXaXaXaXaXaXaXaXaXaXaXaXaXaXaXaXaXaXaXaXaXaXaXaXaXaXaXaXaXaXaXaXaXaXaXaXaXaXaXaXaXaXaXaXaXaXaXaXaXaXaXaXaXaXaXaXaXaXaXaXaXaXaXaX7X8XtXiX7XpXaXpX7XpXtX8X7XaXaX7XpXaX7XtXpX7XaXpXaXpX8X7XaX7X8X8XtXaXaXtX8X7XaXaX7X8X8XtXaX8X7XaXtX8X7XaXaXaXtX8XpXaXtX7XaXaX7XyXaX7X8X",
"aXaXaXaXaXaXaXaXaXaXaXaXaXaXaXaXaXaXaXaXaXaXaXaXaXaXaXaXaXaXaXaXaXaXaXaXaXaXaXaXaXaXaXaXaXaXaXaXaXaXaXaXaXaXaXaXaXaXaXaXaXaXaXaXaXaXaXaXaXaXaXaXaXaXaXaXaXaXaXaXaXaXaXaXaXaXaXaXaXaXaXaXaXaXaXaXaXaXaXaXaXaXaXaXaXaXaXaXaXaXaXaXaXaXaXaXaXaXaXaXaXaXaXaXaXaXaXaXaXaXaXaXaXaXaXaXaXaXaXaXaXaXaXaXaXaXaXaXaXaXaXaXaXaXaXaXaXaXaXaXaXaXaXaXaXaXaXaXaXaXaXaXaXaXaXaXaXaXaXaXaXaXaXaXaXaXaXpXaX[.P.7X8Xr.8XcX<XP.tX[.K.L._.aXK.7XcX_.<X7XL.aXaXtXL.L.L.iXL.L._.7XaXsX_.K.L._.aXK.L._.7X_.L.L.7X_.K.L._.gX<XK.L.K.tX7XP.8XgXL.7X<XL.L.",
"aXaXaXaXaXaXaXaXaXaXaXaXaXaXaXaXaXaXaXaXaXaXaXaXaXaXaXaXaXaXaXaXaXaXaXaXaXaXaXaXaXaXaXaXaXaXaXaXaXaXaXaXaXaXaXaXaXaXaXaXaXaXaXaXaXaXaXaXaXaXaXaXaXaXaXaXaXaXaXaXaXaXaXaXaXaXaXaXaXaXaXaXaXaXaXaXaXaXaXaXaXaXaXaXaXaXaXaXaXaXaXaXaXaXaXaXaXaXaXaXaXaXaXaXaXaXaXaXaXaXaXaXaXaXaXaXaXaXaXaXaXaXaXaXaXaXaXaXaXaXaXaXaXaXaXaXaXaXaXaXaXaXaXaXaXaXaXaXaXaXaXaXaXaXaXaXaXaXaXaXaXaXaXaXaXaXaXpXsX8XL.gX8Xr.[.cX_.P.tX_.[.gXP.tXK.7XcXL.<X7XK.aXaX5XP.iXaXaXK.8XtXpXpXgX_.<XaXP.tXK.8XtXyXP.8XsXsX_.3XiXP.tXP.8XcX_._.7XP.L.aXL.7XL._.cX",
"aXaXaXaXaXaXaXaXaXaXaXaXaXaXaXaXaXaXaXaXaXaXaXaXaXaXaXaXaXaXaXaXaXaXaXaXaXaXaXaXaXaXaXaXaXaXaXaXaXaXaXaXaXaXaXaXaXaXaXaXaXaXaXaXaXaXaXaXaXaXaXaXaXaXaXaXaXaXaXaXaXaXaXaXaXaXaXaXaXaXaXaXaXaXaXaXaXaXaXaXaXaXaXaXaXaXaXaXaXaXaXaXaXaXaXaXaXaXaXaXaXaXaXaXaXaXaXaXaXaXaXaXaXaXaXaXaXaXaXaXaXaXaXaXaXaXaXaXaXaXaXaXaXaXaXaXaXaXaXaXaXaXaXaXaXaXaXaXaXaXaXaXaXaXaXaXaXaXaXaXaXaXaXaXaXaXaXpXsX8XL.sX8XL._.7X_.L.7X[.K.L._.aXK.7XgXL.<X7XK.aXpXaX_.P.<XaXL.K.L.7XaXgX_.L.L._.aXK.K.L.tX<XP._.sX_.L.L._.7XK.aXsX8XL.8X_._.[._.8X7XK.L.",
"aXaXaXaXaXaXaXaXaXaXaXaXaXaXaXaXaXaXaXaXaXaXaXaXaXaXaXaXaXaXaXaXaXaXaXaXaXaXaXaXaXaXaXaXaXaXaXaXaXaXaXaXaXaXaXaXaXaXaXaXaXaXaXaXaXaXaXaXaXaXaXaXaXaXaXaXaXaXaXaXaXaXaXaXaXaXaXaXaXaXaXaXaXaXaXaXaXaXaXaXaXaXaXaXaXaXaXaXaXaXaXaXaXaXaXaXaXaXaXaXaXaXaXaXaXaXaXaXaXaXaXaXaXaXaXaXaXaXaXaXaXaXaXaXaXaXaXaXaXaXaXaXaXaXaXaXaXaXaXaXaXaXaXaXaXaXaXaXaXaXaXaXaXaXaXaXaXaXaXaXaXaXaXaXaXaXaXpXsX8XL.gX<X_.[.L.<XL.7X[.L.8XiXaXK.7XxXL.<X7XL.cXgXaXcXtXP.7XL.7XcXaXpXgX_._.K.<XgXK.tXcXaXcXaXK.<X_.L.8XaXtXP.tXxX[._.5XL.iXK.K.8XcXcX_.",
"aXaXaXaXaXaXaXaXaXaXaXaXaXaXaXaXaXaXaXaXaXaXaXaXaXaXaXaXaXaXaXaXaXaXaXaXaXaXaXaXaXaXaXaXaXaXaXaXaXaXaXaXaXaXaXaXaXaXaXaXaXaXaXaXaXaXaXaXaXaXaXaXaXaXaXaXaXaXaXaXaXaXaXaXaXaXaXaXaXaXaXaXaXaXaXaXaXaXaXaXaXaXaXaXaXaXaXaXaXaXaXaXaXaXaXaXaXaXaXaXaXaXaXaXaXaXaXaXaXaXaXaXaXaXaXaXaXaXaXaXaXaXaXaXaXaXaXaXaXaXaXaXaXaXaXaXaXaXaXaXaXaXaXaXaXaXaXaXaXaXaXaXaXaXaXaXaXaXaXaXaXaXaXaXaXaXaXpXaX[.P.tX<XL.8Xr.7XK.7X_._.xXpXaX[.K._.K.yX7XP._._.8X_._.L.tXK.L._.7XaXgXL.<XtXP.7XK._._.8X_._.K.7X_.[.xXpXaX_.K._.K.7X8XK.cX<X:.7X[._.L.",
"aXaXaXaXaXaXaXaXaXaXaXaXaXaXaXaXaXaXaXaXaXaXaXaXaXaXaXaXaXaXaXaXaXaXaXaXaXaXaXaXaXaXaXaXaXaXaXaXaXaXaXaXaXaXaXaXaXaXaXaXaXaXaXaXaXaXaXaXaXaXaXaXaXaXaXaXaXaXaXaXaXaXaXaXaXaXaXaXaXaXaXaXaXaXaXaXaXaXaXaXaXaXaXaXaXaXaXaXaXaXaXaXaXaXaXaXaXaXaXaXaXaXaXaXaXaXaXaXaXaXaXaXaXaXaXaXaXaXaXaXaXaXaXaXaXaXaXaXaXaXaXaXaXaXaXaXaXaXaXaXaXaXaXaXaXaXaXaXaXaXaXaXaXaXaXaXaXaXaXaXaXaXaXaXaXaXaXaXaX8X<X7XtX5XpX8XaX8XiX7X7XaXpXaXaX8X<XtXaXtX<X<X<XtX<X<XtXaX8X<X<XrXaXaX7X7XsX8X7X8X<X<XtX8X<X7XsX8X7XaXpXaXaX8X<X7XsXtX8XaXpX8XtX7X<X8X",
"aXaXaXaXaXaXaXaXaXaXaXaXaXaXaXaXaXaXaXaXaXaXaXaXaXaXaXaXaXaXaXaXaXaXaXaXaXaXaXaXaXaXaXaXaXaXaXaXaXaXaXaXaXaXaXaXaXaXaXaXaXaXaXaXaXaXaXaXaXaXaXaXaXaXaXaXaXpXpXpXpXpXpXpXpXpXpXpXpXpXpXpXpXpXpXpXpXpXpXpXpXpXpXpXpXpXpXpXpXpXpXpXpXpXpXpXpXpXpXpXpXpXpXpXpXpXpXpXpXpXpXpXpXpXpXpXpXpXpXpXpXpXpXpXpXpXpXpXpXpXpXpXpXpXpXpXpXpXpXpXpXpXpXpXpXpXpXpXpXpXpXpXpXpXpXpXpXpXpXpXpXpXpXpXpXpXpXpXpXaXgXaXaXaXpXaXpXaXpXaXaXpXpXpXpXaXgXaXpXaXsXgXgXaXsXgXaXpXaXgXgXaXpXpXaXaXpXaXaXaXgXgXaXaXgXaXpXaXaXpXpXpXpXsXgXaXpXaXaXpXpXsXaXaXgXaX",
"aXaXaXaXaXaXaXaXaXaXaXaXaXaXaXaXaXaXaXaXaXaXaXaXaXaXaXaXaXaXaXaXaXaXaXaXaXaXaXaXaXaXaXaXaXaXaXaXaXaXaXaXaXaXaXaXaXaXaXaXaXaXaXaXaXaXaXaXaXaXaXaXaXaXaXaXpXaXhXhXhXhXhXhXhXhXhXhXhXhXhXhXhXhXhXhXhXhXhXhXhXhXhXhXhXhXhXhXhXhXhXhXhXhXhXhXhXhXhXhXhXhXhXhXhXhXhXhXhXhXhXhXhXhXhXhXhXhXhXhXhXhXhXhXhXhXhXhXhXhXhXhXhXhXhXhXhXhXhXhXhXhXhXhXhXhXhXhXhXhXhXhXhXhXhXhXhXhXhXhXhXhXhXhXhXhXhXhXhXsXsXhXhXsXhXsXhXsXhXhXhXhXhXhXhXsXsXhXhXhXsXsXsXhXsXsXhXhXsXsXsXsXsXsXsXsXsXsXsXsXaXsXsXsXsXsXsXsXsXsXsXsXsXsXsXsXsXsXsXsXsXsXsXsXsXsX",
"aXaXaXaXaXaXaXaXaXaXaXaXaXaXaXaXaXaXaXaXaXaXaXaXaXaXaXaXaXaXaXaXaXaXaXaXaXaXaXaXaXaXaXaXaXaXaXaXaXaXaXaXaXaXaXaXaXaXaXaXaXaXaXaXaXaXaXaXaXaXaXaXaXaXaXpXsXzXzXzXzXzXzXzXzXzXzXzXzXzXzXzXzXzXzXzXzXzXzXzXzXzXzXzXzXzXzXzXzXzXzXzXzXzXzXzXzXzXzXzXzXzXzXzXzXzXzXzXzXzXzXzXzXzXzXzXzXzXzXzXzXzXzXzXzXzXzXzXzXzXzXzXzXzXzXzXzXzXzXzXzXzXzXzXzXzXzXzXzXzXzXzXzXzXzXzXzXzXzXzXzXzXzXzXzXzXzXzXzXzXzXzXzXzXzXzXzXzXzXzXzXzXzXzXzXzXzXzXzXzXzXzXzXzXzXzXzXzXzXzXzXzXhXcXcXcXhXsXcXcXcXcXcXcXcXcXcXcXcXcXcXcXcXcXcXcXcXcXsXsXsXhXcXcXcXcX",
"aXaXaXaXaXaXaXaXaXaXaXaXaXaXaXaXaXaXaXaXaXaXaXaXaXaXaXaXaXaXaXaXaXaXaXaXaXaXaXaXaXaXaXaXaXaXaXaXaXaXaXaXaXaXaXaXaXaXaXaXaXaXaXaXaXaXaXaXaXaXaXaXaXaXpXsXzXzXzXzXzXzXzXzXzXzXzXzXzXzXzXzXzXzXzXzXzXzXzXzXzXzXzXzXzXzXzXzXzXzXzXzXzXzXzXzXzXzXzXzXzXzXzXzXzXzXzXzXzXzXzXzXzXzXzXzXzXzXzXzXzXzXzXzXzXzXzXzXzXzXzXzXzXzXzXzXzXzXzXzXzXzXzXzXzXzXzXzXzXzXzXzXzXzXzXzXzXzXzXzXzXzXzXzXzXzXzXzXzXzXzXzXzXzXzXzXzXzXzXzXzXzXzXzXzXzXzXzXzXzXzXzXzXzXzXzXzXzXzXzXcXhXhXhXhXsXzXzXsXhXhXhXhXhXhXhXhXhXhXhXhXhXhXhXhXhXhXsXcXxXxXhXsXhXhXhX",
"aXaXaXaXaXaXaXaXaXaXaXaXaXaXaXaXaXaXaXaXaXaXaXaXaXaXaXaXaXaXaXaXaXaXaXaXaXaXaXaXaXaXaXaXaXaXaXaXaXaXaXaXaXaXaXaXaXaXaXaXaXaXaXaXaXaXaXaXaXaXaXaXaXpXsXzXzXzXzXzXzXzXzXzXzXzXzXzXzXzXzXzXzXzXzXzXzXzXzXzXzXzXzXzXzXzXzXzXzXzXzXzXzXzXzXzXzXzXzXzXzXzXzXzXzXNXNXnXzXzXzXzXcXzXzXzXzXzXzXzXnXzXzXzXzXzXzXzXzXzXzXzXzXzXzXzXzXzXzXzXzXnXzXzXzXzXzXzXzXzXzXzXzXzXzXzXzXzXzXzXzXzXzXzXzXzXzXzXzXzXzXzXzXzXzXzXzXzXzXzXzXzXzXzXzXzXzXzXzXzXzXzXzXzXzXzXzXzXzXcXhXhXhXhXhXzXuX-XzXhXhXhXhXhXhXhXhXhXhXhXsXhXhXhXhXhXsXcXeX1X2XsXcXsXhXhX",
"aXaXaXaXaXaXaXaXaXaXaXaXaXaXaXaXaXaXaXaXaXaXaXaXaXaXaXaXaXaXaXaXaXaXaXaXaXaXaXaXaXaXaXaXaXaXaXaXaXaXaXaXaXaXaXaXaXaXaXaXaXaXaXaXaXaXaXaXaXaXaXaXpXsXzXzXzXzXzXzXzXzXxXzXlXzXzXzXzXzXzXzXzXzXzXzXzXzXzXzXzXzXzXzXzXzXzXzXzXzXzXzXzXzXzXzXzXzXzXzXzXzXzXzXhXD.V.rXmXNXVX=Xj.MXNXNXzXnXNXNX9XzXnXzXMXMXNXzXmXMXMXnXNXmXzXNXNXzXMXNXMXtXaXMXzXzXzXzXzXzXzXzXzXzXzXzXzXzXzXzXzXzXzXzXzXzXzXzXzXzXzXzXzXzXzXzXzXzXzXzXzXzXlXxXzXzXzXzXzXzXzXzXzXzXzXzXzXzXcXhXhXhXhXhXsXCX_ / hXhXhXhXhXhXhXsXsXsXsXsXcXsXhXhXhXhXsXxXy.y.t.y.hXhXhXhX",
"aXaXaXaXaXaXaXaXaXaXaXaXaXaXaXaXaXaXaXaXaXaXaXaXaXaXaXaXaXaXaXaXaXaXaXaXaXaXaXaXaXaXaXaXaXaXaXaXaXaXaXaXaXaXaXaXaXaXaXaXaXaXaXaXaXaXaXaXaXaXaXpXsXzXzXzXzXzXzXzXzXxXdXi.dXzXzXzXzXzXzXzXzXzXzXzXzXzXzXzXzXzXzXzXzXzXzXzXzXzXzXzXzXzXzXzXzXzXzXzXzXzXzXNXV.V.*XrXsXA.=X6X+.mXG.).MXrXA.(.U M.hXnX*X).D.zX9X(. XyXZ.6XzXG.G.zX*XA.sXO.[ tXnXzXzXzXzXzXzXzXzXzXzXzXzXzXzXzXzXzXzXzXzXzXzXzXzXzXzXzXzXzXzXzXzXzXzXzXzXxX4X1XxXzXzXzXzXzXzXzXzXzXzXzXzXcXhXhXhXhXhXsXhXaX) ( +XmXsXhXhXhXsXxXxXxXvXcX4XxXsXhXhXhXsXxXy.1X2X3.sXhXhXhX",
"aXaXaXaXaXaXaXaXaXaXaXaXaXaXaXaXaXaXaXaXaXaXaXaXaXaXaXaXaXaXaXaXaXaXaXaXaXaXaXaXaXaXaXaXaXaXaXaXaXaXaXaXaXaXaXaXaXaXaXaXaXaXaXaXaXaXaXaXaXaXpXsXzXzXzXzXzXzXzXzXxXfXi.fXxXzXzXzXzXzXzXzXzXzXzXzXzXzXzXzXzXzXzXzXzXzXzXzXzXzXzXzXzXzXzXzXzXzXzXzXzXzXzXMX~.X.aXNXO.F.X.D.Z.F.V.O.G.O.~.*X[ /.zXNX[ V.j.G.V.[ 9XX.D.X.j.+.6X*Xo.A.O.j.N.hXzXzXzXzXzXzXzXzXzXzXzXzXzXzXzXzXzXzXzXzXzXzXzXzXzXzXzXzXzXzXzXzXzXzXzXzXzXzXxX2X1XzXzXzXzXzXzXzXzXzXzXzXcXhXhXhXhXhXhXsXmX$X( _ ) mXsXhXhXsXxX1Xt.t.t.t.>.1XxXsXhXhXsXxXy.3.w.y.cXhXhXhX",
"aXaXaXaXaXaXaXaXaXaXaXaXaXaXaXaXaXaXaXaXaXaXaXaXaXaXaXaXaXaXaXaXaXaXaXaXaXaXaXaXaXaXaXaXaXaXaXaXaXaXaXaXaXaXaXaXaXaXaXaXaXaXaXaXaXaXaXaXaXpXsXzXzXzXzXzXzXzXzXzXxX4Xi.xXzXzXzXzXzXzXzXzXzXzXzXzXzXzXzXzXzXzXzXzXzXzXzXzXzXzXzXzXzXzXzXzXzXzXzXzXzXzXzXzXMX X[ ~.U V.+.F.V.} h.j.h.N.AXMXh.aXnXMX+.yXsX+.Z. XaXn Z.O.%Xj.(.~.U V.M.A. XNXzXzXzXzXzXzXzXzXzXzXzXzXzXzXzXzXzXzXzXzXzXzXzXzXzXzXzXzXzXzXzXzXzXzXzXzXzXzXCX4Xi.zXzXzXzXzXzXzXzXzXzXcXhXhXhXhXhXhXhXsXMX) ( ) / qXzXsXhXsXcX2Xu.u.u.u.1.2XxXsXhXhXsXxXy.4XvX1.4XxXsXhX",
"aXaXaXaXaXaXaXaXaXaXaXaXaXaXaXaXaXaXaXaXaXaXaXaXaXaXaXaXaXaXaXaXaXaXaXaXaXaXaXaXaXaXaXaXaXaXaXaXaXaXaXaXaXaXaXaXaXaXaXaXaXaXaXaXaXaXaXaXpXsXzXzXzXzXzXzXzXzXzXzXzXvX4Xi.lXzXzXzXzXzXzXzXzXzXzXzXzXzXzXzXzXzXzXzXzXzXzXzXzXzXzXzXzXzXzXzXzXzXzXzXzXzXzXzXtXmXG.j.@.&XzX%Xj.j.~.zX9X[ tXsXX.*XzXNX| /./.V.A./.hX] tXaXaXaX| M.+.aXzXV.F.MXzXzXzXzXzXzXzXzXzXzXzXzXzXzXzXzXzXzXzXzXzXzXzXzXzXzXzXzXzXzXzXzXzXzXzXzXzXxX4Xi.lXxXzXzXzXzXzXzXzXzXcXhXhXhXhXhXhXhXsXzXqX( qXZX) _ CXsXhXhXsXxXvXxXvXxXfXxXsXhXhXhXsXxXy.3.y.y.sXhXsXhX",
"aXaXaXaXaXaXaXaXaXaXaXaXaXaXaXaXaXaXaXaXaXaXaXaXaXaXaXaXaXaXaXaXaXaXaXaXaXaXaXaXaXaXaXaXaXaXaXaXaXaXaXaXaXaXaXaXaXaXaXaXaXaXaXaXaXaXaXpXsXzXzXzXzXzXzXzXzXzXzXzXzXzXxXfXdXzXzXzXzXzXzXzXzXzXzXzXzXzXzXzXzXzXzXzXzXzXzXzXzXzXzXzXzXzXzXzXzXzXzXzXzXzXzXnX(.o.j.aX=XX.V.*XQ.yXO.+.tX(.} %X(.+.aXNX+.@.O.aX).%XNX(.| F. X@.Z.hXF.| /.rXX.6XmXzXzXzXzXzXzXzXzXzXzXzXzXzXzXzXzXzXzXzXzXzXzXzXzXzXzXzXzXzXzXzXzXzXzXzXzXzXfXsXxXzXzXzXzXzXzXzXzXcXhXhXhXhXhXhXhXhXhXzXuX#XzXzXqX=XzXsXhXhXhXsXsXsXsXsXcXsXhXhXhXhXhXcXeX2X2XdXcXsXhXhX",
"aXaXaXaXaXaXaXaXaXaXaXaXaXaXaXaXaXaXaXaXaXaXaXaXaXaXaXaXaXaXaXaXaXaXaXaXaXaXaXaXaXaXaXaXaXaXaXaXaXaXaXaXaXaXaXaXaXaXaXaXaXaXaXaXaXaXpXsXzXzXzXzXzXzXzXzXzXzXzXzXzXzXzXxXzXzXzXzXzXzXzXzXzXzXzXzXzXzXzXzXzXzXzXzXzXzXzXzXzXzXzXzXzXzXzXzXzXzXzXzXzXzXzXzXnXnXMXzXmXmXnXnXnXnXMXnXzXMXmXzXmXnXzXMXO.6XNXzXnXnXzXMXmXnXnXnXmXzXMXnXnXnXmXzXzXzXzXzXzXzXzXzXzXzXzXzXzXzXzXzXzXzXzXzXzXzXzXzXzXzXzXzXzXzXzXzXzXzXzXzXzXzXxXzXzXzXzXzXzXzXzXzXcXhXhXhXhXhXhXhXhXhXhXsXzXnXsXsXzXzXsXhXhXhXhXhXhXhXhXhXsXhXhXhXhXhXhXhXxXxXxXcXsXhXhXhX",
"pXpXpXpXpXpXpXpXpXpXpXpXpXpXpXpXpXpXpXpXpXpXpXpXpXpXpXpXpXpXpXpXpXpXpXpXpXpXpXpXpXpXpXpXpXpXpXpXpXpXpXpXpXpXpXpXpXpXpXpXpXpXpXpXpXpXsXzXzXzXzXzXzXzXzXzXzXzXzXzXzXzXzXzXzXzXzXzXzXzXzXzXzXzXzXzXzXzXzXzXzXzXzXzXzXzXzXzXzXzXzXzXzXzXzXzXzXzXzXzXzXzXzXzXzXzXzXzXzXzXzXzXzXzXzXzXzXzXzXzXzXzXzXMXZ.9XnXzXzXzXzXzXzXzXzXzXzXzXzXzXzXzXzXzXzXzXzXzXzXzXzXzXzXzXzXzXzXzXzXzXzXzXzXzXzXzXzXzXzXzXzXzXzXzXzXzXzXzXzXzXzXzXzXzXzXzXzXzXzXzXzXcXhXhXhXhXhXhXhXhXhXhXhXhXsXsXhXhXsXsXhXhXhXhXhXhXhXhXhXhXhXhXhXhXhXhXhXhXsXsXsXsXhXhXhXhX",
"aXaXaXaXaXaXaXaXaXaXaXaXaXaXaXaXaXaXaXaXaXaXaXaXaXaXaXaXaXaXaXaXaXaXaXaXaXaXaXaXaXaXaXaXaXaXaXaXaXaXaXaXaXaXaXaXaXaXaXaXaXaXaXaXaXsXzXzXzXzXzXzXzXzXzXzXzXzXzXzXzXzXzXzXzXzXzXzXzXzXzXzXzXzXzXzXzXzXzXzXzXzXzXzXzXzXzXzXzXzXzXzXzXzXzXzXzXzXzXzXzXzXzXzXzXzXzXzXzXzXzXzXzXzXzXzXzXzXzXzXzXzXzXzXnXzXzXzXzXzXzXzXzXzXzXzXzXzXzXzXzXzXzXzXzXzXzXzXzXzXzXzXzXzXzXzXzXzXzXzXzXzXzXzXzXzXzXzXzXzXzXzXzXzXzXzXzXzXzXzXzXzXzXzXzXzXzXzXzXzXzXhXcXcXcXcXcXcXcXcXcXcXcXcXcXcXcXcXcXcXcXcXcXcXcXcXcXcXcXcXcXcXcXcXcXcXcXcXcXcXcXcXcXcXcXcX",
"zXzXzXzXzXzXzXzXzXzXzXzXzXzXzXzXzXzXzXzXzXzXzXzXzXzXzXzXzXzXzXzXzXzXzXzXzXzXzXzXzXzXzXzXzXzXzXzXzXzXzXzXzXzXzXzXzXzXzXzXzXzXzXzXzXzXzXzXzXzXzXzXzXzXzXzXzXzXzXzXzXzXzXzXzXzXzXzXzXzXzXzXzXzXzXzXzXzXzXzXzXzXzXzXzXzXzXzXzXzXzXzXzXzXzXzXzXzXzXzXzXzXzXzXzXzXzXzXzXzXzXzXzXzXzXzXzXzXzXzXzXzXzXzXzXzXzXzXzXzXzXzXzXzXzXzXzXzXzXzXzXzXzXzXzXzXzXzXzXzXzXzXzXzXzXzXzXzXzXzXzXzXzXzXzXzXzXzXzXzXzXzXzXzXzXzXzXzXzXzXzXzXzXzXzXzXzXzXzXzXzXzXzXzXzXzXzXzXzXzXzXzXzXzXzXzXzXzXzXzXzXzXzXzXzXzXzXzXzXzXzXzXzXzXzXzXzXzXzXzXzXzXzXzXzXzX",
"zXzXzXzXzXzXzXzXzXzXzXzXzXzXzXzXzXzXzXzXzXzXzXzXzXzXzXzXzXzXzXzXzXzXzXzXzXzXzXzXzXzXzXzXzXzXzXzXzXzXzXzXzXzXzXzXzXzXzXzXzXzXzXzXzXzXzXzXzXzXzXzXzXzXzXzXzXzXzXzXzXzXzXzXzXzXzXzXzXzXzXzXzXzXzXzXzXzXzXzXzXzXzXzXzXzXzXzXzXzXzXzXzXzXzXzXzXzXzXzXzXzXzXzXzXzXzXzXzXzXzXzXzXzXzXzXzXzXzXzXzXzXzXzXzXzXzXzXzXzXzXzXzXzXzXzXzXzXzXzXzXzXzXzXzXzXzXzXzXzXzXzXzXzXzXzXzXzXzXzXzXzXzXzXzXzXzXzXzXzXzXzXzXzXzXzXzXzXzXzXzXzXzXzXzXzXzXzXzXzXzXzXzXzXzXzXzXzXzXzXzXzXzXzXzXzXzXzXzXzXzXzXzXzXzXzXzXzXzXzXzXzXzXzXzXzXzXzXzXzXzXzXzXzXzXzX",
"aXaXaXaXaXaXaXaXaXaXaXaXaXaXaXaXaXaXaXaXaXaXaXaXaXaXaXaXaXaXaXaXaXaXaXaXaXaXaXaXaXaXaXaXaXaXaXaXaXaXaXaXaXaXaXaXaXaXaXaXaXaXaXaXaXaXaXaXaXaXaXaXaXaXaXaXaXaXaXaXaXaXaXaXaXaXaXaXaXaXaXaXaXaXaXaXaXaXaXaXaXaXaXaXaXaXaXaXaXaXaXaXaXaXaXaXaXaXaXaXaXaXaXaXaXaXaXaXaXaXaXaXaXaXaXaXaXaXaXaXaXaXaXaXaXaXaXaXaXaXaXaXaXaXaXaXaXaXaXaXaXaXaXaXaXaXaXaXaXaXaXaXaXaXaXaXaXaXaXaXaXaXaXaXaXaXaXaXaXaXaXaXaXaXaXaXaXaXaXaXaXaXaXaXaXaXaXaXaXaXaXaXaXaXaXaXaXaXaXaXaXaXaXaXaXaXaXaXaXaXaXaXaXaXaXaXaXaXaXaXaXaXaXaXaXaXaXaXaXaXaXaXaXaXaXaX",
"uXuXuXuXuXuXuXuXuXuXuXuXuXuXuXuXuXuXuXuXuXuXuXuXuXuXaXtXqXqXqXqXqXqXqXqXqXqXqXqXqXqXqXqXqXqXqXqXqXqXqXuXaXaXaXaXaXaXaXaXaXaXaXaXaXaXaXaXaXaXaXaXaXaXaXaXaXaXaXaXaXaXaXaXaXaXaXaXaXaXaXaXaXaXaXaXaXaXaXaXaXaXaXaXaXaXaXaXaXaXaXaXaXaXaXaXaXaXaXaXaXaXaXaXaXaXaXaXaXaXaXaXaXaXaXaXaXaXaXaXaXaXaXaXaXaXaXaXaXaXaXaXaXaXaXaXaXaXaXaXaXaXaXaXaXaXaXaXaXaXaXaXaXaXaXaXaXaXaXaXaXaXaXaXaXaXaXaXaXaXaXaXaXaXaXaXaXaXaXaXaXaXaXaXaXaXaXaXaXaXaXaXaXaXaXaXaXaXaXaXaXaXaXaXaXaXaXaXaXaXaXaXaXaXaXaXaXaXaXaXaXaXaXaXaXaXaXaXaXaXaXaXaXaXaXaX",
"' ' ' ' ' ' ' ' ' ' ' ' ' ' ' ' ' ' ' ' ' ' ' ' ' &.SX_ ^ ^ ^ ^ ^ ^ ^ ^ ^ ^ ^ ^ ^ ^ ^ ^ ^ ^ ^ ^ ^ ^ ^ OXbXyXaXaXaXaXaXaXaXaXaXaXaXaXaXaXaXaXaXaXaXaXaXaXaXaXaXaXaXaXaXaXaXaXaXaXaXaXaXaXaXaXaXaXaXaXaXaXaXaXaXaXaXaXaXaXaXaXaXaXaXaXaXaXaXaXaXaXaXaXaXaXaXaXaXaXaXaXaXaXaXaXaXaXaXaXaXaXaXaXaXaXaXaXaXaXaXaXaXaXaXaXaXaXaXaXaXaXaXaXaXaXaXaXaXaXaXaXaXaXaXaXaXaXaXaXaXaXaXaXaXaXaXaXaXaXaXaXaXaXaXaXaXaXaXaXaXaXaXaXaXaXaXaXaXaXaXaXaXaXaXaXaXaXaXaXaXaXaXaXaXaXaXaXaXaXaXaXaXaXaXaXaXaXaXaXaXaXaXaXaXaXaXaXaXaXaXaXaXaXaXaXaXaX",
"1 1 1 1 < 1 1 < 1 < 1 < 1 1 1 1 1 1 1 1 1 1 1 < J &.bX_ ! % & & & & & & & & & & & & & & & & & & & % Q *.jXtXtXtXtXtXtXtXtXtXtXtXtXtXtXtXtXtXtXtXtXtXtXtXtXtXtXtXtXtXtXtXtXtXtXtXtXtXtXtXtXtXtXtXtXtXtXtXtXtXtXtXtXtXtXtXtXtXtXtXtXtXtXtXtXtXtXtXtXtXtXtXtXtXtXtXtXtXtXtXtXtXtXtXtXtXtXtXtXtXtXtXtXtXtXtXtXtXtXtXtXtXtXtXtXtXtXtXtXtXtXtXtXtXtXtXtXtXtXtXtXtXtXtXtXtXtXtXtXtXtXtXtXtXtXtXtXtXtXtXtXtXtXtXtXtXtXtXtXtXtXtXtXtXtXtXtXtXtXtXtXtXtXtXtXtXtXtXtXtXtXtXtXtXtXtXtXtXtXtXtXtXtXtXtXtXtXtXtXtXtXtXtXtXtXtXtXtXtXtXtXtXtXtX",
"; ; ; ; ; ; ; ; ; ; ; ; ; ; ; ; ; ; ; ; ; ; > : J &.bX_ = # # # # # # # # # # # # # # # # # # # # # ! *.pX6X6X6X6X6X6X6X6X6X6X6X6X6X6X6X6X6X6X6X6X6X6X6X6X6X6X6X6X6X6X6X6X6X6X6X6X6X6X6X6X6X6X6X6X6X6X6X6X6X6X6X6X6X6X6X6X6X6X6X6X6X6X6X6X6X6X6X6X6X6X6X6X6X6X6X6X6X6X6X6X6X6X6X6X6X6X6X6X6X6X6X6X6X6X6X6X6X6X6X6X6X6X6X6X6X6X6X6X6X6X6X6X6X6X6X6X6X6X6X6X6X6X6X6X6X6X6X6X6X6X6X6X6X6X6X6X6X6X6X6X6X6X6X6X6X6X6X6X6X6X6X6X6X6X6X6X6X6X6X6X6X6X6X6X6X6X6X6X6X6X6X6X6X6X6X6X6X6X6X6X6X6X6X6X6X6X6X6X6X6X6X6X6X6X6X6X6X6X6X6X6X6X6X",
"< 3 > < ; < > ; < ; < ; < 2 1 2 1 2 2 < 3 < ; : J &.iX) = $ # & & & % # % # & # & * % % % # & & % $ ! _ 0X&X&X&X&X&X&X&X&X&X&X&X&X&X&X&X&X&X&X&X&X&X&X&X&X&X&X&X&X&X&X&X&X&X&X&X&X&X&X&X&X&X&X&X&X&X&X&X&X&X&X&X&X&X&X&X&X&X&X&X&X&X&X&X&X&X&X&X&X&X&X&X&X&X&X&X&X&X&X&X&X&X&X&X&X&X&X&X&X&X&X&X&X&X&X&X&X&X&X&X&X&X&X&X&X&X&X&X&X&X&X&X&X&X&X&X&X&X&X&X&X&X&X&X&X&X&X&X&X&X&X&X&X&X&X&X&X&X&X&X&X&X&X&X&X&X&X&X&X&X&X&X&X&X&X&X&X&X&X&X&X&X&X&X&X&X&X&X&X&X&X&X&X&X&X&X&X&X&X&X&X&X&X&X&X&X&X&X&X&X&X&X&X&X&X&X&X&X&X&X&X&X&X&X",
"3 < 2 3 ; 1 < < J : 3 : < 3 ; 3 3 3 > 2 2 3 ; : 3 $.7X) * $ # = # & ! % & # ! $ * * * * % $ = % # $ = _ FX'.'.'.'.'.'.'.'.'.'.'.'.'.'.'.'.'.'.'.'.'.'.'.'.'.'.'.'.'.'.'.'.'.'.'.'.'.'.'.'.'.'.'.'.'.'.'.'.'.'.'.'.'.'.'.'.'.'.'.'.'.'.'.'.'.'.'.'.'.'.'.'.'.'.'.'.'.'.'.'.'.'.'.'.'.'.'.'.'.'.'.'.'.'.'.'.'.'.'.'.'.'.'.'.'.'.'.'.'.'.'.'.'.'.'.'.'.'.'.'.'.'.'.'.'.'.'.'.'.'.'.'.'.'.'.'.'.'.'.'.'.'.'.'.'.'.'.'.'.'.'.'.'.'.'.'.'.'.'.'.'.'.'.'.'.'.'.'.'.'.'.'.'.'.'.'.'.'.'.'.'.'.'.'.'.'.'.'.'.'.'.'.'.'.'.'.'.'.'.'.'.'.'.",
"< - 1 3 : < < < 2 ; 1 : ; 1 - 2 : 3 < 1 2 1 : - 3 $.FX) * + # * % % * * % % * % & * & & # $ * & $ $ * ) .X^.^.^.^.^.^.^.^.^.^.^.^.^.^.^.^.^.^.^.^.^.^.^.^.^.^.^.^.^.^.^.^.^.^.^.^.^.^.^.^.^.^.^.^.^.^.^.^.^.^.^.^.^.^.^.^.^.^.^.^.^.^.^.^.^.^.^.^.^.^.^.^.^.^.^.^.^.^.^.^.^.^.^.^.^.^.^.^.^.^.^.^.^.^.^.^.^.^.^.^.^.^.^.^.^.^.^.^.^.^.^.^.^.^.^.^.^.^.^.^.^.^.^.^.^.^.^.^.^.^.^.^.^.^.^.^.^.^.^.^.^.^.^.^.^.^.^.^.^.^.^.^.^.^.^.^.^.^.^.^.^.^.^.^.^.^.^.^.^.^.^.^.^.^.^.^.^.^.^.^.^.^.^.^.^.^.^.^.^.^.^.^.^.^.^.^.^.^.^.^.^.^.^.",
"< - < 1 : < < 2 3 1 < - : < < > : 1 O < 2 < - - 2 $.<X) & + $ & + % # * & & * & % $ % & $ $ & + $ + * ) {.E.E.E.E.E.E.E.E.E.E.E.E.E.E.E.E.E.E.E.E.E.E.E.E.E.E.E.E.E.E.E.E.E.E.E.E.E.E.E.E.E.E.E.E.E.E.E.E.E.E.E.E.E.E.E.E.E.E.E.E.E.E.E.E.E.E.E.E.E.E.E.E.E.E.E.E.E.E.E.E.E.E.E.E.E.E.E.E.E.E.E.E.E.E.E.E.E.E.E.E.E.E.E.E.E.E.E.E.E.E.E.E.E.E.E.E.E.E.E.E.E.E.E.E.E.E.E.E.E.E.E.E.E.E.E.E.E.E.E.E.E.E.E.E.E.E.E.E.E.E.E.E.E.E.E.E.E.E.E.E.E.E.E.E.E.E.E.E.E.E.E.E.E.E.E.E.E.E.E.E.E.E.E.E.E.E.E.E.E.E.E.E.E.E.E.E.E.E.E.E.E.E.E.",
"; 2 ; - < < ; ; - > < < ; < < < ; 1 > ; : ; : O 1 #.{.) % + + & # # $ # & # + # % & # # & # % % $ + & ) !.S.S.S.S.S.S.S.S.S.S.S.S.S.S.S.S.S.S.S.S.S.S.S.S.S.S.S.S.S.S.S.S.S.S.S.S.S.S.S.S.S.S.S.S.S.S.S.S.S.S.S.S.S.S.S.S.S.S.S.S.S.S.S.S.S.S.S.S.S.S.S.S.S.S.S.S.S.S.S.S.S.S.S.S.S.S.S.S.S.S.S.S.S.S.S.S.S.S.S.S.S.S.S.S.S.S.S.S.S.S.S.S.S.S.S.S.S.S.S.S.S.S.S.S.S.S.S.S.S.S.S.S.S.S.S.S.S.S.S.S.S.S.S.S.S.S.S.S.S.S.S.S.S.S.S.S.S.S.S.S.S.S.S.S.S.S.S.S.S.S.S.S.S.S.S.S.S.S.S.S.S.S.S.S.S.S.S.S.S.S.S.S.S.S.S.S.S.S.S.S.S.S.S.",
"o : ; o O O O O O O O O O O O O O O O O O O O o < { !.) % @ + + + + + + + + + + + + + + + + + + + @ & ) }.v.v.v.v.v.v.v.v.v.v.v.v.v.v.v.v.v.v.v.v.v.v.v.v.v.v.v.v.v.v.v.v.v.v.v.v.v.v.v.v.v.v.v.v.v.v.v.v.v.v.v.v.v.v.v.v.v.v.v.v.v.v.v.v.v.v.v.v.v.v.v.v.v.v.v.v.v.v.v.v.v.v.v.v.v.v.v.v.v.v.v.v.v.v.v.v.v.v.v.v.v.v.v.v.v.v.v.v.v.v.v.v.v.v.v.v.v.v.v.v.v.v.v.v.v.v.v.v.v.v.v.v.v.v.v.v.v.v.v.v.v.v.v.v.v.v.v.v.v.v.v.v.v.v.v.v.v.v.v.v.v.v.v.v.v.v.v.v.v.v.v.v.v.v.v.v.v.v.v.v.v.v.v.v.v.v.v.v.v.v.v.v.v.v.v.v.v.v.v.v.v.v.v.",
"o o o o o o o o o o o o o o o o o o o o o o o o > { }.) # @ @ @ @ @ @ @ @ @ @ @ @ @ @ @ @ @ @ @ @ @ % ) n.k.k.k.k.k.k.k.k.k.k.k.k.k.k.k.k.k.k.k.k.k.k.k.k.k.k.k.k.k.k.k.k.k.k.k.k.k.k.k.k.k.k.k.k.k.k.k.k.k.k.k.k.k.k.k.k.k.k.k.k.k.k.k.k.k.k.k.k.k.k.k.k.k.k.k.k.k.k.k.k.k.k.k.k.k.k.k.k.k.k.k.k.k.k.k.k.k.k.k.k.k.k.k.k.k.k.k.k.k.k.k.k.k.k.k.k.k.k.k.k.k.k.k.k.k.k.k.k.k.k.k.k.k.k.k.k.k.k.k.k.k.k.k.k.k.k.k.k.k.k.k.k.k.k.k.k.k.k.k.k.k.k.k.k.k.k.k.k.k.k.k.k.k.k.k.k.k.k.k.k.k.k.k.k.k.k.k.k.k.k.k.k.k.k.k.k.k.k.k.k.k.k.k.",
"; ; ; ; ; ; ; ; ; ; ; ; ; ; ; ; ; ; ; ; ; ; ; ; < c n.7 % # # # # # # # # # # # # # # # # # # # # # % ) m.s.s.s.s.s.s.s.s.s.s.s.s.s.s.s.s.s.s.s.s.s.s.s.s.s.s.s.s.s.s.s.s.s.s.s.s.s.s.s.s.s.s.s.s.s.s.s.s.s.s.s.s.s.s.s.s.s.s.s.s.s.s.s.s.s.s.s.s.s.s.s.s.s.s.s.s.s.s.s.s.s.s.s.s.s.s.s.s.s.s.s.s.s.s.s.s.s.s.s.s.s.s.s.s.s.s.s.s.s.s.s.s.s.s.s.s.s.s.s.s.s.s.s.s.s.s.s.s.s.s.s.s.s.s.s.s.s.s.s.s.s.s.s.s.s.s.s.s.s.s.s.s.s.s.s.s.s.s.s.s.s.s.s.s.s.s.s.s.s.s.s.s.s.s.s.s.s.s.s.s.s.s.s.s.s.s.s.s.s.s.s.s.s.s.s.s.s.s.s.s.s.s.s.",
"c c c c c c c c c c c c c c c c c c c c c c c c c U s.A z z z z z z z z z z z z z z z z z z z z z z z ) f. .a.a.a.a.a.a.a.a.a.a.a.a.a.a.a.a.a.a.a.a.a.a.a.a.a.a.a.a.a.a.a.a.a.a.a.a.a.a.a.a.a.a.a.a.a.a.a.a.a.a.a.a.a.a.a.a.a.a.a.a.a.a.a.a.a.a.a.a.a.a.a.a.a.a.a.a.a.a.a.a.a.a.a.a.a.a.a.a.a.a.a.a.a.a.a.a.a.a.a.a.a.a.a.a.a.a.a.a.a.a.a.a.a.a.a.a.a.a.a.a.a.a.a.a.a.a.a.a.a.a.a.a.a.a.a.a.a.a.a.a.a.a.a.a.a.a.a.a.a.a.a.a.a.a.a.a.a.a.a.a.a.a.a.a.a.a.a.a.a.a.a.a.a.a.a.a.a.a.a.a.a.a.a.a.a.a.a.a.a.a.a.a.a.a.a.a.a.a.a.a.a.a.",
"Z Z Z Z Z Z Z Z Z Z Z Z Z Z Z Z Z Z Z Z Z Z Z Z Z C C Z T T T T T T T T T T T T T T T T T T T T T T T C C C C C C C C C C C C C C C C C C C C C C C C C C C C C C C C C C C C C C C C C C C C C C C C C C C C C C C C C C C C C C C C C C C C C C C C C C C C C C C C C C C C C C C C C C C C C C C C C C C C C C C C C C C C C C C C C C C C C C C C C C C C C C C C C C C C C C C C C C C C C C C C C C C C C C C C C C C C C C C C C C C C C C C C C C C C C C C C C C C C C C C C C C C C C C C C C C C C C C C C C C C C C ",
"v.v.v.v.v.v.v.v.v.v.v.v.v.v.v.v.v.v.v.v.v.v.v.v.v.v.v.v.v.v.v.v.v.v.v.v.v.v.v.v.v.v.v.v.v.v.v.v.v.v.v.v.v.v.v.v.v.v.v.v.v.v.v.v.v.v.v.v.v.v.v.v.v.v.v.v.v.v.v.v.v.v.v.v.v.v.v.v.v.v.v.v.v.v.v.v.v.v.v.v.v.v.v.v.v.v.v.v.v.v.v.v.v.v.v.v.v.v.v.v.v.v.v.v.v.v.v.v.v.v.v.v.v.v.v.v.v.v.v.v.v.v.v.v.v.v.v.v.v.v.v.v.v.v.v.v.v.v.v.v.v.v.v.v.v.v.v.v.v.v.v.v.v.v.v.v.v.v.v.v.v.v.v.v.v.v.v.v.v.v.v.v.v.v.v.v.v.v.v.v.v.v.v.v.v.v.v.v.v.v.v.v.v.v.v.v.v.v.v.v.v.v.v.v.v.v.v.v.v.v.v.v.v.v.v.v.v.v.v.v.v.v.v.v.v.v.v.v.v.v.v.v.v.v.v.v.",
"6X6X6X6X6X=X6X9X6X6X6X6X6X6X6X6X6X6X6X6X6X6X6X=X6X6X6X6X6X6X6X6X6X6X6X6X6X9X6X6X6X6X6X6X6X6X6X6X6X6X6X6X6X6X6X6X6X6X6X6X6X6X6X6X6X6X6X6X6X6X6X6X6X6X6X6X6X6X6X6X6X6X6X6X6X6X6X6X6X6X6X6X6X6X6X6X6X6X6X6X6X6X6X6X6X6X6X6X6X6X6X6X6X6X6X6X6X6X6X6X6X6X6X6X6X6X6X6X6X6X6X6X6X6X6X6X6X6X6X6X6X6X6X6X6X6X6X6X6X6X6X6X6X6X6X6X6X6X6X6X6X6X6X6X6X6X6X6X6X6X6X6X6X6X6X6X6X6X6X6X6X6X6X6X6X6X6X6X6X6X6X6X6X6X6X6X6X6X6X6X6X6X6X6X6X6X6X6X6X6X6X6X6X6X6X6X6X6X6X6X6X6X6X6X6X6X6X6X6X6X6X6X6X6X6X6X6X6X6X6X6X6X6X6X6X6X6X6X6X6X6X6X6X6X6X6X",
"*X&X&X&X=X6X*X%X&X&X&X&X&X%X&X&X&X%X&X&X&X&X6X6X6X&X&X&X&X&X&X&X&X%X&X&X&X%X&X%X&X&X%X&X&X&X%X%X&X%X&X&X&X%X&X&X&X&X&X&X&X&X&X&X&X&X&X&X&X&X&X&X&X&X&X&X&X&X&X&X&X&X&X&X&X&X&X&X&X&X&X&X&X&X&X&X&X&X&X&X&X&X&X&X&X&X&X&X&X&X&X&X&X&X&X&X&X&X&X&X&X&X&X&X&X&X&X&X&X&X&X&X&X&X&X&X&X&X&X&X&X&X&X&X&X&X&X&X&X&X&X&X&X&X&X&X&X&X&X&X&X&X&X&X&X&X&X&X&X&X&X&X&X&X&X&X&X&X&X&X&X&X&X&X&X&X&X&X&X&X&X&X&X&X&X&X&X&X&X&X&X&X&X&X&X&X&X&X&X&X&X&X&X&X&X&X&X&X&X&X&X&X&X&X&X&X&X&X&X&X&X&X&X&X&X&X&X&X&X&X&X&X&X&X&X&X&X&X&X&X&X&X&X&X&X&X",
"&X6X*X=X~.j./.).*X6X6X=X=X6X6X*X6X9X%X@.=X=XD.j.F.=X6X6X=X=X*X6X*X6XrXF.A.(.&X9X6X=X6X6X&X6X(.(.6X6X=X*X6X6X=X*X*X*X*X*X*X*X*X*X*X*X*X*X*X*X*X*X*X*X*X*X*X*X*X*X*X*X*X*X*X*X*X*X*X*X*X*X*X*X*X*X*X*X*X*X*X*X*X*X*X*X*X*X*X*X*X*X*X*X*X*X*X*X*X*X*X*X*X*X*X*X*X*X*X*X*X*X*X*X*X*X*X*X*X*X*X*X*X*X*X*X*X*X*X*X*X*X*X*X*X*X*X*X*X*X*X*X*X*X*X*X*X*X*X*X*X*X*X*X*X*X*X*X*X*X*X*X*X*X*X*X*X*X*X*X*X*X*X*X*X*X*X*X*X*X*X*X*X*X*X*X*X*X*X*X*X*X*X*X*X*X*X*X*X*X*X*X*X*X*X*X*X*X*X*X*X*X*X*X*X*X*X*X*X*X*X*X*X*X*X*X*X*X*X*X*X*X*X*X*X*X",
"X.+.=X(.{ ~./.).*XF.A.(.(.C.G.=XG.C. X#.=X6X{ D. X XV.G. X).*X~.%XV.).A.N. X/.V.A.(.M.(.j.@./.%X XN.(.&XD.V.%X=X*X*X*X*X*X*X*X*X*X*X*X*X*X*X*X*X*X*X*X*X*X*X*X*X*X*X*X*X*X*X*X*X*X*X*X*X*X*X*X*X*X*X*X*X*X*X*X*X*X*X*X*X*X*X*X*X*X*X*X*X*X*X*X*X*X*X*X*X*X*X*X*X*X*X*X*X*X*X*X*X*X*X*X*X*X*X*X*X*X*X*X*X*X*X*X*X*X*X*X*X*X*X*X*X*X*X*X*X*X*X*X*X*X*X*X*X*X*X*X*X*X*X*X*X*X*X*X*X*X*X*X*X*X*X*X*X*X*X*X*X*X*X*X*X*X*X*X*X*X*X*X*X*X*X*X*X*X*X*X*X*X*X*X*X*X*X*X*X*X*X*X*X*X*X*X*X*X*X*X*X*X*X*X*X*X*X*X*X*X*X*X*X*X*X*X*X*X*X*X*X",
"{ N.=X%X{ A.*XX.F.+.X.N.@.j.#.(./.X.N.@.*X6X#.N.(.@.V.] F.@.*X{ &XA.X.N.Z.@.(.N.{ %XV.@.@.N.N.V.+.N.@.G.{ N.+.6X&X*X*X*X*X*X*X*X*X*X*X*X*X*X*X*X*X*X*X*X*X*X*X*X*X*X*X*X*X*X*X*X*X*X*X*X*X*X*X*X*X*X*X*X*X*X*X*X*X*X*X*X*X*X*X*X*X*X*X*X*X*X*X*X*X*X*X*X*X*X*X*X*X*X*X*X*X*X*X*X*X*X*X*X*X*X*X*X*X*X*X*X*X*X*X*X*X*X*X*X*X*X*X*X*X*X*X*X*X*X*X*X*X*X*X*X*X*X*X*X*X*X*X*X*X*X*X*X*X*X*X*X*X*X*X*X*X*X*X*X*X*X*X*X*X*X*X*X*X*X*X*X*X*X*X*X*X*X*X*X*X*X*X*X*X*X*X*X*X*X*X*X*X*X*X*X*X*X*X*X*X*X*X*X*X*X*X*X*X*X*X*X*X*X*X*X*X*X*X*X",
"@. X6X=X6X@.j.j.+.).(.N.+.*XN.F.C.#.+.@.*X6XX.A./.X.tXj.A.j.6XX.~.+.{ +.A.+.*XM. XG.+.X.+.(.D.j.+.aX@.V.V.*XX.6X&X*X*X*X*X*X*X*X*X*X*X*X*X*X*X*X*X*X*X*X*X*X*X*X*X*X*X*X*X*X*X*X*X*X*X*X*X*X*X*X*X*X*X*X*X*X*X*X*X*X*X*X*X*X*X*X*X*X*X*X*X*X*X*X*X*X*X*X*X*X*X*X*X*X*X*X*X*X*X*X*X*X*X*X*X*X*X*X*X*X*X*X*X*X*X*X*X*X*X*X*X*X*X*X*X*X*X*X*X*X*X*X*X*X*X*X*X*X*X*X*X*X*X*X*X*X*X*X*X*X*X*X*X*X*X*X*X*X*X*X*X*X*X*X*X*X*X*X*X*X*X*X*X*X*X*X*X*X*X*X*X*X*X*X*X*X*X*X*X*X*X*X*X*X*X*X*X*X*X*X*X*X*X*X*X*X*X*X*X*X*X*X*X*X*X*X*X*X*X*X",
"j.+.=X XD.N.j.@.D.@.X.N.@. Xj.j.X.+.+.X.*X6X{ C.(.@.N.] ~.X.j.{ +.@.X.@.V.+.V.U ~.{ +.X.j.j.N.Z.+.j.+.F.j. XX.6X&X*X*X*X*X*X*X*X*X*X*X*X*X*X*X*X*X*X*X*X*X*X*X*X*X*X*X*X*X*X*X*X*X*X*X*X*X*X*X*X*X*X*X*X*X*X*X*X*X*X*X*X*X*X*X*X*X*X*X*X*X*X*X*X*X*X*X*X*X*X*X*X*X*X*X*X*X*X*X*X*X*X*X*X*X*X*X*X*X*X*X*X*X*X*X*X*X*X*X*X*X*X*X*X*X*X*X*X*X*X*X*X*X*X*X*X*X*X*X*X*X*X*X*X*X*X*X*X*X*X*X*X*X*X*X*X*X*X*X*X*X*X*X*X*X*X*X*X*X*X*X*X*X*X*X*X*X*X*X*X*X*X*X*X*X*X*X*X*X*X*X*X*X*X*X*X*X*X*X*X*X*X*X*X*X*X*X*X*X*X*X*X*X*X*X*X*X*X*X*X",
"%XA.&X%XA.A.*X).*X~.@.N. X&X(.%XG.D.(.).*X=X~.M.Q.%XD.{ (.).A./.%XA.).(.(.(.).C.F.(.A./.%XF.~.%X%XV.%X%X(.&X).=X*X*X*X*X*X*X*X*X*X*X*X*X*X*X*X*X*X*X*X*X*X*X*X*X*X*X*X*X*X*X*X*X*X*X*X*X*X*X*X*X*X*X*X*X*X*X*X*X*X*X*X*X*X*X*X*X*X*X*X*X*X*X*X*X*X*X*X*X*X*X*X*X*X*X*X*X*X*X*X*X*X*X*X*X*X*X*X*X*X*X*X*X*X*X*X*X*X*X*X*X*X*X*X*X*X*X*X*X*X*X*X*X*X*X*X*X*X*X*X*X*X*X*X*X*X*X*X*X*X*X*X*X*X*X*X*X*X*X*X*X*X*X*X*X*X*X*X*X*X*X*X*X*X*X*X*X*X*X*X*X*X*X*X*X*X*X*X*X*X*X*X*X*X*X*X*X*X*X*X*X*X*X*X*X*X*X*X*X*X*X*X*X*X*X*X*X*X*X*X*X",
"*X6X*X*X6X6X*X6X(.+.@./.6X*X=X*X6X6X=X=X*X*X6X6X6X*XtXN./.6X6X=X*X6X=X=X=X=X=X6X6X=X6X=X*X6X=X*X*X6X*X*X=X*X=X*X*X*X*X*X*X*X*X*X*X*X*X*X*X*X*X*X*X*X*X*X*X*X*X*X*X*X*X*X*X*X*X*X*X*X*X*X*X*X*X*X*X*X*X*X*X*X*X*X*X*X*X*X*X*X*X*X*X*X*X*X*X*X*X*X*X*X*X*X*X*X*X*X*X*X*X*X*X*X*X*X*X*X*X*X*X*X*X*X*X*X*X*X*X*X*X*X*X*X*X*X*X*X*X*X*X*X*X*X*X*X*X*X*X*X*X*X*X*X*X*X*X*X*X*X*X*X*X*X*X*X*X*X*X*X*X*X*X*X*X*X*X*X*X*X*X*X*X*X*X*X*X*X*X*X*X*X*X*X*X*X*X*X*X*X*X*X*X*X*X*X*X*X*X*X*X*X*X*X*X*X*X*X*X*X*X*X*X*X*X*X*X*X*X*X*X*X*X*X*X*X",
"=X*X=X=X*X*X=X=X=X%X*X6X*X=X=X=X*X*X=X=X=X=X=X*X=X=X*X=X=X=X*X=X=X*X=X=X=X=X=X*X*X=X*X=X=X*X=X=X=X*X=X=X=X=X=X=X=X=X=X=X=X=X=X=X=X=X=X=X=X=X=X=X=X=X=X=X=X=X=X=X=X=X=X=X=X=X=X=X=X=X=X=X=X=X=X=X=X=X=X=X=X=X=X=X=X=X=X=X=X=X=X=X=X=X=X=X=X=X=X=X=X=X=X=X=X=X=X=X=X=X=X=X=X=X=X=X=X=X=X=X=X=X=X=X=X=X=X=X=X=X=X=X=X=X=X=X=X=X=X=X=X=X=X=X=X=X=X=X=X=X=X=X=X=X=X=X=X=X=X=X=X=X=X=X=X=X=X=X=X=X=X=X=X=X=X=X=X=X=X=X=X=X=X=X=X=X=X=X=X=X=X=X=X=X=X=X=X=X=X=X=X=X=X=X=X=X=X=X=X=X=X=X=X=X=X=X=X=X=X=X=X=X=X=X=X=X=X=X=X=X=X=X=X=X=X=X",
"aXaXaXaXaXaXaXaXaXaXaXpXaXaXaXaXaXaXaXaXaXaXaXaXaXaXaXaXaXaXaXaXaXaXaXaXaXaXaXaXaXaXaXaXaXaXaXaXaXaXaXaXaXaXaXaXaXaXaXaXaXaXaXaXaXaXaXaXaXaXaXaXaXaXaXaXaXaXaXaXaXaXaXaXaXaXaXaXaXaXaXaXaXaXaXaXaXaXaXaXaXaXaXaXaXaXaXaXaXaXaXaXaXaXaXaXaXaXaXaXaXaXaXaXaXaXaXaXaXaXaXaXaXaXaXaXaXaXaXaXaXaXaXaXaXaXaXaXaXaXaXaXaXaXaXaXaXaXaXaXaXaXaXaXaXaXaXaXaXaXaXaXaXaXaXaXaXaXaXaXaXaXaXaXaXaXaXaXaXaXaXaXaXaXaXaXaXaXaXaXaXaXaXaXaXaXaXaXaXaXaXaXaXaXaXaXaXaXaXaXaXaXaXaXaXaXaXaXaXaXaXaXaXaXaXaXsXsXsXsXsXsXsXsXsXsXsXsXsXsXsXsXsXsXsXsX",
"aXaXaXaXaXaXaXaXaXaXaXaXaXaXaXaXaXaXaXaXaXaXaXaXaXaXaXaXaXaXaXaXaXaXaXaXaXaXaXaXaXaXaXaXaXaXaXaXaXaXaXaXaXaXaXaXaXaXaXaXaXaXaXaXaXaXaXaXaXaXaXaXaXaXaXaXaXaXaXaXaXaXaXaXaXaXaXaXaXaXaXaXaXaXaXaXaXaXaXaXaXaXaXaXaXaXaXaXaXaXaXaXaXaXaXaXaXaXaXaXaXaXaXaXaXaXaXaXaXaXaXaXaXaXaXaXaXaXaXaXaXaXaXaXaXaXaXaXaXaXaXaXaXaXaXaXaXaXaXaXaXaXaXaXaXaXaXaXaXaXaXaXaXaXaXaXaXaXaXaXaXaXaXaXaXaXaXaXaXaXaXaXaXaXaXaXaXaXaXaXaXaXaXaXaXaXaXaXaXaXaXaXaXaXaXaXaXaXaXaXaXaXaXaXaXaXaXaXaXaXaXaXaXaXaXqXqXqXqXqXqXqXqXqXqXqXqXqXqXqXqXqXqXqXqXqX",
"aXaXaXaXaXaXaXaXaXaXaXaXaXaXaXaXaXaXaXaXaXaXaXaXaXaXaXaXaXaXaXaXaXaXaXaXaXaXaXaXaXaXaXaXaXaXaXaXaXaXaXaXaXaXaXaXaXaXaXaXaXaXaXaXaXaXaXaXaXaXaXaXaXaXaXaXaXaXaXaXaXaXaXaXaXaXaXaXaXaXaXaXaXaXaXaXaXaXaXaXaXaXaXaXaXaXaXaXaXaXaXaXaXaXaXaXaXaXaXaXaXaXaXaXaXaXaXaXaXaXaXaXaXaXaXaXaXaXaXaXaXaXaXaXaXaXaXaXaXaXaXaXaXaXaXaXaXaXaXaXaXaXaXaXaXaXaXaXaXaXaXaXaXaXaXaXaXaXaXaXaXaXaXaXaXaXaXaXaXaXaXaXaXaXaXaXaXaXaXaXaXaXaXaXaXaXaXaXaXaXaXaXaXaXaXaXaXaXaXaXaXaXaXaXaXaXaXaXaXaXaXaXaXyXhX( ^ ^ ^ ^ ^ ^ ^ ^ ^ ^ ^ ^ ^ ^ ^ ^ ^ ^ ^ ^ ",
"aXaXaXaXaXaXaXaXaXaXaXaXaXaXaXaXaXaXaXaXaXaXaXaXaXaXaXaXaXaXaXaXaXaXaXaXaXaXaXaXaXaXaXaXaXaXaXaXaXaXaXaXaXaXaXaXaXaXaXaXaXaXaXaXaXaXaXaXaXaXaXaXaXaXaXaXaXaXaXaXaXaXaXaXaXaXaXaXaXaXaXaXaXaXaXaXaXaXaXaXaXaXaXaXaXaXaXaXaXaXaXaXaXaXaXaXaXaXaXaXaXaXaXaXaXaXaXaXaXaXaXaXaXaXaXaXaXaXaXaXaXaXaXaXaXaXaXaXaXaXaXaXaXaXaXaXaXaXaXaXaXaXaXaXaXaXaXaXaXaXaXaXaXaXaXaXaXaXaXaXaXaXaXaXaXaXaXaXaXaXaXaXaXaXaXaXaXaXaXaXaXaXaXaXaXaXaXaXaXaXaXaXaXaXaXaXaXaXaXaXaXaXaXaXaXaXaXaXaXaXaXaXaXyXhX( * % & & & & & & & & & & & & & & & & & & ",
"aXaXaXaXaXaXaXaXaXaXaXaXaXaXaXaXaXaXaXaXaXaXaXaXaXaXaXaXaXaXaXaXaXaXaXaXaXaXaXaXaXaXaXaXaXaXaXaXaXaXaXaXaXaXaXaXaXaXaXaXaXaXaXaXaXaXaXaXaXaXaXaXaXaXaXaXaXaXaXaXaXaXaXaXaXaXaXaXaXaXaXaXaXaXaXaXaXaXaXaXaXaXaXaXaXaXaXaXaXaXaXaXaXaXaXaXaXaXaXaXaXaXaXaXaXaXaXaXaXaXaXaXaXaXaXaXaXaXaXaXaXaXaXaXaXaXaXaXaXaXaXaXaXaXaXaXaXaXaXaXaXaXaXaXaXaXaXaXaXaXaXaXaXaXaXaXaXaXaXaXaXaXaXaXaXaXaXaXaXaXaXaXaXaXaXaXaXaXaXaXaXaXaXaXaXaXaXaXaXaXaXaXaXaXaXaXaXaXaXaXaXaXaXaXaXaXaXaXaXaXaXaXaXyXhX( * % % # % % % % % % % % % % % % % % # % ",
"aXaXaXaXaXaXaXaXaXaXaXaXaXaXaXaXaXaXaXaXaXaXaXaXaXaXaXaXaXaXaXaXaXaXaXaXaXaXaXaXaXaXaXaXaXaXaXaXaXaXaXaXaXaXaXaXaXaXaXaXaXaXaXaXaXaXaXaXaXaXaXaXaXaXaXaXaXaXaXaXaXaXaXaXaXaXaXaXaXaXaXaXaXaXaXaXaXaXaXaXaXaXaXaXaXaXaXaXaXaXaXaXaXaXaXaXaXaXaXaXaXaXaXaXaXaXaXaXaXaXaXaXaXaXaXaXaXaXaXaXaXaXaXaXaXaXaXaXaXaXaXaXaXaXaXaXaXaXaXaXaXaXaXaXaXaXaXaXaXaXaXaXaXaXaXaXaXaXaXaXaXaXaXaXaXaXaXaXaXaXaXaXaXaXaXaXaXaXaXaXaXaXaXaXaXaXaXaXaXaXaXaXaXaXaXaXaXaXaXaXaXaXaXaXaXaXaXaXaXaXaXaXaXyXhX( * % & = * * & & & & * % = = & * % & = * ",
"aXaXaXaXaXaXaXaXaXaXaXaXaXaXaXaXaXaXaXaXaXaXaXaXaXaXaXaXaXaXaXaXaXaXaXaXaXaXaXaXaXaXaXaXaXaXaXaXaXaXaXaXaXaXaXaXaXaXaXaXaXaXaXaXaXaXaXaXaXaXaXaXaXaXaXaXaXaXaXaXaXaXaXaXaXaXaXaXaXaXaXaXaXaXaXaXaXaXaXaXaXaXaXaXaXaXaXaXaXaXaXaXaXaXaXaXaXaXaXaXaXaXaXaXaXaXaXaXaXaXaXaXaXaXaXaXaXaXaXaXaXaXaXaXaXaXaXaXaXaXaXaXaXaXaXaXaXaXaXaXaXaXaXaXaXaXaXaXaXaXaXaXaXaXaXaXaXaXaXaXaXaXaXaXaXaXaXaXaXaXaXaXaXaXaXaXaXaXaXaXaXaXaXaXaXaXaXaXaXaXaXaXaXaXaXaXaXaXaXaXaXaXaXaXaXaXaXaXaXaXaXaXaXyXhX( * # * Q & Q ! * * = Q % Q = = ! % * Q & ",
"aXaXaXaXaXaXaXaXaXaXaXaXaXaXaXaXaXaXaXaXaXaXaXaXaXaXaXaXaXaXaXaXaXaXaXaXaXaXaXaXaXaXaXaXaXaXaXaXaXaXaXaXaXaXaXaXaXaXaXaXaXaXaXaXaXaXaXaXaXaXaXaXaXaXaXaXaXaXaXaXaXaXaXaXaXaXaXaXaXaXaXaXaXaXaXaXaXaXaXaXaXaXaXaXaXaXaXaXaXaXaXaXaXaXaXaXaXaXaXaXaXaXaXaXaXaXaXaXaXaXaXaXaXaXaXaXaXaXaXaXaXaXaXaXaXaXaXaXaXaXaXaXaXaXaXaXaXaXaXaXaXaXaXaXaXaXaXaXaXaXaXaXaXaXaXaXaXaXaXaXaXaXaXaXaXaXaXaXaXaXaXaXaXaXaXaXaXaXaXaXaXaXaXaXaXaXaXaXaXaXaXaXaXaXaXaXaXaXaXaXaXaXaXaXaXaXaXaXaXaXaXaXaXyXhX( * # * Q * = Q ! * ! ! & Q ! * ! % * Q * ",
"aXaXaXaXaXaXaXaXaXaXaXaXaXaXaXaXaXaXaXaXaXaXaXaXaXaXaXaXaXaXaXaXaXaXaXaXaXaXaXaXaXaXaXaXaXaXaXaXaXaXaXaXaXaXaXaXaXaXaXaXaXaXaXaXaXaXaXaXaXaXaXaXaXaXaXaXaXaXaXaXaXaXaXaXaXaXaXaXaXaXaXaXaXaXaXaXaXaXaXaXaXaXaXaXaXaXaXaXaXaXaXaXaXaXaXaXaXaXaXaXaXaXaXaXaXaXaXaXaXaXaXaXaXaXaXaXaXaXaXaXaXaXaXaXaXaXaXaXaXaXaXaXaXaXaXaXaXaXaXaXaXaXaXaXaXaXaXaXaXaXaXaXaXaXaXaXaXaXaXaXaXaXaXaXaXaXaXaXaXaXaXaXaXaXaXaXaXaXaXaXaXaXaXaXaXaXaXaXaXaXaXaXaXaXaXaXaXaXaXaXaXaXaXaXaXaXaXaXaXaXaXaXaXyXhX( * # * = # ! * ~ = Q Q ! = & ! ! % * = % ",
"aXaXaXaXaXaXaXaXaXaXaXaXaXaXaXaXaXaXaXaXaXaXaXaXaXaXaXaXaXaXaXaXaXaXaXaXaXaXaXaXaXaXaXaXaXaXaXaXaXaXaXaXaXaXaXaXaXaXaXaXaXaXaXaXaXaXaXaXaXaXaXaXaXaXaXaXaXaXaXaXaXaXaXaXaXaXaXaXaXaXaXaXaXaXaXaXaXaXaXaXaXaXaXaXaXaXaXaXaXaXaXaXaXaXaXaXaXaXaXaXaXaXaXaXaXaXaXaXaXaXaXaXaXaXaXaXaXaXaXaXaXaXaXaXaXaXaXaXaXaXaXaXaXaXaXaXaXaXaXaXaXaXaXaXaXaXaXaXaXaXaXaXaXaXaXaXaXaXaXaXaXaXaXaXaXaXaXaXaXaXaXaXaXaXaXaXaXaXaXaXaXaXaXaXaXaXaXaXaXaXaXaXaXaXaXaXaXaXaXaXaXaXaXaXaXaXaXaXaXaXaXaXaXyXhX( * # * Q * = % = ! & & = ! ! * ! ! * Q = ",
"aXaXaXaXaXaXaXaXaXaXaXaXaXaXaXaXaXaXaXaXaXaXaXaXaXaXaXaXaXaXaXaXaXaXaXaXaXaXaXaXaXaXaXaXaXaXaXaXaXaXaXaXaXaXaXaXaXaXaXaXaXaXaXaXaXaXaXaXaXaXaXaXaXaXaXaXaXaXaXaXaXaXaXaXaXaXaXaXaXaXaXaXaXaXaXaXaXaXaXaXaXaXaXaXaXaXaXaXaXaXaXaXaXaXaXaXaXaXaXaXaXaXaXaXaXaXaXaXaXaXaXaXaXaXaXaXaXaXaXaXaXaXaXaXaXaXaXaXaXaXaXaXaXaXaXaXaXaXaXaXaXaXaXaXaXaXaXaXaXaXaXaXaXaXaXaXaXaXaXaXaXaXaXaXaXaXaXaXaXaXaXaXaXaXaXaXaXaXaXaXaXaXaXaXaXaXaXaXaXaXaXaXaXaXaXaXaXaXaXaXaXaXaXaXaXaXaXaXaXaXaXaXaXyXhX( * % % % & % % % % % % % % % % % % % % & ",
"aXaXaXaXaXaXaXaXaXaXaXaXaXaXaXaXaXaXaXaXaXaXaXaXaXaXaXaXaXaXaXaXaXaXaXaXaXaXaXaXaXaXaXaXaXaXaXaXaXaXaXaXaXaXaXaXaXaXaXaXaXaXaXaXaXaXaXaXaXaXaXaXaXaXaXaXaXaXaXaXaXaXaXaXaXaXaXaXaXaXaXaXaXaXaXaXaXaXaXaXaXaXaXaXaXaXaXaXaXaXaXaXaXaXaXaXaXaXaXaXaXaXaXaXaXaXaXaXaXaXaXaXaXaXaXaXaXaXaXaXaXaXaXaXaXaXaXaXaXaXaXaXaXaXaXaXaXaXaXaXaXaXaXaXaXaXaXaXaXaXaXaXaXaXaXaXaXaXaXaXaXaXaXaXaXaXaXaXaXaXaXaXaXaXaXaXaXaXaXaXaXaXaXaXaXaXaXaXaXaXaXaXaXaXaXaXaXaXaXaXaXaXaXaXaXaXaXaXaXaXaXaXaXyXhX( * # % % % % % % % % % % % % % % % % % % ",
"aXaXaXaXaXaXaXaXaXaXaXaXaXaXaXaXaXaXaXaXaXaXaXaXaXaXaXaXaXaXaXaXaXaXaXaXaXaXaXaXaXaXaXaXaXaXaXaXaXaXaXaXaXaXaXaXaXaXaXaXaXaXaXaXaXaXaXaXaXaXaXaXaXaXaXaXaXaXaXaXaXaXaXaXaXaXaXaXaXaXaXaXaXaXaXaXaXaXaXaXaXaXaXaXaXaXaXaXaXaXaXaXaXaXaXaXaXaXaXaXaXaXaXaXaXaXaXaXaXaXaXaXaXaXaXaXaXaXaXaXaXaXaXaXaXaXaXaXaXaXaXaXaXaXaXaXaXaXaXaXaXaXaXaXaXaXaXaXaXaXaXaXaXaXaXaXaXaXaXaXaXaXaXaXaXaXaXaXaXaXaXaXaXaXaXaXaXaXaXaXaXaXaXaXaXaXaXaXaXaXaXaXaXaXaXaXaXaXaXaXaXaXaXaXaXaXaXaXaXaXaXaXaXyXhX( Q Q Q Q Q Q Q Q Q Q Q Q Q Q Q Q Q Q Q Q ",
"aXaXaXaXaXaXaXaXaXaXaXaXaXaXaXaXaXaXaXaXaXaXaXaXaXaXaXaXaXaXaXaXaXaXaXaXaXaXaXaXaXaXaXaXaXaXaXaXaXaXaXaXaXaXaXaXaXaXaXaXaXaXaXaXaXaXaXaXaXaXaXaXaXaXaXaXaXaXaXaXaXaXaXaXaXaXaXaXaXaXaXaXaXaXaXaXaXaXaXaXaXaXaXaXaXaXaXaXaXaXaXaXaXaXaXaXaXaXaXaXaXaXaXaXaXaXaXaXaXaXaXaXaXaXaXaXaXaXaXaXaXaXaXaXaXaXaXaXaXaXaXaXaXaXaXaXaXaXaXaXaXaXaXaXaXaXaXaXaXaXaXaXaXaXaXaXaXaXaXaXaXaXaXaXaXaXaXaXaXaXaXaXaXaXaXaXaXaXaXaXaXaXaXaXaXaXaXaXaXaXaXaXaXaXaXaXaXaXaXaXaXaXaXaXaXaXaXaXaXaXaXaXaXpXaX+XOXOXOXOXOXOXOXOXOXOXOXOXOXOXOXOXOXOXOXOX",
"aXaXaXaXaXaXaXaXaXaXaXaXaXaXaXaXaXaXaXaXaXaXaXaXaXaXaXaXaXaXaXaXaXaXaXaXaXaXaXaXaXaXaXaXaXaXaXaXaXaXaXaXaXaXaXaXaXaXaXaXaXaXaXaXaXaXaXaXaXaXaXaXaXaXaXaXaXaXaXaXaXaXaXaXaXaXaXaXaXaXaXaXaXaXaXaXaXaXaXaXaXaXaXaXaXaXaXaXaXaXaXaXaXaXaXaXaXaXaXaXaXaXaXaXaXaXaXaXaXaXaXaXaXaXaXaXaXaXaXaXaXaXaXaXaXaXaXaXaXaXaXaXaXaXaXaXaXaXaXaXaXaXaXaXaXaXaXaXaXaXaXaXaXaXaXaXaXaXaXaXaXaXaXaXaXaXaXaXaXaXaXaXaXaXaXaXaXaXaXaXaXaXaXaXaXaXaXaXaXaXaXaXaXaXaXaXaXaXaXaXaXaXaXaXaXaXaXaXaXaXaXaXaXaXpXjXbXbXbXbXbXbXbXbXbXbXbXbXbXbXbXbXbXbXbXbX",
"aXaXaXaXaXaXaXaXaXaXaXaXaXaXaXaXaXaXaXaXaXaXaXaXaXaXaXaXaXaXaXaXaXaXaXaXaXaXaXaXaXaXaXaXaXaXaXaXaXaXaXaXaXaXaXaXaXaXaXaXaXaXaXaXaXaXaXaXaXaXaXaXaXaXaXaXaXaXaXaXaXaXaXaXaXaXaXaXaXaXaXaXaXaXaXaXaXaXaXaXaXaXaXaXaXaXaXaXaXaXaXaXaXaXaXaXaXaXaXaXaXaXaXaXaXaXaXaXaXaXaXaXaXaXaXaXaXaXaXaXaXaXaXaXaXaXaXaXaXaXaXaXaXaXaXaXaXaXaXaXaXaXaXaXaXaXaXaXaXaXaXaXaXaXaXaXaXaXaXaXaXaXaXaXaXaXaXaXaXaXaXaXaXaXaXaXaXaXaXaXaXaXaXaXaXaXaXaXaXaXaXaXaXaXaXaXaXaXaXaXaXaXaXaXaXaXaXaXaXaXaXaXaXaXaXpXyXyXyXyXyXyXyXyXyXyXyXyXyXyXyXyXyXyXyXyX",
"zXzXzXzXzXzXzXzXzXzXzXzXzXzXzXzXzXzXzXzXzXzXzXzXzXzXzXzXzXzXzXzXzXzXzXzXzXzXzXzXzXzXzXzXzXzXzXzXzXzXzXzXzXzXzXzXzXzXzXzXzXzXzXzXzXzXzXzXzXzXzXzXzXzXzXzXzXzXzXzXzXzXzXzXzXzXzXzXzXzXzXzXzXzXzXzXzXzXzXzXzXzXzXzXzXzXzXzXzXzXzXzXzXzXzXzXzXzXzXzXzXzXzXzXzXzXzXzXzXzXzXzXzXzXzXzXzXzXzXzXzXzXzXzXzXzXzXzXzXzXzXzXzXzXzXzXzXzXzXzXzXzXzXzXzXzXzXzXzXzXzXzXzXzXzXzXzXzXzXzXzXzXzXzXzXzXzXzXzXzXzXzXzXzXzXzXzXzXzXzXzXzXzXzXzXzXzXzXzXzXzXzXzXzXzXzXzXzXzXzXzXzXzXzXzXzXzXzXzXzXzXzXzXzXzXzXzXzXzXzXzXzXzXzXzXzXzXzXzXzXzXzXzXzXzXzX",
"zXzXzXzXzXzXzXzXzXzXzXzXzXzXzXzXzXzXzXzXzXzXzXzXzXzXzXzXzXzXzXzXzXzXzXzXzXzXzXzXzXzXzXzXzXzXzXzXzXzXzXzXzXzXzXzXzXzXzXzXzXzXzXzXzXzXzXzXzXzXzXzXzXzXzXzXzXzXzXzXzXzXzXzXzXzXzXzXzXzXzXzXzXzXzXzXzXzXzXzXzXzXzXzXzXzXzXzXzXzXzXzXzXzXzXzXzXzXzXzXzXzXzXzXzXzXzXzXzXzXzXzXzXzXzXzXzXzXzXzXzXzXzXzXzXzXzXzXzXzXzXzXzXzXzXzXzXzXzXzXzXzXzXzXzXzXzXzXzXzXzXzXzXzXzXzXzXzXzXzXzXzXzXzXzXzXzXzXzXzXzXzXzXzXzXzXzXzXzXzXzXzXzXzXzXzXzXzXzXzXzXzXzXzXzXzXzXzXzXzXzXzXzXzXzXzXzXzXzXzXzXzXzXzXzXzXzXzXzXzXzXzXzXzXzXzXzXzXzXzXzXzXzXzXzXzX",
"aXaXaXaXaXaXaXaXaXaXaXaXaXaXaXaXaXaXaXaXaXaXaXaXaXaXaXaXaXaXaXsXzXzXaXaXaXaXaXaXaXaXaXaXaXaXaXaXaXaXaXaXaXaXaXaXaXaXaXaXaXaXaXaXaXaXaXaXaXaXaXaXaXaXaXaXaXaXaXaXaXaXaXaXaXaXaXaXaXaXaXaXaXaXaXaXaXaXaXaXaXaXaXaXaXaXaXaXaXaXaXaXaXaXaXaXaXaXaXaXaXaXaXaXaXaXaXaXaXaXaXaXaXaXaXaXaXaXaXaXaXaXaXaXaXaXaXaXaXaXaXaXaXaXaXaXaXaXaXaXaXaXaXaXaXaXaXaXaXaXaXaXaXaXaXaXaXaXaXaXaXaXaXaXaXaXaXaXaXaXaXaXaXaXaXaXaXaXaXaXaXaXaXaXaXaXaXaXaXaXaXaXaXaXaXaXsXzXhXaXaXaXaXaXaXaXaXaXaXaXaXaXaXaXaXaXaXaXaXaXaXaXaXaXaXaXaXaXaXaXaXaXaXaXaXaX",
"pXaXaXaXaXaXaXaXaXaXaXaXaXaXaXaXaXaXpXpXaXaXaXaXaXaXaXaXaXaXpXsXzXcXpXaXaXaXaXaXpXaXpXyXyXpXyXyXaXaXaXaXaXaXaXaXaXaXaXaXaXaXpXaXpXyXaXyXyXpXyXyXyXaXpXaXaXaXaXaXaXaXaXaXaXaXpXyXyXpXyXyXpXyXyXyXaXpXaXaXaXaXaXaXaXaXaXaXaXaXpXyXpXyXyXaXpXyXpXaXaXaXaXaXaXaXaXaXaXaXaXaXaXaXpXyXaXpXaXaXaXaXaXaXaXaXaXaXaXaXaXaXaXaXyXyXpXaXpXyXyXpXpXaXaXaXaXaXaXaXaXaXaXaXaXaXaXaXyXpXaXyXyXyXpXpXaXaXaXaXaXaXaXaXaXaXaXaXaXaXaXpXyXaXyXyXpXpXaXaXaXaXaXaXaXpXsXzXhXpXaXaXaXaXaXaXaXaXpXyXaXpXpXaXpXaXaXaXpXpXaXaXaXaXaXaXaXaXaXpXpXaXaXaXaXaX",
"aXpXaXyXpXpXpXpXpXpXpXaXpXyXpXpXaXyXaXpXpXaXaXaXaXaXaXaXaXaXpXsXzXcXpXaXaXaXaXaXaXpXsXnXzXaXzXhXpXaXaXaXaXaXaXaXaXaXaXaXaXaXaXpXsXsXyXhXzXaXzXzXhXpXaXaXaXaXaXaXaXaXaXaXaXpXaXzXhXaXzXhXsXzXzXhXpXaXaXaXaXaXaXaXaXaXaXaXaXpXaXhXaXzXhXpXaXhXaXaXaXaXaXaXaXaXaXaXaXaXaXaXaXpXsXhXaXsXpXpXaXaXaXaXaXaXaXaXaXaXaXaXaXpXhXzXaXpXaXzXzXaXsXpXpXaXaXaXaXaXaXaXaXaXaXaXaXpXhXaXpXhXzXzXsXaXpXpXaXaXaXaXaXaXaXaXaXaXaXaXpXsXhXyXhXzXaXsXpXpXaXaXaXaXaXpXsXzXhXpXaXaXaXaXaXaXaXaXaXsXpXsXaXtXaXyXyXpXsXyXpXaXaXaXyXpXpXaXpXaXpXpXaXaXaXaX",
"9XaXpXzXsXaXaXsXsXaXsXpXaXzXhXsXaXhXpXsXsXpXaXaXaXaXaXaXaXaXpXsXzXcXpXaXaXaXaXaXpXsX*XM.~.aXF.(.sXpXaXaXaXaXaXaXaXaXaXaXaXaXpXsX%X%XzX/.G.9XZ.Z./.sXpXaXaXaXaXaXaXaXaXaXpXaX9XZ.'.pXZ./.6XV.Z. XsXpXaXaXaXaXaXaXaXaXaXaXpXaXrX(.aXA.(.sXaX(.yXaXaXaXaXaXaXaXaXaXaXaXaXaXpXsX*X%X9XO.zXaXpXaXaXaXaXaXaXaXaXaXaXaXpXaX/.Z.tXaXtXF./.*Xh.nXaXpXaXaXaXaXaXaXaXaXaXaXpXsX X6XsX(.M.D.A.A.nXaXpXaXaXaXaXaXaXaXaXaXaXpXsX*X'.zX'.D.tXO.sXsXpXaXaXaXaXpXsXzXhXpXaXaXaXaXaXaXaXaXtX XsX*X*X'.aXzXhXsXO.sXhXpXaXaXzXhXsXaXhXaXsXsXpXaXaXaX",
"(.hXaXD. X9X6X=X=X6X6XsXtXF.(.=XyX=Xl.| tXaXpXaXaXaXaXaXaXaXpXsXzXcXpXaXaXaXaXaXyXnXo.o.6XA.| } =XsXpXaXaXaXaXaXaXaXaXaXaXpXaXtXv O.9XY o.Z.(.| [ zXyXaXaXaXaXaXaXaXaXaXpXsX(.M.[ Q.A.[ D.(.U h.zXyXaXaXaXaXaXaXaXaXaXaXyXzXO.n A.z.[ =X(.5 tXaXpXaXaXaXaXaXaXaXaXaXaXpXaXaXU ] rX[ yX%XsXpXaXaXaXaXaXaXaXaXaXaXaXyXA.O.z.zX&XZ.| h.z.tX%XsXpXaXaXaXaXaXaXaXaXpXaXtX5 ~.zX XQ.B ] Z.9X=XaXpXaXaXaXaXaXaXaXaXpXaXaXB ] yXY o.l.| tX XaXpXaXaXaXpXsXzXhXpXaXaXaXaXaXaXpXsX%X] AXV.M.6XaX~.~.tXY A.%XsXaXpXD.(.*XpX=XZ.] rXaXpXaXaX",
"(.nXM.o.| j.M.| | j.~.nXo.h.A.| tX[ O.U pXaXpXaXaXaXaXaXaXaXpXsXzXcXpXaXaXaXaXaXyXzXM.B D.o.6XZ.D.zXyXaXaXaXaXaXaXaXaXaXaXaXaXsX~.M.Q.F.=Xo.ZXh.(.hXpXaXaXaXaXaXaXaXaXaXaXpXaXmX[ %XZX| (.NXo.=XsXpXaXaXaXaXaXaXaXaXaXpXhX*XO.j.(.b o.6XM.} rXaXaXaXaXaXaXaXaXaXaXaXaXaXaXaX'.O.rX] O.(.sXpXaXaXaXaXaXaXaXaXaXaXaXyXMX(.o.hXtXNXj.j.| O. XsXpXaXaXaXaXaXaXaXaXpXsXF.[ (.hXhXaXO.Q.} O.6XaXpXaXaXaXaXaXaXaXaXaXaXaX(.h.(.M.tXU | O.~.hXpXaXaXaXpXsXzXhXpXaXaXaXaXaXaXpXsX=Xn /.] l.o.D.| b A.] z.U 9XzXj.o.D.[ aX] j.b tXaXpXaXaX",
"&XMXY zXD.h.o.| | [ tXyXU MX=Xo.sXo.A.~.mXyXaXaXaXaXaXaXaXaXpXsXzXcXpXaXaXaXaXaXaXpXhXzX} n tXZ.F.zXyXaXaXaXaXaXaXaXaXaXaXaXyXzX/.l.~.D.=Xo.tXU aXpXaXaXaXaXaXaXaXaXaXaXaXyXzXZ.Z.VXG.j.MX(.} zXyXaXaXaXaXaXaXaXaXaXaXpXaXU h.U A.z.h.U z.b  XsXpXaXaXaXaXaXaXaXaXaXaXaXpXhX&Xo.aX4 } MXyXaXaXaXaXaXaXaXaXaXaXaXpXsXtX| rXzXzX).j.tX4 O.MXtXaXaXaXaXaXaXaXaXyXzXQ.] } l.nXzXZ.Z.&X, F.mXtXaXaXaXaXaXaXaXaXaXaXpXhX%XO.(.M.tX[ x b nXyXaXaXaXaXpXsXzXhXpXaXaXaXaXaXaXpXsX=Xv Q.U M.z.o.9X~.Z.| zX| %XhXY sXyX} zX| D.D.MXtXaXaXaX",
"O.&Xz.j.[ &XB h.o.b hXsX} M./.Y l.B D.] aXaXpXaXaXaXaXaXaXaXpXsXzXcXpXaXaXaXaXaXpXaX(.D.o.j.O.[ %XsXpXaXaXaXaXaXaXaXaXaXaXaXpXzX~.O.9X[ X.~.M.M.zXyXaXaXaXaXaXaXaXaXaXaXyXhXF.m  XD.m Q.tX| ~.zXyXaXaXaXaXaXaXaXaXaXaXaXyXA.o.x } A.o.| Z.5 (.hXpXaXaXaXaXaXaXaXaXaXaXaXpXhX X} 9XY o.D.zXyXaXaXaXaXaXaXaXaXaXpXaXpXn O.&XZ.~.x ~.Q.} | ~.hXpXaXaXaXaXaXaXaXpXsX XV.m } A.yXB rXQ.| } %XsXpXaXaXaXaXaXaXaXaXaXpXhX X} tX] z.z.} O.M.zXyXaXaXaXpXsXzXhXpXaXaXaXaXaXaXpXhX%X] AXZ.z.o.A.O.] Z.[ pX] %XnXo.z.(.U V.n ~.U yXaXpXaXaX",
"z.A.tXM.~.zX(.=X*X(.sXaX9Xj. X/.M.'.tXV.6XaXpXaXaXaXaXaXaXaXpXsXzXcXpXaXaXaXaXaXpXsX(.h.%XsXV.).sXpXaXaXaXaXaXaXaXaXaXaXaXaXpXsX6X XzX~.Z.sX(.9XaXpXaXaXaXaXaXaXaXaXaXaXpXsX).l.M.D.M.l.%X(.tXaXaXaXaXaXaXaXaXaXaXaXaXaXaXzXhX%XtXl.Q.zXnX%XpXaXaXaXaXaXaXaXaXaXaXaXaXaXaXaXrX'.tX X9X/.sXpXaXaXaXaXaXaXaXaXaXpXaXrXM.l.D.(.(.M.M.~.*X6X(.sXpXaXaXaXaXaXaXaXaXpXsXMX=X6X/.rX/.hX*X=X&X%XsXpXaXaXaXaXaXaXaXaXaXaXaX9X(.zX/.M.tX'.rX).aXpXaXaXaXpXsXzXhXpXaXaXaXaXaXaXaXaXrX(.sX%X%X'.yX~.Y A.%XyX(.rXsXrXl.(.'.M.(.yXZ.*XsXpXaXaX",
"nXzXaXzXzXyXhXsXsXhXpXpXaXnXsXhXzXhXaXzXaXpXaXaXaXaXaXaXaXaXpXsXzXcXpXaXaXaXaXaXaXpXhXnXsXpXzXhXpXaXaXaXaXaXaXaXaXaXaXaXaXaXaXpXaXsXyXzXzXpXhXaXpXaXaXaXaXaXaXaXaXaXaXaXaXpXhXzXzXzXzXzXsXhXaXaXaXaXaXaXaXaXaXaXaXaXaXaXaXyXpXsXaXzXzXyXyXsXaXaXaXaXaXaXaXaXaXaXaXaXaXaXaXpXaXsXaXsXaXhXpXaXaXaXaXaXaXaXaXaXaXaXpXaXzXzXzXhXhXzXzXhXsXaXhXpXaXaXaXaXaXaXaXaXaXaXpXtXsXaXhXaXhXyXsXsXsXsXpXaXaXaXaXaXaXaXaXaXaXaXpXaXhXyXhXzXaXsXaXhXpXaXaXaXaXpXsXzXhXpXaXaXaXaXaXaXaXpXaXhXpXsXsXzX%XO.| *XzXpXhXaXpXaXzXhXsXzXhXaXzXsXpXaXaXaX",
"yXyXpXyXyXaXyXpXpXyXaXaXpXyXpXyXyXpXaXyXpXaXaXaXaXaXaXaXaXaXpXsXzXcXpXaXaXaXaXaXaXaXpXyXpXaXyXyXaXaXaXaXaXaXaXaXaXaXaXaXaXaXaXaXpXpXaXyXyXaXyXpXaXaXaXaXaXaXaXaXaXaXaXaXaXaXyXyXyXyXyXyXpXpXaXaXaXaXaXaXaXaXaXaXaXaXaXaXaXaXaXpXpXyXyXaXaXyXaXaXaXaXaXaXaXaXaXaXaXaXaXaXaXaXpXpXaXpXpXyXaXaXaXaXaXaXaXaXaXaXaXaXaXpXyXyXyXpXpXyXyXyXpXpXpXaXaXaXaXaXaXaXaXaXaXaXaXaXpXpXpXaXyXaXpXpXpXpXaXaXaXaXaXaXaXaXaXaXaXaXaXpXyXaXyXyXpXpXpXyXaXaXaXaXaXpXsXzXhXpXaXaXaXaXaXaXaXaXpXyXaXpXpXpXyX=XtXsXyXaXpXpXaXpXyXpXpXyXyXaXyXpXaXaXaXaX",
"aXaXaXaXaXaXaXaXaXaXaXaXaXaXaXaXaXaXaXaXaXaXaXaXaXaXaXaXaXaXpXsXzXcXpXaXaXaXaXaXaXaXaXaXaXaXaXaXaXaXaXaXaXaXaXaXaXaXaXaXaXaXaXaXaXaXaXaXaXaXaXaXaXaXaXaXaXaXaXaXaXaXaXaXaXaXaXaXaXaXaXaXaXaXaXaXaXaXaXaXaXaXaXaXaXaXaXaXaXaXaXaXaXaXaXaXaXaXaXaXaXaXaXaXaXaXaXaXaXaXaXaXaXaXaXaXaXaXaXaXaXaXaXaXaXaXaXaXaXaXaXaXaXaXaXaXaXaXaXaXaXaXaXaXaXaXaXaXaXaXaXaXaXaXaXaXaXaXaXaXaXaXaXaXaXaXaXaXaXaXaXaXaXaXaXaXaXaXaXaXaXaXaXaXaXaXaXaXaXaXaXaXaXaXaXpXsXzXhXpXaXaXaXaXaXaXaXaXaXaXaXaXaXaXaXsXaXpXaXaXaXaXaXaXaXaXaXaXaXaXaXaXaXaXaXaX",
"aXaXaXaXaXaXaXaXaXaXaXaXaXaXaXaXaXaXaXaXaXaXaXaXaXaXaXaXaXaXpXsXzXcXpXaXaXaXaXaXaXaXaXaXaXaXaXaXaXaXaXaXaXaXaXaXaXaXaXaXaXaXaXaXaXaXaXaXaXaXaXaXaXaXaXaXaXaXaXaXaXaXaXaXaXaXaXaXaXaXaXaXaXaXaXaXaXaXaXaXaXaXaXaXaXaXaXaXaXaXaXaXaXaXaXaXaXaXaXaXaXaXaXaXaXaXaXaXaXaXaXaXaXaXaXaXaXaXaXaXaXaXaXaXaXaXaXaXaXaXaXaXaXaXaXaXaXaXaXaXaXaXaXaXaXaXaXaXaXaXaXaXaXaXaXaXaXaXaXaXaXaXaXaXaXaXaXaXaXaXaXaXaXaXaXaXaXaXaXaXaXaXaXaXaXaXaXaXaXaXaXaXaXaXaXpXsXzXhXpXaXaXaXaXaXaXaXaXaXaXaXaXaXaXaXaXaXaXaXaXaXaXaXaXaXaXaXaXaXaXaXaXaXaXaXaX",
"zXzXzXzXzXzXzXzXzXzXzXzXzXzXzXzXzXzXzXhXhXzXzXzXzXzXzXzXsXpXpXsXzXcXpXaXaXaXaXaXaXaXaXpXyXyXyXpXaXaXaXaXaXaXaXaXaXaXaXaXaXaXaXaXaXaXyXyXyXyXaXaXaXaXaXaXaXaXaXaXaXaXaXaXaXaXaXaXpXyXyXyXyXaXaXaXaXaXaXaXaXaXaXaXaXaXaXaXaXaXaXpXyXyXyXpXaXaXaXaXaXaXaXaXaXaXaXaXaXaXaXaXaXaXpXyXyXyXpXaXaXaXaXaXaXaXaXaXaXaXaXaXaXaXaXaXaXpXyXyXyXpXaXaXaXaXaXaXaXaXaXaXaXaXaXaXaXaXaXaXaXaXaXaXaXaXaXaXaXaXaXaXaXaXaXaXaXaXaXaXaXaXaXyXyXyXyXpXaXaXaXaXaXaXaXpXsXzXhXpXpXaXzXzXzXzXzXzXzXzXzXzXzXzXzXzXzXzXzXzXzXzXzXzXzXzXzXzXzXzXsXzXzXzXzXzX",
"zXzXzXzXzXzXzXzXzXzXzXzXzXzXzXzXzXzXzXhXzXzXzXzXzXzXzXzXsXpXpXsXzXcXpXaXaXaXaXaXaXaXaXcXxXcXxXaXpXaXaXaXaXaXaXaXaXaXaXaXaXaXaXaXaXaXcXcXcXcXaXaXaXaXaXaXaXaXaXaXaXaXaXaXaXaXaXpXaXxXcXxXcXaXaXaXaXaXaXaXaXaXaXaXaXaXaXaXaXaXpXsXxXcXxXgXpXaXaXaXaXaXaXaXaXaXaXaXaXaXaXaXaXpXgXxXcXxXgXpXaXaXaXaXaXaXaXaXaXaXaXaXaXaXaXaXpXgXxXcXxXgXpXaXaXaXaXaXaXaXaXaXaXaXaXaXaXaXaXaXaXaXaXaXaXaXaXaXaXaXaXaXaXaXaXaXaXaXaXaXaXaXaXcXxXcXxXaXpXaXaXaXaXaXaXpXsXzXhXpXpXsXzXzXzXzXzXzXzXzXzXzXzXzXzXzXzXzXzXzXzXzXzXzXzXzXzXzXzXzXsXzXzXzXzXzX",
"zXzXzXzXnXZXNXzXzXMXzXzXzXzXzXzXzXzXzXhXcXzXzXzXcXzXzXzXsXpXpXsXzXcXpXaXaXaXaXaXaXaXpXY.I.I.I.7XaXpXaXaXaXaXaXaXaXaXaXaXaXaXaXaXaXtXI.I.I.I.tXaXpXaXaXaXaXaXaXaXaXaXaXaXaXaXpXaX7XI.I.I.Y.pXaXaXaXaXaXaXaXaXaXaXaXaXaXaXaXpXsX8XI.I.I.`.aXpXaXaXaXaXaXaXaXaXaXaXaXaXaXaXpXgX@XI.I.I.].sXpXaXaXaXaXaXaXaXaXaXaXaXaXaXaXpXsX`.I.I.I.@XsXpXaXaXaXaXaXaXaXaXaXaXaXaXaXaXaXpXcXzXzXzXaXpXaXaXaXaXaXaXaXaXaXaXaXaXaXaXaXaXyXY.I.I.I.wXaXpXaXaXaXaXaXpXsXzXhXpXpXaXzXzXMXmXzXNXNXzXzXzXzXzXzXMXZXMXzXnXmXzXzXzXzXzXzXzXzXzXsXzXzXzXzXzX",
"zXNXsXl.aXV.Q.cXnX*XzXZXmXzXMXZXzXmXnXhXzXzXMX*Xb sXnXzXsXpXpXsXzXcXpXaXaXaXaXaXaXaXpXy 9 e 9 `.gXpXaXaXaXaXaXaXaXaXaXaXaXaXaXpXsX5Xe q q e 5XsXpXaXaXaXaXaXaXaXaXaXaXaXaXaXpXgX`.9 e 9 y pXaXaXaXaXaXaXaXaXaXaXaXaXaXaXaXyXxXI.9 e 9 d gXpXaXaXaXaXaXaXaXaXaXaXaXaXaXaXyXxXq.9 r 9 8.xXyXaXaXaXaXaXaXaXaXaXaXaXaXaXaXyXxX;.9 r 9 0.xXyXaXaXaXaXaXaXaXaXaXaXaXaXaXaXaXpXzXzXzXzXsXpXaXaXaXaXaXaXaXaXaXaXaXaXaXaXpXaXtXt 0 e 9 ].gXpXaXaXaXaXaXpXsXzXhXpXpXsXzXmX*X6XzXG.).nXzXzXAXD. X%XM.&XMXyX6XNXNXzXzXNXNXzXMXzXsXzXzXNX@.N.",
"mX=XZ.O.D.z.Z.M.sXo.sXD.9XNX*X).O.h.zXzXhXnXsXc , #.nXzXsXpXpXsXzXcXpXaXaXaXaXaXaXaXpXd t y r ].gXpXaXaXaXaXaXaXaXaXaXaXaXaXaXpXsX5Xy y y y 5XsXpXaXaXaXaXaXaXaXaXaXaXaXaXaXpXgX].r y t s pXaXaXaXaXaXaXaXaXaXaXaXaXaXaXaXyXxXI.e a r ;.gXpXaXaXaXaXaXaXaXaXaXaXaXaXaXaXyXxX9.e a e 8.xXyXaXaXaXaXaXaXaXaXaXaXaXaXaXaXyXcX8.e a e x.xXyXaXaXaXaXaXaXaXaXaXaXaXaXaXaXaXpXzXzXzXzXsXpXaXaXaXaXaXaXaXaXaXaXaXaXaXaXpXaXtXa t y t @XgXpXaXaXaXaXaXpXsXzXhXpXpXaXnXsXv M.hXF.| /.NXsX X[ (.] (.U yXD.~.9XG.zXzX~.~.U  XnXsXzXMX~.4 4 ",
"9X[ h.| ~.O.j././.D.M.l.| *X] (.] O.zXcXhXnXsX=XrX=XhXzXsXpXpXsXzXcXpXaXaXaXaXaXaXaXpXs r y e ].gXpXaXaXaXaXaXaXaXaXaXaXaXaXaXpXsX5Xy t t y 5XsXpXaXaXaXaXaXaXaXaXaXaXaXaXaXpXgX].e y r s pXaXaXaXaXaXaXaXaXaXaXaXaXaXaXaXyXxXI.q y e M gXpXaXaXaXaXaXaXaXaXaXaXaXaXaXaXyXxX9.q y q 8.xXyXaXaXaXaXaXaXaXaXaXaXaXaXaXaXyXcX7.e y 0 x.xXyXaXaXaXaXaXaXaXaXaXaXaXaXaXaXaXpXzXzXzXzXsXpXaXaXaXaXaXaXaXaXaXaXaXaXaXaXpXaXtXa t y r @XgXpXaXaXaXaXaXpXsXzXhXpXpXaXzXmX).V.NXAXl.~.ZXM.j.b (.| G.} aXh. XX.h.D.D.O./.m %XnXsXzXnXrX9X9X",
"~.A.MXO.~.o.V.F.l.%X} AXl.o.A.AXM.*XZXsXhXnXaXX.{ N.zXzXsXpXpXsXzXcXpXaXaXaXaXaXaXaXpXs r y e ].gXpXaXaXaXaXaXaXaXaXaXaXaXaXaXpXsX5Xy t t y 5XsXpXaXaXaXaXaXaXaXaXaXaXaXaXaXpXgX].e y r s pXaXaXaXaXaXaXaXaXaXaXaXaXaXaXaXyXxXI.q y e M gXpXaXaXaXaXaXaXaXaXaXaXaXaXaXaXyXxX9.q y q 8.xXyXaXaXaXaXaXaXaXaXaXaXaXaXaXaXyXcX7.e y 0 x.xXyXaXaXaXaXaXaXaXaXaXaXaXaXaXaXaXpXxXmXxXmXhXpXaXaXaXaXaXaXaXaXaXaXaXaXaXaXpXaXtXa t y r @XgXpXaXaXaXaXaXpXsXzXhXpXpXsXzXNX(.l.AX Xj.NXnX} MXF./.| D.O.~.A.G.Q.NX[ o.cXZX| ZXzXsXzXMX).{ { ",
"6X} M.} D.h.~.b z.MX| A.X.%X] &Xl.O.nXcXhXzXMXX., Q.MXzXsXpXpXsXzXcXpXaXaXaXaXaXaXaXpXs r y e ].gXpXaXaXaXaXaXaXaXaXaXaXaXaXaXpXsX5Xy t t y 5XsXpXaXaXaXaXaXaXaXaXaXaXaXaXaXpXgX].e y r s pXaXaXaXaXaXaXaXaXaXaXaXaXaXaXaXyXxXI.q y e M gXpXaXaXaXaXaXaXaXaXaXaXaXaXaXaXyXxX9.q y q 8.xXyXaXaXaXaXaXaXaXaXaXaXaXaXaXaXyXcX7.e y 0 x.xXyXaXaXaXaXaXaXaXaXaXaXaXaXaXaXaXaXfXfXfXfXiXaXaXaXaXaXaXaXaXaXaXaXaXaXaXaXpXaXtXa t y r @XgXpXaXaXaXaXaXpXsXzXhXpXpXaXzXNX~.M.yXx ~.rXVXj.Z.b /.] %X| B %X9X} M.A.Z.O.=XU %XmXsXzXnXtX5 6 ",
"mX XD.6XtXM.D.6X6XMXyXZ.6XNX'.A.yXD.aXzXhXzXnXhX~.mXzXzXsXpXpXsXzXcXpXaXaXaXaXaXaXaXpXs r y e ].gXpXaXaXaXaXaXaXaXaXaXaXaXaXaXpXsX5Xy t t y 5XsXpXaXaXaXaXaXaXaXaXaXaXaXaXaXpXgX].e y r s pXaXaXaXaXaXaXaXaXaXaXaXaXaXaXaXyXxXI.q y e M gXpXaXaXaXaXaXaXaXaXaXaXaXaXaXaXyXxX9.q y q 8.xXyXaXaXaXaXaXaXaXaXaXaXaXaXaXaXyXcX7.e y 0 x.xXyXaXaXaXaXaXaXaXaXaXaXaXaXaXaXpXaXe.,.2.5.2XgXpXaXaXaXaXaXaXaXaXaXaXaXaXaXpXaXtXa t y r @XgXpXaXaXaXaXaXpXsXzXhXpXpXsXzXnXtX9X9XZ.Z.*XMXsXD.~.aX(.l. X6XaXMX'.F.zXcXA.%X*X/.mXsXzXzXNX%X*X",
"zXMXNXmXnXZXNXmXmXzXnXZXmXzXMXVXnXNXnXhXcXzXzXzXmXzXzXzXsXpXpXsXzXcXpXaXaXaXaXaXaXaXpXs r y e ].gXpXaXaXaXaXaXaXaXaXaXaXaXaXaXpXsX5Xy t t y 5XsXpXaXaXaXaXaXaXaXaXaXaXaXaXaXpXgX].e y r s pXaXaXaXaXaXaXaXaXaXaXaXaXaXaXaXyXxXI.q y e M gXpXaXaXaXaXaXaXaXaXaXaXaXaXaXaXyXxX9.q y q 8.xXyXaXaXaXaXaXaXaXaXaXaXaXaXaXaXyXcX7.e y 0 x.xXyXaXaXaXaXaXaXaXaXaXaXaXaXaXaXpXaXt.<.3.<.2XgXpXaXaXaXaXaXaXaXaXaXaXaXaXaXpXaXtXa t y r @XgXpXaXaXaXaXaXpXsXzXhXpXpXaXzXzXnXmXnXZXZXMXzXzXNXNXzXMXZXMXmXzXzXMXNXzXzXVXMXMXNXzXsXzXzXzXnXnX",
"zXzXzXzXzXzXzXzXzXzXzXzXzXzXzXzXzXzXzXzXzXzXzXzXzXzXzXzXhXpXpXsXzXcXpXaXaXaXaXaXaXaXpXs r y e ].gXpXaXaXaXaXaXaXaXaXaXaXaXaXaXpXsX5Xy t t y 5XsXpXaXaXaXaXaXaXaXaXaXaXaXaXaXpXgX].e y r s pXaXaXaXaXaXaXaXaXaXaXaXaXaXaXaXyXxXI.q y e M gXpXaXaXaXaXaXaXaXaXaXaXaXaXaXaXyXxX9.q y q 8.xXyXaXaXaXaXaXaXaXaXaXaXaXaXaXaXyXcX7.e y 0 x.xXyXaXaXaXaXaXaXaXaXaXaXaXaXaXaXpXaXt.<.3.,.2XgXpXaXaXaXaXaXaXaXaXaXaXaXaXaXpXaXtXa t y r @XgXpXaXaXaXaXaXpXsXzXhXpXpXsXzXzXzXzXzXzXzXzXzXzXzXzXzXzXzXzXzXzXzXzXzXzXzXzXzXzXzXzXsXzXzXzXzXzX",
"sXsXsXsXsXsXsXsXsXsXsXsXsXsXsXsXsXsXsXsXsXsXsXsXsXsXsXsXaXaXpXsXzXcXpXaXaXaXaXaXaXaXpXs r y e ].gXpXaXaXaXaXaXaXaXaXaXaXaXaXaXpXsX5Xy t t y 5XsXpXaXaXaXaXaXaXaXaXaXaXaXaXaXpXgX].e y r s pXaXaXaXaXaXaXaXaXaXaXaXaXaXaXaXyXxXI.q y e M gXpXaXaXaXaXaXaXaXaXaXaXaXaXaXaXyXxX9.q y q 8.xXyXaXaXaXaXaXaXaXaXaXaXaXaXaXaXyXcX7.e y 0 x.xXyXaXaXaXaXaXaXaXaXaXaXaXaXaXaXpXaXt.<.3.,.2XgXpXaXaXaXaXaXaXaXaXaXaXaXaXaXpXaXtXa t y r @XgXpXaXaXaXaXaXpXsXzXhXpXaXaXsXsXsXsXsXsXsXsXsXsXsXsXsXsXsXsXsXsXsXsXsXsXsXsXsXsXsXsXaXsXsXsXsXsX",
"pXpXpXpXpXpXpXpXpXpXpXpXpXpXpXpXpXpXpXpXpXpXpXpXpXpXpXpXpXaXpXsXzXcXpXaXaXaXaXaXaXaXpXs r y e ].gXpXaXaXaXaXaXaXaXaXaXaXaXaXaXpXsX5Xy t t y 5XsXpXaXaXaXaXaXaXaXaXaXaXaXaXaXpXgX].e y r s pXaXaXaXaXaXaXaXaXaXaXaXaXaXaXaXyXxXI.q y e M gXpXaXaXaXaXaXaXaXaXaXaXaXaXaXaXyXxX9.q y q 8.xXyXaXaXaXaXaXaXaXaXaXaXaXaXaXaXyXcX7.e y 0 x.xXyXaXaXaXaXaXaXaXaXaXaXaXaXaXaXpXaXt.<.3.,.2XgXpXaXaXaXaXaXaXaXaXaXaXaXaXaXpXaXtXa t y r @XgXpXaXaXaXaXaXpXsXzXhXpXaXaXpXpXpXpXpXpXpXpXpXpXpXpXpXpXpXpXpXpXpXpXpXpXpXpXpXpXpXpXpXpXpXpXpXpX",
"aXaXaXaXaXaXaXaXaXaXaXaXaXaXaXaXaXaXaXaXaXaXaXaXaXaXaXaXaXaXpXsXzXcXpXaXaXaXaXaXaXaXpXs r y e ].gXpXaXaXaXaXaXaXaXaXaXaXaXaXaXpXsX5Xy t t y 5XsXpXaXaXaXaXaXaXaXaXaXaXaXaXaXpXgX].e y r s pXaXaXaXaXaXaXaXaXaXaXaXaXaXaXaXyXxXI.q y e M gXpXaXaXaXaXaXaXaXaXaXaXaXaXaXaXyXxX9.q y q 8.xXyXaXaXaXaXaXaXaXaXaXaXaXaXaXaXyXcX7.e y 0 x.xXyXaXaXaXaXaXaXaXaXaXaXaXaXaXaXpXaXt.<.3.,.2XgXpXaXaXaXaXaXaXaXaXaXaXaXaXaXpXaXtXa t y r @XgXpXaXaXaXaXaXpXsXzXhXpXaXaXaXaXaXaXyXyXyXaXaXaXaXaXaXaXaXaXaXaXaXaXaXaXaXaXaXaXaXaXaXaXaXaXaXaX",
"yXaXyXpXaXyXyXpXpXaXyXaXyXyXaXyXyXpXaXyXyXpXaXyXaXaXaXaXaXaXpXsXzXcXpXaXaXaXaXaXaXaXpXs r y e ].gXpXaXaXaXaXaXaXaXaXaXaXaXaXaXpXsX5Xy t t y 5XsXpXaXaXaXaXaXaXaXaXaXaXaXaXaXpXgX].e y r s pXaXaXaXaXaXaXaXaXaXaXaXaXaXaXaXyXxXI.q y e M gXpXaXaXaXaXaXaXaXaXaXaXaXaXaXaXyXxX9.q y q 8.xXyXaXaXaXaXaXaXaXaXaXaXaXaXaXaXyXcX7.e y 0 x.xXyXaXaXaXaXaXaXaXaXaXaXaXaXaXaXpXaXt.<.3.,.2XgXpXaXaXaXaXaXaXaXaXaXaXaXaXaXpXaXtXa t y r @XgXpXaXaXaXaXaXpXsXzXhXpXaXaXaXaXaXpXhXnXzXpXyXpXpXyXaXpXyXpXpXpXpXpXaXyXpXpXyXyXaXpXyXyXaXpXpXaX",
"hXaXzXsXpXzXzXaXsXaXhXaXhXzXaXzXzXsXpXzXzXsXaXhXaXaXaXaXaXaXpXsXzXcXpXaXaXaXaXaXaXaXpXs r y e ].gXpXaXaXaXaXaXaXaXaXaXaXaXaXaXpXsX5Xy t t y 5XsXpXaXaXaXaXaXaXaXaXaXaXaXaXaXpXgX].e y r s pXaXaXaXaXaXaXaXaXaXaXaXaXaXaXaXyXxXI.q y e M gXpXaXaXaXaXaXaXaXaXaXaXaXaXaXaXyXxX9.q y q 8.xXyXaXaXaXaXaXaXaXaXaXaXaXaXaXaXyXcX7.e y 0 x.xXyXaXaXaXaXaXaXaXaXaXaXaXaXaXaXpXaXt.<.3.,.2XgXpXaXaXaXaXaXaXaXaXaXaXaXaXaXpXaXtXa t y r @XgXpXaXaXaXaXaXpXsXzXhXpXaXaXaXaXpXsX).O.D.sXzXsXsXzXaXsXzXhXsXsXaXsXaXzXsXaXzXzXpXsXzXzXaXsXsXpX",
").tXZ.%XsXA.G.6X XaX(.aX).D.pX~.Z.=XsXD.M.=XyX(.pXaXaXaXaXaXpXsXzXcXpXaXaXaXaXaXaXaXpXs r y e ].gXpXaXaXaXaXaXaXaXaXaXaXaXaXaXpXsX5Xy t t y 5XsXpXaXaXaXaXaXaXaXaXaXaXaXaXaXpXgX].e y r s pXaXaXaXaXaXaXaXaXaXaXaXaXaXaXaXyXxXI.q y e M gXpXaXaXaXaXaXaXaXaXaXaXaXaXaXaXyXxX9.q y q 8.xXyXaXaXaXaXaXaXaXaXaXaXaXaXaXaXyXcX7.e y 0 x.xXyXaXaXaXaXaXaXaXaXaXaXaXaXaXaXpXaXt.<.3.,.2XgXpXaXaXaXaXaXaXaXaXaXaXaXaXaXpXaXtXa t y r @XgXpXaXaXaXaXaXpXsXzXhXpXaXaXaXaXyXzXY F.6X&XD.=X%XV.aX&XZ.'.=X*XrX XpXM.*X6XF.D.sX=XM.D.aX*X*XsX",
"=Xh.o.| o.j.b Z.[ aX] G.} X.O.n M.o.D.X.Z.| (.[ zXyXaXaXaXaXpXsXzXcXpXaXaXaXaXaXaXaXpXs r y e ].gXpXaXaXaXaXaXaXaXaXaXaXaXaXaXpXsX5Xy t t y 5XsXpXaXaXaXaXaXaXaXaXaXaXaXaXaXpXgX].e y r s pXaXaXaXaXaXaXaXaXaXaXaXaXaXaXaXyXxXI.q y e M gXpXaXaXaXaXaXaXaXaXaXaXaXaXaXaXyXxX9.q y q 8.xXyXaXaXaXaXaXaXaXaXaXaXaXaXaXaXyXcX7.e y 0 x.xXyXaXaXaXaXaXaXaXaXaXaXaXaXaXaXpXaXt.<.3.,.2XgXpXaXaXaXaXaXaXaXaXaXaXaXaXaXpXaXtXa t y r @XgXpXaXaXaXaXaXpXsXzXhXpXaXaXaXaXyXzX[ z.6X] | *X] o.o.} M.n A.M.%X| M.X.o.] | } Q.} D.] /.O.~.hX",
"VXn | o.b aXD.V.X.zXo.z.n h.o.h.hX} | *XZXo.[ ).zXyXaXaXaXaXpXsXzXcXpXaXaXaXaXaXaXaXpXs t y r ].gXpXaXaXaXaXaXaXaXaXaXaXaXaXaXpXsX5Xy y y y 5XsXpXaXaXaXaXaXaXaXaXaXaXaXaXaXpXgX].e y r s pXaXaXaXaXaXaXaXaXaXaXaXaXaXaXaXyXxXI.e y r ;.gXpXaXaXaXaXaXaXaXaXaXaXaXaXaXaXyXxX9.q y q 8.xXyXaXaXaXaXaXaXaXaXaXaXaXaXaXaXyXcX8.e a q x.xXyXaXaXaXaXaXaXaXaXaXaXaXaXaXaXpXaXt.<.3.,.2XgXpXaXaXaXaXaXaXaXaXaXaXaXaXaXpXaXtXa t y r @XgXpXaXaXaXaXaXpXsXzXhXpXaXaXaXaXyXzX[ O.=X| 6X%Xx l.Y o.NX| Z.F.6Xo.U | z.] =X~.X.o.AX&X[ o.yXaX",
"NXh.o.%Xl.O.B D.| l.m /.] ).).} yX] A.] %X~.l aXaXaXaXaXaXaXpXsXzXcXpXaXaXaXaXaXaXaXpXa q r 0 `.gXpXaXaXaXaXaXaXaXaXaXaXaXaXaXpXsX5Xr e e r 5XsXpXaXaXaXaXaXaXaXaXaXaXaXaXaXpXgX].e y r s pXaXaXaXaXaXaXaXaXaXaXaXaXaXaXaXyXxXI.9 t 9 M gXpXaXaXaXaXaXaXaXaXaXaXaXaXaXaXyXxX9.q y q 8.xXyXaXaXaXaXaXaXaXaXaXaXaXaXaXaXyXxX;.9 t 9 0.xXyXaXaXaXaXaXaXaXaXaXaXaXaXaXaXpXaXt.<.3.,.2XgXpXaXaXaXaXaXaXaXaXaXaXaXaXaXpXaXtXy e r 0 @XgXpXaXaXaXaXaXpXsXzXhXpXaXaXaXaXyXzX] =XVX] %XtXY F.%X] l.b /.] } o.Z.o.=X|  XZ.M.| l.rXb O.zXyX",
"sXyXA.Q.tX).] D.rXA.(.aX(.Z.*X&XpX XaXF.'./.| zXyXaXaXaXaXaXpXsXzXcXpXaXaXaXaXaXaXaXpX;.M M d @XgXpXaXaXaXaXaXaXaXaXaXaXaXaXaXpXaX7XM M M M 7XaXpXaXaXaXaXaXaXaXaXaXaXaXaXaXpXgX].e y r s pXaXaXaXaXaXaXaXaXaXaXaXaXaXaXaXpXgXW.d ;.d 8.gXpXaXaXaXaXaXaXaXaXaXaXaXaXaXaXyXxX9.q y q 8.xXyXaXaXaXaXaXaXaXaXaXaXaXaXaXaXpXgX9.d ;.d I.cXyXaXaXaXaXaXaXaXaXaXaXaXaXaXaXpXaXt.<.3.,.2XgXpXaXaXaXaXaXaXaXaXaXaXaXaXaXpXaXtX;.M M d 3XgXpXaXaXaXaXaXpXsXzXhXpXaXaXaXaXpXaX%X9XsX%XrXhX&XM.=X=XF.b pX~.D.=XaXZ.~.%XrX=X6X6XM.tX} (.hXpX",
"pXaXzXzXyXNXD.D.nXzXhXpXhXzXsXsXaXsXpXnXrXU *XsXpXaXaXaXaXaXpXsXzXcXpXaXaXaXaXaXaXaXaXmXMXmXMXsXpXaXaXaXaXaXaXaXaXaXaXaXaXaXaXaXpXaXmXmXmXmXaXpXaXaXaXaXaXaXaXaXaXaXaXaXaXaXpXgX].e y r s pXaXaXaXaXaXaXaXaXaXaXaXaXaXaXaXaXpXhXMXmXMXxXpXaXaXaXaXaXaXaXaXaXaXaXaXaXaXaXyXxX9.q y q 8.xXyXaXaXaXaXaXaXaXaXaXaXaXaXaXaXaXpXzXMXmXMXcXpXaXaXaXaXaXaXaXaXaXaXaXaXaXaXaXpXaXt.<.3.,.2XgXpXaXaXaXaXaXaXaXaXaXaXaXaXaXaXaXaXmXmXmXMXaXpXaXaXaXaXaXaXpXsXzXhXpXaXaXaXaXaXpXsXaXpXsXaXyXsXnXsXsXzXo.tXzXzXsXaXzXzXsXaXsXaXaXMXZ.o.sXpXaX",
"aXaXyXyXaXyXaXaXpXyXyXaXyXyXpXpXaXpXaXyXtXpXaXpXaXaXaXaXaXaXpXsXzXcXpXaXaXaXaXaXaXaXaXzXzXzXzXaXpXaXaXaXaXaXaXaXaXaXaXaXaXaXaXaXaXaXzXzXzXzXaXaXaXaXaXaXaXaXaXaXaXaXaXaXaXaXpXgX].e y r s pXaXaXaXaXaXaXaXaXaXaXaXaXaXaXaXaXpXsXzXzXzXzXpXaXaXaXaXaXaXaXaXaXaXaXaXaXaXaXyXxX9.q y q 8.xXyXaXaXaXaXaXaXaXaXaXaXaXaXaXaXaXpXhXzXzXzXsXpXaXaXaXaXaXaXaXaXaXaXaXaXaXaXaXpXaXt.<.3.,.2XgXpXaXaXaXaXaXaXaXaXaXaXaXaXaXaXaXaXzXzXzXzXaXpXaXaXaXaXaXaXpXsXzXhXpXaXaXaXaXaXaXpXpXaXpXpXaXpXyXpXpXyXaXaXyXyXpXaXyXyXpXpXpXpXpXyXtXaXaXaXaX",
"aXaXaXaXaXaXaXaXaXaXaXaXaXaXaXaXaXaXaXaXaXaXpXaXaXaXaXaXaXaXpXsXzXcXpXaXaXaXaXaXaXaXaXzXzXzXzXaXpXaXaXaXaXaXaXaXaXaXaXaXaXaXaXaXaXaXzXzXzXzXaXaXaXaXaXaXaXaXaXaXaXaXaXaXaXaXpXgX].e y r s pXaXaXaXaXaXaXaXaXaXaXaXaXaXaXaXaXpXsXzXzXzXzXpXaXaXaXaXaXaXaXaXaXaXaXaXaXaXaXyXxX9.q y q 8.xXyXaXaXaXaXaXaXaXaXaXaXaXaXaXaXaXpXhXzXzXzXsXpXaXaXaXaXaXaXaXaXaXaXaXaXaXaXaXpXaXt.<.3.,.2XgXpXaXaXaXaXaXaXaXaXaXaXaXaXaXaXaXaXzXzXzXzXaXpXaXaXaXaXaXaXpXsXzXhXpXaXaXaXaXaXaXaXaXaXaXaXaXaXaXaXaXaXpXaXaXaXaXaXaXaXaXaXaXaXaXaXaXpXaXaXaX",
"aXaXaXaXaXaXaXaXaXpXaXaXaXaXaXaXaXaXaXaXaXaXaXaXaXaXaXaXaXaXpXsXzXcXpXaXaXaXaXaXaXaXaXzXzXzXzXaXpXaXaXaXaXaXaXaXaXaXaXaXaXaXaXaXaXaXzXzXzXzXaXaXaXaXaXaXaXaXaXaXaXaXaXaXaXaXpXgX].e y r s pXaXaXaXaXaXaXaXaXaXaXaXaXaXaXaXaXpXsXzXzXzXsXpXaXaXaXaXaXaXaXaXaXaXaXaXaXaXaXyXxX9.q y q 8.xXyXaXaXaXaXaXaXaXaXaXaXaXaXaXaXaXpXsXzXzXzXsXpXaXaXaXaXaXaXaXaXaXaXaXaXaXaXaXpXaXt.<.3.,.2XgXpXaXaXaXaXaXaXaXaXaXaXaXaXaXaXaXaXzXzXzXzXaXpXaXaXaXaXaXaXpXsXzXhXpXaXaXaXaXaXaXaXaXaXaXaXaXaXaXaXaXaXaXaXaXaXaXaXaXaXaXaXaXaXaXaXaXaXaXaXaX",
"aXaXaXaXaXpXpXaXaXaXaXpXpXaXaXaXaXaXaXaXaXaXaXaXaXaXaXaXaXaXpXsXzXcXpXaXaXaXaXaXaXaXaXvXCXCXCXgXpXaXaXaXaXaXaXaXaXaXaXaXaXaXaXaXpXaXCXCXCXCXaXpXaXaXaXaXaXaXaXaXaXaXaXaXaXaXpXgX].e y r s pXaXaXaXaXaXaXaXaXaXaXaXaXaXaXaXaXpXgXCXCXCXxXpXaXaXaXaXaXaXaXaXaXaXaXaXaXaXaXyXxX9.q y q 8.xXyXaXaXaXaXaXaXaXaXaXaXaXaXaXaXaXpXxXCXCXCXcXpXaXaXaXaXaXaXaXaXaXaXaXaXaXaXaXpXaXt.<.3.,.2XgXpXaXaXaXaXaXaXaXaXaXaXaXaXaXaXaXaXCXCXCXCXsXpXaXaXaXaXaXaXpXsXzXhXpXaXaXaXaXaXaXaXaXaXaXaXaXaXaXaXaXpXpXaXaXaXaXpXpXaXaXaXaXaXaXaXaXaXaXaXaX",
"aXaXaXaXpXaXcXaXpXyXpXgXgXaXpXaXaXaXaXaXaXaXaXaXaXaXaXaXaXaXpXsXzXcXpXaXaXaXaXaXaXaXpX1X,X>X,XwXaXpXaXaXaXaXaXaXaXaXaXaXaXaXaXaXaXiX,X,X,X,XiXaXaXaXaXaXaXaXaXaXaXaXaXaXaXaXpXgX].e y r s pXaXaXaXaXaXaXaXaXaXaXaXaXaXaXaXpXaX3X,X>X,X2XaXpXaXaXaXaXaXaXaXaXaXaXaXaXaXaXyXxX9.q y q 8.xXyXaXaXaXaXaXaXaXaXaXaXaXaXaXaXpXaX2X,X1X,X3XgXpXaXaXaXaXaXaXaXaXaXaXaXaXaXaXpXaXt.<.3.,.2XgXpXaXaXaXaXaXaXaXaXaXaXaXaXaXaXaXpX1X,X>X,XwXaXpXaXaXaXaXaXpXsXzXhXpXaXaXaXaXaXaXaXaXaXaXaXaXaXaXpXpXgXgXaXpXpXaXgXaXpXpXaXaXaXaXaXaXaXaXaXaX",
"aXaXpXaXcX5Xx.;.d d d q.`.aXgXpXaXaXaXaXaXaXaXaXaXaXaXaXaXaXpXsXzXcXpXaXaXaXaXaXaXaXpX3.5.,.5.3XgXpXaXaXaXaXaXaXaXaXaXaXaXaXaXpXaXwX,.,.,.,.wXaXpXaXaXaXaXaXaXaXaXaXaXaXaXaXpXgX].e y r s pXaXaXaXaXaXaXaXaXaXaXaXaXaXaXaXpXjX>X>.<.5.e.gXpXaXaXaXaXaXaXaXaXaXaXaXaXaXaXyXxX9.q y q 8.xXyXaXaXaXaXaXaXaXaXaXaXaXaXaXaXpXjXt.5.<.>.U.jXiXaXaXaXaXaXaXaXaXaXaXaXaXaXaXpXaXt.<.3.,.2XgXpXaXaXaXaXaXaXaXaXaXaXaXaXaXaXaXtX2.5.,.5.3XgXpXaXaXaXaXaXpXsXzXhXpXaXaXaXaXaXaXaXaXaXaXaXaXaXpXaXgX2Xu.t.e.e.t.U.eXgXaXpXaXaXaXaXaXaXaXaXaX",
"aXpXaXpXx.s 9 9 e e e 9 e M ].gXpXaXaXaXaXaXaXaXaXaXaXaXaXaXpXsXzXcXpXaXaXaXaXaXaXaXpXe.2.3.<.3XgXpXaXaXaXaXaXaXaXaXaXaXaXaXaXpXaXwX3.2.3.3.wXaXpXaXaXaXaXaXaXaXaXaXaXaXaXaXpXgX].e y r s pXaXaXaXaXaXaXaXaXaXaXaXaXaXaXaXpXjX2X<.3.<.t.gXpXaXaXaXaXaXaXaXaXaXaXaXaXaXaXyXxX9.q y q 8.xXyXaXaXaXaXaXaXaXaXaXaXaXaXaXaXpXgXu.<.3.<.U.jXpXaXaXaXaXaXaXaXaXaXaXaXaXaXaXpXaXt.<.3.,.2XgXpXaXaXaXaXaXaXaXaXaXaXaXaXaXaXaXiXw.2.3.2.3XgXpXaXaXaXaXaXpXsXzXhXpXaXaXaXaXaXaXaXaXaXaXaXaXpXgXeXu.<.5.,.<.<.,.5.2.u.iXaXpXaXaXaXaXaXaXaXaX",
"pXaXiXu.p w ;.I.3X3X3Xx.d 9 t I.gXpXaXaXaXaXaXaXaXaXaXaXaXaXpXsXzXcXpXaXaXaXaXaXaXaXpXw.2.2.<.3XgXpXaXaXaXaXaXaXaXaXaXaXaXaXaXpXaXwX2.2.2.2.wXaXpXaXaXaXaXaXaXaXaXaXaXaXaXaXpXgX].e y r s pXaXaXaXaXaXaXaXaXaXaXaXaXaXaXaXpXjX>X,.3.<.t.gXpXaXaXaXaXaXaXaXaXaXaXaXaXaXaXyXxX9.q y q 8.xXyXaXaXaXaXaXaXaXaXaXaXaXaXaXaXpXjXu.<.3.,.U.jXpXaXaXaXaXaXaXaXaXaXaXaXaXaXaXpXaXt.<.3.,.2XgXpXaXaXaXaXaXaXaXaXaXaXaXaXaXaXaXtX3.2.2.<.3XgXpXaXaXaXaXaXpXsXzXhXpXaXaXaXaXaXaXaXaXaXaXaXpXgX3X3.5.3.u.2XfXfX2Xu.2.5.t.fXaXpXaXaXaXaXaXaXaX",
"pXaXu.,.4.Y.NXVXmXMXMXCXdXq.e r `.gXyXaXaXaXaXaXaXaXaXaXaXaXpXsXzXcXpXaXaXaXaXaXaXaXpXw.2.2.<.3XgXpXaXaXaXaXaXaXaXaXaXaXaXaXaXpXaXwX2.2.2.2.wXaXpXaXaXaXaXaXaXaXaXaXaXaXaXaXpXgX].e y r s pXaXaXaXaXaXaXaXaXaXaXaXaXaXaXaXpXjX>X,.3.<.t.gXpXaXaXaXaXaXaXaXaXaXaXaXaXaXaXyXxX9.q y q 8.xXyXaXaXaXaXaXaXaXaXaXaXaXaXaXaXpXjXu.<.3.,.U.jXpXaXaXaXaXaXaXaXaXaXaXaXaXaXaXpXaXt.<.3.,.2XgXpXaXaXaXaXaXaXaXaXaXaXaXaXaXaXaXtX3.2.2.<.3XgXpXaXaXaXaXaXpXsXzXhXpXaXaXaXaXaXaXaXaXaXaXpXgX3X3.,.t.fXmXmXxXxXxXxX4Xe.1.7.tXaXpXaXaXaXaXaXaX",
"gX2X<.3.4XxXC.tXnXzXzXzXzXMX9.0 s 7XaXpXaXaXaXaXaXaXaXaXaXaXpXsXzXcXpXaXaXaXaXaXaXaXpXw.2.2.<.3XgXpXaXaXaXaXaXaXaXaXaXaXaXaXaXpXaXwX2.2.2.2.wXaXpXaXaXaXaXaXaXaXaXaXaXaXaXaXpXgX].e y r s pXaXaXaXaXaXaXaXaXaXaXaXaXaXaXaXpXjX>X,.3.<.t.gXpXaXaXaXaXaXaXaXaXaXaXaXaXaXaXyXxX9.q y q 8.xXyXaXaXaXaXaXaXaXaXaXaXaXaXaXaXpXjXu.<.3.,.U.jXpXaXaXaXaXaXaXaXaXaXaXaXaXaXaXpXaXt.<.3.,.2XgXpXaXaXaXaXaXaXaXaXaXaXaXaXaXaXaXtX3.2.2.<.3XgXpXaXaXaXaXaXpXsXzXhXpXaXaXaXaXaXaXaXaXaXaXpXgXu.5.u.lXxXzXzXzXzXzXnXCXdX=.9 9.gXpXaXaXaXaXaXaX",
"pXt.5.,XCX%X, { MXzXzXzXzXzXzXM 0 x.cXyXaXaXaXaXaXaXaXaXaXaXpXsXzXcXpXaXaXaXaXaXaXaXpXw.2.2.<.3XgXpXaXaXaXaXaXaXaXaXaXaXaXaXaXpXaXwX2.2.2.2.wXaXpXaXaXaXaXaXaXaXaXaXaXaXaXaXpXgX].e y r s pXaXaXaXaXaXaXaXaXaXaXaXaXaXaXaXpXjX>X,.3.<.t.gXpXaXaXaXaXaXaXaXaXaXaXaXaXaXaXyXxX9.q y q 8.xXyXaXaXaXaXaXaXaXaXaXaXaXaXaXaXpXjXu.<.3.,.U.jXpXaXaXaXaXaXaXaXaXaXaXaXaXaXaXpXaXt.<.3.,.2XgXpXaXaXaXaXaXaXaXaXaXaXaXaXaXaXaXtX3.2.2.<.3XgXpXaXaXaXaXaXpXsXzXhXpXaXaXaXaXaXaXaXaXaXpXgX2X<.3.fXxXzXzXzXzXzXMX(.b cX`.e a 5XsXpXaXaXaXaXaX",
"3X2.3.dXzXmX+., V.nXzXzXzXzXCXI.9 M pXaXpXaXaXaXaXaXaXaXaXaXpXsXzXcXpXaXaXaXaXaXaXaXpXw.2.2.<.3XgXpXaXaXaXaXaXaXaXaXaXaXaXaXaXpXaXwX2.2.2.2.wXaXpXaXaXaXaXaXaXaXaXaXaXaXaXaXpXgX].r y t s pXaXaXaXaXaXaXaXaXaXaXaXaXaXaXaXpXjX>X,.3.<.t.gXpXaXaXaXaXaXaXaXaXaXaXaXaXaXaXyXxX9.q y q 8.xXyXaXaXaXaXaXaXaXaXaXaXaXaXaXaXpXjXu.<.3.,.U.jXpXaXaXaXaXaXaXaXaXaXaXaXaXaXaXpXaXt.<.3.,.2XgXpXaXaXaXaXaXaXaXaXaXaXaXaXaXaXaXtX3.2.2.<.3XgXpXaXaXaXaXaXpXsXzXhXpXaXaXaXaXaXaXaXaXaXpXgXU.5.u.CXzXzXzXzXzXzXG.4 6 tXnXM 0 I.gXpXaXaXaXaXaX",
"2X,.u.zXzXzXnXI c zXzXzXzXzXmX3Xt s 7XaXpXaXaXaXaXaXaXaXaXaXpXsXzXcXpXaXaXaXaXaXaXaXpXw.2.2.<.3XgXpXaXaXaXaXaXaXaXaXaXaXaXaXaXpXaXwX2.2.2.2.wXaXpXaXaXaXaXaXaXaXaXaXaXaXaXaXpXgX].0 r e a pXaXaXaXaXaXaXaXaXaXaXaXaXaXaXaXpXjX>X,.3.<.t.gXpXaXaXaXaXaXaXaXaXaXaXaXaXaXaXyXxX9.q y q 8.xXyXaXaXaXaXaXaXaXaXaXaXaXaXaXaXpXjXu.<.3.,.U.jXpXaXaXaXaXaXaXaXaXaXaXaXaXaXaXpXaXt.<.3.,.2XgXpXaXaXaXaXaXaXaXaXaXaXaXaXaXaXaXtX3.2.2.<.3XgXpXaXaXaXaXaXpXsXzXhXpXaXaXaXaXaXaXaXaXaXaXaXt.,.2XxXzXzXzXzXMX)., b aXnXMX9.9 9.gXpXaXaXaXaXaX",
"U.5.u.MXzXzXmXpXtXnXzXzXzXzXzXsXs t 8XgXpXaXaXaXaXaXaXaXaXaXpXsXzXcXpXaXaXaXaXaXaXaXpXw.2.2.<.3XgXpXaXaXaXaXaXaXaXaXaXaXaXaXaXpXaXwX2.2.2.2.wXaXpXaXaXaXaXaXaXaXaXaXaXaXaXaXpXgX@Xs d d ;.pXaXaXaXaXaXaXaXaXaXaXaXaXaXaXaXpXjX>X,.3.<.t.gXpXaXaXaXaXaXaXaXaXaXaXaXaXaXaXyXxX9.q y q 8.xXyXaXaXaXaXaXaXaXaXaXaXaXaXaXaXpXjXu.<.3.,.U.jXpXaXaXaXaXaXaXaXaXaXaXaXaXaXaXpXaXt.<.3.,.2XgXpXaXaXaXaXaXaXaXaXaXaXaXaXaXaXaXtX3.2.2.<.3XgXpXaXaXaXaXaXpXsXzXhXpXaXaXaXaXaXaXaXaXaXaXpXe.<.fXxXzXzXzXzXnXyXF.sXmXcXCXY.9 8.cXyXaXaXaXaXaX",
",X5.u.mXzXzXzXnXnXzXzXzXzXzXzXdXs t 8XgXpXaXaXaXaXaXaXaXaXaXpXsXzXcXpXaXaXaXaXaXaXaXpXw.2.2.<.3XgXpXaXaXaXaXaXaXaXaXaXaXaXaXaXpXaXwX2.2.2.2.wXaXpXaXaXaXaXaXaXaXaXaXaXaXaXaXaXpXaXzXzXzXzXaXaXaXaXaXaXaXaXaXaXaXaXaXaXaXaXpXjX>X,.3.<.t.gXpXaXaXaXaXaXaXaXaXaXaXaXaXaXaXyXxX9.q y q 8.xXyXaXaXaXaXaXaXaXaXaXaXaXaXaXaXpXjXu.<.3.,.U.jXpXaXaXaXaXaXaXaXaXaXaXaXaXaXaXpXaXt.<.3.,.2XgXpXaXaXaXaXaXaXaXaXaXaXaXaXaXaXaXtX3.2.2.<.3XgXpXaXaXaXaXaXpXsXzXhXpXaXaXaXaXaXaXaXaXaXaXpXe.<.fXxXzXzXzXzXzXzXMXzXzXzXCXY.9 8.cXyXaXaXaXaXaX",
">X,.t.zXzXzXzXzXzXzXzXzXzXzXmX8Xt d wXaXpXaXaXaXaXaXaXaXaXaXpXsXzXcXpXaXaXaXaXaXaXaXpXw.2.2.<.3XgXpXaXaXaXaXaXaXaXaXaXaXaXaXaXpXaXwX2.2.2.2.wXaXpXaXaXaXaXaXaXaXaXaXaXaXaXaXaXpXaXzXzXzXzXaXaXaXaXaXaXaXaXaXaXaXaXaXaXaXaXpXjX>X,.3.<.t.gXpXaXaXaXaXaXaXaXaXaXaXaXaXaXaXyXxX0.e a e 8.xXyXaXaXaXaXaXaXaXaXaXaXaXaXaXaXpXjXu.<.3.,.U.jXpXaXaXaXaXaXaXaXaXaXaXaXaXaXaXpXaXt.<.3.,.2XgXpXaXaXaXaXaXaXaXaXaXaXaXaXaXaXaXtX3.2.2.<.3XgXpXaXaXaXaXaXpXsXzXhXpXaXaXaXaXaXaXaXaXaXaXaXt.,.1XmXzXzXzXzXzXzXzXzXzXzXMX0.9 0.gXpXaXaXaXaXaX",
"eX3.2.fXxXzXzXzXzXzXzXzXzXzXMXx.9 8.gXpXaXaXaXaXaXaXaXaXaXaXpXsXzXcXpXaXaXaXaXaXaXaXpXw.2.2.<.3XgXpXaXaXaXaXaXaXaXaXaXaXaXaXaXpXaXwX2.2.2.2.wXaXpXaXaXaXaXaXaXaXaXaXaXaXaXaXaXpXaXzXzXzXzXaXaXaXaXaXaXaXaXaXaXaXaXaXaXaXaXpXjX>X,.3.<.t.gXpXaXaXaXaXaXaXaXaXaXaXaXaXaXaXyXxXq.9 e 9 7.xXyXaXaXaXaXaXaXaXaXaXaXaXaXaXaXpXjXu.<.3.,.U.jXpXaXaXaXaXaXaXaXaXaXaXaXaXaXaXpXaXt.<.3.,.2XgXpXaXaXaXaXaXaXaXaXaXaXaXaXaXaXaXtX3.2.2.<.3XgXpXaXaXaXaXaXpXsXzXhXpXaXaXaXaXaXaXaXaXaXpXgXU.5.u.mXzXzXzXzXzXzXzXzXzXzXsXd e `.gXpXaXaXaXaXaX",
"gXu.5.u.mXzXzXzXzXzXzXzXzXMXwXs q I.cXpXaXaXaXaXaXaXaXaXaXaXpXsXzXcXpXaXaXaXaXaXaXaXpXw.2.2.<.3XgXpXaXaXaXaXaXaXaXaXaXaXaXaXaXpXaXwX2.2.2.2.wXaXpXaXaXaXaXaXaXaXaXaXaXaXaXaXaXpXaXzXzXzXzXaXaXaXaXaXaXaXaXaXaXaXaXaXaXaXaXpXjX>X,.3.<.t.gXpXaXaXaXaXaXaXaXaXaXaXaXaXaXaXpXgX`.0.x.0.`.gXpXaXaXaXaXaXaXaXaXaXaXaXaXaXaXpXjXu.<.3.,.U.jXpXaXaXaXaXaXaXaXaXaXaXaXaXaXaXpXaXt.<.3.,.2XgXpXaXaXaXaXaXaXaXaXaXaXaXaXaXaXaXtX3.2.2.<.3XgXpXaXaXaXaXaXpXsXzXhXpXaXaXaXaXaXaXaXaXaXpXgX3X2.2.4XCXzXzXzXzXzXzXzXzXCXx.q d rXaXpXaXaXaXaXaX",
"gX3X2.<.,XmXzXzXzXzXzXzXmXdX;.9 ;.aXaXpXaXaXaXaXaXaXaXaXaXaXpXsXzXcXpXaXaXaXaXaXaXaXpXw.2.2.<.3XgXpXaXaXaXaXaXaXaXaXaXaXaXaXaXpXaXwX2.2.2.2.wXaXpXaXaXaXaXaXaXaXaXaXaXaXaXaXaXpXsXCXCXCXxXaXaXaXaXaXaXaXaXaXaXaXaXaXaXaXaXpXjX>X,.3.<.t.gXpXaXaXaXaXaXaXaXaXaXaXaXaXaXaXaXyXxXZXCXZXxXyXaXaXaXaXaXaXaXaXaXaXaXaXaXaXaXpXjXu.<.3.,.U.jXpXaXaXaXaXaXaXaXaXaXaXaXaXaXaXpXaXt.<.3.,.2XgXpXaXaXaXaXaXaXaXaXaXaXaXaXaXaXaXtX3.2.2.<.3XgXpXaXaXaXaXaXpXsXzXhXpXaXaXaXaXaXaXaXaXaXaXpXgXu.5.e.fXmXzXzXzXzXzXzXMX`.y e I.gXpXaXaXaXaXaXaX",
"pXgX>X<.<.i.zXzXzXzXzXzXwXd 0 s 3XgXpXaXaXaXaXaXaXaXaXaXaXaXpXsXzXcXpXaXaXaXaXaXaXaXpXw.2.2.<.3XgXpXaXaXaXaXaXaXaXaXaXaXaXaXaXpXaXwX2.2.2.2.wXaXpXaXaXaXaXaXaXaXaXaXaXaXaXaXpXaXwX1X2X1X2XpXaXaXaXaXaXaXaXaXaXaXaXaXaXaXaXpXjX>X,.3.<.t.gXpXaXaXaXaXaXaXaXaXaXaXaXaXaXaXaXpXsXzXzXzXsXpXaXaXaXaXaXaXaXaXaXaXaXaXaXaXaXpXjXu.<.3.,.U.jXpXaXaXaXaXaXaXaXaXaXaXaXaXaXaXpXaXt.<.3.,.2XgXpXaXaXaXaXaXaXaXaXaXaXaXaXaXaXaXtX3.2.2.<.3XgXpXaXaXaXaXaXpXsXzXhXpXaXaXaXaXaXaXaXaXaXaXpXaXiXt.5.3.4XxXzXzXzXzXmXI.r q 8.aXpXaXaXaXaXaXaXaX",
"aXpXgX>X,.u.gXsXsXhXsXsXtXd a ].gXpXaXaXaXaXaXaXaXaXaXaXaXaXpXsXzXcXpXaXaXaXaXaXaXaXpXw.2.3.<.3XgXpXaXaXaXaXaXaXaXaXaXaXaXaXaXpXaXwX2.2.2.2.wXaXpXaXaXaXaXaXaXaXaXaXaXaXaXaXpXgX3X5.<.5.3.pXaXaXaXaXaXaXaXaXaXaXaXaXaXaXaXpXjX1X,.3.<.t.gXpXaXaXaXaXaXaXaXaXaXaXaXaXaXaXaXpXsXzXzXzXhXpXaXaXaXaXaXaXaXaXaXaXaXaXaXaXaXpXjXu.<.3.,.U.jXpXaXaXaXaXaXaXaXaXaXaXaXaXaXaXpXaXt.<.3.<.2XgXpXaXaXaXaXaXaXaXaXaXaXaXaXaXaXaXtXw.2.2.2.3XgXpXaXaXaXaXaXpXsXzXhXpXaXaXaXaXaXaXaXaXaXaXaXpXaXtXt.<.3XgXsXhXhXaXcXI.e 8.yXaXpXaXaXaXaXaXaXaX",
"aXaXpXgX3XtXaXpXpXpXpXpXgX@X3XgXpXaXaXaXaXaXaXaXaXaXaXaXaXaXpXsXzXcXpXaXaXaXaXaXaXaXpXw.<.2.,.3XgXpXaXaXaXaXaXaXaXaXaXaXaXaXaXpXaXwX2.<.<.<.wXaXpXaXaXaXaXaXaXaXaXaXaXaXaXaXpXgX3X<.2.<.w.pXaXaXaXaXaXaXaXaXaXaXaXaXaXaXaXpXjX>X5.2.,.t.gXpXaXaXaXaXaXaXaXaXaXaXaXaXaXaXaXpXsXzXzXzXhXpXaXaXaXaXaXaXaXaXaXaXaXaXaXaXaXpXjXu.5.2.5.U.jXiXaXaXaXaXaXaXaXaXaXaXaXaXaXaXpXaXe.,.2.5.2XgXpXaXaXaXaXaXaXaXaXaXaXaXaXaXaXaXtX3.<.2.,.3XgXpXaXaXaXaXaXpXsXzXhXpXaXaXaXaXaXaXaXaXaXaXaXaXpXgXtX3XgXpXpXpXpXpXaXpX`.yXaXpXaXaXaXaXaXaXaXaX",
"aXaXaXpXgXaXaXaXaXaXaXaXpXsXsXpXaXaXaXaXaXaXaXaXaXaXaXaXaXaXpXsXzXcXpXaXaXaXaXaXaXaXaX3X3X3X3XtXaXaXaXaXaXaXaXaXaXaXaXaXaXaXaXaXaXiX3X3X3X3XiXaXaXaXaXaXaXaXaXaXaXaXaXaXaXaXaXaXtX3X3X3X3XaXaXaXaXaXaXaXaXaXaXaXaXaXaXaXaXaXaXwX3X3X3XeXaXaXaXaXaXaXaXaXaXaXaXaXaXaXaXaXaXpXhXzXzXzXhXpXaXaXaXaXaXaXaXaXaXaXaXaXaXaXaXaXaXeX3X3X3XwXaXpXaXaXaXaXaXaXaXaXaXaXaXaXaXaXaXaXeX3X3X3XtXaXaXaXaXaXaXaXaXaXaXaXaXaXaXaXaXaXpX3X3X3X3XiXaXaXaXaXaXaXaXpXsXzXhXpXaXaXaXaXaXaXaXaXaXaXaXaXaXpXaXgXpXaXaXaXaXaXaXaXgXaXpXaXaXaXaXaXaXaXaXaX",
"aXaXaXaXpXpXaXaXaXaXaXaXaXpXpXaXaXaXaXaXaXaXaXaXaXaXaXaXaXaXpXsXzXcXpXaXaXaXaXaXaXaXaXgXgXgXgXaXaXaXaXaXaXaXaXaXaXaXaXaXaXaXaXaXaXaXgXgXgXgXaXaXaXaXaXaXaXaXaXaXaXaXaXaXaXaXaXaXaXgXgXgXgXaXaXaXaXaXaXaXaXaXaXaXaXaXaXaXaXaXaXaXgXgXgXgXaXaXaXaXaXaXaXaXaXaXaXaXaXaXaXaXaXaXaXaXaXaXaXaXaXaXaXaXaXaXaXaXaXaXaXaXaXaXaXaXaXaXgXgXgXaXpXaXaXaXaXaXaXaXaXaXaXaXaXaXaXaXaXaXgXgXgXgXaXaXaXaXaXaXaXaXaXaXaXaXaXaXaXaXaXaXaXgXgXgXgXaXaXaXaXaXaXaXaXpXsXzXhXpXaXaXaXaXaXaXaXaXaXaXaXaXaXaXpXpXaXaXaXaXaXaXaXaXpXpXaXaXaXaXaXaXaXaXaXaX",
"aXaXaXaXaXaXaXaXaXaXaXaXaXaXaXaXaXaXaXaXaXaXaXaXaXaXaXaXaXaXpXsXzXcXpXaXaXaXaXaXaXaXaXpXpXpXpXaXaXaXaXaXaXaXaXaXaXaXaXaXaXaXaXaXaXaXpXpXpXpXaXaXaXaXaXaXaXaXaXaXaXaXaXaXaXaXaXaXaXpXpXpXpXaXaXaXaXaXaXaXaXaXaXaXaXaXaXaXaXaXaXpXpXpXpXpXaXaXaXaXaXaXaXaXaXaXaXaXaXaXaXaXaXaXaXpXpXpXpXaXaXaXaXaXaXaXaXaXaXaXaXaXaXaXaXaXaXpXpXpXpXpXaXaXaXaXaXaXaXaXaXaXaXaXaXaXaXaXaXaXpXpXpXpXaXaXaXaXaXaXaXaXaXaXaXaXaXaXaXaXaXaXaXpXpXpXpXaXaXaXaXaXaXaXaXpXsXzXhXpXaXaXaXaXaXaXaXaXaXaXaXaXaXaXaXaXaXaXaXaXaXaXaXaXaXaXaXaXaXaXaXaXaXaXaXaX",
"aXaXaXaXaXaXaXaXaXaXaXaXaXaXaXaXaXaXaXaXaXaXaXaXaXaXaXaXaXaXpXsXzXcXpXaXaXaXaXaXaXaXaXaXaXaXaXaXaXaXaXaXaXaXaXaXaXaXaXaXaXaXaXaXaXaXaXaXaXaXaXaXaXaXaXaXaXaXaXaXaXaXaXaXaXaXaXaXaXaXaXaXaXaXaXaXaXaXaXaXaXaXaXaXaXaXaXaXaXaXaXaXaXaXaXaXaXaXaXaXaXaXaXaXaXaXaXaXaXaXaXaXaXaXaXaXaXaXaXaXaXaXaXaXaXaXaXaXaXaXaXaXaXaXaXaXaXaXaXaXaXaXaXaXaXaXaXaXaXaXaXaXaXaXaXaXaXaXaXaXaXaXaXaXaXaXaXaXaXaXaXaXaXaXaXaXaXaXaXaXaXaXaXaXaXaXaXaXaXaXaXaXaXaXaXpXsXzXhXpXaXaXaXaXaXaXaXaXaXaXaXaXaXaXaXaXaXaXaXaXaXaXaXaXaXaXaXaXaXaXaXaXaXaXaXaX",
"aXaXaXaXaXpXpXaXpXpXaXaXaXpXpXaXaXaXaXaXaXaXaXaXaXaXaXaXaXaXpXsXzXcXpXaXaXaXaXaXpXpXaXaXaXpXpXaXpXpXaXaXaXaXaXaXaXaXaXaXaXaXaXpXpXaXaXaXpXpXaXpXpXaXaXaXaXaXaXaXaXaXaXaXaXaXaXpXpXaXaXaXpXaXaXpXpXaXaXaXaXaXaXaXaXaXaXaXaXpXpXaXaXpXpXaXaXpXaXaXaXaXaXaXaXaXaXaXaXaXaXpXpXaXpXpXaXaXaXpXpXaXpXpXaXaXaXaXaXaXaXaXaXaXpXpXaXaXaXpXpXaXpXpXaXaXaXaXaXaXaXaXaXaXaXaXpXaXaXpXpXaXaXpXpXaXaXpXaXaXaXaXaXaXaXaXaXaXaXaXpXpXaXaXaXpXpXaXpXpXaXaXaXaXaXpXsXzXhXpXaXaXaXaXaXaXaXaXaXaXaXaXaXaXpXaXpXpXaXaXpXaXaXpXpXaXpXpXaXaXaXaXaXaXaXaX",
"aXaXaXaXaXhXsXaXhXhXaXaXaXhXaXpXaXaXaXaXaXaXaXaXaXaXaXaXaXaXpXsXzXcXpXaXaXaXaXpXsXsXpXaXpXsXaXyXsXsXpXaXaXaXaXaXaXaXaXaXaXaXpXsXsXpXaXpXhXaXpXhXaXpXaXaXaXaXaXaXaXaXaXaXaXaXpXsXaXpXaXaXhXaXaXhXaXpXaXaXaXaXaXaXaXaXaXaXpXhXaXpXpXaXhXpXaXhXaXaXaXaXaXaXaXaXaXaXaXaXpXaXaXpXsXsXpXaXpXsXaXyXsXsXpXaXaXaXaXaXaXaXaXpXaXhXpXaXpXsXsXyXsXsXpXaXaXaXaXaXaXaXaXaXaXpXaXaXaXhXaXpXaXaXhXaXaXhXaXpXaXaXaXaXaXaXaXaXaXpXsXsXpXaXpXhXaXyXsXaXpXaXaXaXaXpXsXzXhXpXaXaXaXaXaXaXaXaXaXaXaXaXaXaXaXpXaXhXpXaXhXaXpXhXaXpXhXaXpXaXaXaXaXaXaXaX",
"aXaXaXaXtX(.%XyX X'.yXaXaX'.tXaXpXaXaXaXaXaXaXaXaXaXaXaXaXaXpXsXzXcXpXaXaXaXpXsX6X*XsXpXsX%X9XhX&X6XsXpXaXaXaXaXaXaXaXaXaXpXsX=X=XsXpXaX%XtXsX%XrXsXpXaXaXaXaXaXaXaXaXaXaXpXsX%X9XsXaXyX XaXtX'.tXaXpXaXaXaXaXaXaXaXaXaXaX%XtXaXaXtX%XsXyX XaXaXaXaXaXaXaXaXaXaXaXpXsXtXrXaX&X*XsXpXsX%X9XhX&X6XsXpXaXaXaXaXaXaXpXaXtX%XaXpXsX=X*XzX6X&XsXpXaXaXaXaXaXaXaXaXpXsX9XyXyX XrXsXaXyX XaXaX XyXaXpXaXaXaXaXaXaXaXpXsX6X*XsXpXaX%XrXhX&X6XsXpXaXaXaXpXsXzXhXpXaXaXaXaXaXaXaXaXaXaXaXaXaXaX9XaXtX XaXaX XyXsX%XtXsX%XrXsXpXaXaXaXaXaXaX",
"aXaXyXzXZ.U (.G.B D.rXhXh.| o.yXaXaXaXaXaXaXaXaXaXaXaXaXaXaXpXsXzXcXpXaXaXpXsX6X] Y (.nXG.B O.).U [ 6XaXpXaXaXaXaXaXaXaXpXsX XU ] *XzXZ.B l.G.B | tXaXpXaXaXaXaXaXaXaXaXtXsX~.Y } 9XhXh.U M.Q.] o.aXaXaXaXaXaXaXaXaXyXzXZ.B O.aXaX| B Q.j.B V.hXpXaXaXaXaXaXaXaXyXpXpXn h.yXo.Y (.nXG.B O.).U [ 6XaXpXaXaXaXaXaXpXaXo.B A.zX&XU ] (.} U (.sXpXaXaXaXaXaXaXpXsX%Xl *X(.[ } rXsXO.B F.V.B j.sXpXaXaXaXaXaXaXpXsX*XY ]  XnXD.B z.~.U } rXaXpXaXaXpXsXzXhXpXaXaXaXaXaXaXaXaXaXaXaXpXsXj.v zXo.B D.M.b Z.A.b l.G.B | tXaXpXaXaXaXaXaX",
"aXaXyXzXl.B &XD.b ).pXhXO.h.O.yXaXaXaXaXaXaXaXaXaXaXaXaXaXaXpXsXzXcXpXaXaXyXzXA.A.%Xo.mX} 6XZ.m *XA.Z.zXyXaXaXaXaXaXaXaXyXzXh./.~.M.zX] yXO.n tXh./.zXyXaXaXaXaXaXaXaXpXhXMX} 6XM.D.yX] zXU 6XzXU rXaXpXaXaXaXaXaXaXaXaX] tXo.&X&XX.aXb | aX] tXaXaXaXaXaXaXaXpXhXzXaXZ.h.hXmXZ.M.mX} 6XZ.m =XA.A.zXyXaXaXaXaXpXsX%X| pX] zXM.G.%Xm D.&X| zXyXaXaXaXaXaXaXpXaXtX} (.sXnX] =X6X[ aXU Y aX} 6XsXpXaXaXaXaXaXyXzXV.D.'.O.nX[ 9XM.v 6XV.D.zXyXaXaXpXsXzXhXpXaXaXaXaXaXaXaXaXaXaXaXaXaX X[ =X} aXB ] aX[ b aXO.n tXh.).zXyXaXaXaXaXaX",
"aXaXaXaXtX*XY (.rX] ~.NXZ.n h.aXpXaXaXaXaXaXaXaXaXaXaXaXaXaXpXsXzXcXpXaXaXyXzXA.G.=X| NX| rXA.x 9XD.M.zXyXaXaXaXaXaXaXaXyXzXh. X).l.nX[ sXO.v aXl.~.zXyXaXaXaXaXaXaXpXsXA.D.Q.| b ~.MXo.o.n sXM.Z.zXyXaXaXaXaXaXaXaXaXtX| aXo.*X*Xz.hXv o.hX] rXaXaXaXaXaXaXpXsX~.j.zX(.O.MX6X] tXzX| rXA.x rXD.M.zXyXaXaXaXaXpXhX'.z.sX] mXM.).*Xx ).=X} zXyXaXaXaXaXaXaXaXtXmXz./.NXD.z.MX=Xo.zXb ] zX} *XsXpXaXaXaXaXaXyXzXM.~.%XO.MX} yXM.m tXA.A.zXyXaXaXpXsXzXhXpXaXaXaXaXaXaXaXaXaXaXaXaXaXpX| %Xo.zXb [ zX] B hXO.v aXl.Q.zXyXaXaXaXaXaX",
"aXaXaXaX6XrX| G.aXO.M. X] =XY =XsXpXaXaXaXaXaXaXaXaXaXaXaXaXpXsXzXcXpXaXaXpXhX/.O.Z.O.*Xh.A.z.[ A.O.~.zXyXaXaXaXaXaXaXaXyXzXA.l.l.j.*Xo.G.o.} G.| %XsXpXaXaXaXaXaXaXaXaX*X&XaX).] ~.%XpXl.O.F.] tXyXaXaXaXaXaXaXaXaXyXhXX.G.| G.'.| Q.} | ~.[ aXaXaXaXaXaXaXpXaX6X XzX~.o.sXb ).9X(.h.A.z.[ A.O.~.zXyXaXaXaXaXpXaX9X} ~.}  XF.h.Z.[ j.Z.h.zXyXaXaXaXaXaXaXaXyXnX| '.(.b rX X(.| ~.} } ~.] rXaXpXaXaXaXaXaXpXzX~.z.V.z.*XO.D.O.[ D.o./.hXyXaXaXpXsXzXhXpXaXaXaXaXaXaXaXaXaXaXaXaXaXtXU tX[ ~.} | ~.| } Q.o.} G.| %XsXpXaXaXaXaXaX",
"aXaXpXsX).] D.%X] A. XD.(.] D.aXpXaXaXaXaXaXaXaXaXaXaXaXaXaXpXsXzXcXpXaXaXaXaXaXl.o.*XZ.9X} Z.pXX.j.aXpXaXaXaXaXaXaXaXaXpXaXyXO.l.%XD.6X] ~.rX[ A.sXpXaXaXaXaXaXaXaXaXpXsXzX&X| (.'.~.~.| 6Xz.[ O.rXaXpXaXaXaXaXaXaXpXsX*X] ~.Q. X~.] 6X(.]  XsXpXaXaXaXaXaXaXpXsXsXsX%X~.%XB o.Z.F.9X} A.pX| l.aXpXaXaXaXaXaXaXpXsXQ.] &XZ.9Xh.o.aXM.| rXaXpXaXaXaXaXaXaXaXyXhXD.6XM.] h.Z.(.(.Y &X%X] ).sXpXaXaXaXaXaXaXaXaXaXh.O.&XA.9X[ D.yX| M.sXpXaXaXaXpXsXzXhXpXaXaXaXaXaXaXaXaXaXaXaXaXaXyXZ.hX~.] *X%XY '.6X] ~.rX[ A.sXpXaXaXaXaXaXaX",
"aXaXaXpXsXzXhXsXzXhXsXhXsXzXhXaXaXaXaXaXaXaXaXaXaXaXaXaXaXaXpXsXzXcXpXaXaXaXaXaXzXzXsXhXaXzXhXaXzXzXaXaXaXaXaXaXaXaXaXaXaXaXaXzXzXsXhXaXzXsXaXzXhXpXaXaXaXaXaXaXaXaXaXaXpXpXaXzXsXsXsXsXzXaXzXzXhXaXaXaXaXaXaXaXaXaXaXpXsXzXsXhXaXsXzXaXsXzXsXpXaXaXaXaXaXaXaXaXpXpXpXsXsXaXzXhXhXhXaXzXhXaXzXzXaXaXaXaXaXaXaXaXaXpXhXzXsXhXaXzXzXaXhXzXaXpXaXaXaXaXaXaXaXaXaXpXhXaXhXzXhXhXsXsXzXsXsXzXsXpXaXaXaXaXaXaXaXaXaXaXzXzXsXhXaXzXhXaXzXzXaXaXaXaXaXpXsXzXhXpXaXaXaXaXaXaXaXaXaXaXaXaXaXaXhXpXsXzXaXsXzXsXaXzXsXaXzXhXpXaXaXaXaXaXaXaX",
"aXaXaXaXpXyXyXpXyXyXpXpXpXyXyXaXaXaXaXaXaXaXaXaXaXaXaXaXaXaXpXsXzXcXpXaXaXaXaXaXyXyXpXpXsXtXyXpXyXyXaXaXaXaXaXaXaXaXaXaXaXaXaXyXyXpXaXsXtXyXyXyXyXaXaXaXaXaXaXaXaXaXaXaXaXaXpXyXyXaXaXyXyXyXyXyXyXaXaXaXaXaXaXaXaXaXaXaXpXyXpXyXsXaXtXpXyXyXpXaXaXaXaXaXaXaXaXaXaXaXaXpXpXpXtXaXaXyXpXtXyXpXyXyXaXaXaXaXaXaXaXaXaXaXyXyXpXyXsXyXyXpXyXyXpXaXaXaXaXaXaXaXaXaXaXaXyXpXyXyXyXsXyXyXyXyXpXyXpXaXaXaXaXaXaXaXaXaXaXaXyXyXpXaXsXtXyXpXyXyXaXaXaXaXaXpXsXzXhXpXaXaXaXaXaXaXaXaXaXaXaXaXaXaXyXaXpXtXpXpXtXpXpXyXpXpXyXyXaXaXaXaXaXaXaXaX",
"aXaXaXaXaXaXsXaXaXsXpXyXpXaXaXaXaXaXaXaXaXaXaXaXaXaXaXaXaXaXpXsXzXcXpXaXaXaXaXaXaXaXpXtX%XsXaXaXsXpXaXaXaXaXaXaXaXaXaXaXaXaXaXaXpXaX9X%XhXaXsXsXpXaXaXaXaXaXaXaXaXaXaXaXaXaXaXpXaX6X*XzXaXsXaXpXaXaXaXaXaXaXaXaXaXaXaXaXaXaXyXaX*X6XzXaXsXaXaXaXaXaXaXaXaXaXaXaXaXaXaXaXaXyXaX%XrXhXaXsXaXaXaXaXaXaXaXaXaXaXaXaXaXaXaXaXyXaX XpXsXaXsXaXaXaXaXaXaXaXaXaXaXaXaXaXaXaXaXpXyX XsXaXaXsXpXaXaXaXaXaXaXaXaXaXaXaXaXaXaXpXaXtX%XhXaXsXsXpXaXaXaXaXaXpXsXzXhXpXaXaXaXaXaXaXaXaXaXaXaXaXaXaXaXaXaXsXaXaXsXpXyXpXaXaXaXaXaXaXaXaXaXaXaXaX",
"aXaXaXaXaXpXz.aX XZ.hXsXsXpXaXaXaXaXaXaXaXaXaXaXaXaXaXaXaXaXpXsXzXcXpXaXaXaXaXaXaXaXzX6X} (.n [ (.sXpXaXaXaXaXaXaXaXaXaXaXaXaXpXaXnX(.O.Q.b | *XsXpXaXaXaXaXaXaXaXaXaXaXaXaXpXaXMXA.M.M.b o.9XaXpXaXaXaXaXaXaXaXaXaXaXaXaXpXaXMXh.G.O.U z.yXaXaXaXaXaXaXaXaXaXaXaXaXaXaXpXaXMX} (.] Y M.aXpXaXaXaXaXaXaXaXaXaXaXaXaXaXpXsXzX]  XB ] F.sXpXaXaXaXaXaXaXaXaXaXaXaXaXaXaXhXyX]  Xn [ ~.sXpXaXaXaXaXaXaXaXaXaXaXaXaXaXaXzX*X| /.n }  XsXpXaXaXaXaXpXsXzXhXpXaXaXaXaXaXaXaXaXaXaXaXaXaXaXaXpXsXh.rX*XM.sXsXsXpXaXaXaXaXaXaXaXaXaXaXaX",
"aXaXaXaXaXpXU hX(.| A.v Q.zXyXaXaXaXaXaXaXaXaXaXaXaXaXaXaXaXpXsXzXcXpXaXaXaXaXaXaXaXh.U | A.D./.| zXyXaXaXaXaXaXaXaXaXaXaXaXpXaXtXO.b l.j. XZ.l.zXyXaXaXaXaXaXaXaXaXaXaXaXpXsX6Xo.n F.X.9Xo.D.zXyXaXaXaXaXaXaXaXaXaXaXaXpXsX X| v ~.[ pXY  XsXpXaXaXaXaXaXaXaXaXaXaXaXyXhX~.} n /.} aXb 6XaXpXaXaXaXaXaXaXaXaXaXaXaXyXhXA.[ b ).o.rXB aXaXaXaXaXaXaXaXaXaXaXaXaXaXpXsXM.] ] D.M.%X] hXpXaXaXaXaXaXaXaXaXaXaXaXaXaXpXz.B O.V.~.Q.o.zXyXaXaXaXaXpXsXzXhXpXaXaXaXaXaXaXaXaXaXaXaXaXaXaXaXpXsXU tX*X} D.n A.zXyXaXaXaXaXaXaXaXaXaXaX",
"aXaXaXaXpXsXv } n O.sXB *XsXpXaXaXaXaXaXaXaXaXaXaXaXaXaXaXaXpXsXzXcXpXaXaXaXaXpXhX/.|  X[ G.m b Q.hXyXaXaXaXaXaXaXaXaXaXaXaXyXzXA.l.Q.z.M.v b  XsXpXaXaXaXaXaXaXaXaXaXaXaXyXzXz.D.l.Z.o.n B 6XaXpXaXaXaXaXaXaXaXaXaXaXaXyXhX} '.| ~.U b Y tXaXaXaXaXaXaXaXaXaXaXaXaXaXaXaXY =XY (.v B | sXpXaXaXaXaXaXaXaXaXaXaXaXpXaX9XU 6XB '.m B h.hXyXaXaXaXaXaXaXaXaXaXaXaXpXsX%X[ *XY /.x b A.hXyXaXaXaXaXaXaXaXaXaXaXaXpXhX~.O.(.| D.m b ).hXpXaXaXaXaXpXsXzXhXpXaXaXaXaXaXaXaXaXaXaXaXaXaXaXaXyXzXb ] B [ zXU '.sXpXaXaXaXaXaXaXaXaXaXaX",
"aXaXaXaXaXpXU tXQ.h.A.D.mXyXaXaXaXaXaXaXaXaXaXaXaXaXaXaXaXaXpXsXzXcXpXaXaXaXaXpXzX~.z.rX} A.A.&XY hXpXaXaXaXaXaXaXaXaXaXaXaXyXzXM.F. XO.l.(.Q.o.zXyXaXaXaXaXaXaXaXaXaXaXaXyXzXo.'.D.M.o.6Xl.M.zXyXaXaXaXaXaXaXaXaXaXaXaXpXhX] 9Xh.D.| aX| Q.zXyXaXaXaXaXaXaXaXaXaXaXpXaXyXU sX} ~.} sXU %XsXpXaXaXaXaXaXaXaXaXaXaXpXaX6X] zX] ~.o.aXb 9XaXpXaXaXaXaXaXaXaXaXaXaXpXhX'.| aX] G.l.9XB aXaXaXaXaXaXaXaXaXaXaXaXaXyXzXD.l.6X| Z.G.'.[ zXyXaXaXaXaXpXsXzXhXpXaXaXaXaXaXaXaXaXaXaXaXaXaXaXaXpXsXY 6X(.O.D.Z.mXyXaXaXaXaXaXaXaXaXaXaXaX",
"aXaXaXaXaXpX| sX Xz.b ] (.sXpXaXaXaXaXaXaXaXaXaXaXaXaXaXaXaXpXsXzXcXpXaXaXaXaXaXaXtX} Y O.~.n } A.sXpXaXaXaXaXaXaXaXaXaXaXaXpXsX6X[ B Z.Z.b ] ).sXpXaXaXaXaXaXaXaXaXaXaXaXpXsX X] b ~.O.U ] %XsXpXaXaXaXaXaXaXaXaXaXaXaXyXhX~.] b '.] [ [ 6XaXpXaXaXaXaXaXaXaXaXaXaXaXyXhXZ.[ b %Xb } | tXaXpXaXaXaXaXaXaXaXaXaXaXaXpXsXh.[ U %Xn } O.aXaXaXaXaXaXaXaXaXaXaXaXaXaXaXaXo.] | (.v } M.sXpXaXaXaXaXaXaXaXaXaXaXaXpXaXrX} U j.G.n [ D.hXpXaXaXaXaXpXsXzXhXpXaXaXaXaXaXaXaXaXaXaXaXaXaXaXaXpXsX| tX*Xz.B U /.hXyXaXaXaXaXaXaXaXaXaXaX",
"aXaXaXaXaXaXpXaXaXpXtX6XtXaXaXaXaXaXaXaXaXaXaXaXaXaXaXaXaXaXpXsXzXcXpXaXaXaXaXaXpXaXpXrXaXaX9X9XsXaXaXaXaXaXaXaXaXaXaXaXaXaXaXpXsXtXtXaXpX6XrXsXpXaXaXaXaXaXaXaXaXaXaXaXaXaXpXsXtXtXaXyX6XtXsXpXaXaXaXaXaXaXaXaXaXaXaXaXaXpXsXrXyXaXyX6XyXsXpXaXaXaXaXaXaXaXaXaXaXaXaXaXaXsX9XpXaXtX6XaXaXpXaXaXaXaXaXaXaXaXaXaXaXaXaXaXaX9XaXaXrX6XaXaXpXaXaXaXaXaXaXaXaXaXaXaXaXpXaXaXrXaXaX9X6XsXaXaXaXaXaXaXaXaXaXaXaXaXaXaXpXaXyXrXaXaX9X9XsXpXaXaXaXaXaXpXsXzXhXpXaXaXaXaXaXaXaXaXaXaXaXaXaXaXaXaXaXpXaXaXpXtX6XrXaXaXaXaXaXaXaXaXaXaXaXaX",
"aXaXaXaXaXaXaXaXaXaXaXsXaXpXaXaXaXaXaXaXaXaXaXaXaXaXaXaXaXaXpXsXzXcXpXaXaXaXaXaXaXpXaXaXaXaXaXaXpXaXaXaXaXaXaXaXaXaXaXaXaXaXaXaXpXaXaXpXaXaXaXpXaXaXaXaXaXaXaXaXaXaXaXaXaXaXaXpXaXaXpXaXsXaXpXaXaXaXaXaXaXaXaXaXaXaXaXaXaXaXpXaXaXpXaXsXaXpXaXaXaXaXaXaXaXaXaXaXaXaXaXaXaXpXaXaXpXaXsXaXpXaXaXaXaXaXaXaXaXaXaXaXaXaXaXpXpXaXaXaXaXsXpXpXaXaXaXaXaXaXaXaXaXaXaXaXaXaXpXaXaXaXaXaXaXpXaXaXaXaXaXaXaXaXaXaXaXaXaXaXaXpXaXaXpXaXaXaXpXaXaXaXaXaXaXpXsXzXhXpXaXaXaXaXaXaXaXaXaXaXaXaXaXaXaXaXaXaXaXaXaXaXaXaXpXaXaXaXaXaXaXaXaXaXpXaX",
"aXaXaXaXaXaXaXaXaXaXaXaXaXaXaXaXaXaXaXaXaXaXaXaXaXaXaXaXaXaXaXsXzXzXaXaXaXaXaXaXaXaXaXaXaXaXaXaXaXaXaXaXaXaXaXaXaXaXaXaXaXaXaXaXaXaXaXaXaXaXaXaXaXaXaXaXaXaXaXaXaXaXaXaXaXaXaXaXaXaXaXaXaXaXaXaXaXaXaXaXaXaXaXaXaXaXaXaXaXaXaXaXaXaXaXaXaXaXaXaXaXaXaXaXaXaXaXaXaXaXaXaXaXaXaXaXaXaXaXaXaXaXaXaXaXaXaXaXaXaXaXaXaXaXaXaXaXaXaXaXaXaXaXaXaXaXaXaXaXaXaXaXaXaXaXaXaXaXaXaXaXaXaXaXaXaXaXaXaXaXaXaXaXaXaXaXaXaXaXaXaXaXaXaXaXaXaXaXaXaXaXaXaXaXaXpXsXnXhXpXaXaXaXaXaXaXaXaXaXaXaXaXaXaXaXaXaXaXaXaXaXaXaXaXaXaXaXaXaXaXaXaXaXaXaXaX",
"pXpXpXpXpXpXpXpXpXpXpXpXpXpXpXpXpXpXpXpXpXpXpXpXpXpXpXpXpXpXyXaXzXhXyXpXpXpXpXpXpXpXpXpXpXpXpXpXpXpXpXpXpXpXpXpXpXpXpXpXpXpXpXpXpXpXpXpXpXpXpXpXpXpXpXpXpXpXpXpXpXpXpXpXpXpXpXpXpXpXpXpXpXpXpXpXpXpXpXpXpXpXpXpXpXpXpXpXpXpXpXpXpXpXpXpXpXpXpXpXpXpXpXpXpXpXpXpXpXpXpXpXpXpXpXpXpXpXpXpXpXpXpXpXpXpXpXpXpXpXpXpXpXpXpXpXpXpXpXpXpXpXpXpXpXpXpXpXpXpXpXpXpXpXpXpXpXpXpXpXpXpXpXpXpXpXpXpXpXpXpXpXpXpXpXpXpXpXpXpXpXpXpXpXpXpXpXpXpXpXpXpXpXpXpXyXsXzXsXyXpXpXpXpXpXpXpXpXpXpXpXpXpXpXyXpXyXrXrXyXpXtXrXyXyXrXtXyXtXrXtXyXtXyXrXtX",
"d.d.d.d.d.d.d.d.d.d.d.d.d.d.d.d.d.d.d.d.d.d.d.d.d.d.d.d.d.d.d.d.d.d.d.d.d.d.d.d.d.d.d.d.d.d.d.d.d.d.d.d.d.d.d.d.d.d.d.d.d.d.d.d.d.d.d.d.d.d.d.d.d.d.d.d.d.d.d.d.d.d.d.d.d.d.d.d.d.d.d.d.d.d.d.d.d.d.d.d.d.d.d.d.d.d.d.d.d.d.d.d.d.d.d.d.d.d.d.d.d.d.d.d.d.d.d.d.d.d.d.d.d.d.d.d.d.d.d.d.d.d.d.d.d.d.d.d.d.d.d.d.d.d.d.d.d.d.d.d.d.d.d.d.d.d.d.d.d.d.d.d.d.d.d.d.d.d.d.d.d.d.d.d.d.d.d.d.d.d.d.d.d.d.d.d.d.d.d.d.d.d.d.d.d.d.d.d.d.d.d.d.d.d.d.d.d.d.d.d.d.d.d.d.d.d.d.d.d.d.d.d.d.a.Z  .Z l S Z  .A S T Z S N Z A S C C C Z l A ",
"s.s.s.s.s.s.s.s.s.s.s.s.s.s.s.s.s.s.s.s.s.s.s.s.s.s.s.s.s.s.s.s.s.s.s.s.s.s.s.s.s.s.s.s.s.s.s.s.s.s.s.s.s.s.s.s.s.s.s.s.s.s.s.s.s.s.s.s.s.s.s.s.s.s.s.s.s.s.s.s.s.s.s.s.s.s.s.s.s.s.s.s.s.s.s.s.s.s.s.s.s.s.s.s.s.s.s.s.s.s.s.s.s.s.s.s.s.s.s.s.s.s.s.s.s.s.s.s.s.s.s.s.s.s.s.s.s.s.s.s.s.s.s.s.s.s.s.s.s.s.s.s.s.s.s.s.s.s.s.s.s.s.s.s.s.s.s.s.s.s.s.s.s.s.s.s.s.s.s.s.s.s.s.s.s.s.s.s.s.s.s.s.s.s.s.s.s.s.s.s.s.s.s.s.s.s.s.s.s.s.s.s.s.s.s.s.s.s.s.s.s.s.s.s.s.s.s.s.s.s.s.s.d. .Z Z Z  .T Z Z Z T Z Z T T Z Z T Z Z Z Z  .Z ",
"c.c.c.c.c.c.c.c.c.c.c.c.c.c.c.c.c.c.c.c.c.c.c.c.c.c.c.c.c.c.c.c.c.c.c.c.c.c.c.c.c.c.c.c.c.c.c.c.c.c.c.c.c.c.c.c.c.c.c.c.c.c.c.c.c.c.c.c.c.c.c.c.c.c.c.c.c.c.c.c.c.c.c.c.c.c.c.c.c.c.c.c.c.c.c.c.c.c.c.c.c.c.c.c.c.c.c.c.c.c.c.c.c.c.c.c.c.c.c.c.c.c.c.c.c.c.c.c.c.c.c.c.c.c.c.c.c.c.c.c.c.c.c.c.c.c.c.c.c.c.c.c.c.c.c.c.c.c.c.c.c.c.c.c.c.c.c.c.c.c.c.c.c.c.c.c.c.c.c.c.c.c.c.c.c.c.c.c.c.c.c.c.c.c.c.c.c.c.c.c.c.c.c.c.c.c.c.c.c.c.c.c.c.c.c.c.c.c.c.c.c.c.c.c.c.c.c.c.c.c.c.c.c.d. .f.f.f.f.f.f.f.f.f.f.f.f.f.f.f.f.f.f.f.f.f.",
"b.b.b.b.b.b.b.b.b.b.b.b.b.b.b.b.b.b.b.b.b.b.b.b.b.b.b.b.b.b.b.b.b.b.b.b.b.b.b.b.b.b.b.b.b.b.b.b.b.b.b.b.b.b.b.b.b.b.b.b.b.b.b.b.b.b.b.b.b.b.b.b.b.b.b.b.b.b.b.b.b.b.b.b.b.b.b.b.b.b.b.b.b.b.b.b.b.b.b.b.b.b.b.b.b.b.b.b.b.b.b.b.b.b.b.b.b.b.b.b.b.b.b.b.b.b.b.b.b.b.b.b.b.b.b.b.b.b.b.b.b.b.b.b.b.b.b.b.b.b.b.b.b.b.b.b.b.b.b.b.b.b.b.b.b.b.b.b.b.b.b.b.b.b.b.b.b.b.b.b.b.b.b.b.b.b.b.b.b.b.b.b.b.b.b.b.b.b.b.b.b.b.b.b.b.b.b.b.b.b.b.b.b.b.b.b.b.b.b.b.b.b.b.b.b.b.b.b.b.b.b.b.S.c.s.k.k.k.k.k.k.k.k.k.k.k.k.k.k.k.k.k.k.k.k.k.",
"R.R.R.R.R.R.R.R.R.R.R.R.R.R.R.R.R.R.R.R.R.R.R.R.R.R.R.R.R.R.R.R.R.R.R.R.R.R.R.R.R.R.R.R.R.R.R.R.R.R.R.R.R.R.R.R.R.R.R.R.R.R.R.R.R.R.R.R.R.R.R.R.R.R.R.R.R.R.R.R.R.R.R.R.R.R.R.R.R.R.R.R.R.R.R.R.R.R.R.R.R.R.R.R.R.R.R.R.R.R.R.R.R.R.R.R.R.R.R.R.R.R.R.R.R.R.R.R.R.R.R.R.R.R.R.R.R.R.R.R.R.R.R.R.R.R.R.R.R.R.R.R.R.R.R.R.R.R.R.R.R.R.R.R.R.R.R.R.R.R.R.R.R.R.R.R.R.R.R.R.R.R.R.R.R.R.R.R.R.R.R.R.R.R.R.R.R.R.R.R.R.R.R.R.R.R.R.R.R.R.R.R.R.R.R.R.R.R.R.R.R.R.R.R.R.R.R.R.R.R.R.R.R.v.k.s. . . . . . . . . . . . . . . . . . . . .",
"^.^.^.^.^.^.^.^.^.^.^.^.^.^.^.^.^.^.^.^.^.^.^.^.^.^.^.^.^.^.^.^.^.^.^.^.^.^.^.^.^.^.^.^.^.^.^.^.^.^.^.^.^.^.^.^.^.^.^.^.^.^.^.^.^.^.^.^.^.^.^.^.^.^.^.^.^.^.^.^.^.^.^.^.^.^.^.^.^.^.^.^.^.^.^.^.^.^.^.^.^.^.^.^.^.^.^.^.^.^.^.^.^.^.^.^.^.^.^.^.^.^.^.^.^.^.^.^.^.^.^.^.^.^.^.^.^.^.^.^.^.^.^.^.^.^.^.^.^.^.^.^.^.^.^.^.^.^.^.^.^.^.^.^.^.^.^.^.^.^.^.^.^.^.^.^.^.^.^.^.^.^.^.^.^.^.^.^.^.^.^.^.^.^.^.^.^.^.^.^.^.^.^.^.^.^.^.^.^.^.^.^.^.^.^.^.^.^.^.^.^.^.^.^.^.^.^.^.^.^.^.^.^.R.v.s. . . . . . . . . . . . . . . . . . . . .",
"'.'.'.'.'.'.'.'.'.'.'.'.'.'.'.'.'.'.'.'.'.'.'.'.'.'.'.'.'.'.'.'.'.'.'.'.'.'.'.'.'.'.'.'.'.'.'.'.'.'.'.'.'.'.'.'.'.'.'.'.'.'.'.'.'.'.'.'.'.'.'.'.'.'.'.'.'.'.'.'.'.'.'.'.'.'.'.'.'.'.'.'.'.'.'.'.'.'.'.'.'.'.'.'.'.'.'.'.'.'.'.'.'.'.'.'.'.'.'.'.'.'.'.'.'.'.'.'.'.'.'.'.'.'.'.'.'.'.'.'.'.'.'.'.'.'.'.'.'.'.'.'.'.'.'.'.'.'.'.'.'.'.'.'.'.'.'.'.'.'.'.'.'.'.'.'.'.'.'.'.'.'.'.'.'.'.'.'.'.'.'.'.'.'.'.'.'.'.'.'.'.'.'.'.'.'.'.'.'.'.'.'.'.'.'.'.'.'.'.'.'.'.'.'.'.'.'.'.'.'.'.'.'.E.S.k.s.s.s.s.g.g.g.g.g.g.g.g.g.g.g.g.g.g.s.s.",
"&X&X&X&X&X&X&X&X&X&X&X&X&X&X&X&X&X&X&X&X&X&X&X&X&X&X&X&X&X&X&X&X&X&X&X&X&X&X&X&X&X&X&X&X&X&X&X&X&X&X&X&X&X&X&X&X&X&X&X&X&X&X&X&X&X&X&X&X&X&X&X&X&X&X&X&X&X&X&X&X&X&X&X&X&X&X&X&X&X&X&X&X&X&X&X&X&X&X&X&X&X&X&X&X&X&X&X&X&X&X&X&X&X&X&X&X&X&X&X&X&X&X&X&X&X&X&X&X&X&X&X&X&X&X&X&X&X&X&X&X&X&X&X&X&X&X&X&X&X&X&X&X&X&X&X&X&X&X&X&X&X&X&X&X&X&X&X&X&X&X&X&X&X&X&X&X&X&X&X&X&X&X&X&X&X&X&X&X&X&X&X&X&X&X&X&X&X&X&X&X&X&X&X&X&X&X&X&X&X&X&X&X&X&X&X&X&X&X&X&X&X&X&X&X&X&X&X&X&X&X&X&X8X^.E.v.k.v.v.l.k.k.k.k.k.k.k.k.k.k.k.k.k.k.l.v.",
"7X7X7X7X7X7X7X7X7X7X7X7X7X7X7X7X7X7X7X7X7X7X7X7X7X7X7X7X7X7X7X7X7X7X7X7X7X7X7X7X7X7X7X7X7X7X7X7X7X7X7X7X7X7X7X7X7X7X7X7X7X7X7X7X7X7X7X7X7X7X7X7X7X7X7X7X7X7X7X7X7X7X7X7X7X7X7X7X7X7X7X7X7X7X7X7X7X7X7X7X7X7X7X7X7X7X7X7X7X7X7X7X7X7X7X7X7X7X7X7X7X7X7X7X7X7X7X7X7X7X7X7X7X7X7X7X7X7X7X7X7X7X7X7X7X7X7X7X7X7X7X7X7X7X7X7X7X7X7X7X7X7X7X7X7X7X7X7X7X7X7X7X7X7X7X7X7X7X7X7X7X7X7X7X7X7X7X7X7X7X7X7X7X7X7X7X7X7X7X7X7X7X7X7X7X7X7X7X7X7X7X7X7X7X7X7X7X7X7X7X7X7X7X7X7X7X7X7X7X7X7X6X7X X^.S...l x ..Z.Z.v.Z.v.v.v.Z.S.Z.S.v.l.Z.V l ",
"iXiXiXiXiXiXiXiXiXiXiXiXiXiXiXiXiXiXiXiXiXiXiXiXiXiXiXiXiXiXiXiXiXiXiXiXiXiXiXiXiXiXiXiXiXiXiXiXiXiXiXiXiXiXiXiXiXiXiXiXiXiXiXiXiXiXiXiXiXiXiXiXiXiXiXiXiXiXiXiXiXiXiXiXiXiXiXiXiXiXiXiXiXiXiXiXiXiXiXiXiXiXiXiXiXiXiXiXiXiXiXiXiXiXiXiXiXiXiXiXiXiXiXiXiXiXiXiXiXiXiXiXiXiXiXiXiXiXiXiXiXiXiXiXiXiXiXiXiXiXiXiXiXiXiXiXiXiXiXiXiXiXiXiXiXiXiXiXiXiXiXiXiXiXiXiXiXiXiXiXiXiXiXiXiXiXiXiXiXiXiXiXiXiXiXiXiXiXiXiXiXiXiXiXiXiXiXiXiXiXiXiXiXiXiXiXiXiXiXiXiXiXiXiXiXiXiXiXiXiXiXtXpX5X'.^.] v l.l g.b [ ] v...g.V v V v ..S.D.x h.",
"sXsXsXsXsXsXsXsXsXsXsXsXsXsXsXsXsXsXsXsXsXsXsXsXsXsXsXsXsXsXsXsXsXsXsXsXsXsXsXsXsXsXsXsXsXsXsXsXsXsXsXsXsXsXsXsXsXsXsXsXsXsXsXsXsXsXsXsXsXsXsXsXsXsXsXsXsXsXsXsXsXsXsXsXsXsXsXsXsXsXsXsXsXsXsXsXsXsXsXsXsXsXsXsXsXsXsXsXsXsXsXsXsXsXsXsXsXsXsXsXsXsXsXsXsXsXsXsXsXsXsXsXsXsXsXsXsXsXsXsXsXsXsXsXsXsXsXsXsXsXsXsXsXsXsXsXsXsXsXsXsXsXsXsXsXsXsXsXsXsXsXsXsXsXsXsXsXsXsXsXsXsXsXsXsXsXsXsXsXsXsXsXsXsXsXsXsXsXsXsXsXsXsXsXsXsXsXsXsXsXsXsXsXsXsXsXsXsXsXsXsXsXsXsXsXsXsXsXsXsXsXsXzXrX&X(...B '.B v l E.m M.B [ x o.l o.v D.~.v x ",
"nXnXnXnXnXnXnXnXnXnXnXnXnXnXnXnXnXnXnXnXnXnXnXnXnXnXnXnXnXnXnXnXnXnXnXnXnXnXnXnXnXnXnXnXnXnXnXnXnXnXnXnXnXnXnXnXnXnXnXnXnXnXnXnXnXnXnXnXnXnXnXnXnXnXnXnXnXnXnXnXnXnXnXnXnXnXnXnXnXnXnXnXnXnXnXnXnXnXnXnXnXnXnXnXnXnXnXnXnXnXnXnXnXnXnXnXnXnXnXnXnXnXnXnXnXnXnXnXnXnXnXnXnXnXnXnXnXnXnXnXnXnXnXnXnXnXnXnXnXnXnXnXnXnXnXnXnXnXnXnXnXnXnXnXnXnXnXnXnXnXnXnXnXnXnXnXnXnXnXnXnXnXnXnXnXnXnXnXnXnXnXnXnXnXnXnXnXnXnXnXnXnXnXnXnXnXnXnXnXnXnXnXnXnXnXnXnXnXnXnXnXnXnXnXnXnXnXnXnXnXnXnXMXaX6X%Xo.[ %Xv Y Y &Xv D.Y ..B E.n D.n Q.(.n o.",
"NXNXNXNXNXNXNXNXNXNXNXNXNXNXNXNXNXNXNXNXNXNXNXNXNXNXNXNXNXNXNXNXNXNXNXNXNXNXNXNXNXNXNXNXNXNXNXNXNXNXNXNXNXNXNXNXNXNXNXNXNXNXNXNXNXNXNXNXNXNXNXNXNXNXNXNXNXNXNXNXNXNXNXNXNXNXNXNXNXNXNXNXNXNXNXNXNXNXNXNXNXNXNXNXNXNXNXNXNXNXNXNXNXNXNXNXNXNXNXNXNXNXNXNXNXNXNXNXNXNXNXNXNXNXNXNXNXNXNXNXNXNXNXNXNXNXNXNXNXNXNXNXNXNXNXNXNXNXNXNXNXNXNXNXNXNXNXNXNXNXNXNXNXNXNXNXNXNXNXNXNXNXNXNXNXNXNXNXNXNXNXNXNXNXNXNXNXNXNXNXNXNXNXNXNXNXNXNXNXNXNXNXNXNXNXNXNXNXNXNXNXNXNXNXNXNXNXNXNXNXNXNXZXhXrX*Xh.x B ] M.B =X} n x h.B Q.b G.B ). XB Z.",
"VXVXVXVXVXVXVXVXVXVXVXVXVXVXVXVXVXVXVXVXVXVXVXVXVXVXVXVXVXVXVXVXVXVXVXVXVXVXVXVXVXVXVXVXVXVXVXVXVXVXVXVXVXVXVXVXVXVXVXVXVXVXVXVXVXVXVXVXVXVXVXVXVXVXVXVXVXVXVXVXVXVXVXVXVXVXVXVXVXVXVXVXVXVXVXVXVXVXVXVXVXVXVXVXVXVXVXVXVXVXVXVXVXVXVXVXVXVXVXVXVXVXVXVXVXVXVXVXVXVXVXVXVXVXVXVXVXVXVXVXVXVXVXVXVXVXVXVXVXVXVXVXVXVXVXVXVXVXVXVXVXVXVXVXVXVXVXVXVXVXVXVXVXVXVXVXVXVXVXVXVXVXVXVXVXVXVXVXVXVXVXVXVXVXVXVXVXVXVXVXVXVXVXVXVXVXVXVXVXVXVXVXVXVXVXVXVXVXVXVXVXVXVXVXVXVXVXVXVXVXVXVXZXcXtX%X~.A.A.(./.~././.A.G.).~./.~./.~././.~.).",
"VXVXVXVXVXVXVXVXVXVXVXVXVXVXVXVXVXVXVXVXVXVXVXVXVXVXVXVXVXVXVXVXVXVXVXVXVXVXVXVXVXVXVXVXVXVXVXVXVXVXVXVXVXVXVXVXVXVXVXVXVXVXVXVXVXVXVXVXVXVXVXVXVXVXVXVXVXVXVXVXVXVXVXVXVXVXVXVXVXVXVXVXVXVXVXVXVXVXVXVXVXVXVXVXVXVXVXVXVXVXVXVXVXVXVXVXVXVXVXVXVXVXVXVXVXVXVXVXVXVXVXVXVXVXVXVXVXVXVXVXVXVXVXVXVXVXVXVXVXVXVXVXVXVXVXVXVXVXVXVXVXVXVXVXVXVXVXVXVXVXVXVXVXVXVXVXVXVXVXVXVXVXVXVXVXVXVXVXVXVXVXVXVXVXVXVXVXVXVXVXVXVXVXVXVXVXVXVXVXVXVXVXVXVXVXVXVXVXVXVXVXVXVXVXVXVXVXVXVXVXVXNXZXcXtX%X/.'.'././.(././.'.(./.(./.(./.(././.(./.",
"VXVXVXVXVXVXVXVXVXVXVXVXVXVXVXVXVXVXVXVXVXVXVXVXVXVXVXVXVXVXVXVXVXVXVXVXVXVXVXVXVXVXVXVXVXVXVXVXVXVXVXVXVXVXVXVXVXVXVXVXVXVXVXVXVXVXVXVXVXVXVXVXVXVXVXVXVXVXVXVXVXVXVXVXVXVXVXVXVXVXVXVXVXVXVXVXVXVXVXVXVXVXVXVXVXVXVXVXVXVXVXVXVXVXVXVXVXVXVXVXVXVXVXVXVXVXVXVXVXVXVXVXVXVXVXVXVXVXVXVXVXVXVXVXVXVXVXVXVXVXVXVXVXVXVXVXVXVXVXVXVXVXVXVXVXVXVXVXVXVXVXVXVXVXVXVXVXVXVXVXVXVXVXVXVXVXVXVXVXVXVXVXVXVXVXVXVXVXVXVXVXVXVXVXVXVXVXVXVXVXVXVXVXVXVXVXVXVXVXVXVXVXVXVXVXVXVXVXVXVXVXNXZXcXtX X~.).).).).).).).).).).).).).).).).).).).",
"VXVXVXVXVXVXVXVXVXVXVXVXVXVXVXVXVXVXVXVXVXVXVXVXVXVXVXVXVXVXVXVXVXVXVXVXVXVXVXVXVXVXVXVXVXVXVXVXVXVXVXVXVXVXVXVXVXVXVXVXVXVXVXVXVXVXVXVXVXVXVXVXVXVXVXVXVXVXVXVXVXVXVXVXVXVXVXVXVXVXVXVXVXVXVXVXVXVXVXVXVXVXVXVXVXVXVXVXVXVXVXVXVXVXVXVXVXVXVXVXVXVXVXVXVXVXVXVXVXVXVXVXVXVXVXVXVXVXVXVXVXVXVXVXVXVXVXVXVXVXVXVXVXVXVXVXVXVXVXVXVXVXVXVXVXVXVXVXVXVXVXVXVXVXVXVXVXVXVXVXVXVXVXVXVXVXVXVXVXVXVXVXVXVXVXVXVXVXVXVXVXVXVXVXVXVXVXVXVXVXVXVXVXVXVXVXVXVXVXVXVXVXVXVXVXVXVXVXVXVXVXNXZXcXtX6X%X&X%X%X%X%X%X%X%X%X%X%X%X%X%X%X%X%X%X%X",
"VXVXVXVXVXVXVXVXVXVXVXVXVXVXVXVXVXVXVXVXVXVXVXVXVXVXVXVXVXVXVXVXVXVXVXVXVXVXVXVXVXVXVXVXVXVXVXVXVXVXVXVXVXVXVXVXVXVXVXVXVXVXVXVXVXVXVXVXVXVXVXVXVXVXVXVXVXVXVXVXVXVXVXVXVXVXVXVXVXVXVXVXVXVXVXVXVXVXVXVXVXVXVXVXVXVXVXVXVXVXVXVXVXVXVXVXVXVXVXVXVXVXVXVXVXVXVXVXVXVXVXVXVXVXVXVXVXVXVXVXVXVXVXVXVXVXVXVXVXVXVXVXVXVXVXVXVXVXVXVXVXVXVXVXVXVXVXVXVXVXVXVXVXVXVXVXVXVXVXVXVXVXVXVXVXVXVXVXVXVXVXVXVXVXVXVXVXVXVXVXVXVXVXVXVXVXVXVXVXVXVXVXVXVXVXVXVXVXVXVXVXVXVXVXVXVXVXVXVXVXVXNXZXcX6XtXtXtXtXtXtXtXtXtXtXtXtXtXtXtXtXtXtXtXtXtX",
"VXVXVXVXVXVXVXVXVXVXVXVXVXVXVXVXVXVXVXVXVXVXVXVXVXVXVXVXVXVXVXVXVXVXVXVXVXVXVXVXVXVXVXVXVXVXVXVXVXVXVXVXVXVXVXVXVXVXVXVXVXVXVXVXVXVXVXVXVXVXVXVXVXVXVXVXVXVXVXVXVXVXVXVXVXVXVXVXVXVXVXVXVXVXVXVXVXVXVXVXVXVXVXVXVXVXVXVXVXVXVXVXVXVXVXVXVXVXVXVXVXVXVXVXVXVXVXVXVXVXVXVXVXVXVXVXVXVXVXVXVXVXVXVXVXVXVXVXVXVXVXVXVXVXVXVXVXVXVXVXVXVXVXVXVXVXVXVXVXVXVXVXVXVXVXVXVXVXVXVXVXVXVXVXVXVXVXVXVXVXVXVXVXVXVXVXVXVXVXVXVXVXVXVXVXVXVXVXVXVXVXVXVXVXVXVXVXVXVXVXVXVXVXVXVXVXVXVXVXVXVXVXZXMXzXzXzXzXzXzXzXzXzXzXzXzXzXzXzXzXzXzXzXzXzXzX",
"VXVXVXVXVXVXVXVXVXVXVXVXVXVXVXVXVXVXVXVXVXVXVXVXVXVXVXVXVXVXVXVXVXVXVXVXVXVXVXVXVXVXVXVXVXVXVXVXVXVXVXVXVXVXVXVXVXVXVXVXVXVXVXVXVXVXVXVXVXVXVXVXVXVXVXVXVXVXVXVXVXVXVXVXVXVXVXVXVXVXVXVXVXVXVXVXVXVXVXVXVXVXVXVXVXVXVXVXVXVXVXVXVXVXVXVXVXVXVXVXVXVXVXVXVXVXVXVXVXVXVXVXVXVXVXVXVXVXVXVXVXVXVXVXVXVXVXVXVXVXVXVXVXVXVXVXVXVXVXVXVXVXVXVXVXVXVXVXVXVXVXVXVXVXVXVXVXVXVXVXVXVXVXVXVXVXVXVXVXVXVXVXVXVXVXVXVXVXVXVXVXVXVXVXVXVXVXVXVXVXVXVXVXVXVXVXVXVXVXVXVXVXVXVXVXVXVXVXVXVXVXVXVXZXZXZXZXZXZXZXZXZXZXZXZXZXZXZXZXZXZXZXZXZXZXZX",
"VXVXVXVXVXVXVXVXVXVXVXVXVXVXVXVXVXVXVXVXVXVXVXVXVXVXVXVXVXVXVXVXVXVXVXVXVXVXVXVXVXVXVXVXVXVXVXVXVXVXVXVXVXVXVXVXVXVXVXVXVXVXVXVXVXVXVXVXVXVXVXVXVXVXVXVXVXVXVXVXVXVXVXVXVXVXVXVXVXVXVXVXVXVXVXVXVXVXVXVXVXVXVXVXVXVXVXVXVXVXVXVXVXVXVXVXVXVXVXVXVXVXVXVXVXVXVXVXVXVXVXVXVXVXVXVXVXVXVXVXVXVXVXVXVXVXVXVXVXVXVXVXVXVXVXVXVXVXVXVXVXVXVXVXVXVXVXVXVXVXVXVXVXVXVXVXVXVXVXVXVXVXVXVXVXVXVXVXVXVXVXVXVXVXVXVXVXVXVXVXVXVXVXVXVXVXVXVXVXVXVXVXVXVXVXVXVXVXVXVXVXVXVXVXVXVXVXVXVXVXVXVXZXMXsXhXhXhXhXhXhXhXhXhXhXhXhXhXhXhXhXhXhXhXhXhX",
"VXVXVXVXVXVXVXVXVXVXVXVXVXVXVXVXVXVXVXVXVXVXVXVXVXVXVXVXVXVXVXVXVXVXVXVXVXVXVXVXVXVXVXVXVXVXVXVXVXVXVXVXVXVXVXVXVXVXVXVXVXVXVXVXVXVXVXVXVXVXVXVXVXVXVXVXVXVXVXVXVXVXVXVXVXVXVXVXVXVXVXVXVXVXVXVXVXVXVXVXVXVXVXVXVXVXVXVXVXVXVXVXVXVXVXVXVXVXVXVXVXVXVXVXVXVXVXVXVXVXVXVXVXVXVXVXVXVXVXVXVXVXVXVXVXVXVXVXVXVXVXVXVXVXVXVXVXVXVXVXVXVXVXVXVXVXVXVXVXVXVXVXVXVXVXVXVXVXVXVXVXVXVXVXVXVXVXVXVXVXVXVXVXVXVXVXVXVXVXVXVXVXVXVXVXVXVXVXVXVXVXVXVXVXVXVXVXVXVXVXVXVXVXVXVXVXVXVXVXVXVXVXZXmXtXpXpXaXaXaXaXaXaXaXaXaXaXaXpXyXpXaXaXaXaXaX",
"VXVXVXVXVXVXVXVXVXVXVXVXVXVXVXVXVXVXVXVXVXVXVXVXVXVXVXVXVXVXVXVXVXVXVXVXVXVXVXVXVXVXVXVXVXVXVXVXVXVXVXVXVXVXVXVXVXVXVXVXVXVXVXVXVXVXVXVXVXVXVXVXVXVXVXVXVXVXVXVXVXVXVXVXVXVXVXVXVXVXVXVXVXVXVXVXVXVXVXVXVXVXVXVXVXVXVXVXVXVXVXVXVXVXVXVXVXVXVXVXVXVXVXVXVXVXVXVXVXVXVXVXVXVXVXVXVXVXVXVXVXVXVXVXVXVXVXVXVXVXVXVXVXVXVXVXVXVXVXVXVXVXVXVXVXVXVXVXVXVXVXVXVXVXVXVXVXVXVXVXVXVXVXVXVXVXVXVXVXVXVXVXVXVXVXVXVXVXVXVXVXVXVXVXVXVXVXVXVXVXVXVXVXVXVXVXVXVXVXVXVXVXVXVXVXVXVXVXVXVXVXVXZXmXyXaXyX6X6X6X6X6X6X6X6X6X6X6XrXaXyX6X6X6X6X6X",
"VXVXVXVXVXVXVXVXVXVXVXVXVXVXVXVXVXVXVXVXVXVXVXVXVXVXVXVXVXVXVXVXVXVXVXVXVXVXVXVXVXVXVXVXVXVXVXVXVXVXVXVXVXVXVXVXVXVXVXVXVXVXVXVXVXVXVXVXVXVXVXVXVXVXVXVXVXVXVXVXVXVXVXVXVXVXVXVXVXVXVXVXVXVXVXVXVXVXVXVXVXVXVXVXVXVXVXVXVXVXVXVXVXVXVXVXVXVXVXVXVXVXVXVXVXVXVXVXVXVXVXVXVXVXVXVXVXVXVXVXVXVXVXVXVXVXVXVXVXVXVXVXVXVXVXVXVXVXVXVXVXVXVXVXVXVXVXVXVXVXVXVXVXVXVXVXVXVXVXVXVXVXVXVXVXVXVXVXVXVXVXVXVXVXVXVXNXNXNXNXNXNXNXNXNXNXNXNXNXNXNXNXNXNXNXNXNXNXNXNXNXNXNXNXNXNXNXNXNXNXNXVXZXmXyXaXtX*X9X9X9X9X9X9X9X9XrX6X=XaXtX*X9X9X9X9X",
"VXVXVXVXVXVXVXVXVXVXVXVXVXVXVXVXVXVXVXVXVXVXVXVXVXVXVXVXVXVXVXVXVXVXVXVXVXVXVXVXVXVXVXVXVXVXVXVXVXVXVXVXVXVXVXVXVXVXVXVXVXVXVXVXVXVXVXVXVXVXVXVXVXVXVXVXVXVXVXVXVXVXVXVXVXVXVXVXVXVXVXVXVXVXVXVXVXVXVXVXVXVXVXVXVXVXVXVXVXVXVXVXVXVXVXVXVXVXVXVXVXVXVXVXVXVXVXVXVXVXVXVXVXVXVXVXVXVXVXVXVXVXVXVXVXVXVXVXVXVXVXVXVXVXVXVXVXVXVXVXVXVXVXVXVXVXVXVXVXVXVXVXVXVXVXVXVXVXVXVXVXVXVXVXVXVXVXVXVXVXVXVXVXVXVXVXZXAXAXAXAXAXAXAXAXAXAXAXAXAXAXAXAXAXAXAXAXAXAXAXAXAXAXAXAXAXAXAXAXAXZXNXZXmXyXaXtX=XaXaXsXsXsXsXsXaXsXtX=XaXtX=XaXaXsXsX",
"VXVXVXVXVXVXVXVXVXVXVXVXVXVXVXVXVXVXVXVXVXVXVXVXVXVXVXVXVXVXVXVXVXVXVXVXVXVXVXVXVXVXVXVXVXVXVXVXVXVXVXVXVXVXVXVXVXVXVXVXVXVXVXVXVXVXVXVXVXVXVXVXVXVXVXVXVXVXVXVXVXVXVXVXVXVXVXVXVXVXVXVXVXVXVXVXVXVXVXVXVXVXVXVXVXVXVXVXVXVXVXVXVXVXVXVXVXVXVXVXVXVXVXVXVXVXVXVXVXVXVXVXVXVXVXVXVXVXVXVXVXVXVXVXVXVXVXVXVXVXVXVXVXVXVXVXVXVXVXVXVXVXVXVXVXVXVXVXVXVXVXVXVXVXVXVXVXVXVXVXVXVXVXVXVXVXVXVXVXVXVXVXVXVXVXVX7XR.S.T.T.T.T.T.T.T.T.T.T.T.T.T.T.T.T.T.T.T.T.T.T.T.T.T.T.T.T.T.S.T.pXZXZXmXyXaXtX=XaXpX9X9XtX9XrXaXaXrX=XaXtX=XaXpXtXtX",
"VXVXVXVXVXVXVXVXVXVXVXVXVXVXVXVXVXVXVXVXVXVXVXVXVXVXVXVXVXVXVXVXVXVXVXVXVXVXVXVXVXVXVXVXVXVXVXVXVXVXVXVXVXVXVXVXVXVXVXVXVXVXVXVXVXVXVXVXVXVXVXVXVXVXVXVXVXVXVXVXVXVXVXVXVXVXVXVXVXVXVXVXVXVXVXVXVXVXVXVXVXVXVXVXVXVXVXVXVXVXVXVXVXVXVXVXVXVXVXVXVXVXVXVXVXVXVXVXVXVXVXVXVXVXVXVXVXVXVXVXVXVXVXVXVXVXVXVXVXVXVXVXVXVXVXVXVXVXVXVXVXVXVXVXVXVXVXVXVXVXVXVXVXVXVXVXVXVXVXVXVXVXVXVXVXVXVXVXVXVXVXVXVXNXAX'.g h h h h h h h h h h h h h h h h h h h h h h h h h h h h h h h h h k aXZXnXyXaXtX=XaXyX@.c 6 n N.sXaXrX=XaXtX=XaXsX{ 5 ",
"VXVXVXVXVXVXVXVXVXVXVXVXVXVXVXVXVXVXVXVXVXVXVXVXVXVXVXVXVXVXVXVXVXVXVXVXVXVXVXVXVXVXVXVXVXVXVXVXVXVXVXVXVXVXVXVXVXVXVXVXVXVXVXVXVXVXVXVXVXVXVXVXVXVXVXVXVXVXVXVXVXVXVXVXVXVXVXVXVXVXVXVXVXVXVXVXVXVXVXVXVXVXVXVXVXVXVXVXVXVXVXVXVXVXVXVXVXVXVXVXVXVXVXVXVXVXVXVXVXVXVXVXVXVXVXVXVXVXVXVXVXVXVXVXVXVXVXVXVXVXVXVXVXVXVXVXVXVXVXVXVXVXVXVXVXVXVXVXVXVXVXVXVXVXVXVXVXVXVXVXVXVXVXVXVXVXVXVXVXVXVXVXVXNXAXa.h j g k h g j h k g g k k g g k k j j k h g k g k g g j h j k k g g h b.AXzXyXaXtX=XaXyXsXX., V.hXyXaXrX=XaXtX=XpXhX).4 ",
"VXVXVXVXVXVXVXVXVXVXVXVXVXVXVXVXVXVXVXVXVXVXVXVXVXVXVXVXVXVXVXVXVXVXVXVXVXVXVXVXVXVXVXVXVXVXVXVXVXVXVXVXVXVXVXVXVXVXVXVXVXVXVXVXVXVXVXVXVXVXVXVXVXVXVXVXVXVXVXVXVXVXVXVXVXVXVXVXVXVXVXVXVXVXVXVXVXVXVXVXVXVXVXVXVXVXVXVXVXVXVXVXVXVXVXVXVXVXVXVXVXVXVXVXVXVXVXVXVXVXVXVXVXVXVXVXVXVXVXVXVXVXVXVXVXVXVXVXVXVXVXVXVXVXVXVXVXVXVXVXVXVXVXVXVXVXVXVXVXVXVXVXVXVXVXVXVXVXVXVXVXVXVXVXVXVXVXVXVXVXVXVXVXNXAXC h N A g f.N k d.k Z Z g j Z Z k g N k k s.A j Z k :.Z k d.N g k a.C 8 k.AXzXyXaXtX=XpXsX%X5 4 x rXaXaXrX=XaXtX=XaXpXnXX.",
"VXVXVXVXVXVXVXVXVXVXVXVXVXVXVXVXVXVXVXVXVXVXVXVXVXVXVXVXVXVXVXVXVXVXVXVXVXVXVXVXVXVXVXVXVXVXVXVXVXVXVXVXVXVXVXVXVXVXVXVXVXVXVXVXVXVXVXVXVXVXVXVXVXVXVXVXVXVXVXVXVXVXVXVXVXVXVXVXVXVXVXVXVXVXVXVXVXVXVXVXVXVXVXVXVXVXVXVXVXVXVXVXVXVXVXVXVXVXVXVXVXVXVXVXVXVXVXVXVXVXVXVXVXVXVXVXVXVXVXVXVXVXVXVXVXVXVXVXVXVXVXVXVXVXVXVXVXVXVXVXVXVXVXVXVXVXVXVXVXVXVXVXVXVXVXVXVXVXVXVXVXVXVXVXVXVXVXVXVXVXVXVXVXNXAXZ 8 n.b.C b.c.b.c.b.c.b.N j A T.A h b.S k Z n.a.[.S C b.Z Z b.g C b.b.j m.AXzXyXaXtX=XaXsX] , 4 , @.zXpXrX=XaXtX=XaXyXN.n ",
"VXVXVXVXVXVXVXVXVXVXVXVXVXVXVXVXVXVXVXVXVXVXVXVXVXVXVXVXVXVXVXVXVXVXVXVXVXVXVXVXVXVXVXVXVXVXVXVXVXVXVXVXVXVXVXVXVXVXVXVXVXVXVXVXVXVXVXVXVXVXVXVXVXVXVXVXVXVXVXVXVXVXVXVXVXVXVXVXVXVXVXVXVXVXVXVXVXVXVXVXVXVXVXVXVXVXVXVXVXVXVXVXVXVXVXVXVXVXVXVXVXVXVXVXVXVXVXVXVXVXVXVXVXVXVXVXVXVXVXVXVXVXVXVXVXVXVXVXVXVXVXVXVXVXVXVXVXVXVXVXVXVXVXVXVXVXVXVXVXVXVXVXVXVXVXVXVXVXVXVXVXVXVXVXVXVXVXVXVXVXVXVXVXNXAXC h N f.d.k n.R.j L.R.W.k g C ^.k k c.g g k b.k m.k h b.k N c.h S [.b.8 c.AXzXyXaXtX=XaXyX%X X%X X*XaXaXrX=XaXtX=XaXpX X/.",
"VXVXVXVXVXVXVXVXVXVXVXVXVXVXVXVXVXVXVXVXVXVXVXVXVXVXVXVXVXVXVXVXVXVXVXVXVXVXVXVXVXVXVXVXVXVXVXVXVXVXVXVXVXVXVXVXVXVXVXVXVXVXVXVXVXVXVXVXVXVXVXVXVXVXVXVXVXVXVXVXVXVXVXVXVXVXVXVXVXVXVXVXVXVXVXVXVXVXVXVXVXVXVXVXVXVXVXVXVXVXVXVXVXVXVXVXVXVXVXVXVXVXVXVXVXVXVXVXVXVXVXVXVXVXVXVXVXVXVXVXVXVXVXVXVXVXVXVXVXVXVXVXVXVXVXVXVXVXVXVXVXVXVXVXVXVXVXVXVXVXVXVXVXVXVXVXVXVXVXVXVXVXVXVXVXVXVXVXVXVXVXVXVXNXAXC h N d.a.C n.T.N '.a.c.A g h d.Z C f.h k b.A g b.k d.Z k T.k h a.f.b.k d.AXzXyXaXtX=XaXaXhXhXhXhXsXaXaXtX=XaXtX=XaXaXhXzX",
"VXVXVXVXVXVXVXVXVXVXVXVXVXVXVXVXVXVXVXVXVXVXVXVXVXVXVXVXVXVXVXVXVXVXVXVXVXVXVXVXVXVXVXVXVXVXVXVXVXVXVXVXVXVXVXVXVXVXVXVXVXVXVXVXVXVXVXVXVXVXVXVXVXVXVXVXVXVXVXVXVXVXVXVXVXVXVXVXVXVXVXVXVXVXVXVXVXVXVXVXVXVXVXVXVXVXVXVXVXVXVXVXVXVXVXVXVXVXVXVXVXVXVXVXVXVXVXVXVXVXVXVXVXVXVXVXVXVXVXVXVXVXVXVXVXVXVXVXVXVXVXVXVXVXVXVXVXVXVXVXVXVXVXVXVXVXVXVXVXVXVXVXVXVXVXVXVXVXVXVXVXVXVXVXVXVXVXVXVXVXVXVXVXNXAXC h N a.k W.a.Z W.C n.c.Z A c.b.k a.N h C [.d.k a.N [.c.n.^.f.Z A b.c.h c.AXzXyXaXtX*XtXtXtXrXrXrXtXtXtX9X=XaXtX*XtXtXtXrX",
"VXVXVXVXVXVXVXVXVXVXVXVXVXVXVXVXVXVXVXVXVXVXVXVXVXVXVXVXVXVXVXVXVXVXVXVXVXVXVXVXVXVXVXVXVXVXVXVXVXVXVXVXVXVXVXVXVXVXVXVXVXVXVXVXVXVXVXVXVXVXVXVXVXVXVXVXVXVXVXVXVXVXVXVXVXVXVXVXVXVXVXVXVXVXVXVXVXVXVXVXVXVXVXVXVXVXVXVXVXVXVXVXVXVXVXVXVXVXVXVXVXVXVXVXVXVXVXVXVXVXVXVXVXVXVXVXVXVXVXVXVXVXVXVXVXVXVXVXVXVXVXVXVXVXVXVXVXVXVXVXVXVXVXVXVXVXVXVXVXVXVXVXVXVXVXVXVXVXVXVXVXVXVXVXVXVXVXVXVXVXVXVXVXNXAXC g k g j g g g j g j j j j k j j j j j j g k j g j g k j j k j g j j h m.AXzXyXaXtX=X=X=X=X=X=X=X=X=X=X=X6XaXtX=X=X=X=X=X",
"VXVXVXVXVXVXVXVXVXVXVXVXVXVXVXVXVXVXVXVXVXVXVXVXVXVXVXVXVXVXVXVXVXVXVXVXVXVXVXVXVXVXVXVXVXVXVXVXVXVXVXVXVXVXVXVXVXVXVXVXVXVXVXVXVXVXVXVXVXVXVXVXVXVXVXVXVXVXVXVXVXVXVXVXVXVXVXVXVXVXVXVXVXVXVXVXVXVXVXVXVXVXVXVXVXVXVXVXVXVXVXVXVXVXVXVXVXVXVXVXVXVXVXVXVXVXVXVXVXVXVXVXVXVXVXVXVXVXVXVXVXVXVXVXVXVXVXVXVXVXVXVXVXVXVXVXVXVXVXVXVXVXVXVXVXVXVXVXVXVXVXVXVXVXVXVXVXVXVXVXVXVXVXVXVXVXVXVXVXVXVXVXVXNXAXS.8 g g g g g g g g g g g g g g g g g g g g g g g g g g g g g g g g g h '.AXnXyXaXaXaXaXaXaXaXaXaXaXaXaXaXaXpXaXaXaXaXaXaX",
"NXNXNXNXNXNXNXNXNXNXNXNXNXNXNXNXNXNXNXNXNXNXNXNXNXNXNXNXNXNXNXNXNXNXNXNXNXNXNXNXNXNXNXNXNXNXNXNXNXNXNXNXNXNXNXNXNXNXNXNXNXNXNXNXNXNXNXNXNXNXNXNXNXNXNXNXNXNXNXNXNXNXNXNXNXNXNXNXNXNXNXNXNXNXNXNXNXNXNXNXNXNXNXNXNXNXNXNXNXNXNXNXNXNXNXNXNXNXNXNXNXNXNXNXNXNXNXNXNXNXNXNXNXNXNXNXNXNXNXNXNXNXNXNXNXNXNXNXNXNXNXNXNXNXNXNXNXNXNXNXNXNXNXNXNXNXNXNXNXNXNXNXNXNXNXNXNXNXNXNXNXNXNXNXNXNXNXNXNXNXNXNXNXNXZXnXd.N N N N N N N N N N N N N N N N N N N N N N N N N N N N N N N N N T.VXVXnXaXaXaXaXaXaXaXaXaXaXaXaXaXaXaXaXaXaXaXaXaXaX",
"zXzXzXzXzXzXzXzXzXzXzXzXzXzXzXzXzXzXzXzXzXzXzXzXzXzXzXzXzXzXzXzXzXzXzXzXzXzXzXzXzXzXzXzXzXzXzXzXzXzXzXzXzXzXzXzXzXzXzXzXzXzXzXzXzXzXzXzXzXzXzXzXzXzXzXzXzXzXzXzXzXzXzXzXzXzXzXzXzXzXzXzXzXzXzXzXzXzXzXzXzXzXzXzXzXzXzXzXzXzXzXzXzXzXzXzXzXzXzXzXzXzXzXzXzXzXzXzXzXzXzXzXzXzXzXzXzXzXzXzXzXzXzXzXzXzXzXzXzXzXzXzXzXzXzXzXzXzXzXzXzXzXzXzXzXzXzXzXzXzXzXzXzXzXzXzXzXzXzXzXzXzXzXzXzXzXzXzXzXzXzXzXzXzXzXnXMXzXzXzXzXzXzXzXzXzXzXzXzXzXzXzXzXzXzXzXzXzXzXzXzXzXzXzXzXzXzXzXzXzXMXzXzXzXzXzXzXzXzXzXzXzXzXzXzXzXzXzXzXzXzXzXzXzXzXzX",
"zXzXzXzXzXzXzXzXzXzXzXzXzXzXzXzXzXzXzXzXzXzXzXzXzXzXzXzXzXzXzXzXzXzXzXzXzXzXzXzXzXzXzXzXzXzXzXzXzXzXzXzXzXzXzXzXzXzXzXzXzXzXzXzXzXzXzXzXzXzXzXzXzXzXzXzXzXzXzXzXzXzXzXzXzXzXzXzXzXzXzXzXzXzXzXzXzXzXzXzXzXzXzXzXzXzXzXzXzXzXzXzXzXzXzXzXzXzXzXzXzXzXzXzXzXzXzXzXzXzXzXzXzXzXzXzXzXzXzXzXzXzXzXzXzXzXzXzXzXzXzXzXzXzXzXzXzXzXzXzXzXzXzXzXzXzXzXzXzXzXzXzXzXzXzXzXzXzXzXzXzXzXzXzXzXzXzXzXzXzXzXzXzXzXzXzXzXzXzXzXzXzXzXzXzXzXzXzXzXzXzXzXzXzXzXzXzXzXzXzXzXzXzXzXzXzXzXzXzXzXzXzXzXzXzXzXzXzXzXzXzXzXzXzXzXzXzXzXzXzXzXzXzXzXzXzX",
"aXaXaXaXaXaXaXaXaXaXaXaXaXaXaXaXaXaXaXaXaXaXaXaXaXaXaXaXaXaXaXaXaXaXaXaXaXaXaXaXaXaXaXaXaXaXaXaXaXaXaXaXaXaXaXaXaXaXaXaXaXaXaXaXaXaXaXaXaXaXaXaXaXaXaXaXaXaXaXaXaXaXaXaXaXaXaXaXaXaXaXaXaXaXaXaXaXaXaXaXaXaXaXaXaXaXaXaXaXaXaXaXaXaXaXaXaXaXaXaXaXaXaXaXaXaXaXaXaXaXaXzXzXaXaXaXaXaXaXaXaXaXaXaXaXaXaXaXaXaXaXaXaXaXaXaXaXaXaXaXaXaXaXaXaXaXaXaXaXaXaXaXaXaXaXaXaXaXaXaXaXaXaXaXaXaXaXaXaXaXaXaXaXaXaXaXaXaXaXaXaXaXaXaXaXaXaXaXaXaXaXaXaXaXaXaXaXaXaXaXaXaXaXaXaXaXzXzXaXaXaXaXaXaXaXaXaXaXaXaXaXaXaXaXaXaXaXaXaXaXaXaXaXaXaXaX",
"pXpXaXaXaXaXaXaXaXaXyXyXyXyXaXaXaXaXaXaXaXaXaXaXaXaXaXaXpXaXaXaXaXaXaXaXaXpXyXyXpXaXaXaXaXaXaXaXaXaXaXaXaXaXaXaXaXaXaXaXaXaXaXaXaXyXyXyXaXaXaXaXaXaXaXaXaXaXaXaXaXaXaXaXaXaXaXpXaXaXaXaXaXaXaXaXaXaXaXaXaXaXaXpXyXaXaXaXpXaXaXpXaXaXaXaXaXaXaXaXaXaXaXaXaXaXaXaXaXpXaXzXzXaXaXaXaXaXaXaXyXyXpXaXaXaXaXaXaXaXaXaXaXaXaXaXaXaXaXaXaXaXaXaXaXaXpXyXyXpXaXaXaXaXaXaXaXaXaXaXaXaXaXaXaXaXaXaXaXaXaXaXaXaXaXaXaXaXaXaXyXyXaXpXyXaXaXaXaXaXaXaXaXaXaXaXaXaXaXaXaXaXaXaXpXaXzXzXaXaXaXaXaXaXaXaXyXyXyXaXaXaXaXaXaXaXaXaXaXaXaXaXaXaXaXaX",
"aXpXpXaXaXaXaXaXaXpXhXnXnXhXyXyXpXrXaXaXaXaXyXyXpXaXpXpXaXyXaXaXaXaXaXaXpXaXzXzXsXyXyXaXpXyXaXaXyXyXaXaXrXyXyXyXpXaXaXaXaXaXaXaXpXhXnXzXpXyXpXaXyXpXaXpXyXpXaXaXyXyXaXpXpXpXpXaXyXaXaXaXaXaXaXaXaXaXaXaXaXaXpXaXsXaXyXtXaXyXpXaXyXpXyXpXpXyXyXaXaXaXaXaXaXaXaXaXaXpXaXzXzXaXaXaXaXaXaXpXhXnXsXpXyXpXpXpXaXpXpXyXpXpXyXpXyXyXaXaXaXaXaXaXaXpXsXnXzXaXyXyXpXyXyXaXaXaXyXyXaXaXyXyXaXaXpXyXpXpXaXyXaXaXaXaXaXaXaXpXzXhXyXsXzXpXyXyXaXaXyXpXyXyXpXpXaXpXpXyXyXaXaXaXpXaXzXzXaXaXaXaXaXaXaXpXzXnXzXpXpXyXyXpXpXpXaXaXaXaXaXaXaXaXaXaX",
"tXsXaXpXaXaXaXaXpXsX).h.h./.zXzXrX=XZ.~.zXyXzXzXhXaXsXaXyXhXpXaXaXaXaXpXaXrXl.h.*XzXzXpXhXsX| aXzXzXyXaX'.tXzXzXaXpXaXaXaXaXaXpXsX).O.F.sXnXsXyXNXF.D.nXzXaXpXpXhXzXaXsXaXsXsXtXhXpXaXaXaXaXaXaXaXaXaXaXaXpXsX6X'.hX9X XzXzXhXtXhXsXzXaXsXzXhXpXaXaXaXaXaXaXaXaXaXpXaXzXzXaXaXaXaXaXpXsX'.O. XhXzXsXaXsXaXsXsXzXsXsXnXaXzXzXpXaXaXaXaXaXpXsX*XO.A.yXhXzXaXhXzXpXaXpXzXsX| sXzXMX~.M.mXzXsXsXpXhXaXpXaXaXaXaXpXhX~.(.zX%XD.sXzXMXA.D.MXpXzXzXaXsXaXsXsXzXzXpXaXaXpXaXzXzXaXaXaXaXaXaXpXsXD.z.~.sXsXzXzXaXaXsXpXaXaXaXaXaXaXaXaXaX",
"[ O.aXaXaXaXaXaXpXaX6X[ [ 9XG.A.rX6Xj.D.zXaXD.D.(.pX%X~.v  XsXpXaXaXaXpXzX/.U =X9XQ.Z.sX XM.B hXF.~.sXaX X9X~.V.6XaXpXaXaXaXaXyXzX] F.6X=Xl. XaXG.Y D.tXl.9XaXsX/.M.aX XrX=X Xn G.sXpXaXaXaXaXaXaXaXaXaXaXyXzX~.X.nX6X&X6XV.G.v (.*XM.tX XZ.(.sXpXaXaXaXaXaXaXaXaXpXaXzXzXaXaXaXaXpXsX6XB /.&X9Xl.=X9X%XtX X=XD.*X*Xj.9XG.Q.sXpXaXaXaXaXyXnXl.h.h.l.*XF.rX).F.sXpXsX'.M.U zXA.'.Q.j.rXl. X XaX(.rXaXpXaXaXaXyXmXn b VX| x yXl.&XZ.F.&X9X~.G.rX%XyX X=XA.G.aXaXaXpXaXzXzXaXaXaXaXaXaXpXsXn Q.[ A.=XD.G.rX6X XsXpXaXaXaXaXaXaXaXaX",
"} j.sXaXaXaXaXaXaXyXnXF.F.mX(.[ j.o.M.D.MXD.]  XB pX| Z.n 6XaXpXaXaXaXpXhX'.b ~.9X'.] M.} l.B ~.| ] ).mX] Q.v M.} zXyXaXaXaXaXyXzX} O.%X9XV.} j.h.B F.o.O.[ zX X[ h.M.o.%XM.M.b /.aXpXaXaXaXaXaXaXaXaXaXaXyXzX).O.mX~.| | h.(.v '.[ o.O.n M.B rXaXaXaXaXaXaXaXaXaXpXaXzXzXaXaXaXaXaXaXtXB Z.sX} M.| D.O.6X| z.Y 6XU ~.V.| ] ).hXyXaXaXaXyXzXZ.} o.~.n Z./.[ } A.zX=XY l.U Q.} | X.Z.tXj.] ] &XU tXaXpXaXaXaXyXzXO.B 6X} [ rXA.[ l.] l.Q.} o.} h.6X} h.| | Q.zXyXpXaXzXzXaXaXaXaXaXaXpXaX[ sX*X| b l.M.Z.Z.M.zXyXaXaXaXaXaXaXaXaX",
"l.*XzXyXaXaXaXaXaXyXzXZ.A.rXj.B o.l.M.D.NXo./.AXU zXO.Q.z.MXtXaXaXaXaXpXhX'.b /. Xl.Y U l.mX} o.U o.~.nX| G.h.hX] hXyXaXaXaXaXyXzX} z.%XD.o.B U aXD.h.n z.X.zXZ.A.zX[ o.6XA.D.O.zXpXaXaXaXaXaXaXaXaXaXaXaXyXzX~.j.AX(.O.6Xo.Q.O.rXx h.z.[ zX| *XsXpXaXaXaXaXaXaXaXpXaXzXzXaXaXaXaXaXpXaXzXz.] } ZXo.j.Z.tXo.j.%X*X} AXO.B o.~.hXyXaXaXaXyXzXZ.] &XsXY zXZ.n h.o.h.Z.j.nX} o.U h.| Z.~.} ] Z.[ M.zXyXaXaXaXaXyXhXh.h.o.j.O.~.O.B l.4  XA.n j.} V.tXo.h.=X(.z.zXyXpXaXzXzXaXaXaXaXaXaXpXaX[ hX%X} | rXtX} } 6XsXpXaXaXaXaXaXaXaXaX",
"M.o.aXaXaXaXaXaXaXyXzXM.A./.B | | O.l.A.MXG.U (.[ l.m (.b %XsXpXaXaXaXpXzX/.o.ZXG.B | O.} h.b /.[ ).9XzX[ D.o.tXB hXyXaXaXaXaXyXzX[ =XmXB O.] z.z.b F.O.M.%XhX%X] O.A.V.O.n Q.] D.sXpXaXaXaXaXaXaXaXaXaXaXyXzX).v ~.A.| 6X| | Y ~.} Z.*XB sX] *XsXpXaXaXaXaXaXaXaXpXaXzXzXaXaXaXaXpXaX9XG.l.h.o.h.|  XY o.} h.).aXB A.A.} ~.rXaXpXaXaXaXyXnXl.A.MXpXB aX X] Q.6XhX6XY h.b ).]  XZ.O.[ O.U 6X5 %XsXpXaXaXaXaXyXzX| /.l (.} [ o.[ | l.| F.[ ).(.Y o.[ l.] [ ~.hXyXpXaXzXzXaXaXaXaXaXaXpXsXn Z.U ).} *XnX| B zXyXaXaXaXaXaXaXaXaXaX",
"rXD.tXaXaXaXaXaXaXpXaX=X=XsXG.~.=X&X=X6XaXaX~.~.6XF.(.pX/.(.sXpXaXaXaXpXaX9X%XaXpXQ.~.tX%XD.%XsX~.A.rXsX%X6X&XpX%XaXpXaXaXaXaXpXaX%X9XsX*XA.%XtXG.~.rXrXV.(.aXsX(.F.aXtXD.~.tX%X~.sXpXaXaXaXaXaXaXaXaXaXaXpXaXrXA.Z. X=X(.A.yX(.(.9XM.%X%XaX%XtXaXaXaXaXaXaXaXaXaXpXaXzXzXaXaXaXaXaXaXtXD.A.aXrXZ.6XhX/.D.=X*X9XhX*XZ.rX/.A.rXaXpXaXaXaXpXsX=X=XaXaX XyXsX(.Z.6XaXsX XD.%XsX~.D.*X6X&XF.=X6XU yXaXpXaXaXaXaXpXaX%XrX%XrX&X6XA.%X&XrX&X6X(.Z.rX(.F.rXz.O.(.aXpXaXpXaXzXzXaXaXaXaXaXaXpXaX/.M.'.zX XrXnXz.A.zXyXaXaXaXaXaXaXaXaXaX",
"aXzXaXaXaXaXaXaXaXaXpXsXsXpXzXzXsXsXsXaXpXpXzXzXaXzXhXaXhXhXpXaXaXaXaXaXpXaXsXpXaXzXzXaXsXzXsXpXzXzXaXpXsXaXsXaXsXpXaXaXaXaXaXaXpXsXaXpXsXzXsXaXzXzXaXaXzXhXpXpXhXzXpXaXzXzXaXsXzXpXaXaXaXaXaXaXaXaXaXaXaXaXpXaXzXzXsXsXhXzXaXhXhXaXzXsXsXaXsXaXaXaXaXaXaXaXaXaXaXpXaXzXzXaXaXaXaXaXaXaXzXzXaXaXzXsXyXzXzXsXsXaXyXsXzXaXhXzXaXpXaXaXaXaXaXpXsXsXpXaXsXaXpXhXzXaXaXpXsXzXsXpXzXzXsXaXsXzXsX} G.hXyXaXaXaXaXaXaXpXsXaXsXaXsXaXzXsXsXaXsXaXhXzXaXhXzXmXl.%XmXyXaXaXpXaXzXzXaXaXaXaXaXaXaXpXhXnXhXyXsXhX~.[ yXaXaXaXaXaXaXaXaXaXaXaX",
"aXyXaXaXaXaXaXaXaXaXaXpXpXaXyXyXpXpXpXpXaXaXyXyXpXyXpXaXyXpXaXaXaXaXaXaXaXaXpXaXaXyXyXaXpXyXpXaXyXyXaXaXpXpXpXaXpXaXaXaXaXaXaXaXaXpXaXaXpXyXpXaXyXyXaXaXyXpXaXaXpXyXaXaXyXyXaXpXyXaXaXaXaXaXaXaXaXaXaXaXaXaXaXaXyXyXpXpXpXyXaXpXpXpXyXpXpXaXpXaXaXaXaXaXaXaXaXaXaXaXaXzXzXaXaXaXaXaXaXaXyXyXaXpXyXpXaXyXyXpXpXaXaXpXyXaXpXyXaXaXaXaXaXaXaXaXpXpXaXaXpXaXaXpXyXaXaXaXpXyXpXaXyXyXpXpXpXyXyXyXsXpXaXaXaXaXaXaXaXaXpXaXpXaXpXpXyXpXpXpXpXpXpXyXaXpXyXpXaXaXyXaXaXaXaXaXzXzXaXaXaXaXaXaXaXaXyXyXpXaXpXaXtXaXaXaXaXaXaXaXaXaXaXaXaXaX",
"pXpXpXpXpXpXpXpXpXpXpXpXpXpXpXpXpXpXpXpXpXpXpXpXpXpXpXpXpXpXpXpXpXpXpXpXpXpXpXpXpXpXpXpXpXpXpXpXpXpXpXpXpXpXpXpXpXpXpXpXpXpXpXpXpXpXpXpXpXpXpXpXpXpXpXpXpXpXpXpXpXpXpXpXpXpXpXpXpXpXpXpXpXpXpXpXpXpXpXpXpXpXpXpXpXpXpXpXpXpXpXpXpXpXpXpXpXpXpXpXpXpXpXpXpXpXpXpXpXyXaXzXzXpXpXpXpXpXpXpXpXpXpXpXpXpXpXpXpXpXpXpXpXpXpXpXpXpXpXpXpXpXpXpXpXpXpXpXpXpXpXpXpXpXpXpXpXpXpXpXpXpXpXpXpXpXpXpXpXaXyXpXpXpXpXpXpXpXpXpXpXpXpXpXpXpXpXpXpXpXpXpXpXpXpXpXpXpXpXpXpXpXpXpXpXaXzXzXpXpXpXpXpXpXpXpXpXpXpXpXpXpXaXpXpXpXpXpXpXpXpXpXpXpXpXpX",
"sXsXsXsXsXsXsXsXsXsXsXsXsXsXsXsXsXsXsXsXsXsXsXsXsXsXsXsXsXsXsXsXsXsXsXsXsXsXsXsXsXsXsXsXsXsXsXsXsXsXsXsXsXsXsXsXsXsXsXsXsXsXsXsXsXsXsXsXsXsXsXsXsXsXsXsXsXsXsXsXsXsXsXsXsXsXsXsXsXsXsXsXsXsXsXsXsXsXsXsXsXsXsXsXsXsXsXsXsXsXsXsXsXsXsXsXsXsXsXsXsXsXsXsXsXsXsXsXhXsXhXzXzXsXsXsXsXsXsXsXsXsXsXsXsXsXsXsXsXsXsXsXsXsXsXsXsXsXsXsXsXsXsXsXsXsXsXsXsXsXsXsXsXsXsXsXsXsXsXsXsXsXsXsXsXsXsXsXsXsXsXsXsXsXsXsXsXsXsXsXsXsXsXsXsXsXsXsXsXsXsXsXsXsXsXsXsXsXsXsXsXsXsXsXsXhXzXzXhXsXsXsXsXsXsXsXsXsXsXsXsXsXsXsXsXsXsXsXsXsXsXsXsXsXsXsX",
"zXzXzXzXzXzXzXzXzXzXzXzXzXzXzXzXzXzXzXzXzXzXzXzXzXzXzXzXzXzXzXzXzXzXzXzXzXzXzXzXzXzXzXzXzXzXzXzXzXzXzXzXzXzXzXzXzXzXzXzXzXzXzXzXzXzXzXzXzXzXzXzXzXzXzXzXzXzXzXzXzXzXzXzXzXzXzXzXzXzXzXzXzXzXzXzXzXzXzXzXzXzXzXzXzXzXzXzXzXzXzXzXzXzXzXzXzXzXzXzXzXzXzXzXzXzXzXzXzXzXzXzXzXzXzXzXzXzXzXzXzXzXzXzXzXzXzXzXzXzXzXzXzXzXzXzXzXzXzXzXzXzXzXzXzXzXzXzXzXzXzXzXzXzXzXzXzXzXzXzXzXzXzXzXzXzXzXzXzXzXzXzXzXzXzXzXzXzXzXzXzXzXzXzXzXzXzXzXzXzXzXzXzXzXzXzXzXzXzXzXzXzXzXzXzXzXzXzXzXzXzXzXzXzXzXzXzXzXzXzXzXzXzXzXzXzXzXzXzXzXzXzXzXzXzXzX",
"sXsXsXsXsXsXsXsXsXsXsXsXsXsXsXsXsXsXsXsXsXsXsXsXsXsXsXsXsXsXsXsXsXsXsXsXsXsXsXsXsXsXsXsXsXsXsXsXsXsXsXsXsXsXsXsXsXsXsXsXsXsXsXsXsXsXsXsXsXsXsXsXsXsXsXsXsXsXsXsXsXsXsXsXsXsXsXsXsXsXsXsXsXsXsXsXsXsXsXsXsXsXsXsXsXsXsXsXsXsXsXsXsXsXsXsXsXsXsXsXsXsXsXsXsXsXsXsXsXsXhXzXzXsXsXsXsXsXsXsXsXsXsXsXsXsXsXsXsXsXsXsXsXsXsXsXsXsXsXsXsXsXsXsXsXsXsXsXsXsXsXsXsXsXsXsXsXsXaXaXsXsXsXsXsXsXsXsXsXsXsXsXsXsXsXsXsXsXsXsXsXsXsXsXsXsXsXsXsXsXsXsXsXsXsXsXsXsXsXsXsXsXsXsXsXhXzXzXsXsXsXsXsXsXsXsXsXsXsXsXaXaXsXsXsXsXsXsXsXsXsXsXsXsXsXsX",
"pXpXpXpXpXpXpXpXpXpXpXpXpXpXpXyXpXgXgXcXcXgXpXyXyXpXpXpXpXpXpXpXpXpXpXpXpXpXpXpXpXpXpXyXaXgXjXjXgXaXyXyXpXpXpXpXpXpXpXpXpXpXpXpXpXpXpXpXpXpXpXpXyXpXaXgXjXjXgXaXyXyXpXpXpXpXpXpXpXpXpXpXpXpXpXpXpXpXpXpXpXpXpXpXpXpXpXpXpXpXpXpXpXpXpXpXpXpXpXpXpXpXpXpXpXpXpXpXpXyXaXzXzXpXpXpXpXpXpXpXpXpXpXpXpXpXpXpXpXpXpXpXpXpXpXpXpXpXpXpXpXpXpXpXpXpXpXpXpXpXpXpXpXpXyXyXaXlXlXlXlXaXyXyXpXpXpXpXpXpXpXpXpXpXpXpXpXpXpXpXpXpXpXpXpXpXyXyXaXlXlXlXsXaXyXyXpXpXpXpXpXpXpXpXpXaXzXzXpXpXpXpXpXpXpXyXyXaXsXhXzXzXsXyXyXpXpXpXpXpXpXpXpXpXpXpX",
"aXaXaXaXaXaXaXaXaXaXaXaXaXpXpXgXaX@XW.I.I.].pXcXaXpXaXaXaXaXaXaXaXaXaXaXaXaXaXaXaXpXaXgXwX].Y.Y.`.5XgXgXpXaXaXaXaXaXaXaXaXaXaXaXaXaXaXaXaXaXaXpXgXgX3X`.Y.Y.].yXjXsXpXaXaXaXaXaXaXaXaXaXaXaXaXaXaXaXaXaXaXaXaXaXaXaXaXaXaXaXaXaXaXaXaXaXaXaXaXaXaXaXaXaXaXaXaXaXaXaXaXzXzXaXaXaXaXaXaXaXaXaXaXaXaXaXaXaXaXaXaXaXaXaXaXaXaXaXaXaXaXaXaXaXaXaXaXaXaXaXaXaXaXyXsXlX0XXXB.B.|.0XlXlXyXaXaXaXaXaXaXaXaXaXaXaXaXaXaXaXaXaXaXaXaXpXsXsX:X|.oX|.XXyXlXaXyXaXaXaXaXaXaXaXaXaXzXzXaXaXaXaXaXaXyXaXsXuX;XJ.C.C.%XsXzXaXpXaXaXaXaXaXaXaXaXaX",
"aXaXaXaXaXaXaXaXaXaXaXaXpXaXgX`.;.y q 9 9 r d x.wXgXpXaXaXaXaXaXaXaXaXaXaXaXaXaXpXgXwX0.=.p u u i p 7.`.gXaXpXaXaXaXaXaXaXaXaXaXaXaXaXaXaXpXaXgX@X7.p i u u p =.r.5XjXpXaXaXaXaXaXaXaXaXaXaXaXaXaXaXaXaXaXaXaXaXaXaXaXaXaXaXaXaXaXaXaXaXaXaXaXaXaXaXaXaXaXaXaXaXaXpXaXzXzXaXaXaXaXaXaXaXaXaXaXaXaXaXaXaXaXaXaXaXaXaXaXaXaXaXaXaXaXaXaXaXaXaXaXaXaXaXaXaXpXlX6XR F D X X . F R XXlXpXpXaXaXaXaXaXaXaXaXaXaXaXaXaXaXaXaXpXaXsXXXW L G G G H L %.0XlXyXaXaXaXaXaXaXpXaXzXzXaXaXaXaXaXyXsXuX&.' ` 1 o - > 6 C.sXsXyXaXaXaXaXaXaXaXaX",
"aXaXaXaXaXaXaXaXaXaXaXpXaXtX8.e 9 y ;.7.7.d q 9 d ].gXpXaXaXaXaXaXaXaXaXaXaXaXpXgX`.=.i i =.7.7.7.p u p r.aXaXpXaXaXaXaXaXaXaXaXaXaXaXaXpXaXaXr.p u p 7.7.7.7.i u =.`.gXpXaXaXaXaXaXaXaXaXaXaXaXaXaXaXaXaXaXaXaXaXaXaXaXaXaXaXaXaXaXaXaXaXaXaXaXaXaXaXaXaXaXaXaXaXpXaXzXzXaXaXaXpXpXpXpXpXpXpXpXpXpXpXpXpXpXpXpXpXpXpXpXpXpXpXpXpXpXpXaXaXaXaXaXaXaXaXpXlXB.F X . K P P P D X D $.sXaXpXaXaXaXaXaXaXaXaXaXaXaXaXaXaXpXaXpX%.H G L E W W E H G L |.lXyXaXaXaXaXaXpXaXzXzXaXaXaXaXyXsX;X' ` J ` ' c 6 > - - c rXsXyXaXaXaXaXaXaXaX",
"aXaXaXaXaXaXaXaXaXaXpXaXtX;.9 y 0.7XzXMXmXsX`.M 0 y ].gXpXaXaXaXaXaXaXaXaXaXpXgXY.p i 7.`.dXmXMXzXwXu.p i q.aXaXpXaXaXaXaXaXaXaXaXaXaXaXaXaXq.i p r.eXzXmXmXlX2X7.i p `.gXpXaXaXaXaXaXaXaXaXaXaXaXaXaXaXaXaXaXaXaXaXaXaXaXaXaXaXaXaXaXaXaXaXaXaXaXaXaXaXaXaXaXaXaXpXaXzXzXaXaXaXaXsXsXsXsXsXsXsXsXsXsXsXsXsXsXsXsXaXaXsXsXsXsXsXsXsXaXaXaXaXaXaXaXaXyXlXB.. . P XXaXBXMXzX=XR D . R sXpXaXaXaXaXaXaXaXaXaXaXaXaXaXaXaXaXW G L %.:XcXBXBXgX:XE G L |.lXyXaXaXaXaXpXaXzXzXaXaXaXyXsX;X` ` ' |.uXNXNXnXuX+.> - 6 rXaXpXaXaXaXaXaXaX",
"aXaXaXaXaXaXaXaXaXaXpXgXq.0 d ].CXmXzXzXzXzXCXsX8.0 s 7XaXpXaXaXaXaXaXaXaXpXgX3Xp p q.lXCXzXzXzXzXmXCX2Xp i 0.gXpXaXaXaXaXaXaXaXaXaXaXpXjXu.i =.Y.CXmXzXzXzXzXMXzXr.i p 3XgXpXaXaXaXaXaXaXaXaXaXaXaXaXaXaXaXaXaXaXaXaXaXaXaXaXaXaXaXaXaXaXaXaXaXaXaXaXaXaXaXaXaXaXpXaXzXzXaXaXaXzXzXzXzXzXzXzXzXzXzXzXzXzXzXzXzXzXcXzXzXzXzXzXzXzXzXsXpXaXaXaXaXaXyXlXXXD D R zXNXzXzXzXzXBXNXH.F . B.lXyXaXaXaXaXaXaXaXaXaXaXaXaXyXlX%.G L |.SXBXzXzXzXzXBXzX%.G L :XsXpXaXaXaXpXaXzXzXaXaXpXaXuX' ` ' uXNXzX{ N.mXnXNX-X5 - I sXpXaXaXaXaXaXaX",
"pXaXaXaXaXaXaXaXaXpXgX].y r ].CXzXzXzXzXzXzXzXmXzX;.9 q.gXpXaXaXaXaXaXaXaXpXgXq.u 7.zXzXzXzXzXzXzXzXzXCX`.p p 3XgXpXaXaXaXaXaXaXaXaXpXaX5X=.i Y.CXzXzXzXzXzXzXzXzXmX7.u 7.gXpXaXaXaXaXaXaXaXaXaXaXaXaXaXaXaXaXaXaXaXaXaXaXaXaXaXaXaXaXaXaXaXaXaXaXaXaXaXaXaXaXaXaXpXaXzXzXaXaXaXzXzXzXzXzXmXzXzXzXzXnXzXzXzXzXzXzXhXcXzXzXzXmXzXzXzXsXpXaXaXaXaXaXpXsXP X R MXzXzXzXzXzXzXzXcXSXB.. F =XsXpXaXaXaXaXaXaXaXaXaXaXpXaX:XL H |.SXcXzXzXzXzXzXcXzXnXW G W sXpXaXaXaXpXaXzXzXaXaXyXsX&.J ' aXnXzXcXx n mXzXhXNX%X> - F.hXyXaXaXaXaXaX",
"pXaXaXaXaXaXaXaXaXpXcX8.9 8.MXzXzXzXzXzXzXzXzXzXMX].r a 5XaXpXaXaXaXaXaXpXgX3Xp p 3XMXzXzXzXzXzXzXzXzXzXmX7.u r.gXpXaXaXaXaXaXaXaXaXpXjXu.u 7.xXzXzXzXzXzXzXzXzXzXmXeXp p 3XgXpXaXaXaXaXaXaXaXaXaXaXaXaXaXaXaXaXaXaXaXaXaXaXaXaXaXaXaXaXaXaXaXaXaXaXaXaXaXaXaXaXaXpXaXzXzXaXaXaXzXmXMXMXzX6XzXzXzXzXtXsXzXzXnXzXzXhXzXzXzXzX=XnXzXzXsXpXaXaXaXaXyXlXXXD F 0XBXzXzXzXzXzXzXzXzXzXzXP . $.lXyXaXaXaXaXaXaXaXaXaXaXyXlX%.G W nXzXzXzXzXzXzXzXzXhXBX:XL L .XsXpXaXaXpXaXzXzXaXpXaXuX` ` J.MXcXzXMXI x zXzXzXcXNX#.- 6 sXpXaXaXaXaXaX",
"pXaXaXaXaXaXaXaXpXaXyXM q `.MXzXzXzXzXzXzXzXzXzXzXsXd e W.gXpXaXaXaXaXaXpXgXY.i 7.zXzXzXzXzXzXzXzXzXzXzXCXY.i 7.pXaXpXaXaXaXaXaXaXaXpXaX7.i Y.CXzXzXzXzXzXzXzXzXzXzXxX7.i I.gXpXaXaXaXaXaXaXaXaXaXaXaXaXaXaXaXaXaXaXaXaXaXaXaXaXaXaXaXaXaXaXaXaXaXaXaXaXaXaXaXaXaXpXaXzXzXaXaXyXMX/.U h.pXrXzXNXMXZX} aXZXzX6XMXzXhXcXzXMXC.4 *XMXzXsXpXaXaXaXaXyXlXB.. R BXzXzXzXzXzXzXzXzXzXcXNXB.X P sXpXaXaXaXaXaXaXaXaXaXaXaXaXW G |.BXzXzXzXzXzXzXMXNXNXNXnXW G oXlXyXaXaXpXaXzXzXaXyXsX;X` ` aXnXzXzXNXX.5 cXzXzXzXMX%X: > =XsXpXaXaXaXpX",
"aXaXaXaXaXaXaXaXpXsX5Xy a wXxXzXzXMXmXzXzXzXzXzXzXmX8.9 I.cXyXaXaXaXaXaXiXcXr.u u.MXzXzXzXzXzXzXzXzXzXzXmXeXp =.tXaXpXaXaXaXaXaXaXpXaXtX=.p 3XmXzXzXzXzXzXzXzXzXzXzXMXu.u r.jXiXaXaXaXaXaXaXpXpXpXpXpXpXpXpXpXpXpXpXpXpXpXpXaXaXaXpXpXpXpXpXpXpXpXpXpXpXpXpXpXpXaXpXaXzXzXaXaXyXZXh. XZ.M.(.sXj.o.*Xo.} F.%X5 (.MXsXhXnXuXI x X.zXzXsXpXaXaXaXaXyXzXR X B.NXzXzXzXMXzXzXzXzXzXzXBXXX. K pXaXaXaXaXaXaXaXaXaXaXpXaXtXL H :XBXzXzXzXzXzXcXG.N.+.+.BX%.G %.lXyXaXaXpXaXzXzXaXyXsXJ.J ' nXzXzXzXnXrX=XzXzXzXzXnXaX3 : %XsXyXaXaXaXpX",
"aXaXaXaXaXaXaXaXpXgX5Xt a sXnXMXzXA. XMXzXzXzXzXzXCX9.9 0.xXyXaXaXaXaXaXyXcXr.u x.CXzXzXzXzXMXzXzXzXzXzXxXdXp p wXaXpXaXaXaXaXaXaXpXaXtX=.p fXmXzXzXnXnXmXzXzXzXzXzXCXY.u q.jXiXaXaXaXaXaXaXaXaXaXaXaXaXaXaXaXaXaXaXaXaXaXaXaXaXaXaXaXaXaXaXaXaXaXaXaXaXaXaXaXaXaXaXaXzXzXaXaXyXNXZ.n [ 6X| A.A.M.M.o.(.o.).} zXzXhXcXnXsXuXsXtXcXzXsXpXaXaXaXaXyXzXR X B.SXhXnXzX%XzXzXzXzXzXzXBX=XD F tXaXpXaXaXaXaXaXaXaXaXpXaXtXL L kXnXzXzXzXzXzXsXc 4 5 5 BXB.D R zXyXaXaXpXaXzXzXaXyXbXJ.J $.MXzXzXzXzXnXmXzXzXzXzXzXzX6 - ).hXyXaXaXaXpX",
"aXaXaXaXaXaXaXaXpXsX5Xy y wXcXF.m , { MXzXzXzXzXzXMXq.9 x.cXyXaXaXaXaXaXiXjXr.u r.MXzXzXNXF.N.zXzXzXzXzXmXeXp =.wXaXpXaXaXaXaXaXaXpXaXtX=.p 3XmXzXmX9Xb %XmXzXzXzXzXCXu.u r.jXiXaXaXaXaXaXpX9X6X6X6X6X6X6X6X6X6X6X6X6X6X6X6XtXaXtX6X6X6X6X6X6X6X6X6X6X6X6X6X6X6X6XtXaXzXzXaXaXyXVXM.Z.| rXO.j.%X%XZ.z.zXl.~.O.ZXzXhXhXnXaXc 4 #.zXzXsXpXaXaXaXaXyXzXR X $.MXnXsX#.4  XMXzXzXzXzXBXXX. K yXaXpXaXaXaXaXaXaXaXaXpXaXtXL H :XBXzXzXzXzXzXzXrXrXpXaXNX$.X R zXyXaXaXpXaXzXzXaXyXsXJ.J ' zXzXzXzXzXzXzXzXzXzXzXzXsX3 : %XhXyXaXaXaXpX",
"pXaXaXaXaXaXaXaXpXaXtXM 9 Y.gX5 6 G.sXzXzXzXzXzXzXsXM r ].gXpXaXaXaXaXaXpXgXY.i 7.zXzXmXrX5 c zXzXzXzXzXMXY.i 7.aXpXaXaXaXaXaXaXaXaXpXaX7.u x.CXzXcXc 4 %XmXzXzXzXzXzX7.i Y.gXpXaXaXaXaXaXyX*X6X9X9X9X9X9X9X9X9X9X9X9X6X9X=X6XsXrX*X9X6X9X9X9X9X9X9X9X9X9X9X6X9X*XrXsXzXzXaXaXyXNXM.&X/.h.j.=XX.B A.j.sXl.%X[ ).MXsXzXzXNXQ.6 rXmXzXsXpXaXaXaXaXyXlXB.. P NX X6 4 +.hXzXzXzXzXzXNXB.X R sXpXaXaXaXaXaXaXaXaXaXaXaXaXW G oXSXcXzXzXzXzXzXnXnXnXnXzXP . H.lXyXaXaXpXaXzXzXaXyXsX;X` ` uXnXzXzXzXzXzXzXzXzXzXMX%X: 5 rXaXpXaXaXaXpX",
"yXaXaXaXaXaXaXaXaXyXxX9.9 q.NX*XaXNXzXzXzXzXzXzXMX`.e s tXaXpXaXaXaXaXaXpXaXwX=.p 2XCXsXn 5 6XMXzXzXzXzXzX7.u x.cXiXaXaXaXaXaXaXaXaXiXjXY.i 7.zXmX{ , ~.NXzXzXzXzXmX3Xp p 5XsXpXaXaXaXaXaXyX=XaXaXaXaXaXaXaXaXaXaXaXaXaXsXrX6XsXrX6XsXaXaXaXaXaXaXaXaXaXaXaXaXsX6XrXsXzXzXaXaXaXzXhXcXzXaXhXsX*XO.F.MXzXsXzXaXtXnXhXzXzXzXzXrXnXzXzXsXpXaXaXaXaXyXsX.XF D =XrXc (.MXzXzXzXzXzXzXaXK . B.zXyXaXaXaXaXaXaXaXaXaXaXyXlXoXG E zXzXzXzXzXzXzXzXzXhXBXXXD F 6XsXpXaXaXpXaXzXzXaXaXaXaX' J J.NXcXzXzXzXzXzXzXzXzXMX{ - { zXyXaXaXaXaXaX",
"pXaXaXaXaXaXaXaXaXpXsX3X4.<.2XZXzXzXzXzXzXzXzXMXdXd 0 0.gXpXaXaXaXaXaXaXaXpXgXr.u 7.lXaXm N.NXzXzXzXzXCXY.i =.5XaXpXaXaXaXaXaXaXaXaXpXaXwX=.i u.ZXN.+.MXzXzXzXzXmXzX7.i q.gXpXaXaXaXaXaXaXyX=XyXaXpXpXpXpXpXpXpXpXpXpXpXaX9X6XsXrX6XaXpXpXpXpXpXpXpXpXpXpXpXpXaX=XrXsXzXzXaXaXaXzXzXzXzXzXmXtXz.M.sXnXzXzXzXnXnXzXhXzXzXzXzXnXzXzXzXsXpXaXaXaXaXaXpXsXP D E mXBXmXzXzXzXzXzXzXSXR . K 0XaXpXaXaXaXaXaXaXaXaXaXaXpXaX0XL G oXSXzXzXzXzXzXzXzXBXzXK . R sXpXaXaXaXpXaXzXzXaXaXyXsX&.` ` -XNXzXzXzXzXzXzXzXZX).: : ~.sXyXaXaXaXaXaX",
"aXaXaXaXaXaXaXaXaXaXpXgX,X,.2.2XzXzXzXzXzXzXzX5XM 0 M tXaXpXaXaXaXaXaXaXaXpXaXtX7.i 7.DXcXhXzXzXzXzXlXY.p p Y.gXpXaXaXaXaXaXaXaXaXaXaXpXjXY.i p U.MXnXzXzXzXzXzXfX7.i =.5XsXpXaXaXaXaXaXaXyX=XpXaXaXaXaXpXpXaXaXaXaXaXpXaX9X6XsXrX6XaXpXaXaXpXpXpXpXpXpXaXaXaXaX=XrXsXzXzXaXaXaXzXzXzXzXzXzXzXNXNXzXzXzXzXzXzXzXzXhXzXzXzXzXzXzXzXzXsXpXaXaXaXaXaXpXsX=XL G W kXzXzXzXzXzXzXgX$.D D H.lXyXaXaXaXaXaXaXaXaXaXaXaXaXyXlXoXG H oXzXzXzXzXzXzXzX0XP . K 0XsXpXaXaXaXpXaXzXzXaXaXaXaXaX' J ' ;XnXzXzXzXzXzXzXJ.> - { hXyXaXaXaXaXaXaX",
"aXaXaXaXaXaXaXaXaXaXaXpXaXu.,.<.3XxXzXzXzXzXzX7.9 d @XgXpXaXaXaXaXaXaXaXaXaXpXgX3Xf >.p.cXzXzXzXzXxX3Xi i r.aXpXaXaXaXaXaXaXaXaXaXaXaXaXpXgX0.-.6.4XcXzXzXzXzXxXr.u =.`.gXpXaXaXaXaXaXaXaXyX=XpXaXaXaXaXsXsXyXpXaXaXaXpXaX9X6XsXrX6XaXpXaXpXaXsXsXsXsXaXpXaXaXaX=XrXsXzXzXaXaXaXaXaXaXaXaXaXaXpXpXaXaXaXaXaXaXaXaXaXaXaXaXaXaXaXaXaXaXaXaXaXaXaXaXaXyXlXXXL G %.nXcXzXzXcXnXXX. . $.sXyXaXaXaXaXaXaXaXaXaXaXaXaXaXaXpXsX%.H G XXnXzXzXzXhXnXR X F XXsXyXaXaXaXaXpXaXzXzXaXaXaXyXaXrX' J ' sXzXzXzXzXzXrX> - 6 tXaXpXaXaXaXaXaXaX",
"aXaXaXaXaXaXaXaXaXaXaXpXaXgXu.u.aXpXaXaXaXpXgX`.;.@XgXpXaXaXaXaXaXaXaXaXaXaXaXpXgX3Xp.4XkXpXaXaXaXpXaXq.r.aXaXpXaXaXaXaXaXaXaXaXaXaXaXaXaXaXgX1Xp.pXaXaXaXaXpXgX3X7.].gXpXaXaXaXaXaXaXaXaXyX=XpXaXpXsX=X{  XzXsXpXaXaXpXaX9X6XsXrX6XaXpXyXzXN.x c c x V.zXyXaXaX=XrXsXzXzXaXaXaXpXpXpXpXpXpXpXpXpXpXpXpXpXpXpXpXpXaXaXpXpXpXpXpXpXpXaXaXaXaXaXaXaXaXaXyXlXXXE :XsXaXaXaXaXaXyXP $.sXaXpXaXaXaXaXaXaXaXaXaXaXaXaXaXaXaXpXlXoXW aXaXaXaXaXpXsXXXP XXlXyXaXaXaXaXaXpXaXzXzXaXaXaXaXyXsXrX' J.sXyXaXaXaXyXhX#.{ tXsXyXaXaXaXaXaXaXaX",
"aXaXaXaXaXaXaXaXaXaXaXaXpXaXaXaXaXaXaXpXpXaXaXaXaXsXpXaXaXaXaXaXaXaXaXaXaXaXaXaXpXsXaXaXaXaXpXpXaXaXaXaXgXaXpXaXaXaXaXaXaXaXaXaXaXaXaXaXaXpXaXgXaXaXaXaXpXpXaXaXaXaXgXpXaXaXaXaXaXaXaXaXaXyX=XpXaXpXsX*X5 4 X.6XsXpXaXpXaX9X6XsXrX6XaXpXyXzX{ , 4 4 , X.zXyXaXaX=XrXsXzXzXaXaXaXaXaXaXaXaXaXaXaXaXaXaXaXaXaXaXaXaXaXaXaXaXaXaXaXaXaXaXaXaXaXaXaXaXaXaXaXyXsXaXaXaXaXpXpXaXaXaXaXsXaXpXaXaXaXaXaXaXaXaXaXaXaXaXaXaXaXaXaXaXsXaXaXaXaXpXpXaXaXaXaXsXyXaXaXaXaXaXaXpXaXzXzXaXaXaXaXaXyXaXaXaXaXaXpXpXaXaXaXaXsXaXyXaXaXaXaXaXaXaXaX",
"aXaXaXaXaXaXaXaXaXaXaXaXaXaXpXaXaXaXaXaXaXaXaXaXpXpXaXaXaXaXaXaXaXaXaXaXaXaXaXaXaXpXpXaXaXaXaXaXaXaXaXaXpXpXaXaXaXaXaXaXaXaXaXaXaXaXaXaXaXaXaXpXaXaXaXaXaXaXaXaXaXaXpXaXaXaXaXaXaXaXaXaXaXyX=XpXaXpXsX*X6 4 4 4 G.sXpXpXaX9X6XsXrX6XaXpXyXzX{ 4 5 5 4 @.zXyXaXaX=XrXsXzXzXaXaXaXaXaXaXaXaXaXaXaXaXaXaXaXaXaXaXaXaXaXaXaXaXaXaXaXaXaXaXaXaXaXaXaXaXaXaXaXaXpXaXaXaXaXaXaXaXaXpXaXyXaXaXaXaXaXaXaXaXaXaXaXaXaXaXaXaXaXaXaXaXpXaXaXaXaXaXaXaXaXpXaXyXaXaXaXaXaXaXaXpXaXzXzXaXaXaXaXaXaXpXpXaXaXaXaXaXaXaXaXaXpXpXaXaXaXaXaXaXaXaXaX",
"aXaXaXaXaXaXaXaXaXaXaXaXaXaXaXaXaXaXaXaXaXaXaXaXpXaXaXaXaXaXaXaXaXaXaXaXaXaXaXaXaXaXaXaXaXaXaXaXaXaXaXaXaXaXaXaXaXaXaXaXaXaXaXaXaXaXaXaXaXaXaXaXaXaXaXaXaXaXaXaXaXpXaXaXaXaXaXaXaXaXaXaXaXyX=XpXaXpXsX*X5 4 5 X.=XaXpXpXaX9X6XsXrX6XaXpXyXzX#.4 5 5 4 @.zXyXaXaX=XrXsXzXzXaXaXaXaXaXaXaXaXaXaXaXaXaXaXaXaXaXaXaXaXaXaXaXaXaXaXaXaXaXaXaXaXaXaXaXaXaXaXaXaXaXaXaXaXaXaXaXaXaXaXpXaXaXaXaXaXaXaXaXaXaXaXaXaXaXaXaXaXaXaXaXaXaXaXaXaXaXaXaXaXaXaXpXaXaXaXaXaXaXaXaXpXaXzXzXaXaXaXaXaXaXaXaXaXaXaXaXaXaXaXaXaXaXaXaXaXaXaXaXaXaXaXaX",
"aXaXaXaXaXaXaXaXaXaXaXaXaXaXyXyXaXpXyXaXpXyXaXaXyXyXaXaXaXaXaXaXaXaXaXaXaXaXaXaXaXaXaXpXyXaXyXyXpXaXyXyXaXaXaXaXaXaXaXaXaXaXaXaXaXaXaXaXaXaXaXaXpXyXyXpXyXyXpXyXyXaXaXaXaXaXaXaXaXaXaXaXaXyX=XpXaXpXsX*X5 I %XzXsXpXaXpXaX9X6XsXrX6XaXpXyXzX{ , 4 4 , X.zXyXaXaX=XrXsXzXzXaXaXaXaXaXaXaXaXaXaXaXaXaXaXaXaXaXaXaXaXaXaXaXaXaXaXaXaXaXaXaXaXaXaXaXaXaXaXaXaXaXpXyXyXaXaXyXyXpXpXyXpXaXaXaXaXaXaXaXaXaXaXaXaXaXaXaXaXaXaXaXaXyXpXaXpXyXaXaXpXyXpXyXyXyXpXaXaXaXaXaXpXaXzXzXaXaXaXaXaXaXaXyXyXpXpXyXpXaXaXyXyXpXaXyXpXaXaXaXaXaXaXaX",
"aXaXaXaXaXaXaXaXaXaXaXaXaXpXhXzXyXhXzXyXsXzXaXyXhXhXpXaXaXaXaXaXaXaXaXaXaXaXaXaXaXaXpXhXzXpXhXzXsXyXhXhXpXaXaXaXaXaXaXaXaXaXaXaXaXaXaXaXaXaXaXpXsXzXhXaXzXzXaXzXzXaXaXaXaXaXaXaXaXaXaXaXaXyX=XpXaXpXaXrX(.sXsXyXpXaXaXpXaX9X6XsXrX6XaXpXpXsX XA.F.F.A.%XsXpXaXaX=XrXsXzXzXaXaXaXaXaXaXaXaXaXaXaXaXaXaXaXaXaXaXaXaXaXaXaXaXaXaXaXaXaXaXaXaXaXaXaXaXaXaXaXaXpXsXzXhXpXaXzXzXaXsXzXsXpXaXaXaXaXaXaXaXaXaXaXaXaXaXaXaXaXaXaXaXzXaXpXaXzXaXpXsXzXsXsXzXzXaXpXaXaXaXaXpXaXzXzXaXaXaXaXaXaXaXhXzXsXhXzXsXpXaXzXzXaXyXzXsXpXaXaXaXaXaXaX",
"aXaXaXaXaXaXaXaXaXaXaXaXpXsXG.M.zX/.h.zX XO.pXzX~.F.zXyXaXaXaXaXaXaXaXaXaXaXaXaXaXpXsX).j.hXM.[ &XnXG.D.zXyXaXaXaXaXaXaXaXaXaXaXaXaXaXaXaXaXpXsX%X[ Z.tXO.h.tXh.O.yXaXaXaXaXaXaXaXaXaXaXaXyX=XpXaXaXpXaXhXpXyXaXaXaXaXpXaX9X6XsXrX6XaXpXaXpXsXzXzXzXzXsXpXaXaXaX=XrXsXzXzXaXaXaXaXaXaXaXaXaXaXaXaXaXaXaXaXaXaXaXaXaXaXaXaXaXaXaXaXaXaXaXaXaXaXaXaXaXaXaXpXsX X} D.sXtXj.} 6X).] &XsXpXaXaXaXaXaXaXaXaXaXaXaXaXaXaXaXpXaXyXO.%XzX9Xz.pXsX/.] (.Z.} [ 6XaXpXaXaXaXpXaXzXzXaXaXaXaXaXpXaXM.[ *XQ.] (.hXtXz.o.9XzXM.(.hXpXaXaXaXaXaX",
"aXaXaXaXaXaXaXaXaXaXaXaXaXpX| U nXh.n zXZ.m aXaXm | nXyXaXaXaXaXaXaXaXaXaXaXaXaXaXaXaXz.b sX XD.| sXx o.zXyXaXaXaXaXaXaXaXaXaXaXaXaXaXaXaXaXpXsX%X%Xo.| M.M.U A.Z.V.zXyXaXaXaXaXaXaXaXaXaXyX=XyXaXaXaXpXyXaXaXaXaXaXaXpXaX9X6XsXrX6XaXpXaXaXyXyXyXyXyXpXaXaXaXaX=XrXsXzXzXaXaXaXaXaXaXaXaXaXaXaXaXaXaXaXaXaXaXaXaXaXaXaXaXaXaXaXaXaXaXaXaXaXaXaXaXaXaXaXyXhX] Q.[ rXtX=XD.} | Q.| sXpXaXaXaXaXaXaXaXaXaXaXaXaXaXaXaXpXsX*Xm ~.MXh.l aXtX[  X[ 6X*Xb rXaXpXaXaXaXpXaXzXzXaXaXaXaXaXhXtX=X~.} *X).] sX9X%Xl.M.tX5 D.zXyXaXaXaXaXaX",
"aXaXaXaXaXaXaXaXaXaXaXaXpXsX6X| zXtX} aXsX[ aXD.M.V.zXyXaXaXaXaXaXaXaXaXaXaXaXaXaXaXaXtX} sXMXM.Z.~.M.Z.zXyXaXaXaXaXaXaXaXaXaXaXaXaXaXaXaXaXaXyXhXtX] %Xm Y Z.h.Z.o.zXyXaXaXaXaXaXaXaXaXaXyX=XpXaXaXaXaXaXaXaXaXaXaXaXaXaX9X6XsXrX6XaXaXaXaXaXaXaXaXaXaXaXaXaXaX=XrXsXzXzXaXaXaXaXaXaXaXaXaXaXaXaXaXaXaXaXaXaXaXaXaXaXaXaXaXaXaXaXaXaXaXaXaXaXaXaXaXaXaXyXzXD.l j.hXsX(.n l.h.sX] tXaXaXaXaXaXaXaXaXaXaXaXaXaXaXaXaXaXyXnXM.).*XZ.O.aXtXY (.b aXQ.l.zXyXaXaXaXaXpXaXzXzXaXaXaXaXtX%XyX&Xv F.VXQ.O.zXpXmXo.~.D.j.~.zXyXaXaXaXaXaX",
"aXaXaXaXaXaXaXaXaXaXaXaXpXsX*X} zX9X] sXaX[ &Xv U v sXpXaXaXaXaXaXaXaXaXaXaXaXaXaXaXaX9X] zX(.h.9Xv U n hXpXaXaXaXaXaXaXaXaXaXaXaXaXaXaXaXaXaXaXsXO.=XD.D.V.A.).B Z.zXyXaXaXaXaXaXaXaXaXaXyX=XyXpXpXpXpXpXpXpXpXpXpXpXpXaX9X6XsXrX6XaXpXpXpXpXpXpXpXpXpXpXpXpXaX=XrXsXzXzXaXaXaXaXaXaXaXaXaXaXaXaXaXyXpXaXaXaXpXpXaXaXaXaXaXaXaXaXaXaXaXaXaXaXaXaXaXaXaXaXaX| %X} =XsXaX~.B O.pX] yXaXaXaXaXaXaXaXaXaXaXaXaXaXaXaXaXaXyXnXh./.| ] x /.hX XO.B aX[ %XsXpXaXaXaXaXpXaXzXzXaXaXpXaX6Xo.&XhX).| 6Xo.sXaXhXD.F. Xv n } zXyXaXaXaXaXaX",
"aXaXaXaXaXaXaXaXaXaXaXaXpXsX*X} zX9X] sXaX] 9X*XM.] zXyXaXaXaXaXaXaXaXaXaXaXaXaXaXaXaX9X} yXx | A.=Xj.} zXyXaXaXaXaXaXaXaXaXaXaXaXaXaXaXaXaXyXzXh.x Z.l.| | ~.F.| 9XaXpXaXaXaXaXaXaXaXaXaXyX*X=X=X=X=X=X=X=X=X=X=X=X=X=X=X*X6XaXrX*X=X=X=X=X=X=X=X=X=X=X=X=X=X=X*XtXaXzXzXaXaXaXaXpXpXpXpXpXpXaXaXpXhXaXpXpXyXaXaXtXtXaXpXpXpXyXpXaXaXaXaXaXaXaXaXaXaXaXpXsXO.| O.h.D.Z.} Z.j.B V.hXpXaXaXaXaXaXaXaXaXaXaXaXaXaXaXaXaXyXnXj.~.rX/.B M.A.%X| ~.&X} hXyXaXaXaXaXaXpXaXzXzXaXaXaXpXaXnXrXl.o.l.n U D.h.D.x O.D.6X} l.zXyXaXaXaXaXaX",
"aXaXaXaXaXaXaXaXaXaXaXaXaXaXyXrXaXpX9XaXaX9XaXhXaXtXaXpXaXaXaXaXaXaXaXaXaXaXaXaXaXaXaXpXrXtX&X(.&XzXaXtXaXpXaXaXaXaXaXaXaXaXaXaXaXaXaXaXaXaXaXaX6X%X(.tX%X*XaX(.9XsXpXaXaXaXaXaXaXaXaXaXaXaXyXyXyXyXyXyXyXyXyXyXyXyXyXyXyXyXpXaXpXyXyXyXyXyXyXyXyXyXyXyXyXyXyXyXyXpXaXzXzXaXaXpXjX1X6.6.6.6.y.gXyXsX~.6XaXsXnXtXhX=X6XzXaXhXaXnXsXpXaXaXaXaXaXaXaXaXaXaXpXaXyX(.tXrXrX X XsXtX XaXaXaXaXaXaXaXaXaXaXaXaXaXaXaXaXaXaXaXaXaXrXtXsXhXtXtXrX*X XsXrXrXaXpXaXaXaXaXaXpXaXzXzXaXaXaXaXpXyXyX%X XaX*X'. X9X6X&X(.6XzXpXyXaXaXaXaXaXaXaX",
"aXaXaXaXaXaXaXaXaXaXaXaXaXaXaXaXaXaXaXaXaXaXaXpXaXaXpXaXaXaXaXaXaXaXaXaXaXaXaXaXaXaXaXaXaXaXsXhXsXyXaXaXpXaXaXaXaXaXaXaXaXaXaXaXaXaXaXaXaXaXaXaXsXhXhXaXsXsXpXhXaXpXaXaXaXaXaXaXaXaXaXaXaXaXaXaXaXaXaXaXaXaXaXaXaXaXaXaXaXaXaXaXaXaXaXaXaXaXaXaXaXaXaXaXaXaXaXaXaXpXaXzXzXaXaXiXjXi.>.>.>.>.6.gXaXyXx M.mX).Z.} | *X(.*XtX'.6Xl.=XsXpXaXaXaXaXaXaXaXaXaXaXpXaXhXaXaXaXhXhXpXaXhXaXaXaXaXaXaXaXaXaXaXaXaXaXaXaXaXaXaXaXaXpXaXaXpXpXaXaXaXaXsXpXaXaXpXaXaXaXaXaXaXpXaXzXzXaXaXaXaXaXaXaXhXhXaXsXhXsXaXaXsXzXsXyXaXaXaXaXaXaXaXaXaX",
"aXaXaXaXaXaXaXaXaXaXaXaXaXaXaXpXpXyXyXyXpXpXyXpXaXpXaXaXaXaXaXaXaXaXaXaXaXaXaXaXaXaXaXpXyXyXyXyXpXpXyXpXaXaXaXaXaXaXaXaXaXaXaXaXaXaXaXaXaXaXaXaXpXyXyXyXyXyXaXyXyXaXaXaXaXaXaXaXaXaXaXaXaXaXaXaXaXaXaXaXaXaXaXaXaXaXaXaXaXaXaXaXaXaXaXaXaXaXaXaXaXaXaXaXaXaXaXaXaXpXaXzXzXaXaXiXjX1X>.>.>.>.3.gXsX~.o.l.%XB  X] l.M.} j./.o.O.O.] pXaXaXaXaXaXaXaXaXaXaXaXaXaXyXyXyXyXyXpXyXyXpXaXaXaXaXaXaXaXaXaXaXaXaXaXaXaXaXaXaXaXaXaXpXaXaXyXaXaXhXzXhXpXaXpXaXaXaXaXaXaXaXpXaXzXzXaXaXaXaXaXaXaXpXpXpXyXaXaXzXzXaXyXpXaXpXpXaXaXaXaXaXaXaX",
"aXaXaXaXaXaXaXaXaXaXaXaXaXaXaXaXhXzXsXzXaXaXzXhXpXaXaXaXaXaXaXaXaXaXaXaXaXaXaXaXaXaXpXaXzXhXhXhXyXsXzXaXpXaXaXaXaXaXaXaXaXaXaXaXaXaXaXaXaXaXaXaXaXsXzXsXzXaXpXzXzXaXaXaXaXaXaXaXaXaXaXaXaXaXaXaXaXaXaXaXaXaXaXaXaXaXaXaXaXaXaXaXaXaXaXaXaXaXaXaXaXaXaXaXaXaXaXaXaXpXaXzXzXaXaXiXjX1X>.>.>.>.y.kXzX} n n j.l.AXh.*XF.D.j.| ~.n O.o.tXaXaXaXaXaXaXaXaXaXaXaXaXpXsXzXhXzXhXyXhXzXaXpXaXaXaXaXaXaXaXaXaXaXaXaXaXaXaXaXaXaXaXaXaXaXyXMX~.G.&Xl.(.sXpXaXaXaXaXaXaXaXaXpXaXzXzXaXaXaXaXaXaXaXaXpXaXmXz.6XD.Z.6XsXpXaXaXaXaXaXaXaXaXaXaX",
"aXaXaXaXaXaXaXaXaXaXaXaXaXaXaXyX'.Q.*XD.rXpXD.(.aXpXaXaXaXaXaXaXaXaXaXaXaXaXaXaXaXpXaX6X~.(.(./.hX&XF.9XaXpXaXaXaXaXaXaXaXaXaXaXaXaXaXaXaXaXaXaXaX%XG.&XD.6XsX~.~.aXaXaXaXaXaXaXaXaXaXaXaXaXaXaXaXaXaXaXaXaXaXaXaXaXaXaXaXaXaXaXaXaXaXaXaXaXaXaXaXaXaXaXaXaXaXaXaXpXaXzXzXaXaXiXjXi.>.>.>.>.6.jX*X] zXD.] ] Q.j.O.O.~.D.5 zXo.j. XaXaXaXaXaXaXaXaXaXaXaXaXpXaX=XQ. X).(.hX XD.tXaXpXaXaXaXaXaXaXaXaXaXaXaXaXaXaXaXaXaXaXaXaXaXaX'.} F.[ F.] (.hXpXaXaXaXaXaXaXaXpXaXzXzXaXaXaXaXaXaXaXpXsX6X~.U ).B D.Y aXaXaXaXaXaXaXaXaXaXaXaX",
"aXaXaXaXaXaXaXaXaXaXaXaXaXpXsX6Xm O.n o.M.A.U  XaXpXaXaXaXaXaXaXaXaXaXaXaXaXaXaXaXyXnXo.] b o.] '.B M.9XaXpXaXaXaXaXaXaXaXaXaXaXaXaXaXaXaXaXaXaXyXv O.v O.O.~.b (.yXaXaXaXaXaXaXaXaXaXaXaXaXaXaXaXaXaXaXaXaXaXaXaXaXaXaXaXaXaXaXaXaXaXaXaXaXaXaXaXaXaXaXaXaXaXaXaXpXaXzXzXaXaXpXaXeX2X2X2X2X2XsX9X&XsXrX*X%XA.9X~. XrXrX'.sXrXA./.aXaXaXaXaXaXaXaXaXaXaXaXyXzX] | n O.]  Xb A.rXaXpXaXaXaXaXaXaXaXaXaXaXaXaXaXaXaXaXaXaXaXyXzXA.| b D.X.A.[ &XsXpXaXaXaXaXaXaXaXpXaXzXzXaXaXaXaXaXaXaXpXaX[ h.n (.] F.| sXpXaXaXaXaXaXaXaXaXaXaX",
"aXaXaXaXaXaXaXaXaXaXaXaXaXpXsX*XX.tX| tXo.6XO.~.sXpXaXaXaXaXaXaXaXaXaXaXaXaXaXaXaXyXzXo.&XM. XZ.~.~.z.6XaXpXaXaXaXaXaXaXaXaXaXaXaXaXaXaXaXaXaXaXrX[ aX} yX| 6Xh.D.aXaXaXaXaXaXaXaXaXaXaXaXaXaXaXaXaXaXaXaXaXaXaXaXaXaXaXaXaXaXaXaXaXaXaXaXaXaXaXaXaXaXaXaXaXaXaXaXpXaXzXzXaXaXaXpXaXjXjXjXjXgXpXaXsXpXaXsXsXzXaXzXsXaXaXhXpXaXzXhXpXaXaXaXaXaXaXaXaXaXaXaXyXzX} 9XO.6Xl.'.D.j.rXaXpXaXaXaXaXaXaXaXaXaXaXaXaXaXaXaXaXaXaXaXyXzX| 9X~.A.X.l.} (.sXpXaXaXaXaXaXaXaXpXaXzXzXaXaXaXaXaXaXpXsX=X] VX} /.B Z.| yXaXpXaXaXaXaXaXaXaXaXaX",
"aXaXaXaXaXaXaXaXaXaXaXaXaXpXsX&X[ 6X[ *X} 9XA.b aXaXaXaXaXaXaXaXaXaXaXaXaXaXaXaXaXyXnX| (.h./.j.D.=XU Z.zXyXaXaXaXaXaXaXaXaXaXaXaXaXaXaXaXaXaXaXrXU rX] 6X[ 6XQ.n 9XaXpXaXaXaXaXaXaXaXaXaXaXaXaXaXaXaXaXaXaXaXaXaXaXaXaXaXaXaXaXaXaXaXaXaXaXaXaXaXaXaXaXaXaXaXaXaXpXaXzXzXaXaXaXaXpXpXpXpXpXpXaXpXpXaXpXpXpXyXpXyXpXpXpXyXaXpXyXpXaXaXaXaXaXaXaXaXaXaXaXaXyXzX] *X| %XO.).&Xb G.zXyXaXaXaXaXaXaXaXaXaXaXaXaXaXaXaXaXaXaXaXyXzXM.h.U A.[ ).} F.zXyXaXaXaXaXaXaXaXpXaXzXzXaXaXaXaXaXaXaXaXpXY A.v /.U  Xb rXaXpXaXaXaXaXaXaXaXaXaX",
"aXaXaXaXaXaXaXaXaXaXaXaXaXaXaXrX(.tX(.rX X%Xh.%XaXpXaXaXaXaXaXaXaXaXaXaXaXaXaXaXaXpXsX'.9X%X6X%X=XF.Z.tXaXaXaXaXaXaXaXaXaXaXaXaXaXaXaXaXaXaXaXaXyX/.yX(.tX'.=Xj.(.aXpXaXaXaXaXaXaXaXaXaXaXaXaXaXaXaXaXaXaXaXaXaXaXaXaXaXaXaXaXaXaXaXaXaXaXaXaXaXaXaXaXaXaXaXaXaXaXpXaXzXzXaXaXaXaXaXaXaXaXaXaXaXaXaXaXaXaXaXaXaXaXaXaXaXaXaXaXaXaXaXaXaXaXaXaXaXaXaXaXaXaXpXsX(.rX XrX%X6XZ.F.pXaXaXaXaXaXaXaXaXaXaXaXaXaXaXaXaXaXaXaXaXaXpXaXyXZ.A.6X).O.D.aXpXaXaXaXaXaXaXaXaXpXaXzXzXaXaXaXaXaXaXaXpXsX%XM.~.rXM.h.%XsXpXaXaXaXaXaXaXaXaXaXaX",
"aXaXaXaXaXaXaXaXaXaXaXaXaXaXpXaXhXaXhXaXsXsXnXsXpXaXaXaXaXaXaXaXaXaXaXaXaXaXaXaXaXaXpXsXaXsXaXsXsXzXzXaXaXaXaXaXaXaXaXaXaXaXaXaXaXaXaXaXaXaXaXaXaXhXaXhXaXsXsXnXhXpXaXaXaXaXaXaXaXaXaXaXaXaXaXaXaXaXaXaXaXaXaXaXaXaXaXaXaXaXaXaXaXaXaXaXaXaXaXaXaXaXaXaXaXaXaXaXaXpXaXzXzXaXaXaXaXaXaXaXaXaXaXaXaXaXaXaXaXaXaXaXaXaXaXaXaXaXaXaXaXaXaXaXaXaXaXaXaXaXaXaXaXaXpXhXaXsXaXsXaXzXzXaXaXaXaXaXaXaXaXaXaXaXaXaXaXaXaXaXaXaXaXaXaXaXaXaXzXzXaXhXnXzXaXaXaXaXaXaXaXaXaXaXpXaXzXzXaXaXaXaXaXaXaXaXpXsXzXzXaXzXnXsXpXaXaXaXaXaXaXaXaXaXaXaX",
"aXaXaXaXaXaXaXaXaXaXaXaXaXaXaXaXpXaXpXaXpXpXyXpXaXaXaXaXaXaXaXaXaXaXaXaXaXaXaXaXaXaXaXpXaXpXpXpXpXyXyXaXaXaXaXaXaXaXaXaXaXaXaXaXaXaXaXaXaXaXaXaXaXpXaXpXaXpXpXyXpXaXaXaXaXaXaXaXaXaXaXaXaXaXaXaXaXaXaXaXaXaXaXaXaXaXaXaXaXaXaXaXaXaXaXaXaXaXaXaXaXaXaXaXaXaXaXaXaXaXaXzXzXaXaXaXaXaXaXaXaXaXaXaXaXaXaXaXaXaXaXaXaXaXaXaXaXaXaXaXaXaXaXaXaXaXaXaXaXaXaXaXaXaXaXpXaXpXaXpXpXyXyXaXaXaXaXaXaXaXaXaXaXaXaXaXaXaXaXaXaXaXaXaXaXaXaXaXyXyXpXyXyXyXaXaXaXaXaXaXaXaXaXaXaXaXzXzXaXaXaXaXaXaXaXaXaXpXyXyXaXyXyXpXaXaXaXaXaXaXaXaXaXaXaXaX",
"pXpXpXpXpXpXpXpXpXpXpXpXpXpXpXpXpXpXpXpXpXpXpXpXpXpXpXpXpXpXpXpXpXpXpXpXpXpXpXpXpXpXpXpXpXpXpXpXpXpXpXpXpXpXpXpXpXpXpXpXpXpXpXpXpXpXpXpXpXpXpXpXpXpXpXpXpXpXpXpXpXpXpXpXpXpXpXpXpXpXpXpXpXpXpXpXpXpXpXpXpXpXpXpXpXpXpXpXpXpXpXpXpXpXpXpXpXpXpXpXpXpXpXpXpXpXpXpXpXyXaXzXzXpXpXpXpXpXpXpXpXpXpXpXpXpXpXpXpXpXpXpXpXpXpXpXpXpXpXpXpXpXpXpXpXpXpXpXpXpXpXpXpXpXpXpXpXpXpXpXpXpXpXpXpXpXpXpXpXpXpXpXpXpXpXpXpXpXpXpXpXpXpXpXpXpXpXpXpXpXpXpXpXpXpXpXpXpXpXpXpXpXpXpXpXaXzXzXpXpXpXpXpXpXpXpXpXpXpXpXpXpXpXpXpXpXpXpXpXpXpXpXpXpXpXpX",
"sXsXsXsXsXsXsXsXsXsXsXsXsXsXsXsXsXsXsXsXsXsXsXsXsXsXsXsXsXsXsXsXsXsXsXsXsXsXsXsXsXsXsXsXsXsXsXsXsXsXsXsXsXsXsXsXsXsXsXsXsXsXsXsXsXsXsXsXsXsXsXsXsXsXsXsXsXsXsXsXsXsXsXsXsXsXsXsXsXsXsXsXsXsXsXsXsXsXsXsXsXsXsXsXsXsXsXsXsXsXsXsXsXsXsXsXsXsXsXsXsXsXsXsXsXsXsXsXsXsXsXzXzXsXsXsXsXsXsXsXsXsXsXsXsXsXsXsXsXsXsXsXsXsXsXsXsXsXsXsXsXsXsXsXsXsXsXsXsXsXsXsXsXsXsXsXsXsXsXsXsXsXsXsXsXsXsXsXsXsXsXsXsXsXsXsXsXsXsXsXsXsXsXsXsXsXsXsXsXsXsXsXsXsXsXsXsXsXsXsXsXsXsXsXsXsXzXzXsXsXsXsXsXsXsXsXsXsXsXsXsXsXsXsXsXsXsXsXsXsXsXsXsXsXsXsX",
"zXzXzXzXzXzXzXzXzXzXzXzXzXzXzXzXzXzXzXzXzXzXzXzXzXzXzXzXzXzXzXzXzXzXzXzXzXzXzXzXzXzXzXzXzXzXzXzXzXzXzXzXzXzXzXzXzXzXzXzXzXzXzXzXzXzXzXzXzXzXzXzXzXzXzXzXzXzXzXzXzXzXzXzXzXzXzXzXzXzXzXzXzXzXzXzXzXzXzXzXzXzXzXzXzXzXzXzXzXzXzXzXzXzXzXzXzXzXzXzXzXzXzXzXzXzXzXzXzXzXzXzXzXzXzXzXzXzXzXzXzXzXzXzXzXzXzXzXzXzXzXzXzXzXzXzXzXzXzXzXzXzXzXzXzXzXzXzXzXzXzXzXzXzXzXzXzXzXzXzXzXzXzXzXzXzXzXzXzXzXzXzXzXzXzXzXzXzXzXzXzXzXzXzXzXzXzXzXzXzXzXzXzXzXzXzXzXzXzXzXzXzXzXzXzXzXzXzXzXzXzXzXzXzXzXzXzXzXzXzXzXzXzXzXzXzXzXzXzXzXzXzXzXzXzXzX",
"hXhXhXhXhXhXhXhXhXhXhXhXhXhXhXhXhXhXhXhXhXhXhXhXhXhXhXhXhXhXhXhXhXhXhXhXhXhXhXhXhXhXhXhXhXhXhXhXhXhXhXhXhXhXhXhXhXhXhXhXhXhXhXhXhXhXhXhXhXhXhXhXhXhXhXhXhXhXhXhXhXhXhXhXhXhXhXhXhXhXhXhXhXhXhXhXhXhXhXhXhXhXhXhXhXhXhXhXhXhXhXhXhXhXhXhXhXhXhXhXhXhXhXhXhXhXhXhXhXhXhXhXhXhXhXhXhXhXhXhXhXhXhXhXhXhXhXhXhXhXhXhXhXhXhXhXhXhXhXhXhXhXhXhXhXhXhXhXhXhXhXhXhXhXhXhXhXhXhXhXhXhXhXhXhXhXhXhXhXhXhXhXhXhXhXhXhXhXhXhXhXhXhXhXhXhXhXhXhXhXhXhXhXhXhXhXhXhXhXhXhXhXhXhXhXhXhXhXhXhXhXhXhXhXhXhXhXhXhXhXhXhXhXhXhXhXhXhXhXhXhXhXhXhXhXhX",
"pXpXpXpXpXpXpXpXpXpXpXpXpXpXpXpXpXpXpXpXpXpXpXpXpXpXpXpXpXpXpXpXpXpXpXpXpXpXpXpXpXpXpXpXpXpXpXpXpXpXpXpXpXpXpXpXpXpXpXpXpXpXpXpXpXpXpXpXpXpXpXpXpXpXpXpXpXpXpXpXpXpXpXpXpXpXpXpXpXpXpXpXpXpXpXpXpXpXpXpXpXpXpXpXpXpXpXpXpXpXpXpXpXpXpXpXpXpXpXpXpXpXpXpXpXpXpXpXpXpXpXpXpXpXpXpXpXpXpXpXpXpXpXpXpXpXpXpXpXpXpXpXpXpXpXpXpXpXpXpXpXpXpXpXpXpXpXpXpXpXpXpXpXpXpXpXpXpXpXpXpXpXpXpXpXpXpXpXpXpXpXpXpXpXpXpXpXpXpXpXpXpXpXpXpXpXpXpXpXpXpXpXpXpXpXpXpXpXpXpXpXpXpXpXpXpXpXpXpXpXpXpXpXpXpXpXpXpXpXpXpXpXpXpXpXpXpXpXpXpXpXpXpXpXpXpX",
"aXaXaXaXaXaXaXaXaXaXaXaXaXaXaXaXaXaXaXaXaXaXaXaXaXaXaXaXaXaXaXaXaXaXaXaXaXaXaXaXaXaXaXaXaXaXaXaXaXaXaXaXaXaXaXaXaXaXaXaXaXaXaXaXaXaXaXaXaXaXaXaXaXaXaXaXaXaXaXaXaXaXaXaXaXaXaXaXaXaXaXaXaXaXaXaXaXaXaXaXaXaXaXaXaXaXaXaXaXaXaXaXaXaXaXaXaXaXaXaXaXaXaXaXaXaXaXaXaXaXaXaXaXaXaXaXaXaXaXaXaXaXaXaXaXaXaXaXaXaXaXaXaXaXaXaXaXaXaXaXaXaXaXaXaXaXaXaXaXaXaXaXaXaXaXaXaXaXaXaXaXaXaXaXaXaXaXaXaXaXaXaXaXaXaXaXaXaXaXaXaXaXaXaXaXaXaXaXaXaXaXaXaXaXaXaXaXaXaXaXaXaXaXaXaXaXaXaXaXaXaXaXaXaXaXaXaXaXaXaXaXaXaXaXaXaXaXaXaXaXaXaXaXaXaXaX",
"yXpXaXaXpXyXpXyXpXaXaXaXaXaXaXaXaXaXaXaXaXaXaXaXaXaXaXaXaXaXaXaXaXaXaXaXaXaXaXaXaXaXaXaXaXaXaXaXaXaXaXaXaXaXaXaXaXaXaXaXaXaXaXaXaXaXaXaXaXaXaXaXaXaXaXaXaXaXaXaXaXaXaXaXaXaXaXaXaXaXaXaXaXaXaXaXaXaXaXaXaXaXaXaXaXaXaXaXaXaXaXaXaXaXaXaXaXaXaXaXaXaXaXaXaXaXaXaXaXaXaXaXaXaXaXaXaXaXaXaXaXaXaXaXaXaXaXaXaXaXaXaXaXaXaXaXaXaXaXaXaXaXaXaXaXaXaXaXaXaXaXaXaXaXaXaXaXaXaXaXaXaXaXaXaXaXaXaXaXaXaXaXaXaXaXaXaXaXaXaXaXaXaXaXaXaXaXaXaXaXaXaXaXaXaXaXaXaXaXaXaXaXaXaXaXaXaXaXaXaXaXaXaXaXaXaXaXaXaXaXaXaXaXaXaXaXaXaXaXaXaXaXaXaXaXaX",
"gXgXpXpXaXcXcXcXhXpXaXaXaXaXaXaXaXaXaXaXaXaXaXaXaXaXaXaXaXaXaXaXaXaXaXaXaXaXaXaXaXaXaXaXaXaXaXaXaXaXaXaXaXaXaXaXaXaXaXaXaXaXaXaXaXaXaXaXaXaXaXaXaXaXaXaXaXaXaXaXaXaXaXaXaXaXaXaXaXaXaXaXaXaXaXaXaXaXaXaXaXaXaXaXaXaXaXaXaXaXaXaXaXaXaXaXaXaXaXaXaXaXaXaXaXaXaXaXaXaXaXaXaXaXaXaXaXaXaXaXaXaXaXaXaXaXaXaXaXaXaXaXaXaXaXaXaXaXaXaXaXaXaXaXaXaXaXaXaXaXaXaXaXaXaXaXaXaXaXaXaXaXaXaXaXaXaXaXaXaXaXaXaXaXaXaXaXaXaXaXaXaXaXaXaXaXaXaXaXaXaXaXaXaXaXaXaXaXaXaXaXaXaXaXaXaXaXaXaXaXaXaXaXaXaXaXaXaXaXaXaXaXaXaXaXaXaXaXaXaXaXaXaXaXaXaX",
"A W.gXsX'.:.8.:.x.sXpXaXaXaXaXaXaXaXaXaXaXaXaXaXaXaXaXaXaXaXaXaXaXaXaXaXaXaXaXaXaXaXaXaXaXaXaXaXaXaXaXaXaXaXaXaXaXaXaXaXaXaXaXaXaXaXaXaXaXaXaXaXaXaXaXaXaXaXaXaXaXaXaXaXaXaXaXaXaXaXaXaXaXaXaXaXaXaXaXaXaXaXaXaXaXaXaXaXaXaXaXaXaXaXaXaXaXaXaXaXaXaXaXaXaXaXaXaXaXaXaXaXaXaXaXaXaXaXaXaXaXaXaXaXaXaXaXaXaXaXaXaXaXaXaXaXaXaXaXaXaXaXaXaXaXaXaXaXaXaXaXaXaXaXaXaXaXaXaXaXaXaXaXaXaXaXaXaXaXaXaXaXaXaXaXaXaXaXaXaXaXaXaXaXaXaXaXaXaXaXaXaXaXaXaXaXaXaXaXaXaXaXaXaXaXaXaXaXaXaXaXaXaXaXaXaXaXaXaXaXaXaXaXaXaXaXaXaXaXaXaXaXaXaXaXaX",
"I.8XaXaX5XW.W.W.].aXpXaXaXaXaXaXaXaXaXaXaXaXaXaXaXaXaXaXaXaXaXaXaXaXaXaXaXaXaXaXaXaXaXaXaXaXaXaXaXaXaXaXaXaXaXaXaXaXaXaXaXaXaXaXaXaXaXaXaXaXaXaXaXaXaXaXaXaXaXaXaXaXaXaXaXaXaXaXaXaXaXaXaXaXaXaXaXaXaXaXaXaXaXaXaXaXaXaXaXaXaXaXaXaXaXaXaXaXaXaXaXaXaXaXaXaXaXaXaXaXaXaXaXaXaXaXaXaXaXaXaXaXaXaXaXaXaXaXaXaXaXaXaXaXaXaXaXaXaXaXaXaXaXaXaXaXaXaXaXaXaXaXaXaXaXaXaXaXaXaXaXaXaXaXaXaXaXaXaXaXaXaXaXaXaXaXaXaXaXaXaXaXaXaXaXaXaXaXaXaXaXaXaXaXaXaXaXaXaXaXaXaXaXaXaXaXaXaXaXaXaXaXaXaXaXaXaXaXaXaXaXaXaXaXaXaXaXaXaXaXaXaXaXaXaXaX",
"gXgXpXpXaXcXcXcXhXpXaXaXaXaXaXaXaXaXaXaXaXaXaXaXaXaXaXaXaXaXaXaXaXaXaXaXaXaXaXaXaXaXaXaXaXaXaXaXaXaXaXaXaXaXaXaXaXaXaXaXaXaXaXaXaXaXaXaXaXaXaXaXaXaXaXaXaXaXaXaXaXaXaXaXaXaXaXaXaXaXaXaXaXaXaXaXaXaXaXaXaXaXaXaXaXaXaXaXaXaXaXaXaXaXaXaXaXaXaXaXaXaXaXaXaXaXaXaXaXaXaXaXaXaXaXaXaXaXaXaXaXaXaXaXaXaXaXaXaXaXaXaXaXaXaXaXaXaXaXaXaXaXaXaXaXaXaXaXaXaXaXaXaXaXaXaXaXaXaXaXaXaXaXaXaXaXaXaXaXaXaXaXaXaXaXaXaXaXaXaXaXaXaXaXaXaXaXaXaXaXaXaXaXaXaXaXaXaXaXaXaXaXaXaXaXaXaXaXaXaXaXaXaXaXaXaXaXaXaXaXaXaXaXaXaXaXaXaXaXaXaXaXaXaXaXaX",
"pXpXaXaXpXyXpXyXpXaXaXaXaXaXaXaXaXaXaXaXaXaXaXaXaXaXaXaXaXaXaXaXaXaXaXaXaXaXaXaXaXaXaXaXaXaXaXaXaXaXaXaXaXaXaXaXaXaXaXaXaXaXaXaXaXaXaXaXaXaXaXaXaXaXaXaXaXaXaXaXaXaXaXaXaXaXaXaXaXaXaXaXaXaXaXaXaXaXaXaXaXaXaXaXaXaXaXaXaXaXaXaXaXaXaXaXaXaXaXaXaXaXaXaXaXaXaXaXaXaXaXaXaXaXaXaXaXaXaXaXaXaXaXaXaXaXaXaXaXaXaXaXaXaXaXaXaXaXaXaXaXaXaXaXaXaXaXaXaXaXaXaXaXaXaXaXaXaXaXaXaXaXaXaXaXaXaXaXaXaXaXaXaXaXaXaXaXaXaXaXaXaXaXaXaXaXaXaXaXaXaXaXaXaXaXaXaXaXaXaXaXaXaXaXaXaXaXaXaXaXaXaXaXaXaXaXaXaXaXaXaXaXaXaXaXaXaXaXaXaXaXaXaXaXaXaX",
"aXaXaXaXaXaXaXaXaXaXaXaXaXaXaXaXaXaXaXaXaXaXaXaXaXaXaXaXaXaXaXaXaXaXaXaXaXaXaXaXaXaXaXaXaXaXaXaXaXaXaXaXaXaXaXaXaXaXaXaXaXaXaXaXaXaXaXaXaXaXaXaXaXaXaXaXaXaXaXaXaXaXaXaXaXaXaXaXaXaXaXaXaXaXaXaXaXaXaXaXaXaXaXaXaXaXaXaXaXaXaXaXaXaXaXaXaXaXaXaXaXaXaXaXaXaXaXaXaXaXaXaXaXaXaXaXaXaXaXaXaXaXaXaXaXaXaXaXaXaXaXaXaXaXaXaXaXaXaXaXaXaXaXaXaXaXaXaXaXaXaXaXaXaXaXaXaXaXaXaXaXaXaXaXaXaXaXaXaXaXaXaXaXaXaXaXaXaXaXaXaXaXaXaXaXaXaXaXaXaXaXaXaXaXaXaXaXaXaXaXaXaXaXaXaXaXaXaXaXaXaXaXaXaXaXaXaXaXaXaXaXaXaXaXaXaXaXaXaXaXaXaXaXaXaXaX",
"aXaXaXaXaXaXaXaXaXaXaXaXaXaXaXaXaXaXaXaXaXaXaXaXaXaXaXaXaXaXaXaXaXaXaXaXaXaXaXaXaXaXaXaXaXaXaXaXaXaXaXaXaXaXaXaXaXaXaXaXaXaXaXaXaXaXaXaXaXaXaXaXaXaXaXaXaXaXaXaXaXaXaXaXaXaXaXaXaXaXaXaXaXaXaXaXaXaXaXaXaXaXaXaXaXaXaXaXaXaXaXaXaXaXaXaXaXaXaXaXaXaXaXaXaXaXaXaXaXaXaXaXaXaXaXaXaXaXaXaXaXaXaXaXaXaXaXaXaXaXaXaXaXaXaXaXaXaXaXaXaXaXaXaXaXaXaXaXaXaXaXaXaXaXaXaXaXaXaXaXaXaXaXaXaXaXaXaXaXaXaXaXaXaXaXaXaXaXaXaXaXaXaXaXaXaXaXaXaXaXaXaXaXaXaXaXaXaXaXaXaXaXaXaXaXaXaXaXaXaXaXaXaXaXaXaXaXaXaXaXaXaXaXaXaXaXaXaXaXaXaXaXaXaXaXaX"
};
