/* XPM */
static char *impulse_responses_stereo[] = {
/* columns rows colors chars-per-pixel */
"256 256 254 2 ",
"   c #040404",
".  c #0A0303",
"X  c #05050B",
"o  c #07090D",
"O  c #0A0A0B",
"+  c #0B0708",
"@  c #15090A",
"#  c #11110E",
"$  c #0B0C12",
"%  c #050714",
"&  c #190E14",
"*  c #0E1015",
"=  c #061718",
"-  c #131314",
";  c #1C1315",
":  c #14151B",
">  c #1C151A",
",  c #17181E",
"<  c #19191E",
"1  c #191916",
"2  c #0A140A",
"3  c #311013",
"4  c #16251B",
"5  c #0B2D0D",
"6  c #242406",
"7  c #25261B",
"8  c #36361C",
"9  c #303717",
"0  c #141523",
"q  c #141C23",
"w  c #1B1C22",
"e  c #1D1826",
"r  c #121224",
"t  c #211C26",
"y  c #1F2026",
"u  c #1A232B",
"i  c #16252B",
"p  c #172B37",
"a  c #073838",
"s  c #16333C",
"d  c #082828",
"f  c #232426",
"g  c #292A25",
"h  c #24252C",
"j  c #27282F",
"k  c #2A2A2C",
"l  c #282824",
"z  c #31322E",
"x  c #272830",
"c  c #2B2C31",
"v  c #2D2F39",
"b  c #2F3035",
"n  c #2F313D",
"m  c #333434",
"M  c #393A36",
"N  c #34353A",
"B  c #37383D",
"V  c #3B3B3C",
"C  c #373834",
"Z  c #2F302C",
"A  c #591417",
"S  c #4A0C0E",
"D  c #6F0D0F",
"F  c #731E21",
"G  c #175618",
"H  c #0C4810",
"J  c #0D6E0F",
"K  c #2F4C2E",
"L  c #276628",
"P  c #2D7530",
"I  c #385019",
"U  c #484818",
"Y  c #575717",
"T  c #4F540C",
"R  c #686816",
"E  c #74740F",
"W  c #41423E",
"Q  c #555622",
"!  c #6D6D25",
"~  c #546F13",
"^  c #153747",
"/  c #14374E",
"(  c #3C3D42",
")  c #373946",
"_  c #123D61",
"`  c #084747",
"'  c #124657",
"]  c #0E5053",
"[  c #3F4045",
"{  c #3F414E",
"}  c #124965",
"|  c #125767",
" . c #0C5B77",
".. c #0F516D",
"X. c #0A696A",
"o. c #097778",
"O. c #106971",
"+. c #424246",
"@. c #44454A",
"#. c #47484D",
"$. c #4A4A4D",
"%. c #484946",
"&. c #4C4D52",
"*. c #484A58",
"=. c #4F5054",
"-. c #525255",
";. c #54555A",
":. c #57585C",
">. c #5A5A5D",
",. c #585857",
"<. c #50504E",
"1. c #5C5D62",
"2. c #565868",
"3. c #5D5F70",
"4. c #5F6064",
"5. c #5E6171",
"6. c #626365",
"7. c #646569",
"8. c #67686C",
"9. c #6A6A6D",
"0. c #686867",
"q. c #6D6E71",
"w. c #666979",
"e. c #6F7074",
"r. c #747475",
"t. c #757579",
"y. c #77787C",
"u. c #7A7A7D",
"i. c #777877",
"p. c #70706F",
"a. c #60605F",
"s. c #970809",
"d. c #8B0C0E",
"f. c #A60708",
"g. c #B60607",
"h. c #A21316",
"j. c #8B2023",
"k. c #C70303",
"l. c #D50506",
"z. c #F30202",
"x. c #817D0F",
"c. c #0EB70F",
"v. c #329134",
"b. c #30AF31",
"n. c #128D14",
"m. c #69930B",
"M. c #72A108",
"N. c #14CF14",
"B. c #2FD030",
"V. c #35FA35",
"C. c #2EF22E",
"Z. c #18EC18",
"A. c #46AF48",
"S. c #469E46",
"D. c #4ECE4F",
"F. c #47FB47",
"G. c #56F656",
"H. c #6AFB6A",
"J. c #60DD60",
"K. c #3F8C42",
"L. c #88880C",
"P. c #95950E",
"I. c #B9B804",
"U. c #ACAA0B",
"Y. c #8E8E2A",
"T. c #B0B02F",
"R. c #91AB08",
"E. c #C2BC07",
"W. c #8ECB01",
"Q. c #C5C406",
"!. c #D1CE10",
"~. c #FCFA01",
"^. c #EFEE0D",
"/. c #E6E529",
"(. c #EAEA48",
"). c #80807F",
"_. c #0C5791",
"`. c #0B6889",
"'. c #08749A",
"]. c #0B758A",
"[. c #0871AB",
"{. c #055EA2",
"}. c #7C7D81",
"|. c #767888",
" X c #707284",
".X c #0576CD",
"XX c #098889",
"oX c #089999",
"OX c #0D8C8F",
"+X c #038AB7",
"@X c #078EAB",
"#X c #08A8A9",
"$X c #06B7B8",
"%X c #0CACAF",
"&X c #06A09F",
"*X c #7F8086",
"=X c #0495C5",
"-X c #0582D8",
";X c #06AAD1",
":X c #0194F7",
">X c #03B2E9",
",X c #04C8C9",
"<X c #04D3D4",
"1X c #03F7F7",
"2X c #03D5EC",
"3X c #818286",
"4X c #86878B",
"5X c #8A8B8E",
"6X c #878889",
"7X c #8D8E91",
"8X c #858897",
"9X c #8F9095",
"0X c #929394",
"qX c #959699",
"wX c #9B9B9C",
"eX c #97989B",
"rX c #8F908E",
"tX c #9D9EA1",
"yX c #9698A6",
"uX c #9FA0A1",
"iX c #9EA0AD",
"pX c #A2A3A4",
"aX c #A5A6A8",
"sX c #AAABAD",
"dX c #A7A8AA",
"fX c #ADAEB2",
"gX c #A7A9B3",
"hX c #B3B4B5",
"jX c #B5B6B9",
"kX c #BBBBBC",
"lX c #B7B8BA",
"zX c #AFB0B3",
"xX c #A0A09F",
"cX c #BEBFC2",
"vX c #B4B6C0",
"bX c #BFC0C3",
"nX c #C3C3C4",
"mX c #CBCCCD",
"MX c #C5C6CA",
"NX c #CDCED1",
"BX c #D3D3D4",
"VX c #D9DADC",
"CX c #CFD0D2",
"ZX c #DDDEE1",
"AX c #E2E3E5",
"SX c #EAEBED",
"DX c #E6E7E9",
"FX c #EEEFF0",
"GX c #EFF0F2",
"HX c #F2F3F5",
"JX c #FCFDFE",
"KX c #F6F7F9",
"LX c #DDEADF",
"PX c #B6D9B6",
/* pixels */
"w w w w w w w w w w w w w w w w w w w w w w w w w w w w w w w w w w w w w w w w w w w w w w w w w w w w w w w w w w w w w w w w w w w w w w w w w w w w w w w w w w w w w w w w w w w w w w w w w w w w w w w w w w w w w w w w w w w w w w w w w w w w w w w w w w w w w w w w w w w w w w w w w w w w w w w w w w w w w w w w w w w w w w w w w w w w w w w w w w w w w w w w w w w w w w w w w w w w w w w w w w w w w w w w w w w w w w w w w w w w w w w w w w w w w w w w w w w w w w w w w w w w w w w w w w w w w w w w ",
"w w w w w w w w w w w w w w w w w w w w w w w w w w w w w w w w w w w w w w w w w w w w w w w w w w w w w w w w w w w w w w w w w w w w w w w w w w w w w w w w w w w w w w w w w w w w w w w w w w w w w w w w w w w w w w w w w w w w w w w w w w w w w w w w w w w w w w w w w w w w w w w w w w w w w w w w w w w w w w w w w w w w w w w w w w w w w w w w w w w w w w w w w w w w w w w w w w w w w w w w w w w w w w w w w w w w w w w w w w w w w w w w w w w w w w w w w w w w w w w w w w w w w w w w w w w w w w w w ",
"> > < w w w w w w w w w w w w w w w w w w w w w w w w w w w w w w w w w w w w w w w w w w w w w w w w w w w w w w w w w w w w w w w w w w w w w w w w w w w w w w w w w w w w w w w w w w w w w w w w w w w w w w w w w w w w w w w w w w w w w w w w w w w w w w w w w w w w w w w w w w w w w w w w w w w w w w w w w w w w w w w w w w w w w w w w w w w w w w w w : < w w w w , w : : w w w w , w < w w w : , w : : < w w : : w w : : w w : w , : w w w : < w < w w , w w : w w : : w , : w w w , , , : : : w : : w : , w w ",
"^ ^ p < < w w w w w w w w w w w w w w w w w w w w w w w w w w w w w w w w w w w w w w w w w w w w w w w w w w w w w w w w w w w w w w w w w w w w w w w w w w w w w w w w w w w w w w w w w w w w w w w w w w w w w w w w w w w w w w w w w w w w w w w w w w w w w w w w w w w w w w w w w w w w w w w w w w w w w w w w w w w w w w w w w w w w w w w w w w w w w h B j h h < w c w N B : h h w c w j w w : B b w N #.c < w B B : f ( @.w h ( w c [ w , : B j : j f < x w w ( f h +.[ : c B w w : v N j ( B B h +.( y ( m : h ",
"+X`...' u > w w w w w w w w w w w w w w w w w w w w w w w w w w w w w w w w w w w w w w w w w w w w w w w w w w w w w w w w w w w w w w w w w w w w w w w w w w w w w w w w w w w w w w w w w w w w w w w w w w w w w w w w w w w w w w w w w w w w w w w w w w w w w w w w w w w w w w w w w w w w w w w w w w w w w w w w w w w w w w w w w w w w w w w w w w w , m nX[ q.hXX 7.jXb fXwX8.6.t.$ wXc 0XN $ 9.tXy.+.fX}.+.$ ( fXwX6.1.sX9.#.wX7X( 0XtXqXw 3XwXaX( 8.hX$ 7X+.7XqX&.t.pX4.-.tX4XB $ &.uX3X:.wXnX7.4XtX1.;.fXtX&.r.",
"2X;X2X@X .^ > w w w w w w w w w w w w w w w w w w w w w w w w w w w w w w w w w w w w w w w w w w w w w w w w w w w w w w w w w w w w w w w w w w w w w w w w w w w w w w w w w w w w w w w w w w w w w w w w w w w w w w w w w w w w w w w w w w w w w w w w w w w w w w w w w w w w w w w w w w w w w w w w w w w w w w w w w w w w w w w w w w w w w w w w w w w w tXh q.CXh 0XhX( eX-.pX8.}.$ aXv tX( o 5XeX: ( jX6.N $ #.0X&.wX6.dX&.&.kXB - pX@.fX1.aX$ -.qX6.NX-.4X&.hX;.o 5XeX+.6.hXj w $ 7.fXc o +.wX  0X0X( 1.}.6.4Xt.",
"> ^ ].2XO...p < w w w w w w w w w w w w w w w w w w w w w w w w w w w w w w w w w w w w w w w w w w w w w w w w w w w w w w w w w w w w w w w w w w w w w w w w w w w w w w w w w w w w w w w w w w w w w w w w w w w w w w w w w w w w w w w w w w w w w w w w w w w w w w w w w w w w w w w w w w w w w w w w w w w w w w w w w w w w w w w w w w w w w w w w w w w wXh 9.eX}.4X7X( kXeXN q.y.  dXv eXh $ : 8.pX&.dX-.c - ( kXMX( 6.eX#., B fX-.qXfX:.@.pX  ( eXq.q.7XdXN y pX9.u.4X+.- &.hX+.: : &.hXB +.tXX 7X3XN -.cXnXj }.",
"w ; @ s =X'.} < w w w w w w w w w w w w w w w w w w w w w w w w w w w w w w w w w w w w w w w w w w w w w w w w w w w w w w w w w w w w w w w w w w w w w w w w w w w w w w w w w w w w w w w w w w w w w w w w w w w w w w w w w w w w w w w w w w w w w w w w w w w w w w w w w w w w w w w w w w w w w w w w w w w w w w w w w w w w w w w w w w w w w w w w w , c MXB y.9.kX8.0X#.pX$ $ #.dXu.pX: sX9X;.>.q.aX:.hX1.B $ &.0X;.5Xq.aX&.&.7.tX7.wXN $ y pX}.pX1.t.1.@.AX@.6.7X}.3XqX#.-.7.dX;.$ &.8.sX@.+.aX  eX7X( 8.}.9.y.3X",
"< ^  .@ ..=X..s > w w w w w w w w w w w w w w w w w w w w w w w w w w w w w w w w w w w w w w w w w w w w w w w w w w w w w w w w w w w w w w w w w w w w w w w w w w w w w w w w w w w w w w w w w w w w w w w w w w w w w w w w w w w w w w w w w w w w w w w w w w w w w w w w w w w w w w w w w w w w w w w w w w w w w w w w w w w w w w w w w w w w w w w w , c 7.N N v ( x [ j @.w w : @.8.c : $.q.&.[ q.B w 1.q.B : c +., &.B 7.6.N 7.;., @.h w , h 7.&.- B N : &.c 1.4.w B q.>.N 9.#., < N q.#.: c @.: ( q.:.m ( w &.( ",
"> ../ > u +X ./ > w w w w w w w w w w w w w w w w w w w w w w w w w w w w w w w w w w w w w w w w w w w w w w w w w w w w w w w w w w w w w w w w w w w w w w w w w w w w w w w w w w w w w w w w w w w w w w w w w w w w w w w w w w w w w w w w w w w w w w w w w w w w w w w w w w w w w w w w w w w w w w w w w w w w w w w w w w w w w w w w w w w w w w w w w , $ , , , : < : w : w w w : $ , w : $ - : $ : w $ $ , w < : w : : $ $ , $ - w : w w w w $ - w : , w - < $ $ w : $ * : $ : w w , $ : w < : w : $ * , : w : : ",
"w > > w > =X'.' > w w w w w w w w w w w w w w w w w w w w w w w w w w w w w w w w w w w w w w w w w w w w w w w w w w w w w w w w w w w w w w w w w w w w w w w w w w w w w w w w w w w w w w w w w w w w w w w w w w w w w w w w w w w w w w w w w w w w w w w w w w w w w w w w w w w w w w w w w w w w w w w w w w w w w w w w w w w w w w w w w w w w w w w w w w w w w w w w w w w w w w w w w w w w w w w w w w w w w w w w y w w w w w w w w w w w w w w w w w w y w w w w w w w w w w w w w w w w w w w w w w w w w w w ",
"w w w w w +X`.' > w w w w w w w w w w w w w w w w w w w w w w w w w w w w w w w w w w w w w w w w w w w w w w w w w w w w w w w w w w w w w w w w w w w w w w w w w w w w w w w w w w w w w w w w w w w w w w w w w w w w w w w w w w w w w w w w w w w w w w w w w w w w w w w w w w w w w w w w w w w w w w w w w w w w w w w w w w w w w w w w w w w w w w w w w w w w w w w w w w w w w w w w w w w w w w w w w w w w w w w w e w w w w w w w w w w w w w w w w > & ; w w w w w w w w w w w w w w w w w w w w w w w w w w w ",
"; w w > ^ +X} / > w w w w w w w w w w w w w w w w w w w w w w w w w w w w w w w w w w w w w w w w w w w w w w w w w w w w w w w w w w w w w w w w w w w w w w w w w w w w w w w w w w w w w < w w w w w w w w w w w w w w w w w w w w w w w w w w w w w w w w , w w w w w h w w w w w w , w w w w w w w w w w w w w w w w , w w w w w w w w w w w w w w w w w w w w w w w w w w w w w w w < < w w w w w w w w w w w w w w w w w w G y w w w w w w w w w w w w w w < ` o.] w w w w w w w w w w w w w w w < > > > w w , , w , , , ",
"' u < ; +X=X..u w w w w w w w w w w w w w w w w w w w w w w w w w w w w w w w w w w w w w w w w w w w w w w w w w w w w w w w w w w w w w w w w w w w w w w w w w w w w w w w w w w w w w > p u w w w w w w w w w w w w w w w w w w w w w w w w w w w w w w , B 4.+.: f , 4.f w w , w c @.w w w f w < w w y w , h w w w f #.w w w w w w w w w w w w w w w w w w w w w w w w w w w w w w < i p > w w w w w w w w w w w w w w w e 4 Z.H e w w w w ; ; ; > ; w w w w & #XXX$X| ; w w w w w w w w w w w w w ' ' ' } p - -.$.$ -.#.+.",
"2X} ; `.[. .' > w w w w w w w w w w w w w w w w w w w w w w w w w w w w w w w w w w w w w w w w w w w w w w w w w w w w w w w w w w w w w w w w w w w w w w w w w w w w w w w w w w w w < ^ ' w w w w w w w w w w w w w w w w w w w w w w w w w w w w w w w : 8.#.: ( 7.#.:.( 6.&.( 6.;.3Xb , 1.7.$.@.7.( 1.;.&.4.b &.1.-.3Xm , w w w w w w w w w w w w w w w w w w w w w w w w w w w w w u } p < w w w w w w w w w w w w w w e n.c.n.e w w w w ] | ] o.XX< w w w & oX#X$X' > w w w w w w w w w w w w w }  . . .s - 4.r.: u.-.;.",
";X`.].>X} ..w w w w w w w w w w w w w w w w w w w w w w w w w w w w w w w w w w w w w w w w w w w w w w w w w w w w w w w w w w w w w w w w w w w w w w w w w w w w w w w w w w w w w w w  .u > w w w w w w w w w w w w w w w w w w w w w w w w w w w w w w w h 1.#.q.1.6.;.e.6.7.q.< j ;.- w 8.w >.6.B -.9.6.:.&.( t.1.1.&.: w w w w w w w w w w w w w w w w w w w w w w w w w w w w w w ; s ..> w w w w w w w w w w w w w w w N.c.N.y w w w y OX#XoX;X,Xw w w w & #X| OXXX& w w w w w w w w w w w w w ' ......s : &.6.@.6.@.-.",
"^ =X.. ...w w w w w w w w w w w w w w w w w w w w w w w w w w w w w w w w w w w w w w w w w w w w w w w w w w w w w w w w w w w w w w w w w w w w w w w w w w w w w w w w w w w w w w w < p } u w w w w w w w w w w w w w w w w w w w w w w w w w w w w w w w c B 8.6.&.c 1.6.;.j 4.+.N 8.f , 9.@.>.>.N #.1.v j :.7.7.B N 8.f w w w w w w w w w w w w w w w w w w w w w w w w w w w w w < p } u w w w w w w w w w w w w w w e G n.e n.J e w w w ; ; & u u > w w w & oX%X%X] > w w w w w w w w w w w w w }  . . .s - ;.$.u.#.&.;.",
"; `...^ < w w w w w w w w w w w w w w w w w w w w w w w w w w w w w w w w w w w w w w w w w w w w w w w w w w w w w w w w w w w w w w w w w w w w w w w w w w w w w w w w w w w w w w w w < u w w w w w w w w w w w w w w w w w w w w w w w w w w w w w w w < ( :.c h ;.B N h =.( h ;.b @.N : 7.:.b b c w &.@.B -.h N ;.j @.N , w w w w w w w w w w w w w w w w w w w w w w w w w w w w w u w < w w w w w w w w w w w w w w w y y e y y w w w w w w w w w w w w w w u ^ p > w w w w w w w w w w w w w w ^ ^ ^ ^ p , N j ( j m B ",
"w > < > w w w w w w w w w w w w w w w w w w w w w w w w w w w w w w w w w w w w w w w w w w w w w w w w w w w w w w w w w w w w w w w w w w w w w w w w w w w w w w w w w w w w w w w w w w w w w w w w w w w w w w w w w w w w w w w w w w w w w w w w w w w , : < w : , , w : , w : , : , w 1.w , , w w : : , : w , : w : , w w w w w w w w w w w w w w w w w w w w w w w w w w w w w w w w w w w w w w w w w w w w w w w w w w w w w w w w w w w w w w w w w w w < > < w w w w w w w w w w w w w w w > > > > < w , w : w , , ",
"y y y y w w w w w w w w w w w w w w w w w w w w w w w w w w w w w w w w w w w w w w w w w w w w w w w w w w w w w w w w w w w w w w w w w w w w w w w w w w w w w w w w w w w w w w w w w w y y w w w w w w w w w w w w w w w w w w w w w w w w w w w w w w w f f y y f y y y f f y f y f y w j f y y y y f f y f y y f y f y w w w w w w w w w w w w w w w w w w w w w w w w w w w w w w y y w w w w w w w w w w w w w w w w y y w y y w w w w w w w w w w w w w w y y y w w w w w w w w w w w w w w w y y y y y w y y f y y y ",
"o $ $ $ $ $ $ $ $ $ $ $ $ $ $ $ $ $ $ $ $ $ $ $ $ $ $ $ $ $ $ $ $ $ $ $ $ $ $ $ $ $ $ $ $ $ $ $ $ $ $ $ $ $ $ $ $ $ $ $ $ $ $ $ $ $ $ $ $ $ $ $ $ $ $ $ $ $ $ $ $ $ $ $ $ $ $ $ $ $ $ $ $ $ $ $ $ $ $ $ $ $ $ $ $ $ $ $ $ $ $ $ $ $ $ $ $ $ $ $ $ $ $ $ $ $ $ $ $ $ $ $ $ $ $ $ $ $ $ $ $ $ $ o o $ $ $ $ $ $ $ $ $ $ $ $ $ $ $ $ $ $ $ $ $ $ $ $ $ $ $ $ $ $ $ $ $ $ $ $ $ $ $ $ $ $ $ $ $ $ $ $ $ $ $ $ $ $ $ $ $ $ $ $ $ $ $ $ $ $ $ $ $ $ $ $ $ $ $ $ $ $ $ $ $ $ $ $ $ $ $ $ $ $ $ $ $ $ $ $ $ $ $ $ $ $ $ $ $ $ $ $ $ $ $ ",
"}.}.}.}.}.}.}.}.}.}.}.}.}.}.}.}.}.}.}.}.}.}.}.}.}.}.}.}.}.}.}.}.}.}.}.}.}.}.}.}.}.}.}.}.}.}.}.}.}.}.}.}.}.}.}.}.}.}.}.}.}.}.}.}.}.}.}.}.}.}.}.}.}.}.}.}.}.}.}.}.}.}.}.}.}.}.}.}.}.}.}.}.}.}.}.}.}.}.}.}.}.}.}.}.}.}.}.}.}.}.}.}.}.}.}.}.}.}.}.}.}.}.}.}.}.}.}.}.}.}.}.}.}.}.}.}.}.}.}.}.}.}.}.}.}.}.}.}.}.}.}.}.}.}.}.}.}.}.}.}.}.}.}.}.}.}.}.}.}.}.}.}.}.}.}.}.}.}.}.}.}.}.}.}.}.}.}.}.}.}.}.}.}.}.}.}.}.}.}.}.}.}.}.}.}.}.}.}.}.}.}.}.}.}.}.}.}.}.}.}.}.}.}.}.}.}.}.}.}.}.}.}.}.}.}.}.}.}.}.}.}.}.}.}.}.}.}.}.}.}.}.}.}.}.}.}.",
"4X4X4X4X4X4X4X4X4X4X4X4X4X4X4X4X4X4X4X4X4X4X4X4X4X4X4X4X4X4X4X4X4X4X4X4X4X4X4X4X4X4X4X4X4X4X4X4X4X4X4X4X4X4X4X4X4X4X4X4X4X4X4X4X4X4X4X4X4X4X4X4X4X4X4X4X4X4X4X4X4X4X4X4X4X4X4X4X4X4X4X4X4X4X4X4X4X4X4X4X4X4X4X4X4X4X4X4X4X4X4X4X4X4X4X4X4X4X4X4X4X4X4X4X4X4X4X4X4X4X4X4X4X4X4X4X4X4X4X4X4X4X4X4X4X4X4X4X4X4X4X4X4X4X4X4X4X4X4X4X4X4X4X4X4X4X4X4X4X4X4X4X4X4X4X4X4X4X4X4X4X4X4X4X4X4X4X4X4X4X4X4X4X4X4X4X4X4X4X4X4X4X4X4X4X4X4X4X4X4X4X4X4X4X4X4X4X4X4X4X4X4X4X4X4X4X4X4X4X4X4X4X4X4X4X4X4X4X4X4X4X4X4X4X4X4X4X4X4X4X4X4X4X4X4X4X",
"o o o o o o o o o o o o o o o o o o o o o o o o o o o o o o o o o o o o o o o o o o o o o o o o o o o o o o o o o o o o o o o o o o o o o o o o o o o o o o o o o o o o o o o o o o o o o o o o o o o o o o o o o o o o o o o o o o o o o o o o o o o o o o o o o o o o o o o o o o o o o o o o o o o o o o o o o o o o o o o o o o o o o o o o o o o o o o o o o o o o o o o o o o o o o o o o o o o o o o o o o o o o o o o o o o o o o o o o o o o o o o o o o o o o o o o o o o o o o o o o o o o o o o o o o o o o o o o o ",
"y f f f f f y y y y y y y f f f f f f f f f f f f y f f f f f w y y y y w e e e e e e e e e e e e e e e e e e e w w w w w w w w w w w y w t t t t t t t t t t t t t t t t t t w y y y y y y y y y y y y y y y y y y y y y y y y y y y y y y y y y y y y y y y y y y y y y y y y y y y y y y y y y y y y y y y y y y y y y y y y y y y y y y y y y y y y y y y y y y y y y y y y y y y y y y y y y y y y y y y y y y y y y y y y y y y y y y y y y y y y y y y y y y y y y y y y y y y y y y y y y y y y y y y y y y y y y y y y ",
", : : : : : w w w w w w w - : : : : : : : : : : , , : : : - , w w w w w w 7 7 7 7 7 7 7 7 7 7 7 7 7 7 7 7 7 7 7 7 7 7 7 7 7 7 7 7 7 7 w 4 5 5 5 5 5 5 5 5 5 5 4 4 4 4 4 4 4 4 4 w w w w w w w w w w w w w w w w w w w w w w w w w w w w w w w w w w w w w w w w w w w w w w w w w w w w w w w w w w w w w w w w w w w w w w w w w w w w w w w w w w w w w w w w w w w w w w w w w w w w w w w w w w w w w w w w w w w w w w w w w w w w w w w w w w w w w w w w w w w w w w w w w w w w w w w w w w w w w w w w w w w w w w w w ",
"}.cXnXMXnX7.: w w w w w , 9.kXnXnXnXnXnXnXnXnXmXpX0XNXnXmXpXc , w w w w < U./.!.!.!.!.!.!.!.!.!.!.!.!.!.Q.Q.Q.Q.Q.Q.I.I.I.I.I.I.I.I.R r G Z.B.N.N.N.N.N.N.N.N.N.N.N.N.N.N.N.N.H e w w w w w w w w w w w w w w w w w w w w w w w w w w w w w w w w w w w w w w w w w w w w w w w w w w w w w w w w w w w w w w w w w w w w w w w w w w w w w w w w w w w w w w w w w w w w w w w w w w w w w w w w w w w w w w w w w w w w w w w w w w w w w w w w w w w w w w w w w w w w w w w w w w w w w w w w w w w w w w w w w w w w w w w ",
"wXFXJXDXJXDXb , w w w , v SXJXKXHXKXHXHXHXHXKXJXMXhXJXSXDXJX3X$ w < < w 1 U.(.(.(.(.(.(.(.(.(.(.(.(./././././././.^.^.^.^.^.^.^.^.^.R r H V.H.G.G.G.G.G.G.F.F.F.F.V.V.V.C.C.Z.H 0 < < < < < < < < < < < < < < < < < < < < < < < < < < < < < < < < < < < < < < < < < < < < < < < < < < < < < < < < < < < < < < < < < < < < < < < < < < < < < < < < < < < < < < < < < < < < < < < < < < < < < < < < < < < < < < < < < < < < < < < < < < < < < < < < < < < < < < < < < < < < < < < < < < < < < < < < < < < < < < < < < < < < < < w ",
"eXSXcXh cXJX@.: w w w - #.VXpXnXVXsXDXKXSXSXMXkXcXfXJX>.-.ZX0X$ < , , , 1 P.(.T.T.T.T./.T.T.T.Y.T.T.T.T.T.T.T.T.T.P.P.P.P.U.P.U.Q.Q.T r H B.D.A.A.A.D.A.B.b.B.v.b.b.B.b.b.B.N.H : , : : : : : : : : : : : : : : : : : : : : : : : : : : : : : : : : : : : : : : : : : : : : : : : : : : : : : : : : : : : : : : : : : : : : : : : : : : : : : : : : : : : : : : : : : : : : : : : : : : : : : : : : : : : : : : : : : : : : : : : : : : : : : : : : : : : : : : : : : : : : : : : : : : : : : : : : : : : : : : : : : : : , : , ",
"0XSX3XB *XKX+.: w w w * =.fXtXVXMXqXVXdXBXGXmXpX5XcXBX@.( sX6Xo : : : : - L.T.Y.! ! ! T.! Y.! Y.! ! Y.Y.Y.R Y.P.P.E L.R R L.E E P.I.T * H b.A.L v.L P v.v.L v.L P P b.L n.b.c.5 & : : : : : : : : : : : : : : : : : : : : : : : : : : : : : : : : : : : : : : : : : : : : : : : : : : : : : : : : : : : : : : : : : : : : : : : : : : : : : : : : : : : : : : : : : : : : : : : : : : : : : : : : : : : : : : : : : : : : : : : : : : : : : : : : : : : : : : : : : : : : : : : : : : : : : : : : : : : : : : : : : : : : : : : ",
"wXAXnXmXnXGX@.: w w w - &.hX3XbXqXsX0X}.0XHXKXzXaXlXZXlXdXsXu.o - - - - - E T.Y.! Q ! T.Q ! ! T.! R Y.R Y Y R L.L.E E L.Y L.T Y P.P.T % 5 v.S.L v.P K L L G L L L L b.G J n.n.5 * - - - - - - - - - - - - - - - - - - - - - - - - - - - - - - - - - - - - - - - - - - - - - - - - - - - - - - - - - - - - - - - - - - - - - - - - - - - - - - - - - - - - - - - - - - - - - - - - - - - - - - - - - - - - - - - - - - - - - - - - - - - - - - - - - - - - - - - - - - - - - - - - - - - - - - - - - - - - - - - - - - - - - - - ",
"4XHXy.  }.JX+.: w w w * =.sXkXAX0XpX0X7XMXKXeXuXcXjXVXw w aXi.X - $ $ $ O R Y.! Q Q Q ! Y ! R U Y R Y Y Y Y U Y Y U U R T R T T E L.9 % 5 v.v.K L L L 4 L L G G G G G G J n.J 5 $ $ $ $ $ $ $ $ $ $ $ $ $ $ $ $ $ $ $ $ $ $ $ $ $ $ $ $ $ $ $ $ $ $ $ $ $ $ $ $ $ $ $ $ $ $ $ $ $ $ $ $ $ $ $ $ $ $ $ $ $ $ $ $ $ $ $ $ $ $ $ $ $ $ $ $ $ $ $ $ $ $ $ $ $ $ $ $ $ $ $ $ $ $ $ $ $ $ $ $ $ $ $ $ $ $ $ $ $ $ $ $ $ $ $ $ $ $ $ $ $ $ $ $ $ $ $ $ $ $ $ $ $ $ $ $ $ $ $ $ $ $ $ $ $ $ $ $ $ $ $ $ $ $ $ $ $ $ $ $ $ $ $ $ $ $ $ $ ",
"qXDXZX8.VXKX@.: w w w - #.VXVXDXMXmXVXsXmXSXaXsXpXfXJX5Xy.nXe.X $ O O O O T ! ! R ! ! ! R Y R U U R Y R R R R Y Y Y Y Y Y T R R R R 6 % 5 L P L L L L L L L L G L G G G G J J 5 O O O O O O O O O O O O O O O O O O O O O O O O O O O O O O O O O O O O O O O O O O O O O O O O O O O O O O O O O O O O O O O O O O O O O O O O O O O O O O O O O O O O O O O O O O O O O O O O O O O O O O O O O O O O O O O O O O O O O O O O O O O O O O O O O O O O O O O O O O O O O O O O O O O O O O O O O O O O O O O O O O O O O O O O ",
"uXKXJXJXJXmXh w w w w w f BXJXJXJXJXJXJXJXJXJXJXNXkXJXFXVXkX$.o $ O O o + 9 Y Y Y Y Y Y Y Y U Y T T T T T T T T T T T T T T T T T T 6 X 2 G K G G G G G G G G G G G G G G H H 2 + O O O O O O O O O O O O O O O O O O O O O O O O O O O O O O O O O O O O O O O O O O O O O O O O O O O O O O O O O O O O O O O O O O O O O O O O O O O O O O O O O O O O O O O O O O O O O O O O O O O O O O O O O O O O O O O O O O O O O O O O O O O O O O O O O O O O O O O O O O O O O O O O O O O O O O O O O O O O O O O O O O O O O O O ",
":.*X3X3X}.N : w w w w w : B }.3X3X3X3X*X3X3X}.4Xq.7.4Xy.e.@.$ $ O O + X + 6 6 6 6 6 6 6 6 6 6 6 6 6 6 6 6 6 6 6 6 6 6 6 6 6 6 6 6 6 # o 2 5 5 5 5 5 5 5 5 5 5 5 5 5 5 5 5 5 5 2 O O O O O O O O O O O O O O O O O O O O O O O O O O O O O O O O O O O O O O O O O O O O O O O O O O O O O O O O O O O O O O O O O O O O O O O O O O O O O O O O O O O O O O O O O O O O O O O O O O O O O O O O O O O O O O O O O O O O O O O O O O O O O O O O O O O O O O O O O O O O O O O O O O O O O O O O O O O O O O O O O O O O O O O + ",
": $ $ $ $ , w w w w w w w , $ $ $ $ $ $ $ $ $ $ $ * $ $ o $ - * O O X                                                                                                                                                                                                                                                                                                                                                                                                                                                           ",
"y f f f f w w w w w w w w w f f f f f f f f f f f y f w w , - * $ O +   O 6.0.6.7.7.7.7.0.0.0.7.0.0.6.7.6.0.0.0.0.0.0.0.0.6.6.0.6.6.7.7.7.7.7.7.7.7.7.6.6.7.7.7.7.7.7.6.6.7.7.7.7.7.7.7.7.7.6.9.i.r.r.r.r.r.r.r.r.r.r.r.r.r.r.r.r.r.r.r.r.r.r.r.r.r.r.r.r.r.r.r.r.r.r.r.r.r.r.r.r.r.r.r.r.r.r.r.r.r.r.r.r.r.r.r.r.r.r.r.r.r.r.r.r.r.r.r.r.r.r.r.r.r.r.r.r.r.r.r.r.r.r.r.r.r.r.r.r.r.r.r.r.r.r.r.r.r.r.r.r.r.r.r.r.r.r.r.r.r.r.r.r.r.r.r.r.r.r.r.r.r.r.r.r.r.r.r.r.r.r.r.r.r.r.r.r.r.r.r.r.r.r.r.r.r.r.r.r.r.r.r.r.r.r.r.r.i.%.  ",
": : : : : : : : : : : : : : : : : : : : : : : : : : : : - $ $ O O X X   < JXJXJXJXJXJXJXJXJXJXJXJXJXJXJXJXJXJXJXJXJXJXJXJXJXJXJXJXJXJXJXJXJXJXJXJXJXJXJXJXJXJXJXJXJXJXJXJXJXJXJXJXJXJXJXJXJXJXcXy.3X3X3X3X3X3X3X3X3X3X3X3X3X3X3X3X3X3X3X3X3X3X3X3X3X3X3X3X3X3X3X3X3X3X3X3X3X3X3X3X3X3X3X3X3X3X3X3X3X3X3X3X3X3X3X3X3X3X3X3X3X3X3X3X3X3X3X3X3X3X3X3X3X3X3X3X3X3X3X3X3X3X3X3X3X3X3X3X3X3X3X3X3X3X3X3X3X3X3X3X3X3X3X3X3X3X3X3X3X3X3X3X3X3X3X3X3X3X3X3X3X3X3X3X3X3X3X3X3X3X3X3X3X3X3X3X3X3X3X3X3X3X3X3X3X3X3X3X3X3X3X3X3X3X3X3X3X0XaX",
"kXkXkXkXkXkXkXjXjXjXjXjXjXjXjXjXjXjXjXjXjXjXjXjXjXjXjXsXwX6Xt.6.-.V k - f AXSXAXDXDXDXDXDXFXSXHXDXSXVXVXBXDXGXSXSXGXDXSXHXBXBXSXAXBXAXGXSXSXSXSXSXHXAXmXVXSXHXSXFXSXHXAXVXFXSXDXFXFXDXDXDXAXKXr.  $ o o o o o o o o o o o o o o o o o o o o o o o o o o o o o o o o o o o o o o o o o o o o o o o o o o o o o o o o o o o o o o o o o o o o o o o o o o o o o o o o o o o o o o o o o o o o o o o o o o o o o o o o o o o o o o o o o o o o o o o o o o o o o o o o o o o o o o o o o o o o o o o o o o o o o o o o o o o $ $ B ",
"HXHXKXKXKXKXSX#.B ( ( ( ( ( ( ( ( ( ( ( ( ( ( ( ( ( ( B m c h f < - -   < DXKXdXmX3XBXpXSXVXCXdXHXnX9XnXVXDXmXAXAXmXSXVXVXlXfXJX7XpXZXBXVXAXDXAXAXCXBXqXAXBXmXZXNXZXaXCXAXVXBXGXBXBXFXSXSXDXJX3X$ f w w w w w w w w w w w w w w w w w w w w w w w w w w w w w w w w w w w w w w w w w w w w w w w w w w w w w w w w w w w w w w w w w w w w w w w w w w w w w w w w w w w w w w w w w w w w w w w w w w w w w w w w w w w w w w w w w w w w w w w w w w w w w w w w w w w w w w w w w w w w w w w w w w w w w w w w w w w w f X ",
"HXHXSXSXDXSXZXf * : : : : : : : : : : : : : : : : : : : - $ $ O O X X   < DXKXlXtX3XtXzXaX4X3X3XKXkX5XAXuXsX7XqXwX4XsXVX4XeXkXJX4XkXcX0X5XtXmXpXVXqXeXdXuXmXr.MXtX0X}.dXsXuXqXhX4X7XBXHXSXDXJX}.$ y w w w w w w w w w w w w w w w w w w w w w w w w w w w w w w w w w w w w w w w w w w w w w w w w w w w w w w w w w w w w w w w w w w w w w w w w w w w w w w w w w w w w w w w w w w w w w w w w w w w w w w w w w w w w w w w w w w w w w w w w w w w w w w w w w w w w w w w w w w w w w w w w w w w w w w w w w w w w w < ",
"kXnXHXSXSXFXAXc w w w w w w w w w w w w w w w w w w w w , : - * O O O   < DXHXVX7.cXq.nX}.uXeXjXKXHXnX3XqX0XBXtXtXBX0XsX3X*XkXJX3XMXtXMXsX0XMXwXsX7X}.pXtXnXjXMX4X3XsXMX3XlXMX4XkXlXlXKXSXDXKX9.$ w w w w w w w w w w w w w w w w w w w w w w w w w w w w w w w w w w w w w w w w w w w w w w w w w w w w w w w w w w w w w w w w w w w w w w w w w w w w w w w w w w w w w w w w w w w w w w w w w w w w w w w w w w w w w w w w w w w w w w w w w w w w w w w w w w w w w w w w w w w w w w w w w w w w w w w w w w w w w w , ",
"}.*XZXFXSXGXVXj , w w w w w w w w w w w w w w w w w w w , : - $ O O +   < DXSXSX4XZX7XZXlXtXmX7XDXmXqXfXfXnX5X5XhXBXdXeXqXtXnXKX0XtXnX0Xu.bX5XqXdX5XpXfXhX7X9XpX5XfXuXtXbXpXqXnXkXcXMXHXDXGXAXm , w w w w w w w w w w w w w w w w w w w w w w w w w w w w w w w w w w w w w w w w w w w w w w w w w w w w w w w w w w w w w w w w w w w w w w w w w w w w w w w w w w w w w w w w w w w w w w w w w w w w w w w w w w w w w w w w w w w w w w w w w w w w w w w w w w w w w w w w w w w w w w w w w w w w w w w w w w w w w w , ",
"4XjXDXSXDXHXnXw w w w w w w w w w w w w w w w w w w w w , : - $ O O +   < SXHXHXKXHXKXHXKXSXHXHXHXHXSXKXJXVXwXzXJXHXKXHXHXKXHXHXHXSXHXJXtXDXKXKXKXGXKXKXKXHXSXHXHXKXHXHXKXHXHXKXHXHXHXHXKXHX8.- w w w w w w w w w w w w w w w w w w w w w w w w w w w w w w w w w w w w w w w w w w w w w w w w w w w w w w w w w w w w w w w w w w w w w w w w w w w w w w w w w w w w w w w w w w w w w w w w w w w w w w w w w w w w w w w w w w w w w w w w w w w w w w w w w w w w w w w w w w w w w w w w w w w w w w w w w w w w w w w , ",
"jXjXSXDXSXJXq.$ w w w w w w w w w w w w w w w w w w w < , : - $ O O +   < AXNXNXNXNXNXNXNXBXNXNXNXNXBXNXCXnXzXNXNXNXNXNXNXNXNXNXNXBXNXCXMXmXCXNXNXCXNXNXNXNXCXNXCXNXNXNXNXNXNXNXNXNXNXMXsX;.: w w w w w w w w w w w w w w w w w w w w w w w w w w w w w w w w w w w w w w w w w w w w w w w w w w w w w w w w w w w w w w w w w w w w w w w w w w w w w w w w w w w w w w w w w w w w w w w w w w w w w w w w w w w w w w w w w w w w w w w w w w w w w w w w w w w w w w w w w w w w w w w w w w w w w w w w w w w w w w w w , ",
"JXJXJXJXKX7X, w w w w w w w w w w w w w w w w w w w w w < : : - $ O O   g hX- w w w w w w w w w w w w w w w f w w w w w w w w w w w w w w w w w w w w w w w w w w w w w w w w w w w w w : : w w w w w w w w w w w w w w w w w w w w w w w w w w w w w w w w w w w w w w w w w w w w w w w w w w w w w w w w w w w w w w w w w w w w w w w w w w w w w w w w w w w w w w w w w w w w w w w w w w w w w w w w w w w w w e e e e e e e e e e e e e e e e e e e w w w w w w w w w w w w w w w w w w < , , , , , , , , , , , , w w , ",
"u.}.}.q.V X $ $ $ $ $ $ $ $ $ $ $ $ $ $ $ $ $ $ $ $ $ $ O O O + X       l hX: w w w w w w w w w w w w w w w w w w w w w w w w w w w w w w w w w w w w w w w w w w w w w w w w w w w w w w w w w w w w w w w w w w w w w w w w w w w w w w w w w w w w w w w w w w w w w w w w w w w w w w w w w w w w w w w w w w w w w w w w w w w w w w w w w w w w w w w w w w w w w w w w w w w w w w w w w w w w w w w w w w w w H H H H H H H H H H H H H H H H H 5 H 4 w k k k k k k k k k k k k k k k k k c c c c c c c c c c c m f w , ",
"                                                                        l hX: w w w w w w w w w w w w w w w w w w w w w w w w w w w w w w w w w w w w w w w w w w w w w w w w w w w w w w w w w w w w w w w w w w w w w w w w w w w w w w w w w w w w w w w w w w w w w w w w w w w w w w w w w w w w w w w w w w w w w w w w w w w w w w w w w w w w w w w w w w w w w w w w w w w w w w w w w w w w w w w w w w w , c.V.V.V.V.C.C.C.C.C.C.C.C.Z.Z.Z.Z.Z.c.4 w p.eX0X0XqXqXeXeXwXwXwXwXwXpXpXpXpXpXaXaXdXsXsXsXsXsXsXlXqXh w < ",
"O O O O O O O O O O O O O O O O O O O O O O O O O O O O O O O + +       l hX: w w w w w w w w w w w w w w w w w w w w w w w w w w w w w w w w w w w w w w w w w w w w w w w w w w w w w w w w w w w w w w w w w w w w w w w w w w w w w w w w w w w w w w w w w w w w w w w w w w w w w w w w w w w w w w w w w w w w w w w w w w w w w w w w w w w w w w w w w w w w w w w w w w w w w w w w w w w w w w w w w w w , c.H.H.H.H.H.G.G.G.G.F.F.F.F.V.V.V.V.c., w i.hXsXhXhXlXlXkXlXkXkXkXkXkXnXnXnXMXMXmXmXmXmXmXBXBXBXBXpXf w < ",
"+ + + + + + + O O O O O O O O O O O O O O O O O O O O O O O + +         l hX: w w w w w w w w w w w w w w w w w w w w w w w w w w w w w w w w w w w w w w w w w w w w w w w w w w w w w w w w w w w w w w w w w w w w w w w w w w w w w w w w w w w w w w w w w w w w w w w w w w w w w w w w w w w w w w w w w w w w w w w w w w w w w w w w w w w w w w w w w w w w w w w w w w w w w w w w w w w w w w w w w w w , c.H.G.A.D.D.G.G.D.F.B.b.B.C.V.b.B.V.c.1 w r.hXqX3X6Xr.6X3XqXy.eX7X5XaX}.wXkX0XwX7X0XdXhXfX5X4X0XBXwXf w < ",
"+ + + + + + + O O O O O O O O O O O O O O O O O O O O O O O + +         l hX: w w w w w w w w w w w w w w w w w w w w w w w w w w w w w w w w w w w w w w w w w w w w w w w w w w w w w w w w w w w w w w w w w w w w w w w w w w w w w w w w w w w w w w w w w w w w w w w w w w w w w w w w w w w w w w w w w w w w w w w w w w w w w w w w w w w w w w w w w w w w w w w w w w w w w w w w w w w w w w w w w w w , c.H.J.K.D.P A.D.v.D.b.v.b.B.V.v.C.V.c.1 w r.hXy.u.dXt.5X9.7Xt.3Xq.6X}.aX3XsXr.sX3X3X3XaXsX0X0XaXBXwXf w < ",
"+ + + + + + + O O O O O O O O O O O O O O O O O O O O O O O + +         l hX: w w w w w w w w w w w w w w w w w w w w w w w w w w w w w w w w w w w w w w w w w w w w w w w w w w w w w w w w w w w w w w w w w w w w w w w w w w w w w w w w w w w w w w w w w w w w w w w w w w w w w w w w w w w w w w w w w w w w w w w w w w w w w w w w w w w w w w w w w w w w w w w w w w w w w w w w w w w w w w w w w w w : c.H.J.A.J.A.P S.P v.b.b.v.B.V.b.V.V.c.1 w r.sXdXr.5X6X0X}.wX;.5Xu.wXu.lX3XhXdXu.q.wXwXaXhXwXwXsXBXwXf w < ",
"+ + + + + + + O O O O O O O O O O O O O O O O O O O O O O O + +         l hX: w w w w w w w w w w w w w w w w w w w w w w w w w w w w w w w w w w w w w w w w w w w w w w w w w w w w w w w w w w w w w w w w w w w w w w w w w w w w w w w w w w w w w w w w w w w w w w w w w w w w w w w w w w w w w w w w w w w w w w w w w w w w w w w w w w w w w w w w w w w w w w w w w w w w w w w w w w w w w w w w w w w : c.H.J.S.D.J.A.v.D.D.v.b.B.v.B.b.B.V.c.1 w r.hX0Xt.qX5XeXr.7X0X0Xu.5XeXt.7XkX5X5X0XmXpXy.5X0XpXhXmXwXf w < ",
"+ + + + + + + O O O O O O O O O O O O O O O O O O O O O O O + +         l hX: w w w w w w w w w w w w w w w w w w w w w w w w w w w w w w w w w w w w w w w w w w w w w w w w w w w w w w w w w w w w w w w w w w w w w w w w w w w w w w w w w w w w w w w w w w w w w w w w w w w w w w w w w w w w w w w w w w w w w w w w w w w w w w w w w w w w w w w w w w w w w w w w w w w w w w w w w w w w w w w w w w w : c.H.H.H.H.H.H.H.G.G.G.F.F.F.F.V.V.V.c.1 w r.hXaXdXsXsXhXsXhXhXjXjXhXkXlXkXkXlXnXnXkXnXnXnXnXMXnXmXwXf w < ",
"+ + + + + + + O O O O O O O O O O O O O O O O O O O O O O O + +         l hX: w w w w w w w w w w w w w w w w w w w w w w w w w w w w w w w w w w w w w w w w w w w w w w w w w w w w w w w w w w w w w w w w w w w w w w w w w w w w w w w w w w w w w w w w w w w w w w w w w w w w w w w w w w w w w w w w w w w w w w w w w w w w w w w w w w w w w w w w w w w w w w w w w w w w w w w w w w w w w w w w w w w , c.H.H.G.G.G.G.F.F.F.F.V.V.V.V.V.C.C.N.4 w i.dXpXaXaXdXdXsXsXsXsXsXhXhXhXhXhXlXlXlXlXkXkXkXkXkXkXnXwXf w < ",
"+ + + + + + + O O O O O O O O O O O O O O O O O O O O O O O + +         l hX: w w w w w w w w w w w w w w w w w w w w w w w w w w w w w w w w w w w w w w w w w w w w w w w w w w w w w w w w w w w w w w w w w w w w w w w w w w w w w w w w w w w w w w w w w w w w w w w w w w w w w w w w w w w w w w w w w w w w w w w w w w w w w w w w w w w w w w w w w w w w w w w w w w w w w w w w w w w w w w w w w w w w J n.J J J J J J J J J J J J J J J J J 4 w V ( V ( ( ( ( ( [ +.+.+.+.+.+.+.+.+.+.+.+.+.@.@.@.@.@.@.@.f w , ",
"+ + + + + + + O O O O O O O O O O O O O O O O O O O O O O O + +         l hX: w w w w w w w w w w w w w w w w w w w w w w w w w w w w w w w w w w w w w w w w w w w w w w w w w w w w w w w w w w w w w w w w w w w w w w w w w w w w w w w w w w w w w w w w w w w w w w w w w w w w w w w w w w w w w w w w w w w w w w w w w w w w w w w w w w w w w w w w w w w w w w w w w w w w w w w w w w w w w w w w w w w w e e e e e e e e e e e e e e e e e e e w w , , , , , , , , , , , , , , , , , , , , , , , , , , , : , w w , ",
"+ + + + + + + O O O O O O O O O O O O O O O O O O O O O O O + +         l hX: w w w w w w w w w w w w w w w w w w w w w w w w w w w w w w w w w w w w w w w w w w w w w w w w w w w w w w w w w w w w w w w w w w w w w w w w w w w w w w w w w w w w w w w w w w w w w w w w w w w w w w w w w w w w w w w w w w w w w w w w w w w w w w w w w w w w w w w w w w w w w w w w w w w w w w w w w w w w w w w w w w w w w w w w w w w w w w w w w w w w w w w w w w w w w w w w w w w w w w w w w w w w w w w w w w w w w w w w , ",
"+ + + + + + + O O O O O O O O O O O O O O O O O O O O O O O + +         l hX: j h h h h h h h h h h h h h h h h h h h h h h h h h h h h h h h h h h h h h h h h h h h h h h h h h h h h h h h h h h h h h h h h h h h h h h h h h h h h h h h h h h h h h h h h h h h h h h h h h h h h h h h h h h h h h h h h h h h h h h h h h h h h h h h h h h h h h h h h h h h h h h h h h h h h h h h h h h h h h h h h h h h h h h h h h h h h h h h h h h h h h h h h h h h h h h h h h h h h h h h h h h h h h h h h h h h h h h j y ",
"+ + + + + + + O O O O O O O O O O O O O O O O O O O O O O O + +         l hX: f y y y y y y y y y y y y y y y y y y y y y y y y y y y y y y y y f f y y y y y y y y y y y y y y y y y y y y y y y y y y y y y y y y y y y y y y y y y y y y y y y y y y y y y y y y y y y y y y y y y y y y y y y y y y y y y y y y y y y y y y y y y y y y y y y y y y y y y y y y y y y y y y y y y y y y y y y y y y y y y y y y y y y y y y y y y y y y y y y y y y y f y y y y y y y y y y y y y y y y y y y y y y y y y y y y y y y y f w ",
"+ + + + + + + O O O O O O O O O O O O O O O O O O O O O O O + +         l hX: w w w w w w w w w w w w w w w w w w w w w w w w w w w w w w w w w w h < w w w w w w w w w w w w w w w w w w w w w w w w w w w w w w w w w w w w w w w w w w w w w w w w w w w w w w w w w w w w w w w w w w w w w w w w w w w w w w w w w w w w w w w w w w w w w w w w w w w w w w w w w w w w w w w w w w w w w w w w w w w w w w w w w w w w w w w w w w w w w w w w w w j w w w w w w w w w w w w w w w w w w w w w w w w w w w w w w w w w , ",
"+ + + + + + + O O O O O O O O O O O O O O O O O O O O O O O + +         l hX: w w w w w w w w < w w w w w w w w w w w w w w w w w w w w w w w w w j w w w w w w w , : w : , w w w w w w w w w w w w w , w : , : - , w w w w w w w w w w w : w : : , - : w w w w w w w w w w w w , w : w w , w w w w w w w w w w w w w , w , w w w w w w w w w w w w w : w w , : w , w w w w w w w w w w w w , w , - : , w w w w w w w w w w w w , < w : w , w w w w w w w x w w w w w w w w w w w w w w w , w w w w w w w w w w w w w w w w w , ",
"+ + + + + + + + O O O O O O O O O O O O O O O O O O O O O O + +         l hX: w w w w w w w w j w w : , < < , < w w : , w , w < w w w w w w w w w j w w w w w w < N #.f +.c , w w w w w w w w w w w h N , +.v ( &.v , w w w w w w w w w j $.f ( B m &.B w w w w w w w w w w w w b j @.w w N w w w w w w w w w w w w f m b @.$ w w w w w w w w w w w j $.h , N ( N ( $ w w w w w w w w w w w N , N &.+.&.: w w w w w w w w w w , b j f +.v @.$ w w w w w w x w w w w w w w w j w j j w : : ( w , w w : , w , w < w w w w w w w , ",
"+ + + + + + + + O O O O O O O O O O O O O O O O O O O O O O + +         l hX: w w w w w w w w -.y w +.m c c b c y w +.B h j &.&., w w w w w w w w j w w w w w w : u.=.( 9.1.w w w w w w w w w w w : &.t.N q.6.N q.-.- w w w w w w w w , m :.6.( q.+.-.q.: w w w w w w w w w - -.u.;.e.( $.}.: w w w w w w w w w w : +.u.B :.N f w w w w w w w w w , m >.1.: ( 1.q.&.N w w w w w w w w w - =.}.- c -.}.>.N j w w w w w w w w w , t.&.&.7.8.;.N f w w w w w x w w w w w w < j &., =.b h @.b &.&.c , f +.B h j &.&., w w w w w w , ",
"+ + + + + + + + O O O O O O O O O O O O O O O O O O O O O O + +         l hX: w w w w w w w w &., ( +.#.&.-.:.&.w @.N @.m +.-.( , w w w w w w w w j w w w w w w < +.>.t.j >.c , w w w w w w w w w w f :.-.m :.f :.j < w w w w w w w w w $ ( &.$ 7.: #.( : w w w w w w w w , v 7.:.-.}.$.1.1., w w w w w w w w w w w w 1.N 7X@., w w w w w w w w w w $ ( &.* $ &.;.5X+., w w w w w w w , v 6.1.: $ #.@.}.1., w w w w w w w w w : ( =.;.h e.4X&., w w w w w x w w w w w w w f 1.&.;.$.&.( =.$.@.&.: #.N @.m +.-.( , w w w w w w , ",
"+ + + + + + + + O O O O O O O O O O O O O O O O O O O O O O + +         l hX: w w w w w w w w :.h +.( @.@.1.;.-.$ $.m ( +.&.#.( , w w w w w w w w j w w w w w w w w #.}.&.7.f w w w w w w w w w w w f 6.+.1.1.#.4.: w w w w w w w w w , ( t.f 9.&.w e.w w w w w w w w w w : @.y.7X8.&.3Xq.7Xw w w w w w w w w w w w w 7.B 7X-., w w w w w w w w w : ( r.c v :.1.( 9X&., w w w w w w w : @.y.7X( h q.h 4X7.w w w w w w w w w w : @.-.-.;.q.4X>.< w w w w w x w w w w w w < j -.f -.&.&.B $.&.j =.: $.m ( +.&.#.( , w w w w w w , ",
"+ + + + + + + + O O O O O O O O O O O O O O O O O O O O O O + +         l hX: w w w w w w w , [ &.j @.N h B v m : h #.m @.( j +.w w w w w w w w w j w w w w w w w &.:.f >.( , w w w w w w w w w w w w ( w >.( N m , w w w w w w w w w : #.6.&.6.;.B B , w w w w w w w w w w , w ( ( 1.h w [ w w w w w w w w w w w w w ( c N +.f w w w w w w w w w : #.7.$.[ :.1.#.v @.y w w w w w w w w , w ( ( m ( w B ( c , w w w w w w w w , v N x 1.N m +.h w w w w w x w w w w w w w f N w N N j &.:.v h N < h #.m @.( j +.w w w w w w w , ",
"+ + + + + + + + O O O O O O O O O O O O O O O O O O O O O O + +         l hX: w w w w w w w w , : w : , w , , , w w : , : , w , w w w w w w w w w j w w w w w w w : : w : : w w w w w w w w w w w w w , w : , , , w w w w w w w w w w w : - : - : , , w w w w w w w w w w w w w , , : w w : w w w w w w w w w w w w w , < , : w w w w w w w w w w w : - : : : : : , : w w w w w w w w w w w , : , , w , , < w w w w w w w w w w < , w - , , : w w w w w w x w w w w w w w w , w , : j &.B : w , w w : , : , w , w w w w w w w , ",
"+ + + + + + + + O O O O O O O O O O O O O O O O O O O O O O + +         l hX: w w w w w w w w w w w w w w w w w w w w w w w w w w w w w w w w w w j w w w w w w w w w w w w w w w w w w w w w w w w w w w w w w w w w w w w w w w w w w w w w w w w w w w w w w w w w w w w w w w w w w w w w w w w w w w w w w w w w w w w w w w w w w w w w w w w w w w w w w w w w w w w w w w w w w w w w w w w w w w w w w w w w w w w w w w w w w w w w w w w w w w x w w w w w w w w w w w w w w < w w w w w w w w w w w w w w w w w w , ",
"+ + O + + + + + O O O O O O O O O O O O O O O O O O O O O + + +         l hX: w w w w w w w w w w w w w w w w w w w w w w w w w w w w w w w w w w j w w w w w w w w w w w w w w w w w w w w w w w w w w w w w w w w w w w w w w w w w w w w w w w w w w w w w w w w w w w w w w w w w w w w w w w w w w w w w w w w w w w w w w w w w w w w w w w w w w w w w w w w w w w w w w w w w w w w w w w w w w w w w w w w w w w w w w w w w w w w w w w w w w w x w w w w w w w w w w w w w w w w w w w w w w w w w w w w w w w w w , ",
"+ + + + + + + + O O O O O O O O O O O O O O O O O O O O O + + +         l hX: w w w w w w w w w w w w w w w w w w w w w w w w w w w w w w w w w w j w w w w w w w w w w w w w w w w w w w w w w w w w w w w w w w w w w w w w w w w w w w w w w w w w w w w w w w w w w w w w w w w w w w w w w w w w w w w w w w w w w w w w w w w w w w w w w w w w w w w w w w w w w w w w w w w w w w w w w w w w w w w w w w w w w w w w w w w w w w w w w w w w w w x w w w w w w w w w w w w w w w w w w w w w w w w w w w w w w w w w , ",
"+ + + + + + + + + O O O O O O O O O O O O O O O O O O O O + + +         l hX: w w w w : : : : : : : : : : : : : : : : : : : : , : : : : w w w w w j w w w w w w w w w w w w w w w w w w w w w w w w w w w w w w w w w w w w w w w w w w w w w w w w w w w w w w w w w w w w w w w w w w w w w w w w w w w w w w w w w w w w w w w w w w w w w w w w w w w w w w w w w w w w w w w w w w w w w w w w w w w w w w w w w w w w w w w w w w w w w w w w w w w x w w w w < : : : : : : : : : : : : : : : : : : : : , : : : : w w w , ",
"+ + + + + + + + + O O O O O O O O O O O O O O O O O O O O + + +         l hX: w w w w B +.+.+.[ [ [ +.+.+.+.+.+.+.+.+.+.+.+.+.m ( +.( [ f , w w w j w w w w w w w w , : w w w w w w w w w w w w w w w w w : , w w w w w w w w w w w w w w w w : : w w w w w w w w w w w w w w w w : : w w w w w w w w w w w w w w w w , : , w w w w w w w w w w w w w w w w : , w w w w w w w w w w w w w w w w : : w w w w w w w w w w w w w w w w , : w w w w w w w w w x w w w < j +.+.+.+.[ [ [ +.+.+.+.+.+.+.+.+.+.+.+.( m +.( +.B , w w , ",
"+ + + + + + + + + O O O O O O O O O O O O O O O O O O O O + + +         l hX: w w , u.hXhXhXhXlXjXlXhXhXhXhXhXhXhXhXhXhXhXhXkXt.aXjXlXjX7Xy w w w j w w w w w w w , m $.j , w w w w w w w w w w w w w < h $.N , w w w w w w w w w w w w w w w @.( w w w w w w w w w w w w w w w , V #.f < w w w w w w w w w w w w w , c &.c , w w w w w w w w w w w w w w f $.B < w w w w w w w w w w w w w w w +.+.w w w w w w w w w w w w w w w , N $.h , w w w w w w w x w w , N pXhXhXhXhXlXjXjXhXhXhXhXhXhXhXhXhXhXhXjXaXy.kXhXlXhX>.: w , ",
"+ + + + + + + + + O O O O O O O O O O O O O O O O O O O O + + +         l hX: w , j dXhXaXsXsXqXwXqXdXdXdXdXdXdXdXdXdXdXdXdXhXr.wXhXe.uXlX+.: w w j w w w w w w , N 6.%.6.c , w w w w w w w w w w w w f 6.$.>.+., w w w w w w w w w w w w w -.-.-.-.< w w w w w w w w w w w w , [ >.%.1.f w w w w w w w w w w w w , c 6.%.6.N , w w w w w w w w w w w w w >.$.,.#., w w w w w w w w w w w w , &.,.$.:.w w w w w w w w w w w w w , B 6.%.6.j w w w w w w w x w w - 1.kXdXdXfXpXqXwXwXsXdXdXdXdXdXdXdXdXdXdXsXwXe.jXqXt.kX0X< w , ",
"+ + + O + + + + + O O O O O O O O O O O O O O O O O O O O + + +         l hX: w , c fX3X7.}.eX6.r.r.hXsXsXsXsXsXsXsXsXsXsXdXhXe.aXu.  =.kX@.: w w j w w w w w w : :.m   +.-.: w w w w w w w w w w w : +.-.  f 7.< w w w w w w w w w w w , j 6.+ + 0.c , w w w w w w w w w w w w 6.f   ,.+.: w w w w w w w w w w w : -.V   M >.: w w w w w w w w w w w : B ,.  1 0.w w w w w w w w w w w w w f 6.O   6.N , w w w w w w w w w w w , >.k   $.&.: w w w w w w x w w * 8.fXq.8.wXy.r.6.qXfXsXsXsXsXsXsXsXsXsXsXfXwXr.hXB o 0XtXw w , ",
"+ + + O + + + + + O O O O O O O O O O O O O O O O O O O O + + +         l hX: w , v wX7.hXr.q.8.7.y.hXsXsXsXsXsXsXsXsXsXsXdXhXr.uX6Xu.u.zX#.: w w j w w w w w w : 1.k   V ;.: w w w w w w w w w w w : $.$.  < 6.w w w w w w w w w w w w , b 6.    6.c , w w w w w w w w w w w w 7.1   $.@.: w w w w w w w w w w w : :.C   k >.: w w w w w w w w w w w : [ -.  - 6.y w w w w w w w w w w w < j 6.+   >.N : w w w w w w w w w w w , 6.f   +.&.: w w w w w w x w w $ q.3X3XpX9.7.r.:.tXsXsXsXsXsXsXsXsXsXsXsXfXwXt.dXu.y.9XwXw w , ",
"+ + + + + + + + + O O O O O O O O O O O O O O O O O O O O + + +         l hX: w , b eX8.cXt.y.6X3X0XhXsXsXsXsXsXsXsXsXsXsXdXhXr.pXt.-.7.hX#.: w w j w w w w w w : 6.k   V ;.: w w w w w w w w w w w : $.$.  < 7.w w w w w w w w w w w w , v 6.    6.c , w w w w w w w w w w w w 0.<   <.#.: w w w w w w w w w w w : >.V   m 1.: w w w w w w w w w w w : [ ,.  - 0.y w w w w w w w w w w w < j 0.O   >.N : w w w w w w w w w w w , 6.f   %.-.: w w w w w w x w w $ q.*X5XfX9.u.0Xt.sXsXsXsXsXsXsXsXsXsXsXsXfXwXt.aX>.;.5XwXw w , ",
"+ + + + + + + + + O O O O O O O O O O O O O O O O O O O O + + +         l hX: w , c sXt.9.t.0X3X3X9XzXsXsXsXsXsXsXsXsXsXsXdXhXe.pX5X$ 6.kX@.: w w j w w w w w w : 6.k   V :.: w w w w w w w w w w w : $.$.  < 8.w w w w w w w w w w w w , b 6.    0.c , w w w w w w w w w w w w 9.<   -.#.: w w w w w w w w w w w : >.V   m 6.: w w w w w w w w w w w : +.,.  - 9.y w w w w w w w w w w w , j 0.O   6.B : w w w w w w w w w w w , 7.l   %.-.: w w w w w w x w w $ 8.aX7.9.7X}.9Xt.sXsXsXsXsXsXsXsXsXsXsXsXfXwXr.lX$.: tXwXw w , ",
"+ + + + + + + + + + O O O O O O O O O O O O O O O O O O O + + +         l hX: w < h aXhXwXsXsXsXsXsXsXsXsXsXsXsXsXsXsXsXsXsXhXr.tXjX7XsXlX( : w w j w w w w w w : 6.z   V >.: w w w w w w w w w w w : &.-.  < 9.w w w w w w w w w w w w , m 0.    0.c , w w w w w w w w w w w w 9.<   -.$.: w w w w w w w w w w w : >.V   m 6.: w w w w w w w w w w w : +.>.  - 9.y w w w w w w w w w w w , j 9.O   6.B : w w w w w w w w w w w , 8.l   %.-.: w w w w w w x w w - :.kXaXuXhXsXsXsXsXsXsXsXsXsXsXsXsXsXsXsXzXtXr.lXpX9XkX0X, w , ",
"+ + + @ + + + + + + O O O O O O O O O O O O O O O O O O O + + +         l hX: w w : 1.aXdXaXaXaXaXaXaXaXaXaXaXaXaXaXaXaXaXpXsXq.eXdXdXdXr.w w w w j w w w w w w : 7.m   +.>.: w w w w w w w w w w w : &.-.  < 9.w w w w w w w w w w w w , m 0.    9.c , w w w w w w w w w w w w 9.<   -.$.: w w w w w w w w w w w : 1.V   m 6.: w w w w w w w w w w w : +.>.  - 9.y w w w w w w w w w w w , j 9.O   6.B : w w w w w w w w w w w , 9.g   %.;.: w w w w w w x w w w h 6XdXdXaXaXaXaXaXaXaXaXaXaXaXaXaXaXaXaXdXeXq.sXaXsXwX@.: w , ",
"+ + X D @ X + + + + O O O O O O O O O O O O O O O O O O O + + +         l hX: w w w : f h h h h h h h h h h h h h h h h h h h f h h h h : w w w w j w w w w w w : 8.m   +.1.: w w w w w w w w w w w : &.-.  7 q.w w w w w w w w w w w w , m 9.    9.v , w w w w w w w w w w w w r.<   ,.$.: w w w w w w w w w w w : 4.V   m 7.: w w w w w w w w w w w : @.>.  - r.y w w w w w w w w w w w , j q.O   0.B : w w w w w w w w w w w , 9.g   $.;.: w w w w w w x w w w , w h h h h h h h h h h h h h h h h h h h h f h h h w : w w , ",
"+ + X D 3 X + + + + O O O O O O O O O O O O O O O O O O O + + +         l hX: w w w w w < < < < < < < < < < < < < < < < < < < w w < < < w w w w w j w w w w w w : 9.m   +.1.: w w w w w w w w w w w : =.,.  f r.w w w w w w w w w w w w , m 9.    9.v , w w w w w w w w w w w w r.<   ,.&.: w w w w w w w w w w w : 6.W   C 7.: w w w w w w w w w w w : @.6.  - r.y w w w w w w w w w w w , j r.O   0.B : w w w w w w w w w w w , q.k   $.:.- w w w w w w x w w w w w < < < < < < < < < < < < < < < < < < < w w < < , w w w w , ",
"+ + X s.3 X + + + + O O O O O O O O O O O O O O O O O O O + + +         l hX: w w w w w w w w w w w w w w w w w w w w w w w w w w w w w w w w w w j w w w w w w : 9.m   +.6.- w w w w w w w w w w w - -.,.  f r.w w w w w w w w w w w w , N q.    r.v , w w w w w w w w w w w w r.<   >.&.: w w w w w w w w w w w : 6.+.  M 8.: w w w w w w w w w w w : @.6.  - r.y w w w w w w w w w w w , j r.O   9.B : w w w w w w w w w w w , r.k   $.:.- w w w w w w x w w w w w w w w w w w w w w w w w w w w w w w w w w w w w w w w w , ",
"+ + X f.3 X + + + + + O O O O O O O O O O O O O O O O O O + + +         l hX: w w w w w w w w w w w w w w w w w w w w w w w w w w w w w w w w w w j w w w w w w : 9.m   %.6.- w w w w w w w w w w w - -.,.  f r.w w w w w w w w w w w w : N r.    r.b , w w w w w w w w w w w w i.<   >.&.- w w w w w w w w w w w - 7.+.  M 9.: w w w w w w w w w w w : #.6.  - i.y w w w w w w w w w w w , j i.O   9.( : w w w w w w w w w w w : r.k   <.>.- w w w w w w x w w w w w w w w w w w w w w w w w w w w w w w w w w w w w w w w w , ",
"+ + X f.S X + + + + + O O O O O O O O O O O O O O O O O O + + +         l hX: w w w w w w w w w w w w w w w w w w w w w w w w w w w w w w w w w w j w w w w w w : q.C   %.6.- w w w w w w w w w w w - ;.>.  f i.w w w w w w w w w w w w : N r.    r.b , w w w w w w w w w w w w i.<   >.=.- w w w w w w w w w w w - 7.+.  M 9.: w w w w w w w w w w w : #.0.  1 i.f w w w w w w w w w w w , j i.O   9.( : w w w w w w w w w w w : r.k   -.>.- w w w w w w x w w w w w w w w w w w w w w w w w w w w w w w w w w w w w w w w w , ",
"+ + X f.S X + + + + + O O O O O O O O O O O O O O O O O O + + +         l hX: w w w w w w w w w w w w w w w w w w w w w w w w w w w w w w w w w w j w w w w w w : r.C   %.7.- w w w w w w w w w w w - ;.>.  f y.w w w w w w w w w w w w : N i.    i.m , w w w w w w w w w w w w u.w   >.-.- w w w w w w w w w w w - 8.+.  V q.: w w w w w w w w w w w : #.0.  1 u.f w w w w w w w w w w w , j u.O   r.( : w w w w w w w w w w w : t.k   -.1.- w w w w w w x w w w w w w w w w w w w w w w w w w w w w w w w w w w w w w w w w , ",
"+ + X f.S X + + + + + O O O O O O O O O O O O O O O O O O + + +         l hX: w w w w w w w w w w w w w w w w w w w w w w w w w w w w w w w w w w j w w w w w w : r.M   $.7.- w w w w w w w w w w w - ;.>.  f u.w w w w w w w w w w w w : N i.    i.m , w w w w w w w w w w w w u.f   6.-.- w w w w w w w w w w w - 8.%.  V e.: w w w w w w w w w w w : $.0.  1 u.f w w w w w w w w w w w , j u.O   r.( : w w w w w w w w w w w : i.k   -.1.* w w w w w w x w w w w w w w w w w w w w w w w w w w w w w w w w w w w w w w w w , ",
"+ + X f.D X + + + + + O O O O O O O O O O O O O O O O O O + + +         l hX: w w w w w w w w w w w w w w w w w w w w w w w w w w w w w w w w w w j w w w w w w : y.V   $.8.* w w w w w w w w w w w * >.6.  f u.w w w w w w w w w w w w : N u.    u.m , w w w w w w w w w w w w 3Xf   6.-.- w w w w w w w w w w w * q.$.  V r.: w w w w w w w w w w w - &.p.  1 3Xf w w w w w w w w w w w , c 3XO   r.( : w w w w w w w w w w w : u.m   ,.4.* w w w w w w x w w w w w w w w w w w w w w w w w w w w w w w w w w w w w w w w w , ",
"+ + X f.D X + + + + + + O O O O O O O O O O O O O O O O O + + +         l hX: w w w w w w w w w w w w w w w w w w w w w w w w w w w w w w w w w w j w w w w w w : 7.m   -.7.- w w w w w w w w w w w : &.-.  k u.w w w w w w w w w w w w , m 8.X * u.m , w w w w w w w w w w w w 9.<   6.-.- w w w w w w w w w w w : 1.V   +.q.: w w w w w w w w w w w : @.>.  f u.f w w w w w w w w w w w , j 9.O + r.( : w w w w w w w w w w w , 9.k   :.1.- w w w w w w x w w w w w w w w w w w w w w w w w w w w w w w w w w w w w w w w w , ",
"+ X X f.D X + + + + + + O O O O O O O O O O O O O O O O O + + +         l hX: w w w w w w w w w w w w w w w w w w w w w w w w w w w w w w w w w w j w w w w w w < *. X4XgX}., w w w w w w w w w w w , B w.|.tXtXj , w w w w w w w w w w w j 5.|.qXgX@.: w w w w w w w w w w w w 2. X8XfXq.: w w w w w w w w w w w < {  X|.gX7Xw w w w w w w w w w w w < v w.|.yXaXN , w w w w w w w w w w w f 2. X9XfX-.: w w w w w w w w w w w w *. X8XgXy.: w w w w w w x w w w w w w w w w w w w w w w w w w w w w w w w w w w w w w w w w , ",
"@ 3 X f.D X + O + + + + O O O O O O O O O O O O O O O O O + +           l hX: w w w w w w w w w w w w w w w w w w w w w w w w w w w w w w w w w w j w w w w w w , 2.NXZXZXt., w w w w w w w w w w w , ) vXVXDXyXh w w w w w w w w w w w w h yXVXAXcX( , w w w w w w w w w w w w  XBXAXVX1.: w w w w w w w w w w w , *.MXVXAX3Xw w w w w w w w w w w w < n gXVXDXgXc < w w w w w w w w w w w y 8XVXAXMX@.: w w w w w w w w w w w , w.BXAXZXw., w w w w w w x w w w w w w w w w w w w w w w w w w w w w w w w w w w w w w w w w , ",
"3 D X f.D X o @ + + + + O O O O O O O O O O O O O O O O O + X + .       l hX: w w w w w w w w w w w w w w w , , , w w w w w w w w w w w w w w w w j w w w w w w , 2.MXBXNX*., w w w w w w w w w w w , ) zXBXVX Xw w w w w w w w w w w w w h 9XBXVXyXh w w w w w w w w w w w w w w.mXBXcX) , w w w w w w w w w w w , *.cXBXBX2., w w w w w w w w w w w < n gXBXVX8Xw w w w w w w w w w w w w y 8XBXVXgXc < w w w w w w w w w w w < 3.MXBXMX#., w w w w w w x w w w w w w w w w w w w w w w , : : : w w w w w w w w w w w w w w , ",
"3 s.X f.D + @ D S X O X O O O O O O O O O O O O O O O O O @ @ 3 3       l hX: w w w w w w w w w w w w w w f B m V k w w w w w w w w w w w w w w w j w w w w w w , 2.MXmXcX*., w w w w w w w w w w w , ) zXmXmXw.w w w w w w w w w w w w w h 9XmXBX9Xh w w w w w w w w w w w w w w.mXCXfX) , w w w w w w w w w w w , *.cXmXMX2., w w w w w w w w w w w < n gXmXmX|.w w w w w w w w w w w w w y 8XmXCXyXx < w w w w w w w w w w w < 3.MXCXjX) , w w w w w w x w w w w w w w w w w w w w w w N @.( @.h w < w w w w w w w w w w w , ",
"3 f.X f.D 3 d.d.l.+ @ 3 X O O O O O O O O O O O O O O O o 3 S 3 3       l hX: w w w w w w w w w w w w k :.=.9.-.9.;.>.m w w w w w w w w w w w w w j w w w w w w , 2.NXBXMX*., w w w w w w w w w w w , ) vXBXBXw.w w w w w w w w w w w w w h yXBXBXyXh w w w w w w w w w w w w w  XBXBXjX) , w w w w w w w w w w w , *.MXBXmX2., w w w w w w w w w w w < n gXBXBX|.w w w w w w w w w w w w w y 8XBXBXiXc < w w w w w w w w w w w , w.NXBXcX@., w w w w w w x w w w w w w w w w w w w w &.r.r.6Xr.5X9.9.h w w w w w w w w w w w , ",
"S g.+ f.D S g.d.k.@ S d.X @ O O O O O O O O O O O O O O o 3 D 3 S       l hX: w w w w w w w w w w : $.;.,.6.-.B $.6.6.$.,.y < w w w w w w w w w w j w w w w w w < *.8X8X*X{ < w w w w w w w w w w w < ) |.8X8X2.w w w w w w w w w w w w w h w.8X8Xw.h w w w w w w w w w w w w w 2.8X8X|.N < w w w w w w w w w w w < { *X8X8X*.< w w w w w w w w w w w < v |.8X8X3.w w w w w w w w w w w w w f w.8X8X Xc < w w w w w w w w w w w w *.8X8X|.) , w w w w w w x w w w w w w w w w w : c u.6.3Xu.:.$.9.6X9.r.;.: w w w w w w w w w , ",
"S g.@ d.g.D g.s.d.3 S f.X X o o O O O O O O o O O o o o X 3 D S S       l hX: w w w w w w w w w f :.>.6.m w $ O O , j >.6.$.h w w w w w w w w w w j w w w w w w : 6.B   @.:.: w w w w w w w w w w w : &.-.X j 8.w w w w w w w w w w w w , m 8.- - 8.c , w w w w w w w w w w w w 9.h X ;.#.: w w w w w w w w w w w : >.+.  B 4.: w w w w w w w w w w w : +.1.o w 9.f w w w w w w w w w w w , j 9., $ 6.B : w w w w w w w w w w w , 7.b X &.-.: w w w w w w x w w w w w w w w w , B 1.6X8.j : o o $ f @.5Xr.$.w w w w w w w w w , ",
"S f.f.s.d.g.g.f.D d.g.s.@ S 3 S o o @ O o O S o O D & S @ 3 D S S 3 @   g hX: w w w w w w w w , N 3X3Xc X + 1 < 1 O o f >.0.V , w w w w w w w w w j w w w w w w * 5X+.  >.u.$ w w w w w w w w w w w $ 7.r.  k qX, w w w w w w w w w w w : ( 0X    0XB : w w w w w w w w w w w w eXl   i.6.$ w w w w w w w w w w w $ }.,.  %.6X* w w w w w w w w w w w * ;.3X  < eXf w w w w w w w w w w w , c eXO   5X@.: w w w w w w w w w w w : 0XM   0.r.$ w w w w w w x w w w w w w w w w w :.0X8.< X - < < 1 + X @.u.>.h w w w w w w w w , ",
"g.D k.D D d.d.d.D f.d.s.f.f.f.l.d.3 g.3 3 S l.d.D k.s.g.S 3 D D 3 3 3 . g hX: w w w w w w w w h i.6.B $ >.<.k W V C < X j @.>.v , w w w w w w w w j w w w w w w - 6X+.  ,.t.$ w w w w w w w w w w w $ 6.p.  k 0X< w w w w w w w w w w w : B 5X  + 5XN : w w w w w w w w w w w w 0Xl   r.1.$ w w w w w w w w w w w $ u.-.  %.3X* w w w w w w w w w w w * -.u.  < 0Xf w w w w w w w w w w w , c 0XO   6X@.: w w w w w w w w w w w : 5XC   6.q.$ w w w w w w x w w w w w w w w : $.i.;.w   < m M W C z m - N &.-.w w w w w w w w , ",
"D A A A A A A A A A A F F A h.d.F h.j.j.h.h.F j.h.A j.F F D S A 3 @ @ . g hX: w w w w w w w , c u.u.: + 5XHX6.m W W M 1 o $.0.N , w w w w w w w w j w w w w w w - 6X+.  >.y.$ w w w w w w w w w w w $ 7.r.  k 0X, w w w w w w w w w w w : ( 0X    0XN : w w w w w w w w w w w w qXl   r.1.$ w w w w w w w w w w w $ }.,.  %.4X* w w w w w w w w w w w * ;.3X  < qXf w w w w w w w w w w w , c qXO   5X@.: w w w w w w w w w w w : 7XM   0.q.$ w w w w w w x w w w w w w w w w $.5X=.  1 m M V C <.BXuXO w 0.,.f w w w w w w w , ",
"o.].OX&X| o.X.O.| O.X.X.O.| OXXXo.X.%XOX#X,X&X%X;X%XoX%XoXXXo.` a a d X k hX: w w w w w w w : :.5X>.X 1 Z sXGX-.M W W g + N 9.&.w w w w w w w w w j w w w w w w - 5X+.  >.u.$ w w w w w w w w w w w $ 7.r.  k qX, w w w w w w w w w w w : ( 0X    0XB : w w w w w w w w w w w w eXg   i.6.$ w w w w w w w w w w w $ }.,.  %.6X* w w w w w w w w w w w * ;.3X  < eXf w w w w w w w w w w w , c eXO   5X@.: w w w w w w w w w w w : 0XM   0.e.$ w w w w w w x w w w w w w w w h i.6Xc + g C M m >.SXMX%.- $ -.0.N , w w w w w w , ",
"&X,X#X$XoX#XX.X.oXo.o.o.,Xo.#XoX$X#Xo.#XX.oXo.$XoX%X] X.X.X.$   d a = = k hX: w w w w w w w , $.r.B X 7 z C u.%.M V W z O f -.#.w w w w w w w w w j w w w w w w * 5X%.  >.u.$ w w w w w w w w w w w $ 8.r.  k eX, w w w w w w w w w w w : ( qX    qXB : w w w w w w w w w w w w wXg   i.6.$ w w w w w w w w w w w $ 3X,.  $.6X* w w w w w w w w w w w $ :.3X  < wXf w w w w w w w w w w w , c wXO   5X@.: w w w w w w w w w w w : 0XM   0.r.$ w w w w w w x w w w w w w w w h 7.6.< O k C M C <.5XW C 7 O ( ,.N , w w w w w w , ",
"#X#XOX%X<X%Xo.XX<Xo.#X#X#X$XXXOX%X#X] $X` ` ] o.* X.d . ` ` .   = a = = k hX: w w w w w w w : :.6X+.  < m m k C M M V k + j 6.-.w w w w w w w w w j w w w w w w * 7X%.  >.}.$ w w w w w w w w w w w $ 8.i.  k eX, w w w w w w w w w w w : ( eX    eXB : w w w w w w w w w w w w wXg   u.6.$ w w w w w w w w w w w $ 3X,.  $.5X$ w w w w w w w w w w w $ :.6X  < wXf w w w w w w w w w w w , c wXO   0X#.: w w w w w w w w w w w : qXV   9.r.$ w w w w w w x w w w w w w w w h y.r.w O k m C M C Z V V 1 O @.6.B , w w w w w w , ",
"#XOXXXOX1X#XoX$XoX#XOXoXXX1XXXXXOX%X] XXa . O = * O O + * o +   $ = = X l hX: w w w w w w w , +.3X6.O - z m C C C M M 7 X [ 6.+.w w w w w w w w w j w w w w w w * 0X%.  >.}.$ w w w w w w w w w w w $ 9.i.  k wX, w w w w w w w w w w w : ( wX    wXB : w w w w w w w w w w w w wXk   u.6.$ w w w w w w w w w w w $ 3X>.  $.5X$ w w w w w w w w w w w $ :.6X  < wXf w w w w w w w w w w w , c wXO   0X#.- w w w w w w w w w w w : eXV   9.r.$ w w w w w w x w w w w w w w w f 4.6XN   f m m C C M V m # : >.>.b , w w w w w w , ",
"#XXXXXd ,X#X$X$Xo.2Xo.#X| oXXXXXXX#X] . O O O + O O O O + + + +     =   l hX: w w w w w w w , k 3Xi., + 7 z m C C C g O $ $.9.N , w w w w w w w w j w w w w w w * 0X%.  6.3X$ w w w w w w w w w w w $ 9.u.  k wX, w w w w w w w w w w w : ( wX    wXB : w w w w w w w w w w w w pXk   u.7.$ w w w w w w w w w w w $ 4X>.  $.7X$ w w w w w w w w w w w $ >.6X  < pXf w w w w w w w w w w w , v pXO   0X#.- w w w w w w w w w w w : wXV   9.t.$ w w w w w w x w w w w w w w w : &.0X&.X # g m C C M m < + f 6.>.w w w w w w w w , ",
"oXXXXXO ,X%X%X$X] 1Xo.%X` ` X.OXX.#X] . O O O O O O O O O + + +     =   l hX: w w w w w w w w w >.7.:.$ + 1 g k k 7 O o ( $.$.h w w w w w w w w w j w w w w w w * 0X$.  6.3X$ w w w w w w w w w w w $ 9.u.  k tX, w w w w w w w w w w w : ( wX    wXB : w w w w w w w w w w w w pXk   ).7.$ w w w w w w w w w w w $ 6X>.  $.7X$ w w w w w w w w w w w $ >.5X  < pXf w w w w w w w w w w w , v pXO   qX#.- w w w w w w w w w w w : wXV   9.t.$ w w w w w w x w w w w w w w w , N 7.8.B   # 7 k k g 1 X , $.$.+.w w w w w w w w , ",
"oXo.XXO ,X#X#X,X= oXo.#X` d d #X] #X` . O O O O O O O O + + +           l hX: w w w w w w w w , c 6X6X:., O O O O O - V 6.9.N , w w w w w w w w w j w w w w w w * qX$.  6.3X$ w w w w w w w w w w w $ q.u.  m pX, w w w w w w w w w w w : ( pX    pXB : w w w w w w w w w w w w pXk   3X8.$ w w w w w w w w w w w $ 6X>.  <.0X$ w w w w w w w w w w w $ 1.5X  < pXf w w w w w w w w w w w , v aX-   eX#.- w w w w w w w w w w w : wXV   r.y.$ w w w w w w x w w w w w w w w w : :.0Xi.B $ O O O O O w =.0.>.w w w w w w w w w , ",
"#Xo.o.+ ,X#X#X,X. OXo.#Xa . . %X` oX` . O O O O O O O O + + +           l hX: w w w w w w w w w w V i.5Xc w , : : w w >.6.m w w w w w w w w w w w j w w w w w w $ eX$.  6.3X$ w w w w w w w w w w w $ q.).  m pX, w w w w w w w w w w w : ( pX    pXB : w w w w w w w w w w w w aXk   3X8.$ w w w w w w w w w w w $ 5Xa.  -.0X$ w w w w w w w w w w w $ 1.5X  < aXf w w w w w w w w w w w , v dX-   wX$.- w w w w w w w w w w w : tXV   r.y.$ w w w w w w x w w w w w w w w w w f -.0X7., w : : < w m p.$.j w w w w w w w w w , ",
"#XX.o.. ,X%XoX,X. OXX.#Xa . . #Xa XX` . O O O O O O O O + + +           l hX: w w w w w w w w w w : $.&.: w w w w w , m @.w w w w w w w w w w w w j w w w w w w $ eX$.  0.4X$ w w w w w w w w w w w $ q.3X  m pX, w w w w w w w w w w w : ( pX  + pXB : w w w w w w w w w w w w dXk   3X8.$ w w w w w w w w w w w $ 5X6.  -.0X$ w w w w w w w w w w w $ 1.0X  f dXf w w w w w w w w w w w , v sX-   wX$.- w w w w w w w w w w w : pXW   r.u.$ w w w w w w x w w w w w w w w w w < f 1.c , w w w w w w #.m , w w w w w w w w w , ",
"%X] X.. ,X#XoX$X. XXX.%Xa . . OXd o.` . O O O O O O O O + + +           l hX: w w w w w w w w w w w , , w w w w w w w w , w w w w w w w w w w w w j w w w w w w $ wX$.  0.6X$ w w w w w w w w w w w $ r.3X  m aX, w w w w w w w w w w w : [ aX  + aX( : w w w w w w w w w w w w sXk   3X9.$ w w w w w w w w w w w $ 7X6.  -.qX$ w w w w w w w w w w w $ 1.0X  f sXf w w w w w w w w w w w , b sX-   wX&.- w w w w w w w w w w w : pXV   r.u.$ w w w w w w x w w w w w w w w w w w w , w w w w w w w w < w w w w w w w w w w w , ",
"oX` | . ,X#XOX$X. o.] #Xd . . o.d ` d . O O O O O O O O + + +           l hX: w w w w w w w w w w w w w w w w w w w w w w w w w w w w w w w w w w j w w w w w w $ tX-.  9.4X$ w w w w w w w w w w w $ r.5X  m aX, w w w w w w w w w w w : ( sX  + dXB : w w w w w w w w w w w w hXm   6X8.$ w w w w w w w w w w w $ 9X9.  ,.0X$ w w w w w w w w w w w $ 1.wX  f sXf w w w w w w w w w w w , c hX-   pX#.- w w w w w w w w w w w - dX%.  i.u.$ w w w w w w x w w w w w w w w w w w w w w w w w w w w w w w w w w w w w w w w w , ",
"oXa ` . ,X#XOX$X. X.` oXd . . a = . O O O O O O O O O O + + +           l hX: w w w w w w w w w w w w w w w w w w w w w w w w w w w w w w w w w w j w w w w w w - 6.sX,.hX=.: w w w w w w w w w w w : B hX>.wX}.* w w w w w w w w w w w w w aXi.u.pXw w w w w w w w w w w w w - 3XwX6.jXN : w w w w w w w w w w w : -.hX,.sX4.- w w w w w w w w w w w , c hX0.0X7X: w w w w w w w w w w w w : wX3Xr.sXf w w w w w w w w w w w w * e.pX>.jX@.: w w w w w w x w w w w w w w w w w w w w w w w w w w w w w w w w w w w w w w w w , ",
"oXO $ o ,X#XXX#X. X.` OXd . O . + O O O O O O O O O O O + + +           l hX: w w w w w w w w w w w w w w w w w w w w w w w w w w w w w w w w w w j w w w w w w w : 1.wX:., w w w w w w w w w w w w w : +.qXt.w w w w w w w w w w w w w w , x 4X5Xc , w w w w w w w w w w w w w w q.eX@.: w w w w w w w w w w w w w : -.wX6., w w w w w w w w w w w w w : B 0X}.f w w w w w w w w w w w w w , f }.0XN , w w w w w w w w w w w w w , 6.wX=.: w w w w w w w x w w w w w w w w w w w w w w w w w w w w w w w w w w w w w w w w w , ",
"XX.   o $X#XXXoX. a d o.= . O O O + O O O O O O O O O O + + +           l hX: w w w w w w w w w w w w w w w w w w w w w w w w w w w w w w w w w w j w w w w w w w w - $ : w w w w w w w w w w w w w w w : $ $ w w w w w w w w w w w w w w w , $ $ , w w w w w w w w w w w w w w w * $ : w w w w w w w w w w w w w w w : $ - w w w w w w w w w w w w w w w : $ $ w w w w w w w w w w w w w w w w $ $ , w w w w w w w w w w w w w w w - $ : w w w w w w w w x w w w w w w w w w w w w w w w w w w w w w w w w w w w w w w w w w , ",
"o.  + o #X#Xo.XXO . . o.= . O + + + + O O O O O O O O O + + +           l hX: w w w w w w w w w w w w w w w w w w w w w w w w w w w w w w w w w w j w w w w w w w w w w w w w w w w w w w w w w w w w w w w w w w w w w w w w w w w w w w w w w w w w w w w w w w w w w w w w w w w w w w w w w w w w w w w w w w w w w w w w w w w w w w w w w w w w w w w w w w w w w w w w w w w w w w w w w w w w w w w w w w w w w w w w w w w w w w w w w w w w w w x w w w w w w w w w w w w w w w w w w w w w w w w w w w w w w w w w , ",
"o.. + o #X%XX.o.O + + a * + O + + + + O O O O O O O O O O + +           l hX: w w w w w w w w w w w w w w w w w w w w w w w w w w w w w w w w w w j w w w w w w w w w w w w w w w w w w w w w w w w w w w w w w w w w w w w w w w w w w w w w w w w w w w w w w w w w w w w w w w w w w w w w w w w w w w w w w w w w w w w w w w w w w w w w w w w w w w w w w w w w w w w w w w w w w w w w w w w w w w w w w w w w w w w w w w w w w w w w w w w w w w x w w w w w w w w w w w w w w w w w w w w w w w w w w w w w w w w w , ",
"a   + o #X%XX.o.O + + . + O + + + + + O O O O O O O O O O + +           l hX: w w w w w w w w w w w w w w w w w w w w w w w w w w w w w w w w w w j w w w w w w w w w w w w w w w w w w w w w w w w w w w w w w w w w w w w w w w w w w w w w w w w w w w w w w w w w w w w w w w w w w w w w w w w w w w w w w w w w w w w w w w w w w w w w w w w w w w w w w w w w w w w w w w w w w w w w w w w w w w w w w w w w w w w w w w w w w w w w w w w w w w x w w w w w w w w w w w w w w w w w w w w w w w w w w w w w w w w w , ",
". +   o OX#XX.] O + + O + + + + + + + + O O O O O O O O O + +           l hX: w w w w w w w w w w w w w : w , w w w , w w w w w w w w w w w w w w j w w w w w < : w w , , w : w w w w w w w w w w w : w w < : w : w w w w w w w w w w w : w w w : w , , w w w w w w w w w w , , w w : w w : w w w w w w w w w w w : w w , , w : w w w w w w w w w w w : w w w : w : < w w w w w w w w w w : , w w : w , , w w w w w w w w w w , : w w : < w : w w w w w w x w w w w w w w w w w w w < w , w w , w , w w , w w w w w w w w w w , ",
"+ + + o XX%XX.. O + + + + + + + + + + + O O O O O O O O + + +           l hX: w w w w w w w w w w w w h N y c h < w m y w w w w w w w w w w w w w j w w w w , j B < , N c w ( w w w w w w w w w w w ( w , j B , B h < w w w w w w w w < B h , w ( w b b , w w w w w w w w , v m , w B h f B < w w w w w w w w w h B w , v m < ( w w w w w w w w w w w ( f , h B , B j , w w w w w w w w , N c , w ( w c N , w w w w w w w w , c N , < N j w ( w w w w w w x w w w w w w w w w w w w j , v f y b , v f f b w w w w w w w w w w , ",
"+ + + o o.%X] . O + + + + + + + + + + + + O O O O O O O + + +           l hX: w w w w w w w w w w w : ;.#.c -.&.w B ;.+., w w w w w w w w w w w w j w w w w w 6.q.N j q.1.1.q.#.: w w w w w w w : -.e.&.: 7.7.>.9.1.w w w w w w w w : ( e.1.: -.q.>.7.8.h w w w w w w w w h 9.9.h B r.1.4.q.( : w w w w w w w , 1.q.( y q.6.1.q.&.: w w w w w w w : $.e.-.: 1.8.>.8.6.w w w w w w w w , N q.6., #.q.>.6.9.c , w w w w w w w f 8.q.c c e.1.1.q.+.: w w w w x w w w w w w w w w w , ( :.c :.#.&.=.@.-.#.$.;.m , w w w w w w w w , ",
"+ +   o o.%X| . O + + + + + + + + + + + + O O O O O O O + + +           l hX: w w w w w w w w w w w , B #.-.c +.h @.h $.w w w w w w w w w w w w w j w w w , v ;.N $.B +.&.}.f 6.: w w w w w w w w 1.j 1.h :.c 0Xf 1.h w w w w w w w : :.b >.h 1.f 5X( #.+.: w w w w w w : ( @.@.B &.b 8.8.c >.- w w w w w w w h >.v -.m $.( 5Xw 6.w w w w w w w w , 1.j 1.f 1.h 0Xc :.v , w w w w w w : &.B ;.j :.h }.&.( &.: w w w w w w , N &.( +.+.B :.t.h 1.: w w w w x w w w w w w w w w w w f @.+.j &.-.y q.f =.=.j @.: w w w w w w w w , ",
"+ + + o X.%X| . O + + + + + + + + + + + + O O O O O O O + + +           l hX: w w w w w w w w w w w w w N 6.( &.b @.( &.w w w w w w w w w w w w w j w w w w h 1.-.-.( :.>.t.#.1.: w w w w w w w , 1.&.6.m 4.$.}.@.7.f w w w w w w w : &.-.6.N 1.#.u.-.1.B : w w w w w w , N >.>.@.&.&.8.8.&.=.: w w w w w w w w 1.&.>.B 1.;.u.@.6., w w w w w w w : :.&.7.v 4.#.}.#.6.j < w w w w w w : +.;.6.B :.#.t.>.:.+.: w w w w w w , c 1.;.&.@.;.4.q.$.:.: w w w w x w w w w w w w w w w w y &.B +.&.-.B 6.B -.=.( [ : w w w w w w w w , ",
"+ + + O ` %X] . O + + + + + + + + + + + + + O O O O O O + + +           l hX: w w w w w w w w w w w w ( &.h #.( N c &.b , w w w w w w w w w w w w j w w w w , #.1.( B ;.&.N 9.c , w w w w w w w , N 7.( ( +.6.j 7.+., w w w w w w w w f 7.@.+.N 8.c ;.:.< w w w w w w w w , ;.;.[ N 6.[ ( 7.f w w w w w w w w , [ 6.( B &.:.c 9.N , w w w w w w w , c 8.[ [ ( 7.j 1.#., w w w w w w w w w 4.$.+.N 8.N &.1.w w w w w w w w w , &.:.( N >.#.B 8.j < w w w w x w w w w w w w w w w w w B w &.N m &.h &.N N &.f w w w w w w w w w , ",
"+ + + O . #X] . O + + + + + + + + + + + + + O O O O O O + + +           l hX: w w w w w w w w w w w w < , w , , , w , < w w w w w w w w w w w w w j w w w w w : : , , : , w : < w w w w w w w w w , : , , , , w : , w w w w w w w w w w : , , , : w , : w w w w w w w w w w : : , , : w , : w w w w w w w w w w , : , , : , w : , w w w w w w w w w < : , , , : w : : w w w w w w w w w w : : , , : w , : w w w w w w w w w w : : , , : , w : w w w w w w x w w w w w w w w w w w w , w , < < , w , , , : w w w w w w w w w w , ",
"+ + + O . #X] . O + + + + + + + + + + + + + O O O O O O + + +           l hX: w w w w w w w w w w w w w w w w w w w w w w w w w w w w w w w w w w j w w w w w w w w w w : : w w w w w w w w w w w w w w w w : : w w w w w w w w w w w w w w w w , : , w w w w w w w w w w w w w w w w : : w w w w w w w w w w w w w w w w : : w w w w w w w w w w w w w w w w : : w w w w w w w w w w w w w w w w , : , w w w w w w w w w w w w w w w w : : w w w w w w w x w w w w w w w w w w w w w w w w w w w w w w w w w w w w w w w w w , ",
"+ + + O . #X] . O + + + + + + + + + + + + + + O O O O O + +             l hX: w w w w w w w w w w w w , c h h c , , w w w w w w w w w w w w w w w j w w w w w w w $ &.[ 1.&.w w w w w w w w w w w w w $ B &.&.1.x < w w w w w w w w w w w : f ;.+.6.B , w w w w w w w w w w w w : ;.( 6.@.w w w w w w w w w w w w w $ #.@.:.;.f w w w w w w w w w w w w - m &.$.1.v , w w w w w w w w w w w , w :.( 6.( , w w w w w w w w w w w w $ -.( 1.&.w w w w w w w x w w w w w w w w w w w w w , c h h c , , w w w w w w w w w w w w w , ",
"  + + O . #X] . O + + + + + + + + + + + + + + O O O O O + +             l hX: w w w w w w w w w w w w : +.V N $.$.#., w w w w w w w w w w w w w w j w w w w w w f 1.u.:.1.7.B : w w w w w w w w w w < &.u.>.6.>.;.: w w w w w w w w w w , ( r.7.4.;.8., w w w w w w w w w w , c 7.r.>.>.9.j < w w w w w w w w w w w ;.u.:.4.6.@.: w w w w w w w w w w , @.u.1.6.:.1.: w w w w w w w w w w , N q.9.1.;.9.w w w w w w w w w w w w h 4.y.:.1.8.N , w w w w w x w w w w w w w w w w w w w : +.V N $.$.#., w w w w w w w w w w w w , ",
"  + + O . #X] . O + + + + + + + + O + + + + + + O O O O + +             l hX: w w w w w w w w w w w w : ( :.:.B ( B , w w w w w w w w w w w w w w j w w w w w : $.&.-.:.q.9.m , w w w w w w w w w , c 1.+.>.9.9.#.: w w w w w w w w w w w 7.B 1.4.q.1., w w w w w w w w w w : >.[ >.:.q.7.h w w w w w w w w w w : [ -.&.:.q.9.B : w w w w w w w w w w h 6.( 1.7.q.=.: w w w w w w w w w w : 7.B 1.1.q.6.w w w w w w w w w w w : -.@.;.:.q.8.c , w w w w w x w w w w w w w w w w w w w : ( :.:.B ( B , w w w w w w w w w w w w , ",
"    + O . %X] . O + + + + + + + + + + + + + + + O O O O + +             l hX: w w w w w w w w w w w w : +.m k -.>.j w w w w w w w w w w w w w w w j w w w w w : ( 6.9.:.6.6.@.: w w w w w w w w w w h 6.7.1.7.:.1.: w w w w w w w w w w , 1.4.7.6.;.q.w w w w w w w w w w w : $.1.9.>.>.8.m , w w w w w w w w w , N 6.8.>.6.1.&.: w w w w w w w w w w w 6.6.1.7.;.7.: w w w w w w w w w w : :.1.8.1.;.q.f w w w w w w w w w w : +.4.9.>.1.7.( : w w w w w x w w w w w w w w w w w w w : +.m c -.>.j w w w w w w w w w w w w w , ",
"    + O . %X] . O + + + + + + + + + O + + + + + + O O O + +             l hX: w w w w w w w w w w w w w h f y c B b w w w w w w w w w w w w w w w j w w w w w w w ( ( h $.( w w w w w w w w w w w w , m @.h ( $.y w w w w w w w w w w w < h #.c N =.c < w w w w w w w w w w w w +.N j &.B , w w w w w w w w w w w , B +.h #.@.w w w w w w w w w w w w , c #.h ( &.f w w w w w w w w w w w w f @.v c =.v , w w w w w w w w w w w w ( ( h &.( w w w w w w w x w w w w w w w w w w w w w w h f y c B v w w w w w w w w w w w w w , ",
"    + O . #X] . O + + + + + + + + + + + + + + + + O O O + +             l hX: w w w w w w w w w w w w w w w w , : , w w w w w w w w w w w w w w w j w w w w w w w : : w : : w w w w w w w w w w w w w , : w : : w w w w w w w w w w w w w w : , , - , w w w w w w w w w w w w w : : < - : w w w w w w w w w w w w w : : w : : w w w w w w w w w w w w w , : w : - w w w w w w w w w w w w w w : , , - , w w w w w w w w w w w w w : : w - : w w w w w w w j w w w w w w w w w w w w w w w w w , : , w w w w w w w w w w w w w , ",
"      o . #X] . O + + + + + + + + + + + + + + + + + O O + + +             wXc : y w w w w w w w w w w w w w w w w w w w w w w w w w w w w w w w f x w w w w w w w w w w y w w w w w w w w w w w w w w w y w w y w w w w w w w w w w w w w w y w w y w w w w w w w w w w w w w w y w w y w w w w w w w w w w w w w w w w w y y w w w w w w w w w w w w w w y w w y w w w w w w w w w w w w w w y w w y w w w w w w w w w w w w w w w w w y w w w w w w w w c w w w w w w w w w w w w w w w w w w w w w w w w w w w w w w w w f $ ",
"      o . #X` . O + + + + + + + + + + + + + + + + + O O + + +             ,.qX$ $ * $ $ $ $ $ $ $ $ $ $ $ $ $ $ $ $ $ $ $ $ $ $ $ $ $ $ $ $ $ $ - : $ $ $ $ $ $ $ $ $ $ $ $ $ $ $ $ $ $ $ $ $ $ $ $ $ $ $ $ $ $ $ $ $ $ $ $ $ $ $ $ $ $ $ $ $ $ $ $ $ $ $ $ $ $ $ $ $ $ $ $ $ $ $ $ $ $ $ $ $ $ $ $ $ $ $ $ $ $ $ $ $ $ $ $ $ $ $ $ $ $ $ $ $ $ $ $ $ $ $ $ $ $ $ $ $ $ $ $ $ $ $ $ $ $ $ $ $ $ $ $ $ $ $ $ $ $ $ $ $ $ $ $ $ $ $ $ $ $ $ $ $ $ $ $ $ $ $ , $ $ $ $ $ $ $ $ $ $ $ $ $ $ $ $ $ $ $ $ $ $ $ $ $ $ $ $ $ $ $ * $ , ",
"      o . #X` . O + + + + + + + + + + + + + + + + + O O + + +               u.tX6.-.;.;.;.;.;.;.;.;.;.;.;.;.;.;.;.;.;.;.;.;.;.;.;.;.;.;.;.;.;.;.;.;.;.;.;.;.;.;.;.;.;.;.;.;.;.;.;.;.;.;.;.;.;.;.;.;.;.;.;.;.;.;.;.;.;.;.;.;.;.;.;.;.;.;.;.;.;.;.;.;.;.;.;.;.;.;.;.;.;.;.;.;.;.;.;.;.;.;.;.;.;.;.;.;.;.;.;.;.;.;.;.;.;.;.;.;.;.;.;.;.;.;.;.;.;.;.;.;.;.;.;.;.;.;.;.;.;.;.;.;.;.;.;.;.;.;.;.;.;.;.;.;.;.;.;.;.;.;.;.;.;.;.;.;.;.;.;.;.;.;.;.;.;.;.;.;.;.;.;.;.;.;.;.;.;.;.;.;.;.;.;.;.;.;.;.;.;.;.;.;.;.;.;.;.;.;.;.;.;.;.;.;.q.nX",
"      o . #X` . O + + + + + + + + + + + + + + + + + + O O + + +               l 6XpXtXuXuXuXuXuXuXuXuXuXuXuXuXuXuXuXuXuXuXuXuXuXuXuXuXuXuXuXuXuXuXpXuXuXuXuXuXuXuXuXuXuXuXuXuXuXuXuXuXuXuXuXuXuXuXuXuXuXuXuXuXuXuXuXuXuXuXuXuXuXuXuXuXuXuXuXuXuXuXuXuXuXuXuXuXuXuXuXuXuXuXuXuXuXuXuXuXuXuXuXuXuXuXuXuXuXuXuXuXuXuXuXuXuXuXuXuXuXuXuXuXuXuXuXuXuXuXuXuXuXuXuXuXuXuXuXuXuXuXuXuXuXuXuXuXuXuXuXuXuXpXpXpXpXpXpXpXpXpXpXpXpXpXpXpXpXpXpXpXpXpXpXpXpXpXpXpXpXpXpXpXpXpXpXpXpXpXpXpXpXpXpXpXpXpXpXpXpXpXpXpXpXpXpXpXpXpXpXpXpXpXpXr.m ",
"      o   #X` . O + + + + + + + + + + + + + + + + + + O O + + +                                                                                                                                                                                                                                                                                                                                                                                                                                                               - ",
"      o   oX` . O + + + + + + + + + + + + + + + + + + + O O + + +                                                                       + +               + + + + + + + + + + + + + + + + + + + + + + + + + + + + + + + + + + + + + + + + + + + + + + + + + + + + + + + + + + + + + + + + + + + + + + + + + + + + + + + + + + + + + + + + + + + + + + + + + + + + + + + + + + + + + + + + + + + + + + + + + + + + + + + + + + + + +   + - : m m m m m m m m m m m m m m m m m m m m m m m m m m m m m m m m m m m m m m m m C V ",
"      o   XXa . O + + + + + + + + + + + + + + + + + + + O O + + +                                                                                                                                                                                                               +                                               + + + + + + + + + + + + + + + + + + + + + + + + + + + + + + + + + + + + + + + + + + + + + + + + + +     < - f f f f f f f f f f f f f f f f f f f f f f f f f f f f f f f f f f f f f f f f f k ",
"      o   OXa . O + + + + + + + + + + + + + + + + + + + + O O + + + +                                                                                                           + + + + + + + + + + + + + + + + + + + + + + + + + + + + + + + + + + + + + + + + + + + + + + + + + + + + + + + + + + + + + + + + + + + + + + + + + + O O O O O O O O O O O O O O O O O O O O O O O O O O O O O O O O O O O O O O O O O O O O O O O O   + f m h k k k k k k k k k k k k k k k k k k k k k k k k k k k k k k k k k k k k k k k k k ",
"      o   OXa . O + + + + + + + + + + + + + + + + + + + + O O O + + + +                                                     + + + + + + + + + + + + + + + + + + + + + + + + + + + + + + + + + + + + + + + + + + + + + O O O O O O O O O O O O O O O O O O O O O O O O O O O O O O O O O O O O O O O O O O O O O O O O O O O O O O O O O O O O O O O O O O O O O O O O O O O O O O O O O O O O O O O O O O O O O O O O O O O O O O O   $ $ - - - - - - - - - - - - - - - - - - - - - - - - - - - - - - - - - - - - - - - - - - : ",
"      o   OXa . O + + + + + + + + + + + + + + + + + + + + + O O O + + + + + + + + + + + + + + + + + + + + + + + + + + + + + + + + + + + + + + + + + + + + + + + O O O O O O O O O O O O O O O O O O O O O O O O O O O O O O O O O O O O O O O O O O O O O O O O O O O O O O O O O O O O O O O O O O O O O O O O O O O O O O O O O O O O O O O O O O O O O O O O O O O O O O O O O O O O O O O O O O O O O O O O O O O O O O O O O O   - - - - - - - - - - - - - - - - - - - - - - - - - - - - - - - - - - - - - - - - - - - - - ",
"      o   XXa   + + + + + + + + + + + + + + + + + + + + + + + O O O + + + + + + + + + + + + + + + + + + + + + + + + + + + + + + O O O O O O O O O O O O O O O O O O O O O O O O O O O O O O O O O O O O O O O O O O O O O O O O O O O O O O O O O O O O O O O O O O O O O O O O O O O O O O O O O O O O O O O O O - - - - - - - - - - - - - - - - - - - - - - - - - - - - - - - - - - - - - - - - - - - - - - - - - - - - - - - - -   : : - - - $ $ $ $ $ $ $ $ - : - $ $ $ $ $ $ $ $ - - - - - - - - $ $ $ $ $ $ $ $ - - * $ $ ",
"      o   XXa   + + + + + + + + + + + + + + + + + + + + + + + O O O O O + + + + + + + + + + + + O O O O O O O O O O O O O O O O O O O O O O O O O O O O O O O O O O O O O O O O O O O O O O O O O O O O O O O O O O O O O O O O O O O O O O O O - - - - - - - - O O - - - - - - - - - - - - - - - - - - - - - - - - - - - - - - - - - - - - - - - - - - - - - - - - - - - - - - - - - - - - - - - - - - - - - - - - - - - - - - - -   , , : : m %.%.%.%.$.$.$.-.c - k %.%.%.%.$.$.$.-.B : : : : : : m %.%.%.$.$.$.$.%.< : V %.%.",
"      o   o.a   + + + + + + + + + + + + + + + + + + + + + + + + O O O O O O O + O O O O O O O O O O O O O O O O O O O O O O O O O O O O O O O O O O O O O O O O O O O O O O O O O O O O O O O O O O O O O - - - - - - - - - - - - - - - - - - - - - - - - - - - - - - - - - - - - - - - - - - - - - - - - - - - - - - - - - - - - - - - - - - - - - - - - - - - - - - - - - - O - O O O O 1 - O - - - - O - O - O O O O 1 - O - 1 -   w w < : -.dXaXsXsXhXhXhXhX( $ V wXaXsXsXhXhXhXkX,.- w , , < : -.dXaXdXsXsXhXkX6Xw : 9.sXsX",
"      o   o.a   + + + + + + + + + + + + + + + + + + + + + + + + O O O O O O O O O O O O O O O O O O O O O O O O O O O O O O O O O O O O O O O O O O O O O O O O O O O - - - - - - - - - - - - - - - - - - - - - - - - - - - - - - - - - - - - - - - - - - - - - - - - - - - - - - - - - - - - - - 1 1 - - - - - - - 1 - - 1 1 1 1 1 1 1 1 1 1 1 1 1 1 1 1 1 1 1 1 1 1 1 1 1 - +.g $.M %.+.O m $.< < m < ,.k +.g -.C $.V O m $.< 1 1   w w w : ,.jXhXdXhXsXlXnXkX+.* [ sXhXfXhXjXlXnXMX>.: w w w w : ,.jXhXlXkXkXkXmX0Xw , r.kXhX",
"      o   o.a   X + + + + + + + + + + + + + + + + + + + + + + + + O O O O O O O O O O O O O O O O O O O O O O O O O O O O O O O O O O O O O O O O O O O O O O O O O O O - - - - - - - - - - - - - - - - - - - - - - - - - - - - - - - - - - - - - - - - - - - - - - - - - - - - - - - - - - - - - - - 1 1 1 1 1 1 1 1 1 1 1 1 1 1 1 1 1 1 1 1 1 1 1 1 1 1 1 1 1 1 1 1 1 1 1 - u.%.C i.M u.- >.5Xg V ,.- -.0.i.+.V i.V i.- 6.5Xk - 1 X w w w : ,.kXpX1.b -.wXmXkX+.- +.sXlX+.h w r.mXMX>.: w w w w : >.lXlXkX>.sXnXmX0Xw , r.nX7X",
"      X   o.a   X   + + + + + + + + + + + + + + + + + + + + + + + O O O O O O O O O O O O O O O O O O O O O O O O O O O O O O O O O O O O O O O O O O O O O O O O O O O O - - - - - - - - - - - - - - - - - - - - - - - - - - - - - - - - - - - - - - - - - - - - - - - - - - - - - - - - - - - - - - - 1 1 1 1 1 1 1 1 1 1 1 1 1 1 1 1 1 1 1 1 1 1 1 1 1 1 1 1 1 1 1 1 1 1 O $.M m %.k -.+ >.5Xk >.m + $.m $.m M +.m -.+ 6.6Xk - 1 X w w w : ,.hXnX5X$ 9.mXkXkX+.- +.sXnX6X: v hXnXnX>.: w w w w : :.hXcX6X$ 8.mXnX5Xw , r.kXlX",
"      +   X.d   X   + + + + + + + + + + + + + + + + + + + + + + + + O O O O O O O O O O O O O O O O O O O O O O O O O O O O O O O O O O O O O O O O O O O O O O O O O O O - - - - - - - - - - - - - - - - - - - - - - - - - - - - - - - - - - - - - - - - - - - - - - - - - - - - - - - - - - - - - - - - - 1 1 1 1 1 1 1 1 1 1 1 1 1 1 1 1 1 1 1 1 1 1 1 1 1 1 1 1 1 1 1 1 O %.%.5X,.5X>.m >.r.+.,.- M wXm %.%.5X,.0X>.m >.i.m - 1 X w w w : ,.lXsXj $ : wXnXhX+.- +.sXhX6Xw +.pXkXnX>.: w w w w : ,.lXsXj $ : eXmX5Xw , r.lXkX",
"      X   X.d   X     + + + + + + + + + + + + + + + + + + + + + + + O O O O O O O O O O O O O O O O O O O O O O O O O O O O O O O O O O O O O O O O O O O O O O O O O O O O - - - - - - - - - - - - - - - - - - - - - - - - - - - - - - - - - - - - - - - - - - - - - - - - - - - - - - - - - - - - - - - - - 1 1 1 1 1 1 1 1 1 1 1 1 1 1 1 1 1 1 1 1 1 1 1 1 1 1 1 1 1 1 1 1 1 < f g f g f < l - < 1 < l f 1 < f k f k < < l - 1 1 X w w w : ,.hXpXu.}.u.wXkXhX+.: ( sXsXu.}.u.0XkXkX:.: w w w w : ,.hXpXu.}.u.wXnX6Xw , r.jXhX",
"      X   o.a   X     + + + + + + + + + + + + + + + + + + + + + + + + O O O O O O O O O O O O O O O O O O O O O O O O O O O O O O O O O O O O O O O O O O O O O O O O O O O O - - - - - - - - - - - - - - - - - - - - - - - - - - - - - - - - - - - - - - - - - - - - - - - - - - - - - - - - - - - - - - - - - - 1 1 1 1 1 1 1 1 1 1 1 1 1 - 1 1 1 1 1 1 1 1 1 1 1 1 1 1 1 1 1 1 - - - - - 1 - 1 1 1 1 - - 1 1 - - - - 1 1 - 1 1 - + y w w : ,.lXlXnXnXMXnXkXlX[ : ( sXlXnXnXMXnXkXnX>.: w w w w : ,.lXlXnXnXMXnXnX5Xw , r.kXhX",
"          d =   +     + + + + + + + + + + + + + + + + + O O O O O O O O O O O O O O O O O O O O O O O O O O O O O O O O O O O O O O O O O O O O O O O O O O O O O O O O O O O O - - - - - - - - - - - - - - - - - - - - - - - - - - - - - - - - - - - - - - - - - - - - - - - - - - - - - - - - - - - - - - - - - - - 1 1 1 1 1 1 1 1 1 1 1 1 1 1 1 1 1 1 1 1 1 1 1 1 1 1 1 1 1 1 1 1 1 1 1 1 1 1 1 1 1 1 1 1 1 1 1 1 1 1 1 1 1 < O O f w w , $.6X3X3X3X6X6X5X6X( : V 3X3X3X3X6X6X6X5X-., w w w w , $.6X3X3X3X6X6X5Xr.f w 6.6X3X",
"                                        + + + + + + + + + + + + + + + + + O O O O O O O O O O O O O O O O O O O O O O O O O O O O O O O O O O O O O O O O O O O O O O O O O O O O O O O O O O O O O O - - - - - - - - - - - - - - - - - - - - - - - - - - - - - - - - - - - - - - - - - - - - - - - - - - - - - - - - - - - - - - - - - - - - - - - - - - - 1 1 1 1 1 1 1 1 1 1 1 1 1 1 1 1 1 1 1 1 1 1 1 1 1 1 1 1 1 1 1 1 1 - O X w f w w w f w w w w w w w y f w f w w w w w w w w f w w w w w w f w w w w w w w f w w f w w ",
"                                                                                                                                                                                                                                                                                                                                                                                                                              + O w w y w w w w w w w w w w w w w w w w w w w w w w w w w w w w w w w w w w w w w w w w w w w w ",
"w w w w w w w w w w w w w w w w w w w w w w w w w w w w w w w w w w w w w w w w w w w w w w w w w w w w w w w w w w w w w w w w w w w w w w w w w w w w w w w w w w w w w w w w w w w w w w w w w w w w w w w w w w w w w w w w w w w w w w w w w w w w w w w w w w w w w w w w w w w w w w w w w w w w w w w w w w w w w w w w w w w w w w w w w w w w w w w w w w w w w w w w w w w w w w w w w w w w w w w w w w w w w w w w w w w w w w w w w w w w w w w w w w w w w w w w w w w w w w w w w w w w w w w w w w w w w w w w ",
"w w w w w w w w w w w w w w w w w w w w w w w w w w w w w w w w w w w w w w w w w w w w w w w w w w w w w w w w w w w w w w w w w w w w w w w w w w w w w w w w w w w w w w w w w w w w w w w w w w w w w w w w w w w w w w w w w w w w w w w w w w w w w w w w w w w w w w w w w w w w w w w w w w w w w w w w w w w w w w w w w w w w w w w w w w w w w w w w w w w w w w w w w w w w w w w w w w w w w w w w w w w w w w w w w w w w w w w w w w w w w w w w w w w w w w w w w w w w w w w w w w w w w w w w w w w w w w w w ",
"w w w w w w w w w w w w w w w w w w w w w w w w w w w w w w w w w w w w w w w w w w w w w w w w w w w w w w w w w w w w w w w w w w w w w w w w w w w w w w w w w w w w w w w w w w w w w w w w w w w w w w w w w w w w w w w w w w w w w w w w w w w w w w w w w w w w w w w w w w w w w w w w w w w w w w w w w w w w w w w w w w w w w w w w w w w w w w w w w w w w w w w w w w w w w w w w w w w w w w w w w w w w w w w w w w w w w w w w w w w w w w w w w w w w w w w w w w w w w w w w w w w w w w w w w w w w w w w w ",
"w w w w w w w w w w w w w w w w , - : f w w w w w w w w w w w w w w w w w w w w w w w w w w w w w w w w w w w w < , w , w w w w w w w w w w w w w w < w w w w w w w w w w w w w w w w w w w w w w w w w w w w , - : w w y y w w w w w w w w w w w w w w w w w w w w w w w w w w w w w w w w w w w w w < - , w w w w w w w w w f w w w w w w w w w w w w w w w w w w w w w w w w w w w w w w , - , w w w w w w w w w w w w w w w w w w w w w w w w w w w w w w w w w w w w w w w w w w w w w w w w w w w w w w w w w w w , w w f ",
"w w w w w w w w w w w w w w w : ( 7.B j j f : : >.f : w w w w w w w w w w w w w w w w w w w w w w w w w w w w , c N f ( : , w w < $ [ @.: , , , w , c w w w w w w w w w w w w w w w w w w w w w w w w w w w , ( 9.;.w : f ( -.: w , , w : j w w w w w w w w w w w w w w w w w w w w w w w w w w w w , c 6.@.w , < * >.h : , w c w : , w w w w w w w w w w w w w w w w w w w w w w w w w w : ( 7.B , , : w 1.: , , w , , , , , w x w w w w w w w w w w w w w w w w w w w w w w w w w w w w w w w w w w w w w w w w w w , ( h y j ",
"w w w w w w w w w w w w w w w - 1.1.q.( 9.q.+.1.e.e.( : w w w w w w w w w w w w w w w w w w w w w w w w w w w : +.>.N 6.@.1.c 1.( $.3X$.$ &.1.&.c &.3X+.: w w w w w w w w w w w w w w w w w w w w w w w w w w y r.N B 1.( &.>.$ ( 6.-.c @.u.>.: w w w w w w w w w w w w w w w w w w w w w w w w w w : @.8.w ( 1.N 4.}.m 6.[ : @.@.9.&., w w w w w w w w w w w w w w w w w w w w w w w w w - 1.;.w $.;.N q.q.m 7.m : &.7.N +.b :.4Xj w w w w w w w w w w w w w w w w w w w w w w w w w w w w w w w w w w w w w w w w w : 7.m j @.",
"w w w w w w w w w w w w w w w - >.t.N 1.1.+.7.: 7.+.6.: w w w w w w w w w w w w w w w w w w w w w w w w w w w : ( u.7.r.y.r.&.1.3X-.$.&.w q., 7.c 6.1.w w w w w w w w w w w w w w w w w w w w w w w w w w w w : 1.j ( t.q.>.-.* q.w 1.m 1.6.c , w w w w w w w w w w w w w w w w w w w w w w w w w w : ( *X( ( r.}.B >.q.t.9.: 1.7.#.6.f w w w w w w w w w w w w w w w w w w w w w w w w w - :.t.N #.u.t.N 6.e.t.:.h 6.B r.&.B 7.;.: w w w w w w w w w w w w w w w w w w w w w w w w w w w w w w w w w w w w w w w w w : 1.y m 6.",
"w w w w w w w w w w w w w w w - 1.B $ 1.:.>.6.+.7.b 7.: w w w w w w w w w w w w w w w w w w w w w w w w w w w : +.&.f 9.q.&.7.y.r.1.q.&.: q.( 6.7.6.6.B , w w w w w w w w w w w w w w w w w w w w w w w w w w , 6.B r.r.q.>.:.$ 7.#.>.6.8.1.$.: w w w w w w w w w w w w w w w w w w w w w w w w w w : @.&.: y.t.q.:.q.:.q.B : 1.6.N 4.h w w w w w w w w w w w w w w w w w w w w w w w w w - 1.N c }.r.9.>.9.1.8.c y 7.1.-.1.q.:.8.f w w w w w w w w w w w w w w w w w w w w w w w w w w w w w w w w w w w w w w w w w - 8.;.#.>.",
"w w w w w w w w w w w w w w w w c h w c h ( c @.b f c w w w w w w w w w w w w w w w w w w w w w w w w w w w w w h j f j c +.c +.h N @.h , c @.c #.j b N , w w w w w w w w w w w w w w w w w w w w w w w w w w w c w N B c c c , h #.c @.b j ( < w w w w w w w w w w w w w w w w w w w w w w w w w w w h c , N ( f [ B w [ N , c c f c w w w w w w w w w w w w w w w w w w w w w w w w w w < c h w ( N h @.b w @.x : b @., N @.f B x < w w w w w w w w w w w w w w w w w w w w w w w w w w w w w w w w w w w w w w w w , m =.B j ",
"w w w w w w w w w w w w w w w w , w w , w : , : , w , w w w w w w w w w w w w w w w w w w w w w w w w w w w w w w < w < , : , : w , : w w , : , : < , , w w w w w w w w w w w w w w w w w w w w w w w w w w w w , w : : , , , w w : , : , < : w w w w w w w w w w w w w w w w w w w w w w w w w w w w w < w : : w : : w : , w , , w , w w w w w w w w w w w w w w w w w w w w w w w w w w w , w w : , w : , w : < w , : w : : w : < w w w w w w w w w w w w w w w w w w w w w w w w w w w w w w w w w w w w w w w w w w , - : < ",
"w w w w w w w w w w w w w w w w w w w w w w w w w w w w w w w w w w w w w w w w w w w w w w w w w w w w w w w w w w w w w w w w w w w w w w w w w w w w w w w w w w w w w w w w w w w w w w w w w w w w w w w w w w w w w w w w w w w w w w w w w w w w w w w w w w w w w w w w w w w w w w w w w w w w w w w w w w w w w w w w w w w w w w w w w w w w w w w w w w w w w w w w w w w w w w w w w w w w w w w w w w w w w w w w w w w w w w w w w w w w w w w w w w w w w w w w w w w w w w w w w w w w w w w w w w w w w w w w ",
"w w w w w w w w w w w w w w w w w w w w w w w w w w w w w w w w w w w w w w w w w w w w w w w w w w w w w w w w w w w w w w w w w w w w w w w w w w w w w w w w w w w w w w w w w w w w w w w w w w w w w w w w w w w w w w w w w w w w w w w w w w w w w w w w w w w w w w w w w w w w w w w w w w w w w w w w w w w w w w w w w w w w w w w w w w w w w w w w w w w w w w w w w w w w w w w w w w w w w w w w w w w w w w w w w w w w w w w w w w w w w w w w w w w w w w w w w w w w w w w w w w w w w w w w w w w w w w w w ",
"j j j j j j j j j j j j j j j j j j j j j j j j j j j j j j j j j j j j j j j j j j j j j j j j j j j j j j j j j j j j j j j j j j j j j j j j j j j j j j j j j j j j j j j j j j j j j j j j j j j j j j j j j j j j j j j j j j j j j j j j j j j j j j j j j j j j j j j j j j j j j j j j j j j j j j j j j j j j j j j j j j j j j j j j j j j j j j j j j j j j j j j j j j j j j j j j j j j j j j j j j j j j j j j j j j j j j j j j j j j j j j j j j j j j j j j j j j j j j j j j j j j j j j j j j j j j j j j j ",
"w w w w w w w w w w w w w w w w w w w w w w w w w w w w w w w w w w w w w w w w w w w w w w w w w w w w w w w w w w w w w w w w w w w w w w w w w w w w w w w w w w w w w w w w w w w w w w w w w w w w w w w w w w w w w w w w w w w w w w w w w w w w w w w w w w w w w w w w w w w w w w w w w w w w w w w w w w w w w w w w w w w w w w w w w w w w w w w w w w w w w w w w w w w w w w w w w w w w w w w w w w w w w w w w w w w w w w w w w w w w w w w w w w w w w w w w w w w w w w w w w w w w w w w w w w w w w w w w ",
"w w w w w w w w w w w w w w w w w w w > > ; > > > w w w w w w w w w w w w w w w w w w w w w w w w w w w w w w w w w w w w w w > < > > > > < w w w w w w w w w w w w w w w w w w w w w w w w w w w w w w w w w w w w w < > > > > > > w w w w w w w w w w w w w w w w w w w w w w w w w w w w w w w w w w w w w w 0 0 0 0 0 0 0 w w w w w w w w w w w w w w w w w w w w w w w w w w w w w w w w w w w w w 0 0 0 0 0 0 0 w w w w w w w w w w w w w w w w w w w w w w w w w w w w w w w w w w w w w w w w w w w w w w w w w w w w w ",
"w w w w w w w w w w w w w w w w w ; u ^  .`...' s w > w w w w w w w w w w w w w w w w w w w w w w w w w w w w w w w w w w < > p ^  .} ..s p ; w w w w w w w w w w w w w w w w w w w w w w w w w w w w w w w w w w w ; u p } .. ./ s w > w w w w w w w w w w w w w w w w w w w w w w w w w w w w w w w w w w 0 0 8 U E R R 8 7 0 w w w w w w w w w w w w w w w w w w w w w w w w w w w w w w w w w w w 0 7 8 R R E U 8 0 0 w w w w w w w w w w w w w w w w w w w w w w w w w w w w w w w w w w w w w w w w w w w w w w w w w w w ",
"w w w w w w w w w w w w w w w w < / `.>X>X;X+X+X+X..s > w w w w w w w w w w w w w w w w w w w w w w w w w w w w w w w w < p / [.+X=X'.=X+X'./ w w w w w w w w w w w w w w w w w w w w w w w w w w w w w w w w w w w ^  .+X+X'.+X+X+X} p > w w w w w w w w w w w w w w w w w w w w w w w w w w w w w w w w 0 8 Y U.U.I.P.Q.I.L.U w w w w w w w w w w w w w w w w w w w w w w w w w w w w w w w w w w w U L.I.I.P.I.I.I.Y 9 0 w w w w w w w w w w w w w w w w w w w w w w w w w w w w w w w w w w w w w w w w w w w w w w w w w w ",
"w w w w w w w w w w w w w w w w ^ ;X=X=X=X} / '.`.'.[.u w w w w w w w w w w w w w w w w w w w w w w w w w w w w w w w w w ..+X`.'...^  .'.`.=X' w w w w w w w w w w w w w w w w w w w w w w w w w w w w w w w w w s +X'.'.`./ ' '.`.@X'.u w w w w w w w w w w w w w w w w w w w w w w w w w w w w w w w w f E I.L.U.R U E P.L.I.U w w w w w w w w w w w w w w w w w w w w w w w w w w w w w w w w w U I.L.P.L.U Y P.L.I.L.w w w w w w w w w w w w w w w w w w w w w w w w w w w w w w w w w w w w w w w w w w w w w w w w w w w ",
"w w w w w w w w w w w w w w > s >X>X+Xq . @ # + w '.+X[.u < w w w w w w w w w w w w w w w w w w w w w w w w w w w w w ; `.+X+X^ @ . + + @ ' +X+X} ; w w w w w w w w w w w w w w w w w w w w w w w w w w w w w > ^ +X+X`.: + + . @ u '.+X'.w w w w w w w w w w w w w w w w w w w w w w w w w w w w w w w 0 L.I.U.8 % X X % * R I.I.U 0 w w w w w w w w w w w w w w w w w w w w w w w w w w w w w 0 U I.I.R * % X X % 9 U.I.L.0 w w w w w w w w w w w w w w w w w w w w w w w w w w w w w w w w w w w w w w w w w w w w w w w w w ",
"w w w w w w w w w w w w w w w '.+X[.: + * y.e.- + , `.`...w w w w w w w w w w w w w w w w w w w w w w w w w w w w w > / `.`.^ . # 4 l y # . } '.`.s < w w w w w w w w w w w w w w w w w w w w w w w w w w w w u `.`. .# + 1 l f 1 . i '.`...< w w w w w w w w w w w w w w w w w w w w w w w w w w w w 0 Y L.L.8 X # 7 l 7 O % R L.E 9 0 w w w w w w w w w w w w w w w w w w w w w w w w w w w w 7 L.L.R % O 1 l l 1 X 8 P.L.Y 0 w w w w w w w w w w w w w w w w w w w w w w w w w w w w w w w w w w w , : , : : : : : : : : : : ",
"w w w w w w w w w w w w w < u ;X>Xw . f k kXhXz l + i +X'.w w w w w w w w w w w w w w w w w w w w w w w w w w w w w > ..=X' . - k V K W m * @  .=X/ > w w w w w w w w w w w w w w w w w w w w w w w w w w w < p +X'.: + f C V W V 4 . s +X`.w w w w w w w w w w w w w w w w w w w w w w w w w w w w w 0 E Q.U X 1 z V W W Z O * L.I.8 0 w w w w w w w w w w w w w w w w w w w w w w w w w w w 0 8 I.L.% O l M V W M 1 % U Q.E 0 w w w w w w w w w w w w w w w w w w w w w w w w w w w w w w w w w w w V +.+.+.@.@.@.@.#.#.#.$.#.",
"w w w w w w w w w w w w w ; ..>X=X* - m z hXdXC V - : @X+X/ > w w w w w w w w w w w w w w w w w w w w w w w w w w < u ].+X/ . f M V V W W f . ..=X`.w w w w w w w w w w w w w w w w w w w w w w w w w w w w > } +X`.O - m M M V W C # q +X@X^ > w w w w w w w w w w w w w w w w w w w w w w w w w w 0 8 P.I.9 X g M V V W W 7 X E Q.E 0 w w w w w w w w w w w w w w w w w w w w w w w w w w w 0 E I.E X 1 C M V K W z o 9 I.P.8 0 w w w w w w w w w w w w w w w w w w w w w w w w w w w w w w w w w , r.lXhXhXlXlXkXkXcXnXnXmXqX",
"w w w w w w w w w w w w w ; ..;X .+ 1 m C %.%.V V < O ..'./ > w w w w w w w w w w w w w w w w w w w w w w w w w w < u `.`.q O k M z m V W Z + p '. .w w w w w w w w w w w w w w w w w w w w w w w w w w w w > } [.' # *XBXmX-.C W V 1 *  .'.^ > w w w w w w w w w w w w w w w w w w w w w w w w w w 0 9 P.E : O Z C z C V W g X U P.R 0 w w w w w w w w w w w w w w w w w w w w w w w w w w w 0 R P.U X 7 C m z V K M - : E P.8 0 w w w w w w w w w w w w w w w w w w w w w w w w w w w w w w w w w , q.kXjXlXkXkXnXnXnXMXMXBX0X",
"w w w w w w w w w w w w w ;  .>X'.+ 1 z C m C V M 1 O  .+X' > w w w w w w w w w w w w w w w w w w w w w w w w w w < u '.[.i + g Z pX9.z V k . ^ +X`.w w w w w w w w w w w w w w w w w w w w w w w w w w w w ; `.>X`.@ =.6X6X%.C V C - - `.+X^ > w w w w w w w w w w w w w w w w w w w w w w w w w w 0 8 U.P.1 O g C sX>.m V l X U I.E 0 w w w w w w w w w w w w w w w w w w w w w w w w w w w 0 E I.Y X 7 l 3XqXz V m O 1 P.U.8 0 w w w w w w w w w w w w w w w w w w w w w w w w w w w w w w w w w , r.kXhXlXkXkXkXnXnXnXnXmX0X",
"w w w w w w w w w w w w w > / ;X>X: O g m C M M k O q +X'.s < w w w w w w w w w w w w w w w w w w w w w w w w w w w w  .=X} . - r.KX6.z C < .  .=X} < w w w w w w w w w w w w w w w w w w w w w w w w w w w > ' >X;X@ + < g m M M g + i =X'.p < w w w w w w w w w w w w w w w w w w w w w w w w w w w f E Q.U X - 6XHX<.m C 1 % L.I.Y 0 w w w w w w w w w w w w w w w w w w w w w w w w w w w 0 Y I.P.% # +.SX0Xk M l X 8 Q.L.l w w w w w w w w w w w w w w w w w w w w w w w w w w w w w w w w w w , 9.kXhXlXhXlXMXkXnXnXnXmX0X",
"w w w w w w w w w w w w w < u >X=X^ . - l z z g - . ^ '.'.w w w w w w w w w w w w w w w w w w w w w w w w w w w w w ;  .+X} -   5X6Xf z < . q  .+X' > w w w w w w w w w w w w w w w w w w w w w w w w w w w > s >X+Xs . 1 g z z l O + ' '.'.> w w w w w w w w w w w w w w w w w w w w w w w w w w w w 0 L.U.Y $ O tXi.f Z 1 X 7 E I.U 0 w w w w w w w w w w w w w w w w w w w w w w w w w w w 0 8 I.E l   >.sXZ k l O $ Y U.L.0 w w w w w w w w w w w w w w w w w w w w w w w w w w w w w w w w w w , 9.lXhXcX6XN 7XMXnXnXnXmX5X",
"w w w w w w w w w w w w w w > } ;X>X/ + O # # O O ^ +X'.^ < w w w w w w w w w w w w w w w w w w w w w w w w w w w w w u `.+X .: f - O O O q `.+X..w w w w w w w w w w w w w w w w w w w w w w w w w w w w w w < ..>X>Xs + O # # O $ ' +X'.s < w w w w w w w w w w w w w w w w w w w w w w w w w w w w w 8 L.I.R : f # # O O 7 P.I.Y w w w w w w w w w w w w w w w w w w w w w w w w w w w w w w w R U.P.7 < 1 O # O $ R Q.L.8 0 w w w w w w w w w w w w w w w w w w w w w w w w w w w w w w w w w w , 9.lXhXkX6X: , +.aXnXkXMX5X",
"w w w w w w w w w w w w w w < u @X>X>Xw : - - : u +X@X`.y w w w w w w w w w w w w w w w w w w w w w w w w w w w w w w > ' '.=X' & : - : >  .=X`./ > w w w w w w w w w w w w w w w w w w w w w w w w w w w w w > p +X>X;X< , - - > p =X'. .w w w w w w w w w w w w w w w w w w w w w w w w w w w w w w w 0 R P.Q.U * : - : 0 L.Q.L.8 0 w w w w w w w w w w w w w w w w w w w w w w w w w w w w w 0 8 P.I.L.r : - - 0 U Q.P.R 0 w w w w w w w w w w w w w w w w w w w w w w w w w w w w w w w w w w w , 9.lXsXkX6X* w -.dXnXkXMX5X",
"w w w w w w w w w w w w w w w < ; +X`.; w w w w >  .`.; w w w w w w w w w w w w w w w w w w w w w w w w w w w w w w w w ; ' '.u w w w w < p '.s ; w w w w w w w w w w w w w w w w w w w w w w w w w w w w w w w > w =X .; w w w w > `. .; w w w w w w w w w w w w w w w w w w w w w w w w w w w w w w w w r R P.w w w w w 0 U U.7 0 w w w w w w w w w w w w w w w w w w w w w w w w w w w w w w w 0 f U.U 0 y w w w w L.R r w w w w w w w w w w w w w w w w w w w w w w w w w w w w w w w w w w w w , 9.jXsXkX6X[ eXnXkXkXkXnX6X",
"w w w w w w w w w w w w w w w w w w w w w w w w w w w w w w w w w w w w w w w w w w w w w w w w w w w w w w w w w w w w w w w w w w w w w w w w w w w w w w w w w w w w w w w w w w w w w w w w w w w w w w w w w w w w w w w w w w w w w w w w w w w w w w w w w w w w w w w w w w w w w w w w w w w w w w w w w w w w w w w w w w w w w w w w w w w w w w w w w w w w w w w w w w w w w w w w w w w w w w w w w w w w w w w w w w w w w w w w w w w w w w w w w w w w w w w w w w w w w w w w w w , 9.hXsXhXfXlXkXhXlXlXlXnX6X",
"w w w w w w w w w w w w w w w w w w w w w w w w w w w w w w w w w w w w w w w w w w w w w w w w w w w w w w w w w w w w w w w w w w w w w w w w w w w w w w w w w w w w w w w w w w w w w w w w w w w w w w w w w w w w w w w w w w w w w w w w w w w w w w w w w w w w w w w w w w w w w w w w w w w w w w w w w w w w w w w w w w w w w w w w w w w w w w w w w w w w w w w w w w w w w w w w w w w w w w w w w w w w w w w w w w w w w w w w w w w w w w w w w w w w w w w w w w w w w w w w w w , 9.hXsXsXhXhXhXhXhXjXhXkX6X",
"w w w w w w w w w w w w w w w w w w w w w w w w w w w w w w w w w w w w w w w w w w w w w w w w w w w w w w w w w w w w w w w w w w w w w w w w w w w w w w w w w w w w w w w w w w w w w w w w w w w w w w w w w w w w w w w w w w w w w w w w w w w w w w w w w w w w w w w w w w w w w w w w w w w w w w w w w w w w w w w w w w w w w w w w w w w w w w w w w w w w w w w w w w w w w w w w w w w w w w w w w w w w w w w w w w w w w w w w w w w w w w w w w w w w w w w w w w w w w w w w w w , 9.hXsXhXhXhXhXhXjXlXjXkX6X",
"w w w w w w w w w w w w w w w w w w w < < w , w w w w , , , w w w w w w w w w w w w w w w w w w w w w w w w w w w w w w w w w w w w w , w , w w , w w w w w w w w w w w w w w w w w w w w w w w w w w w w w w y : w w , w , w w w w , w , w w , w w w w w w w w w w w w w w w w w w w w w w w w w w w , , w , , w , w < w w , w < w , w w w w w w w w w w w w w w w w w w w w w w w w w w w w w f w w , w w w w w w , w , w w , w w w w w w w w w w w w w w w w w w w w w w w w w w w w w w w w w w , 0.aXxXpXpXpXaXaXdXdXdXsX3X",
"w w w w w w w w w w w w w w 7.6.< c r.$.-.9.( e.&.: w j +.B , w w w w w w w w w w w w w w w w w w w w w w w w w w w , -.e.c w 7.6.w w j h j w y c w w w w w w w w w w w w w w w w w w w w w w w w w w w w , ( q.+.7.>.@.r.( 7.1.w w j f j < f c w w w w w w w w w w w w w w w w w w w w w w w w w w : +.q.$ ( 9.$ ( t.( : f j h h , c h w w w w w w w w w w w w w w w w w w w w w w w w w w , c 6.;.: r.c w 8.6.w w j f j w y c w w w w w w w w w w w w w w w w w w w w w w w w w w w w w w w w w w w m N N N N N N N N N N N N ",
"w w w w w w w w w w w w : ( &.-.N &.( 9.8.B 5XN 6.w 6.;.r.6.: w w w w w w w w w w w w w w w w w w w w w w w w w w w h 1.+.&.N -.-.N B y.e.q.@.8.;.w w w w w w w w w w w w w w w w w w w w w w w w w w w w w , ( 3X@.-.}.c 4X@.:.v +.y.e.q.+.q.=.w w w w w w w w w w w w w w w w w w w w w w w w w w < m q., 4.8.$ 6.( 6.: 9.r.e.6.+.t.b < w w w w w w w w w w w w w w w w w w w w w w w w w w w $.6.N }.h B =.-.N ( y.e.q.@.8.;.w w w w w w w w w w w w w w w w w w w w w w w w w w w w w w w w w w w , , , , , , , , , , , , , ",
"w w w w w w w w w w w w : ( $.&.B &.B q.7.m 7Xc 6.f ( ;.6.c : w w w w w w w w w w w w w w w w w w w w w w w w w w w h >.( -.N &.&.B @.$.:.( :.( 1.f w w w w w w w w w w w w w w w w w w w w w w w w w w w w f :.#.@.=.}.h 5X( ;.v &.@.:.[ ;.( 1.w w w w w w w w w w w w w w w w w w w w w w w w w w w w 1.&.u.y.w 1.N 6., 7.[ -.&.+.:.@., w w w w w w w w w w w w w w w w w w w w w w w w w w < [ t.t.*X+.B $.=.N @.$.:.[ :.( 1.f w w w w w w w w w w w w w w w w w w w w w w w w w w w w w w w w w w w w w w w w w w w w w w w ",
"w w w w w w w w w w w w w y 8.6.&.+.e.-.;.q.@.q.;.: ( 9.1.>., w w w w w w w w w w w w w w w w w w w w w w w w w w w , ;.q.&.+.6.9.< +.@.&.( &.[ r.h < w w w w w w w w w w w w w w w w w w w w w w w w w w : 7.y.( 8.1.$.r.#.7.8.: #.+.&.( &.@.r.f w w w w w w w w w w w w w w w w w w w w w w w w w w y 1.h #.q.&.@.t.#.: :.( $.#.( 6.:.: w w w w w w w w w w w w w w w w w w w w w w w w w , N >.6.N 7.1.( 6.9., @.@.&.( &.[ r.h < w w w w w w w w w w w w w w w w w w w w w w w w w w w w w w w w w w w w w w w w w w w w w w ",
"w w w w w w w w w w w w w w f y w w h w w h : h w w h h , h w w w w w w w w w w w w w w w w w w w w w w w w w w w w w w h w w y f < w w w w w j f < w w w w w w w w w w w w w w w w w w w w w w w w w w w w f j f y y , h , f y w w w w w w j y w w w w w w w w w w w w w w w w w w w w w w w w w w w w w , : , w w h w w w w w w y x w w w w w w w w w w w w w w w w w w w w w w w w w w w w y c w : , w w y f < w w w w w j f < w w w w w w w w w w w w w w w w w w w w w w w w w w w w w w w w w w w w w w w w w w w w w w w ",
"w w w w w w w w w w w w w w w w w w w w w w w w w w w w w w w w w w w w w w w w w w w w w w w w w w w w w w w w w w w w w w w w w w w w w w w < w w w w w w w w w w w w w w w w w w w w w w w w w w w w w w w , w w w w < w w w w w w w w w < w w w w w w w w w w w w w w w w w w w w w w w w w w w w w w w w w w w w w w w w w w w , w w w w w w w w w w w w w w w w w w w w w w w w w w w w w , w w w w w w w w w w w w w < w w w w w w w w w w w w w w w w w w w w w w w w w w w w w w w w w w w w w w w w w w w w w w w w w ",
"w w w w w w w w w w w w w w w w w w w w w w w w w w w w w w w w w w w w w w w w w w w w w w w w w w w w w w w w w w w w w w w w w w w w w w w w w w w w w w w w w w w w w w w w w w w w w w w w w w w w w w w w w w w w w w w w w w w w w w w w w w w w w w w w w w w w w w w w w w w w w w w w w w w w w w w w w w w w w w w w w w w w w w w w w w w w w w w w w w w w w w w w w w w w w w w w w w w w w w w w w w w w w w w w w w w w w w w w w w w w w w w w w w w w w w w w w w w w w w w w w w w w w w w w w w w w w w w w ",
"w w w w w w w w w w w w w w w w w w w w w w w w w w w w w w w w w w w w w w w w w w w w w w w w w w w w w w w w w w w w w w w w w w w w w w w w w w w w w w w w w w w w w w w w w w w w w w w w w w w w w w w w w w w w w w w w w w w w w w w w w w w w w w w w w w w w w w w w w w w w w w w w w w w w w w w w w w w w w w w w w w w w w w w w w w w w w w w w w w w w w w w w w w w w w w w w w w w w w w w w w w w w w w w w w w w w w w w w w w w w w w w w w w w w w w w w w w w w w w w w w w w w w w w w w w w w w w w w ",
"w w w w w w w w w w w w w w w w w w w w w w w w w w w w w w w w w w w w w w w w w w w w w w w w w w w w w w w w w w w w w w w w w w w w w w w w w w w w w w w w w w w w w w w w w w w w w w w w w w w w w w w w w w w w w w w w w w w w w w w w w w w w w w w w w w w w w w w w w w w w w w w w w w w w w w w w w w w w w w w w w w w w w w w w w w w w w w w w w w w w w w w w w w w w w w w w w w w w w w w w w w w w w w w w w w w w w w w w w w w w w w w w w w w w w w w w w w w w w w w w w w w w w w w w w w w w w w w w ",
"w w w w w w w w w w w w w w w w w w w w w w w w w w w w w w w w w w w w w w w w w w w w w w w w w w w w w w w w w w w w w w w w w w w w w w w j w w w w w w w w w w w w w w w w w w w w w w w w w w w w w w w w w w w w w w w w w w w w w w w w w w w w w w w w w w w w w w w w w w w w w w w w w w w w w w w w w w w w w w w w w w w w w w w w w w w w w w w w w w w w w w x w w w w w w w w w w w w w w w w w w w w w w w w w w w w w w w w w w w w w w w w w w w w w w w w w w w w w w w w w w w w w w w w w w w w w w w w w ",
"w w w w w w w w w w w w w w w , : w w w w w w w w w , w w < , w w w w w w w w w w w w w w w w < , w , w w w : w w w w w w w w w w w w w w w w x w w w w w w w w w w w w w w w w w , : w w w w w w w w w w w w w w w w w w w w w w w w w w w w w w w w w w w : : w w w w w w w w w , w w , , w w w w w w w w w w w w w w w w , , w , w w w : w w w w w w w w w w w w w w w w x w w w w w w w w w w , : , w w w w w w w w w w w w w w w w w w w w w w w w , w , w , w w w w w w w w w w w w w w w w w w w : : w w w w w w w : w , ",
"w w w w w w w w w w w w w w < N +.w : , , : w w : w #.: $ N ( $ : , w , w w w w w w w w w w w j c , b f : : $.w , : , , w , : : w w w w w w w j w w w w w w w w w w w w w w w w , c @.w - , , w , , : w : , : , w w w w w w w w w w w w w w w w w w w w w w B [ w : , , : w w : f @.: $ ( N $ : , w , w w w w w w w w w w < c x , m y - w $.: w : , , w , : : w w w w w w w x w w w w w w w w w < c #.j : : : w , w w w w w w w w w w w w w w w w w w w j y c w c w : w , < w w w w w w w w w w w w w w B +.w : : : w : f N w c ",
"w w w w w w w w w w w w w w , 9.6.>.B ( c #., : j 1.7.h [ #.=.N @.N f N w w w w w w w w w w * ;.3X$ 0X+.+.N 6.N c +.N b h m ( =.f w w w w w w x w w w w w w w w w w w w w w w w f r.@.f &.m c j m N @.h &.c @.c , w w w w w w w w w w w w w w w w w w w w w q.7.;.( N N @.: : c 7.1.j ( -.#.B +.b h N , w w w w w w w w w $ 6.t.: qXN @.N 6.m c @.b b j m [ &.w w w w w w w x w w w w w w w w w - 7.1.8.N +.@.f N f w w w w w w w w w w w w w w w w w : ;.+.}.( 4.j @.( r.f w w w w w w w w w w w w w y t.:.4.b $.B h c @.4XB 3X",
"w w w w w w w w w w w w w w , q.8.@.y.N q.u.:.j 6.;.7.7.t.t.+.( u.9.-.;.: w w w w w w w w w : @.u.( }.B -.q.r.8.$.u.t.8.b 6.8.:.;.: w w w w w x w w w w w w w w w w w w w w w w w 4.$.&.;.>.8.N :.q.&.:.#.;.u.9., w w w w w w w w w w w w w w w w w w w w w r.6.#.y.N r.u.=.c 6.:.6.8.t.t.B @.}.7.;.&.: w w w w w w w w w : =.r.+.}.m 1.9.y.1.=.y.y.1.N 7.7.:.&.: w w w w w x w w w w w w w w w : 1.w ( }.1.&.:.6.w w w w w w w w w w w w w w w w w w : N 9.7.8.&.4.t.y.7.w w w w w w w w w w w w w w f 6.$ 4.}.#.>.;.-.&.&.7.7.",
"w w w w w w w w w w w w w w , e.c w 8., *X;.$.( 6.+.9.r.;.1.6.8.u.&.3Xj , w w w w w w w w w : #.7.u.1.9.q.r.*Xq.;.y.#.8.&.8.1.@.1.: w w w w w x w w w w w w w w w w w w w w w w w f 8.}.( >.7.&.7.7.h 1.N >.r.+.w w w w w w w w w w w w w w w w w w w w w w r.f j 6.w 3X-.$.( 6.@.q.t.=.4.6.9.t.-.3Xf w w w w w w w w w w : =.8.y.1.8.r.r.3X7.1.r.$.7.=.8.:.$.:.: w w w w w x w w w w w w w w w - 7.( 1.9.+.: 4X$.: w w w w w w w w w w w w w w w w w w w 9X[ 4X+.q.4.&.1.: w w w w w w w w w w w w w f q.N 8.9.w B 3X[ ;.h qXB ",
"w w w w w w w w w w w w w w w @.w w #.: ( :.y $ ( 7.+.N ;.( ( ;.&.m t., w w w w w w w w w w , N B #.N @.:.#.( ( ( =.( [ 7.[ t.6.c , w w w w w x w w w w w w w w w w w w w w w w w :.-.j 6.( c 7.&.[ h c 6.B ;.B , w w w w w w w w w w w w w w w w w w w w w @., h @.: @.;.w $ +.8.B ( -.( ( :.#.B e.: w w w w w w w w w w , B ( @.N #.>.#.( ( ( ;.B @.7.[ u.1.h w w w w w w x w w w w w w w w w : @.q.+.b B $ t.m , w w w w w w w w w w w w w w w w w w , -.h &.j c >.v :.c , w w w w w w w w w w w w w 1.7.v ( f c r.v N w ;.w ",
"w w w w w w w w w w w w w w w : w w : w , , w w , : , , , , , : - :.( : w w w w w w w w w w w , , : , : : : , , , : w , - w ;.- w w w w w w w x w w w w w w w w w w w w w w w w w : : , : , < : : , w < : , : w w w w w w w w w w w w w w w w w w w w w w w : w w , w , , w w , : , , , , , : : 1.B , w w w w w w w w w w w , , : , : : : , , , : w : * f -.$ w w w w w w w x w w w w w w w w w w : : : w - +.:.: w w w w w w w w w w w w w w w w w w w w : w : w , : w : w w w w w w w w w w w w w w w : : , , , >.( : w w : w ",
"w w w w w w w w w w w w w w w w w w w w w w w w w w w w w w w w w w < w w w w w w w w w w w w w w w w w w w w w w w w w w w w w w w w w w w w x w w w w w w w w w w w w w w w w w w w w w w w w w w w w w w w w w w w w w w w w w w w w w w w w w w w w w w w w w w w w w w w w w w w w w w w w w < w w w w w w w w w w w w w w w w w w w w w w w w w w w w w w w w w w w w x w w w w w w w w w w w w w w w w w w w w w w w w w w w w w w w w w w w w w w w w w w w w w w w w w w w w w w w w w w w w w w w w w w w < w w w w w ",
"w w w w w w w w w w w w w w w w w w w w w w w w w w w w w w w w w w w w w w w w w w w w w w w w w w w w w w w w w w w w w w w w w w w w w w w x w w w w w w w w w w w w w w w w w w w w w w w w w w w w w w w w w w w w w w w w w w w w w w w w w w w w w w w w w w w w w w w w w w w w w w w w w w w w w w w w w w w w w w w w w w w w w w w w w w w w w w w w w w w w w w x w w w w w w w w w w w w w w w w w w w w w w w w w w w w w w w w w w w w w w w w w w w w w w w w w w w w w w w w w w w w w w w w w w w w w w w w w ",
"w w w w w w w w w w w w w w w w w w w w w w w q q q q w w w w w w w w w w w w w w w w w w w w w w w w w w w q q q q w w w w w w w w w w w w w x w w w w w w w w w w w w w w w w w w w w w w w w w w w w w w w w w w w w w w w w w w w w w w w w w w w w w w w w w w w w w w > ; > ; w w w w w w w w w w w w w w w w w w w w w w w w w w w > > > > w w w w w w w w w w w w w x w w w w w w w w w w w w 0 r 0 r q w w w w w w w w w w w w w w w w w w w w w w w > ; ; ; w w w w w w w w w w w w w w w w w w w w w w w w 0 0 0 0 w ",
"w w w w w w w w w w w w w w w w w w w w w q w 3 A S A t w q w w w w w w w w w w w w w w w w w w w w w q q w A A A A t q w w w w w w w w w w w x w w w w w w w w w w w w w w w w w w w w w w w w w w w w w w w w w w w w w w w w w w w w w w w w w w w w w w w w w w w w < w ^ ] ] ] u < < w w w w w w w w w w w w w w w w w w w w w < > y ' ] ] ' w > w w w w w w w w w w w x w w w w w w w w w w 0 w U R Y R l 0 0 w w w w w w w w w w w w w w w w w w < < w / } } } u < < w w w w w w w w w w w w w w w w w w w 0 w 9 U I T 7 ",
"w w w w w w w w w w w w w w w w w w w w w A f.s.k.s.k.s.s.t q w w w w w w w w w w w w w w w w w w w q t s.k.l.l.l.l.k.f.w q w w w w w w w w w x w w w w w w w w w w w w w w w w w w w w w w w w w w w w w w w w w w w w w w w w w w w w w w w w w w w w w w w w w w w w X.oX&X$XoX,XoXOXu < w w w w w w w w w w w w w w w w w w w < p oXOX$X#X$X#XoXo.w < w w w w w w w w w x w w w w w w w w w w E !.Q.^.I.^.E.E.8 0 w w w w w w w w w w w w w w w w < w {..X-X-X-X-X.X[.w < w w w w w w w w w w w w w w w w w w T M.m.W.m.W.m.",
"w w w w w w w w w w w w w w w w w w q t f.d.g.g.D A s.k.s.s.D q w w w w w w w w w w w w w w w w w q A l.g.z.l.d.d.l.z.g.l.D q w w w w w w w w x w w w w w w w w w w w w w w w w w w w w w w w w w w w w w w w w w w w w w w w w w w w w w w w w w w w w w w w w w > s #XXX$X#Xo.X.oX,XoXoXO.; w w w w w w w w w w w w w w w w w & O.2X%X,X#XO.o.#X,XXX#X' ; w w w w w w w w x w w w w w w w 0 8 !.U.^.^.P.E Q.~.Q.Q.P.r w w w w w w w w w w w w w w ; / -X[.:X-X_._..X:X[..X..; w w w w w w w w w w w w w w 0 f M.m.W.R.m.~ m.W.",
"w w w w w w w w w w w w w w w w w q 3 D g.s.3 > $ $ * 3 A k.f.D w w w w w w w w w w w w w w w w q D f.z.h.3 - $ $ - 3 d.z.k.A q w w w w w w w x w w w w w w w w w w - $ $ $ $ $ $ $ $ $ $ $ $ $ $ $ $ $ $ $ $ $ $ - : $ $ $ : w w w w w w w w w w w w w w w w w > ` ].$XOXs , + + * p | ,XoXX.< w w w w w w w w w w w w w w w > o.%X1XOXi $ O + : p ].,XOX] > w w w w w w w x w w w w w w 0 U P.^.Q.8 1 % % $ 9 R ~.!.L.w w w w w w w w w w w w w > } [.:X{.p : + + - p _.:X.X..> w w w w w w w w w w w w 0 9 ~ R.M.9 1 % $ $ 7 ",
", w w w w w w w w w w w w w w w w q D k.s.> o O 1 1 1 o = A k.g.3 q w w w w w w w w w w w w w w w g.z.f.: o - 1 1 - X $ d.l.s.t w w w w w w w x w w w w w w w w w y &.1.:.>.>.>.>.>.>.>.>.>.>.>.>.>.>.:.:.>.>.>.1.&.#.1.:.1.[ : w w w w w w w w w w w w w w w w < o.<XOXi . # 1 < - + # | ,X#Xp < w w w w w w w w w w w w w < u ,X1XOXO t M 1 < - . : XX,XXXw w w w w w w w x w w w w w w 0 P.~.Q.7 X O 1 1 1 X % R ~.^.8 0 w w w w w w w w w w w w [.:X[., . - < < - . - _.:X.Xu < w w w w w w w w w w w 0 ~ W.M.7 X O 1 1 1 o ",
"9.- w w w w w w w w w w w w w w q A f.D 3 o 1 z M V V Z # = A d.s.t w w w w w w w w w w w w w q s.l.d.> o 7 m M W z M b : A s.D q w w w w w w x w w w w w w w w , aXJXKXJXJXKXKXKXKXKXKXKXKXKXKXKXKXKXJXJXKXKXKXJXmXlXJXKXJXFX:.: w w w w w w w w w w w w w w ; | #Xo.i . < z M V V k O # | OXOXw w w w w w w w w w w w w w ; %X,XXX-   -.BX$.M M f . q O.oXo.; w w w w w w x w w w w w r R !.P.9 X 1 z M V V Z # % E U.E.w w w w w w w w w w w ; _..X_.q . 4 m M V V k O - _..X[.> w w w w w w w w w w 0 I M.~ 9 X 1 z M V V z ",
"lX: w w w w w w w w w w w w w w q A k.D = - m M V V W W z O : g.f.t q w w w w w w w w w w w w w s.z.A o > C M V m 0.ZXi.X 3 k.d.w w w w w w w x w w w w w w w , c DXSXZXVXVXAXFXSXDXFXFXDXSXSXSXDXSXFXVXCXHXDXDXHXcXsXJXzXfXJXpX$ w w w w w w w w w w w w w w < X.,XO.. 1 m M V V W W k + i ,XoXu w w w w w w w w w w w w w u %X1X' . y C VXpXz +.W f . ] <Xo.< w w w w w w x w w w w w 0 E ~.P.% 1 m M V V W +.z O < ^.!.8 0 w w w w w w w w w < _.:X} . < C M V K W W g . ^ :X[.w w w w w w w w w w w 0 U W.m.% - z M V V W +.",
"nX- w w w w w w w w w w w w w w t s.k.S o f C M V V V W V 1 $ d.k.A q w w w w w w w w w w w q A z.z.; O k M M m r.HXsXC # > f.g.3 q w w w w w x w w w w w w w : B nX4XcXAXqXVXAXSXHXmX4XFXSXaXSXGXVXSX5XaXnXSXSXKXcXhXDXy f SXfX$ w w w w w w w w w w w w w < p #X$Xs . g C M V V V W V 1 # oX$X] > w w w w w w w w w w w ; | 1X<X: O z k 3XVXW V W m O i $X#Xs > w w w w w x w w w w 0 l !.~.U X l C M M V M M C 1 % I.~.E r w w w w w w w w > ^ :X:Xi + k M M M V M V m # : -X:X_ > w w w w w w w w w y M.W.I X f C M M V W W ",
"nX- w w w w w w w w w w w w w w t d.d.> O g C C k C V V K 7 o A f.A q w w w w w w w w w w w q S k.h.* # z C M m 0.3Xm M 1 * D s.3 q w w w w w x w w w w w w w : ( hXqXVXaXaXjX4XuXHXVX4XSXSX7XFXMX4XeX*XeXy.SXSXKXcXhXVXdXdXVXfX$ w w w w w w w w w w w w w < i OXXXq O k C C k M V V V 4 + | #X] > w w w w w w w w w w w ; ] <XOX@ - m m V $.V V K M - : ].oXs > w w w w w x w w w w w l U.I.7 o k C C M M sXNXmXr.% R !.R r w w w w w w w w > ^ .X{.: # Z C M C %.kXmXnX:.O _..X_ > w w w w w w w w w y m.m.7 o g C C M m C K ",
"nX- w w w w w w w w w w w w w w t s.f.3 o g m M 3X%.C V V 7 o A g.D q w w w w w w w w w w w q A z.g.* # k C C M m z V M - * d.g.S q w w w w w x w w w w w w w : ( jX4XmXeXdX4X4XpXSXHXqXDXSX0XJXeX3XpXaXnXhXJXDXKXcXjXBXq.e.VXfX$ w w w w w w w w w w w w w < p #XoXq O k z W 3XW M V V < + o.$X] ; w w w w w w w w w w w ; | 1X#X@ - z C C m M M V C # : oX#Xs > w w w w w x w w w w 0 l !.!.7 o g m C C M 3XwXeX-.% R I.Y 0 w w w w w w w w > ^ :X[.: O k C C C W 0XwX0X+.O _.[./ > w w w w w w w w w y M.M.7 o g m C z 6.p.m ",
"nX: w w w w w w w w w w w w w w w D g.A o 7 l u.HX<.z V C - * s.g.A q w w w w w w w w w w w q 3 k.z.3 o l m m C M M V Z O ; g.s.3 q w w w w w x w w w w w w w : ( lXnXKXuXsXkX0XMXFXSXtXDXFX3XtXkX0XMXaXNX5XDXSXHXcXzXKXB ( KXsX$ w w w w w w w w w w w w w w u XX$X` . f l 0XSX+.m V m # : #X#X' > w w w w w w w w w w w > ' <X2Xi O g m m C C M M k + s $XoXp < w w w w w x w w w w w f U.~.Y X 7 m m C C k k l O * P.U.U 0 w w w w w w w w < p .X:Xp + l m m C C k k f + q [.{.^ > w w w w w w w w w w ~ W.U X 4 m C g 0XSXW ",
"hX- w w w w w w w w w w w w w w q A k.D = + m DXrXg M C 7 o < g.g.t q w w w w w w w w w w w w q f.z.A o ; k m C C M m 1 o 3 k.s.q w w w w w w x w w w w w w w < h ZXHXSXFXSXHXAXAXGXFXSXFXGXDXVXGXAXAXFXHXDXSXFXKXnXzXJXBXBXJXwX$ w w w w w w w w w w w w w w ; O.<XX.. O W FXu.g M C 4 . i $X#Xu w w w w w w w w w w w w w < ,X1X' . 1 k m C C M z 1 . ] <XXX> w w w w w w x w w w w w r E ~.L.% # g m C C M M 7 o 7 I.U.l w w w w w w w w w w ; {.:X} . - k m C C M C < + p .X{.w w w w w w w w w w w 0 T W.~ % # l m m C VXpX",
"#.: w w w w w w w w w w w w w w q 3 d.d.A X V eXm k k < o : D d.D w w w w w w w w w w w w w w q D g.g.3 o - f k k g 1 o 3 d.d.A q w w w w w w x w w w w w w w w : t.AXAXAXAXAXAXAXAXAXAXAXAXAXDXAXAXAXAXAXAXAXZXSXlXdXSXAXDXnX( : w w w w w w w w w w w w w w > ` OXOX`   $.0Xk k g 1 . , ].XXO.< w w w w w w w w w w w w w ; ].$X%Xi . 1 l k k l - . s XXXX] > w w w w w w x w w w w w 0 U I.I.Y X # f k k g 1 X : E L.E w w w w w w w w w w w > } [.[.^ . - f k k g 1 . q _._.} > w w w w w w w w w w 0 9 m.m.I % O 7 k f >.5X",
": w w w w w w w w w w w w w w w w q D k.f.S : O O O O O > D k.g.t q w w w w w w w w w w w w w w q g.z.k.3 $ O O O O o 3 s.k.s.q w w w w w w w x w w w w w w w w w : h c j j j j j x x j x x j j j j j j x j j j c h h c j c w : w w w w w w w w w w w w w w w w ; o.<X#X` - O O O O O i XX,X#Xy w w w w w w w w w w w w w w w w ,X1X$Xs O O O O O O s &X,XXX; w w w w w w w x w w w w w w r L.~.!.Y $ O O O O O < x.E.U.f q w w w w w w w w w w w ; [.:X.X^ O O O O O O i _..X{.< w w w w w w w w w w w w 0 ~ W.M.I $ O O O O - ",
"w w w w w w w w w w w w w w w w w w t D k.s.q < : : , q 3 l.s.3 w w w w w w w w w w w w w w w w q 3 f.z.d.q < : : < q D l.D 3 w w w w w w w w x w w w w w w w w w w < , , , , , , , , , , , , , , , , , , , , , , < < , , , w w w w w w w w w w w w w w w w w w w i O.,XOX> w : : , > ' <XXXs w w w w w w w w w w w w w w w w > ` %X1Xo.; q : : w > o.<XO.p w w w w w w w w x w w w w w w w l L.~.I.0 < : : < 0 U Q.L.8 w w w w w w w w w w w w w < p {.:X{.; w : : q > _ .X..p w w w w w w w w w w w w w w f ~ W.M.w w : : , 0 ",
"w w w w w w w w w w w w w w w w w w q w d.S q w w w w w q D A q w w w w w w w w w w w w w w w w w q 3 g.t q w w w w w t d.3 q w w w w w w w w x w w w w w w w w w w w w w w w w w w w w w w w w w w w w w w w w w w w w w w w w w w w w w w w w w w w w w w w w w > u XXs > w w w w w < XX] ; w w w w w w w w w w w w w w w w w & ] %Xu < w w w w < p OXp > w w w w w w w w x w w w w w w w 0 f U.U 0 w w w w w 0 E Y r w w w w w w w w w w w w w w > p [.p < w w w w w w _.^ > w w w w w w w w w w w w w w w w m.I 0 w w w w w ",
"w w w w w w w w w w w w w w w w w w w w q w w w w w w w w q q w w w w w w w w w w w w w w w w w w w q q w w w w w w w w q q w w w w w w w w w x w w w w w w w w w w w w w w w w w w w w w w w w w w w w w w w w w w w w w w w w w w w w w w w w w w w w w w w w w w < > w w w w w w w w > > w w w w w w w w w w w w w w w w w w w > > w w w w w w w w > < w w w w w w w w w x w w w w w w w w w 0 w w w w w w w w 0 0 w w w w w w w w w w w w w w w w < > w w w w w w w w < < w w w w w w w w w w w w w w w w w 0 w w w w w w w ",
"w w w w w w w w w w w w w w w w w w w w w w w w w w w w w w w w w w w w w w w w w w w w w w w w w w w w w w w w w w w w w w w w w w w w w w w x w w w w w w w w w w w w w w w w w w w w w w w w w w w w w w w w w w w w w w w w w w w w w w w w w w w w w w w w w w w w w w w w w w w w w w w w w w w w w w w w w w w w w w w w w w w w w w w w w w w w w w w w w w w w w w x w w w w w w w w w w w w w w w w w w w w w w w w w w w w w w w w w w w w w w w w w w w w w w w w w w w w w w w w w w w w w w w w w w w w w w w w w ",
"w w w w w w w w w w w w w w w w w w w w w w w w w w w < w w w w w w w w w w w w w w w w w w w w w w w w w w w w w w w < w w w w w w w w w w w x w w w w w w w w w w w w w w w w w w w w w w w w w w w w w w w w w w w w w w w w w w w w w w w w w w w w w w w w w w w w w w w w w w < w w w w w w w w w w w w w w w w w w w w w w w w , w w w w w w w w < w w w w w w w w w x w w w w w w w w w w w w w w w w w w w w w w w w w w w w w w w w w w w w w w w w w w < w w w w w w w w w w w w w w w w w w w w w w w w w w w < w w ",
"w w w w w w w w w w w w w w w w w w w w w h < w f y , h , f y w w w w w w w w w w w w w w w w w w w w w w h < w f y , h < w w w w w w w w w w x w w w w w w w w w w w w w w w w w w w w w w w w w w w w w w w w w w w w w w w w w w w w w w w w w w w w w w w w w w w w f w w f w < h : f w w w w w w w w w w w w w w w w w w w w w w j < w h < < f w y j , w w w w w w w w x w w w w w w w w w w w h w w w h : h w w w w w w w w w w w w w w w w w w w , f w w w h , w f < w w w w w w w w w w w w w w w w w w w w w w w h : f ",
"w w w w w w w w w w w w w w w w w w w , >.r.c y q.1.&.r.@.7.6.w w w w w w w w w w w w w w w w w w w w < 1.e.j f q.1.&.t.( : w w w w w w w w w x w w w w w w w w w w w w w w w w w w w w w w w w w w w w w w w w w w w w w w w w w w w w w w w w w w w w w w w w w w w 6.q.h j r.:.-.r.@.q.1.w w w w w w w w w w w w w w w w w w w : b 8.;.:.9.j h 8.>.+.8.+.: w w w w w w w x w w w w w w w w w : &.t.( : 6.8.@.r.&., w w w w w w w w w w w w w w w w , c r.1.: ( t.#.4.9.h w w w w w w w w w w w w w w w w w w w , r.+.@.t.@.8.",
"w w w w w w w w w w w w w w w w w w , c >.( &.B &.&.3Xh 5X+.-.B : w w w w w w w w w w w w w w w w w , c :.( $.B #.=.}.c 4.: w w w w w w w w w x w w w w w w w w w w w w w w w w w w w w w w w w w w w w w w w w w w w w w w w w w w w w w w w w w w w w w w w w w , N ;.@.+.+.+.>.t.j 7XB :.b , w w w w w w w w w w w w w w w w w h , h y.1.-.#.( :.4.( 6.#.: w w w w w w w x w w w w w w w w w w 4.N >.j >.B 7Xc 6.y w w w w w w w w w w w w w w w w : &.( :.j >.c }.&.#.@.: w w w w w w w w w w w w w w w w w w : -.&.:.c 5X( ",
"w w w w w w w w w w w w w w w w w w w j >.+.=.B &.-.}.c 4X@.:.B : w w w w w w w w w w w w w w w w w < j >.@.&.( &.;.u.N 6.: w w w w w w w w w x w w w w w w w w w w w w w w w y y y w w w w w , w w w w w w w w w w w w w w w w w w w w w w w w w w w w w w w w w , m ;.$.#.+.@.1.r.b 5X( 1.v , w w w w w w w w w w w w w w w < j :.f 4.c ( }.@.w ;.}.c :.:.: w w w w w w w x w w w w w w w w w w 1.( 1.c >.( 5XN 7.w w w w w w w w w w w w w w w w w : $.@.1.v :.N }.-.&.@.: w w w w w w w w w w w w w w w w w w - @.=.;.N 4X( ",
"w w w w w w w w w w w w w w w w w w w , ;.9.$.( 6.1.+.r.( 6.6.w w w w w w w w w w w w w w w w w w w w , ;.8.$.( 6.1.+.t.B , w w w w w w w w w x w w w w w w w w w w w w w w y 4 G G 4 y w w w c f < - , , c , w , : : w w w w w w w w w w w w w w w w w w w w w w w w 1.7.$.( 8.;.#.r.( 8.>.w w w w w w w w w w w w w w w w w w w $ $.3X@.@.:.+.( =.&.+.7.[ : w w w w w w w x w w w w w w w w w : @.e.&.+.;.9.( r.$., w w w w w w w w w w w w w w w w < h q.:.#.[ r.+.>.9.f w w w w w w w w w w w w w w w w w w w : ( ( ( t.( 7.",
"w w w w w w w w w w w w w w w w w w w w w w < w w w , w , w w w w w w w w w w w w w w w w w w w w w w w w w w w w w , w , w w w w w w w w w w x w w w w w w w w w w w w w y 4 b.H.H.P 4 w w , u.[ w &.8.:.B N h b ( ( , w w w w w w w w w w w w w w w w w w w w w w w w w w w w w , w , w w w w w w w w w w w w w w w w w w w w w w w w f f w w w h , y f , w w w w w w w w x w w w w w w w w w w < w , w w w , w < w w w w w w w w w w w w w w w w w w w w w w w y w w w w w w w w w w w w w w w w w w w w w w w w w w w w , w ",
"w w w w w w w w w w w w w w w w w w w w w w w w w w w w w w w w w w w w w w w w w w w w w w w w w w w w w w w , , - w w w w w w w w w w w w w x w w w w w w w w w w w w w y J F.LXLXJ.5 y : N 3X:.>.[ 6.&.6.6.&.8.q.u.c , w w w w w w w w w w w w w w w w w w w w w w w w w w w w w w w w w w w w w w w w w w w w w w w w w w w w w w w w w , , - , w w w w w w w w w w w w x w w w w w w w w w w w w w , , - , w w w w w w w w w w w w w w w w w w w w w w w w < : : w w w w w w w w w w w w w w w w w w w w w w w w , , w w w ",
"w w w w w w w w w w w w w w w w w w w w w w : : : : w : , w w w w w w w w w w w w w w w w w w w w w w w w , < $.m -.c < w w w w w w w w w w w x w w w w w w w w w w w w w y G C.PXPXD.5 y : 1.7.q.y.h -.#.1.#.4X+.}.&.h w w w w w w w w w w w w w w w w w w w w w w w w w : : : : w : < w w w w w w w w w w w w w w w w w w w w w w w w : y #.N =.h w w w w w w w w w w w w x w w w w w w w w w w w w * $.b =.N < w w w w w w w w w w w w w w w w w w w w w $ N ( ( #.w w w w w w w w w w w w w w w w w w w w w w w , c N f j w ",
"w w w w w w w w w w w w w w w w w w w w w , +.;.&.$.f -.N , w w w w w w w w w w w w w w w w w w w w w w , c 6.8.4.>.8.< w w w w w w w w w w w x w w w w w w w w w w w w w y 4 n.Z.B.J 4 w w #.: m $.1.+.;.+.j :.: &.&.w w w w w w w w w w w w w w w w w w w w w w w w w w #.;.&.@.h ;.b , w w w w w w w w w w w w w w w w w w w w w w , b 8.6.6.>.6.: w w w w w w w w w w w x w w w w w w w w w w w f ;.r.>.1.9.j w w w w w w w w w w w w w w w w w w w w < ( r.>.6.1.&.: w w w w w w w w w w w w w w w w w w w w w , ;.7.1.B : ",
"w w w w w w w w w w w w w w w w w w w w w , q.1.8.>.&.r.c w w w w w w w w w w w w w w w w w w w w w w w , 6.&.1.1.e.1., w w w w w w w w w w w x w w w w w w w w w w w w w w y 4 H 5 y w w w : w < : : , : , w : w : , w w w w w w w w w w w w w w w w w w w w w w w w w w q.1.7.>.=.q.h w w w w w w w w w w w w w w w w w w w w w w w w 6.&.1.6.q.;.: w w w w w w w w w w w x w w w w w w w w w w : ;.-.4.;.r.7.f w w w w w w w w w w w w w w w w w w w , c 6.;.:.9.q.+.: w w w w w w w w w w w w w w w w w w w w w , &.u.3X1.f ",
"w w w w w w w w w w w w w w w w w w w w w w 6.( =.=.( -.6.: w w w w w w w w w w w w w w w w w w w w w w , 6.$.7.6.&.q.y w w w w w w w w w w w x w w w w w w w w w w w w w w w w y y w w w w w w w w w w w w w w w w w w w w w w w w w w w w w w w w w w w w w w w w w w f 4.[ &.;.N 1.:.: w w w w w w w w w w w w w w w w w w w w w w w 7.&.7.6.&.q.w w w w w w w w w w w w x w w w w w w w w w w : ;.&.7.1.;.9.m , w w w w w w w w w w w w w w w w w w , b 1.;.1.6.;.1.: w w w w w w w w w w w w w w w w w w w w w w h 9.1.q.j ",
"w w w w w w w w w w w w w w w w w w w w w w ( c N N N ;.N , w w w w w w w w w w w w w w w w w w w w w w , v 1.( ( 6.( , w w w w w w w w w w w x w w w w w w w w w w w w w w w w w w w w w w w w w w w w w w w w w w w w w w w w w w w w w w w w w w w w w w w w w w w w w ( v N N N ;.b , w w w w w w w w w w w w w w w w w w w w w w , N 1.B @.6.B , w w w w w w w w w w w x w w w w w w w w w w w h :.#.N 6.#.w w w w w w w w w w w w w w w w w w w w w , @.1.b ;.>.j w w w w w w w w w w w w w w w w w w w w w w w w v v &.< ",
"w w w w w w w w w w w w w w w w w w w w w w , < , , , : , w w w w w w w w w w w w w w w w w w w w w w w w , - : : - , w w w w w w w w w w w w j w w w w w w w w w w w w w w w w w w w w w w w w w w w w w w w w w w w w w w w w w w w w w w w w w w w w w w w w w w w w w , < , , , : , w w w w w w w w w w w w w w w w w w w w w w w w , - , : - , w w w w w w w w w w w w x w w w w w w w w w w w w : : , - : w w w w w w w w w w w w w w w w w w w w w w : - , : : < w w w w w w w w w w w w w w w w w w w w w w w w , , : w ",
"w w w w w w w w w w w w w w w w w w w w w w w w w w w w w w w w w w w w w w w w w w w w w w w w w w w w w w w w w w w w w w w w w w w w w w w x w w w w w w w w w w w w w w w w w w w w w w w w w w w w w w w w w w w w w w w w w w w w w w w w w w w w w w w w w w w w w w w w w w w w w w w w w w w w w w w w w w w w w w w w w w w w w w w w w w w w w w w w w w w w w w x w w w w w w w w w w w w w w w w w w w w w w w w w w w w w w w w w w w w w w w w w w w w w w w w w w w w w w w w w w w w w w w w w w w w w w w w w ",
", , , , , , , , , , , , , , , , , , , , , , , , , , , , , , , , , , , , , , , , , , , , , , , , , , , , , , , , , , , , , , , , , , , , , , , f < , , , , , , , , , , , , , , , , , , , , , , , , , , , , , , , , , , , , , , , , , , , , , , , , , , , , , , , , , , , , , , , , , , , , , , , , , , , , , , , , , , , , , , , , , , , , , , , , , , , , , , , , , , , , , f , , , , , , , , , , , , , , , , , , , , , , , , , , , , , , , , , , , , , , , , , , , , , , , , , , , , , , , , , , , , , , , , , , , , , , , , , ",
"c c c c c c c c c c c c c c c c c c c c c c c c c c c c c c c c c c c c c c c c c c c c c c c c c c c c c c c c c c c c c c c c c c c c c c c c c c c c c c c c c c c c c c c c c c c c c c c c c c c c c c c c c c c c c c c c c c c c c c c c c c c c c c c c c c c c c c c c c c c c c c c c c c c c c c c c c c c c c c c c c c c c c c c c c c c c c c c c c c c c c c c c c c c c c c c c c c c c c c c c c c c c c c c c c c c c c c c c c c c c c c c c c c c c c c c c c c c c c c c c c c c c c c c c c c c c c c c c ",
"cXcXcXcXcXcXcXcXcXcXcXcXcXcXcXcXcXcXcXcXcXcXcXcXcXcXcXcXcXcXcXcXcXcXcXcXcXcXcXcXcXcXcXcXcXcXcXcXcXcXcXcXcXcXcXcXcXcXcXcXcXcXcXcXcXcXcXcXcXcXcXcXcXcXcXcXcXcXcXcXcXcXcXcXcXcXcXcXcXcXcXcXcXcXcXcXcXcXcXcXcXcXcXcXcXcXcXcXcXcXcXcXcXcXcXcXcXcXcXcXcXcXcXcXcXcXcXcXcXcXcXcXcXcXcXcXcXcXcXcXcXcXcXcXcXcXcXcXcXcXcXcXcXcXcXcXcXcXcXcXcXcXcXcXcXcXcXcXcXcXcXcXcXcXcXcXcXcXcXcXcXcXcXcXcXcXcXcXcXcXcXcXcXcXcXcXcXcXcXcXcXcXcXcXcXcXcXcXcXcXcXcXcXcXcXcXcXcXcXcXcXcXcXcXcXcXcXcXcXcXcXcXcXcXcXcXcXcXcXcXcXcXcXcXcXcXcXcXcXcXcXcXcXcXcXcX",
"$ $ $ $ $ $ $ $ $ $ $ $ $ $ $ $ $ $ $ $ $ $ $ $ $ $ $ $ $ $ $ $ $ $ $ $ $ $ $ $ $ $ $ $ $ $ $ $ $ $ $ $ $ $ $ $ $ $ $ $ $ $ $ $ $ $ $ $ $ $ $ $ $ $ $ $ $ $ $ $ $ $ $ $ $ $ $ $ $ $ $ $ $ $ $ $ $ $ $ $ $ $ $ $ $ $ $ $ $ $ $ $ $ $ $ $ $ $ $ $ $ $ $ $ $ $ $ $ $ $ $ $ $ $ $ $ $ $ $ $ $ $ $ $ $ $ $ $ $ $ $ $ $ $ $ $ $ $ $ $ $ $ $ $ $ $ $ $ $ $ $ $ $ $ $ $ $ $ $ $ $ $ $ $ $ $ $ $ $ $ $ $ $ $ $ $ $ $ $ $ $ $ $ $ $ $ $ $ $ $ $ $ $ $ $ $ $ $ $ $ $ $ $ $ $ $ $ $ $ $ $ $ $ $ $ $ $ $ $ $ $ $ $ $ $ $ $ $ $ $ $ $ $ $ $ $ ",
"5X5X5X5X5X5X5X5X5X5X5X5X5X5X5X5X5X5X5X5X5X5X5X5X5X5X5X5X5X5X5X5X5X5X5X5X5X5X5X5X5X5X5X5X5X5X5X5X5X5X5X5X5X5X5X5X5X5X5X5X5X5X5X5X5X5X5X5X5X5X5X5X5X5X5X5X5X5X5X5X5X5X5X5X5X5X5X5X5X5X5X5X5X5X5X5X5X5X5X5X5X5X5X5X5X5X5X5X5X5X5X5X5X5X5X5X5X5X5X5X5X5X5X5X5X5X5X5X5X5X5X5X5X5X5X5X5X5X5X5X5X5X5X5X5X5X5X5X5X5X5X5X5X5X5X5X5X5X5X5X5X5X5X5X5X5X5X5X5X5X5X5X5X5X5X5X5X5X5X5X5X5X5X5X5X5X5X5X5X5X5X5X5X5X5X5X5X5X5X5X5X5X5X5X5X5X5X5X5X5X5X5X5X5X5X5X5X5X5X5X5X5X5X5X5X5X5X5X5X5X5X5X5X5X5X5X5X5X5X5X5X5X5X5X5X5X5X5X5X5X5X5X5X5X5X5X",
"y.y.y.y.y.y.y.y.y.y.y.y.y.y.y.y.y.y.y.y.y.y.y.y.y.y.y.y.y.y.y.y.y.y.y.y.y.y.y.y.y.y.y.y.y.y.y.y.y.y.y.y.y.y.y.y.y.y.y.y.y.y.y.y.y.y.y.y.y.y.y.y.y.y.y.y.y.y.y.y.y.y.y.y.y.y.y.y.y.y.y.y.y.y.y.y.y.y.y.y.y.y.y.y.y.y.y.y.y.y.y.y.y.y.y.y.y.y.y.y.y.y.y.y.y.y.y.y.y.y.y.y.y.y.y.y.y.y.y.y.y.y.y.y.y.y.y.y.y.y.y.y.y.y.y.y.y.y.y.y.y.y.y.y.y.y.y.y.y.y.y.y.y.y.y.y.y.y.y.y.y.y.y.y.y.y.y.y.y.y.y.y.y.y.y.y.y.y.y.y.y.y.y.y.y.y.y.y.y.y.y.y.y.y.y.y.y.y.y.y.y.y.y.y.y.y.y.y.y.y.y.y.y.y.y.y.y.y.y.y.y.y.y.y.y.y.y.y.y.y.y.y.y.y.y.y.",
"$ $ $ $ $ $ $ $ $ $ $ $ $ $ $ $ $ $ $ $ $ $ $ $ $ $ $ $ $ $ $ $ $ $ $ $ $ $ $ $ $ $ $ $ $ $ $ $ $ $ $ $ $ $ $ $ $ $ $ $ $ $ $ $ $ $ $ $ $ $ $ $ $ $ $ $ $ $ $ $ $ $ $ $ $ $ $ $ $ $ $ $ $ $ $ $ $ $ $ $ $ $ $ $ $ $ $ $ $ $ $ $ $ $ $ $ $ $ $ $ $ $ $ $ $ $ $ $ $ $ $ $ $ $ $ $ $ $ $ $ $ $ $ $ $ $ $ $ $ $ $ $ $ $ $ $ $ $ $ $ $ $ $ $ $ $ $ $ $ $ $ $ $ $ $ $ $ $ $ $ $ $ $ $ $ $ $ $ $ $ $ $ $ $ $ $ $ $ $ $ $ $ $ $ $ $ $ $ $ $ $ $ $ $ $ $ $ $ $ $ $ $ $ $ $ $ $ $ $ $ $ $ $ $ $ $ $ $ $ $ $ $ $ $ $ $ $ $ $ $ $ $ $ $ $ $ ",
"w w w w w w w w w w w w w y y y w w y w w w y y w w w w w w w w w w w w w w w w w w w w w w w w w w w w w w w w w w w w w w w w w w w w w w w w w w w w w w w w w w w w w w w w w w w w w w w w w w w w w w w w w w w w w w w w w w w w w w w w w w w w w w w w w w w w w w w w w w w w w w w w w w w w w w w w w w w w w w w w w w w w w w w w w w w w w w w w w w w w w w w w w w w w w w w w w w w w w w w w w w w w w w w w w w w w w w w w w w w w w w w w w w w w w w w w w w w w w w w w w w w w w w w w w w w w w w w w ",
"w w w w w w w w w w w , B V B N ( v , w w w w < w w w w w w w w w w w w w w w w w w w w w w w w w w w w w w w w w w w w w w w w w w w w w w w w w w w w w w w w w w w w w w w w w w w w w w w w w w w w w w w w w w w w w w w w w w w w w w w w w w w w w w w w w w w w w w w w w w w w w w w w w w w w w w w w w w w w w w w w w w w w w w w w w w w w w w w w w w w w w w w w w w w w w w w w w w w w w w w w w w w w w w w w w w w w w w w w w w w w w w w w w w w w w w w w w w w w w w w w w w w w w w w w w w w w w w w w ",
"< w w > > > w w w w w w B 6.q.9.t.@.: w w > u s > w w < > > < w w w w w w w w w w w w w w w w w w w w w w w w w w w w w w w w w w w w w w w w w w w w w w w w w w w w w w w w w w w w w w w w w w w w w w w w w w w w w w w w w w w w w w w w w w w w w w w w w w w w w w w w w w w w w w w w w w w w w w w w w w w w w w w w w w w w w w w w w w w w w w w w w w w w w w w w w w w w w w w w w w w w w w w w w w w w w w w w w w w w w w w w w w w w w w w w w w w w w w w w w w w w w w w w w w w w w w w w w w w w w w w w : ",
"u w y ^ ^ ^ u w w w w w B &.@.6X$.( : w w u }  .p w w p ^ ^ p w w w w w w w w w w w w w w w w w w w w w w w w w w w w w w w w w w w w w w w w w w w w w w w w w w w w w w w w w w w w w w w w w w w w w w w w w w w w w w w w w w w w w w w w w w w w w w w w w w w w w w w w w w w w w w w w w w w w w w w w w w w w w w w w w w w w w w w w w w w w w w w w w w w w w w w w w w w w w w w w w w w w w w w w w w w w w w w w w w w w w w w w w w w w w w w w w w w w w w w w w w w w w w w w w w w w w w w w w w w w w w w w : ",
"p > u } ....u < w w w w ( : h 3Xc m , w < s  .`.' w < / ..../ < w w w w w w w w w w w w w w w w w w w w w w w w w w w w w w w w w w w w w w w w w w w w w w w w w w w w w w w w w w w w w w w w w w w w w w w w w w w w w w w w w w w w w w w w w w w w w w w w w w w w w w w w w w w w w w w w w w w w w w w w w w w w w w w w w w w w w w w w w w w w w w w w w w w w w w w w w w w w w w w w w w w w w w w w w w w w w w w w w w w w w w w w w w w w w w w w w w w w w w w w w w w w w w w w w w w w w w w w w w w w w w w : ",
"> w w > > > w w w w w , +.h N 5X( B , w w > p ' ; w w > > > > w w w w w w w w w w w w w w w w w w w w w w w w w w w w w w w w w w w w w w w w w w w w w w w w w w w w w w w w w w w w w w w w w w w w w w w w w w w w w w w w w w w w w w w w w w w w w w w w w w w w w w w w w w w w w w w w w w w w w w w w w w w w w w w w w w w w w w w w w w w w w w w w w w w w w w w w w w w w w w w w w w w w w w w w w w w w w w w w w w w w w w w w w w w w w w w w w w w w w w w w w w w w w w w w w w w w w w w w w w w w w w w w : ",
"w w w w w w w w w w w < N V ( $.[ c < w w w w w w w w w w w w w w w w w w w w w w w w w w w w w w w w w w w w w w w w w w w w w w w w w w w w w w w w w w w w w w w w w w w w w w w w w w w w w w w w w w w w w w w w w w w w w w w w w w w w w w w w w w w w w w w w w w w w w w w w w w w w w w w w w w w w w w w w w w w w w w w w w w w w w w w w w w w w w w w w w w w w w w w w w w w w w w w w w w w w w w w w w w w w w w w w w w w w w w w w w w w w w w w w w w w w w w w w w w w w w w w w w w w w w w w w w w w w w ",
"w w w w w w w w w w w w < < < : , w w w w w w w w w w w w w w w w w w w w w w w w w w w w w w w w w w w w w w w w w w w w w w w w w w w w w w w w w w w w w w w w w w w w w w w w w w w w w w w w w w w w w w w w w w w w w w w w w w w w w w w w w w w w w w w w w w w w w w w w w w w w w w w w w w w w w w w w w w w w w w w w w w w w w w w w w w w w w w w w w w w w w w w w w w w w w w w w w w w w w w w w w w w w w w w w w w w w w w w w w w w w w w w w w w w w w w w w w w w w w w w w w w w w w w w w w w w w w w f ",
"w w w w w w w w w w w w w w w w w w w w w w w w w w w w w w w w w w w w w w w w w w w w w w w w w w w w w w w w w w w w w w w w w w w w w w w w w w w w w w w w w w w w w w w w w w w w w w w w w w w w w w w w w w w w w w w w w w w w w w w w w w w w w w w w w w w w w w w w w w w w w w w w w w w w w w w w w w w w w w w w w w w w w w w w w w w w w w w w w w w w w w w w w w w w w w w w w w w w w w w w w w w w w w w w w w w w w w w w w w w w w w w w w w w w w w w w w w w w w w w w w w w w w w w w w w w w w w w w ",
"w w w w w w w w w w w w w w w w w w w w w w w w w w w w w w w w w w w w w w w w w w w w w w w w w w w w w w w w w w w w w w w w w w w w w w w w w w w w w w w w w w w w w w w w w w w w w w w w w w w w w w w w w w w w w w w w w w w w w w w w w w w w w w w w w w w w w w w w w w w w w w w w w w w w w w w w w w w w w w w w w w w w w w w w w w w w w w w w w w w w w w w w w w w w w w w w w w w w w w w w w w w w w w w w w w w w w w w w w w w w w w w w w w w w w w w w w w w w w w w w w w w w w w w w w w w w w w w w "
};
