/* XPM */
static char *impulse_responses_mono[] = {
/* columns rows colors chars-per-pixel */
"256 256 253 2 ",
"   c #030303",
".  c #06060A",
"X  c #07080E",
"o  c #0B0B0B",
"O  c #0B0606",
"+  c #110D0D",
"@  c #140605",
"#  c #14140C",
"$  c #0B0C11",
"%  c #050715",
"&  c #180D14",
"*  c #0F1014",
"=  c #071318",
"-  c #131314",
";  c #14151B",
":  c #1C161A",
">  c #17181E",
",  c #19191C",
"<  c #1B1516",
"1  c #031803",
"2  c #38181D",
"3  c #2C191E",
"4  c #032703",
"5  c #152719",
"6  c #0E3513",
"7  c #232302",
"8  c #26261E",
"9  c #37371C",
"0  c #333414",
"q  c #0F1924",
"w  c #131424",
"e  c #1E1425",
"r  c #141C23",
"t  c #1B1C22",
"y  c #1A1F28",
"u  c #120C24",
"i  c #231921",
"p  c #1F2026",
"a  c #19232B",
"s  c #182723",
"d  c #182A36",
"f  c #17323D",
"g  c #212225",
"h  c #24252B",
"j  c #27282E",
"k  c #2A2B2D",
"l  c #292926",
"z  c #31322E",
"x  c #303121",
"c  c #292B32",
"v  c #272831",
"b  c #2F3035",
"n  c #2F313D",
"m  c #333434",
"M  c #393A36",
"N  c #34353A",
"B  c #37383D",
"V  c #3B3C3C",
"C  c #373834",
"Z  c #2F302C",
"A  c #571317",
"S  c #47161A",
"D  c #710F13",
"F  c #403F3E",
"G  c #184B19",
"H  c #0B4D0E",
"J  c #0D6B0E",
"K  c #304A2F",
"L  c #286628",
"P  c #2C762E",
"I  c #225A21",
"U  c #484817",
"Y  c #585816",
"T  c #515109",
"R  c #656508",
"E  c #7B7A0D",
"W  c #676715",
"Q  c #767615",
"!  c #706F13",
"~  c #41423E",
"^  c #5B5B22",
"/  c #717124",
"(  c #605F13",
")  c #153848",
"_  c #153A51",
"`  c #3C3D42",
"'  c #353744",
"]  c #133F63",
"[  c #134458",
"{  c #144A53",
"}  c #3F4045",
"|  c #3F414E",
" . c #0E536C",
".. c #0C5A76",
"X. c #12516B",
"o. c #0E6A7A",
"O. c #424345",
"+. c #44454A",
"@. c #47484D",
"#. c #4A4A4D",
"$. c #484847",
"%. c #4C4D52",
"&. c #494B5A",
"*. c #4F5055",
"=. c #4E505D",
"-. c #515255",
";. c #54555A",
":. c #57585C",
">. c #595A5D",
",. c #585857",
"<. c #50514F",
"1. c #5C5D62",
"2. c #575969",
"3. c #555768",
"4. c #5F6064",
"5. c #5E6173",
"6. c #626365",
"7. c #65666A",
"8. c #67686C",
"9. c #6A6B6D",
"0. c #676866",
"q. c #6C6D71",
"w. c #646778",
"e. c #6F7074",
"r. c #6F717E",
"t. c #727375",
"y. c #747579",
"u. c #7A7B7D",
"i. c #77787B",
"p. c #70706F",
"a. c #60615D",
"s. c #8F0B0E",
"d. c #A70608",
"f. c #B80404",
"g. c #A50D10",
"h. c #C80203",
"j. c #D30203",
"k. c #FB0001",
"l. c #E90303",
"z. c #807D10",
"x. c #0AAF0B",
"c. c #329134",
"v. c #30AD32",
"b. c #118F12",
"n. c #7F800F",
"m. c #10D310",
"M. c #19E819",
"N. c #33CA34",
"B. c #36FB36",
"V. c #2DEF2C",
"C. c #3EAC41",
"Z. c #48B64A",
"A. c #439546",
"S. c #4CCD4C",
"D. c #47FD47",
"F. c #58FD58",
"G. c #50E850",
"H. c #66FE66",
"J. c #75FB75",
"K. c #5FDE60",
"L. c #88880B",
"P. c #989709",
"I. c #8F8E13",
"U. c #A8A607",
"Y. c #B8B803",
"T. c #AEAB10",
"R. c #B3B32A",
"E. c #94931F",
"W. c #C5BE00",
"Q. c #C7C602",
"!. c #D4CF07",
"~. c #FDFC00",
"^. c #E8E710",
"/. c #EAEA2D",
"(. c #CFCE1E",
"). c #D7D727",
"_. c #0A6788",
"`. c #08769B",
"'. c #0B6E8D",
"]. c #077CA4",
"[. c #0A68B0",
"{. c #0E568E",
"}. c #7D7E81",
"|. c #797B89",
" X c #747789",
".X c #0678CD",
"XX c #0582AD",
"oX c #048AB7",
"OX c #0495B5",
"+X c #0AAAAC",
"@X c #7F8084",
"#X c #7F8189",
"$X c #7E8192",
"%X c #0296C7",
"&X c #039ED2",
"*X c #05A8D5",
"=X c #028FF2",
"-X c #02B3EE",
";X c #00C7FD",
":X c #00D3FF",
">X c #05D4D5",
",X c #828385",
"<X c #85868A",
"1X c #8A8B8D",
"2X c #87888B",
"3X c #8D8E92",
"4X c #868899",
"5X c #8F9094",
"6X c #939394",
"7X c #959699",
"8X c #9B9B9C",
"9X c #97989A",
"0X c #90908F",
"qX c #9C9DA1",
"wX c #999BA9",
"eX c #8D8FA2",
"rX c #9FA0A4",
"tX c #A2A3A4",
"yX c #A6A7AA",
"uX c #A9AAAC",
"iX c #A7A8AB",
"pX c #ABACB4",
"aX c #B3B3B4",
"sX c #B6B7BA",
"dX c #BABBBC",
"fX c #B7B8BB",
"gX c #AFB0B3",
"hX c #A0A09F",
"jX c #9DFE9D",
"kX c #BBBCC2",
"lX c #BFC0C3",
"zX c #C3C4C5",
"xX c #C5C6C9",
"cX c #CBCBCC",
"vX c #C7C8CB",
"bX c #CDCED1",
"nX c #D0D1D3",
"mX c #D9DADC",
"MX c #D6D7DA",
"NX c #D0D0D2",
"BX c #DEDFE1",
"VX c #DFE0E2",
"CX c #E2E3E5",
"ZX c #EAEBED",
"AX c #E6E7E9",
"SX c #EEEFF1",
"DX c #EFF0F2",
"FX c #F2F3F4",
"GX c #F6F7F9",
"HX c #FCFDFE",
"JX c #F7F8F9",
"KX c #EAF8EA",
"LX c #DDE5DC",
/* pixels */
"t t t t t t t t t t t t t t t t t t t t t t t t t t t t t t t t t t t t t t t t t t t t t t t t t t t t t t t t t t t t t t t t t t t t t t t t t t t t t t t t t t t t t t t t t t t t t t t t t t t t t t t t t t t t t t t t t t t t t t t t t t t t t t t t t t t t t t t t t t t t t t t t t t t t t t t t t t t t t t t t t t t t t t t t t t t t t t t t t t t t t t t t t t t t t t t t t t t t t t t t t t t t t t t t t t t t t t t t t t t t t t t t t t t t t t t t t t t t t t t t t t t t t t t t t t t t t t t t ",
"t t t t t t t t t t t t t t t t t t t t t t t t t t t t t t t t t t t t t t t t t t t t t t t t t t t t t t t t t t t t t t t t t t t t t t t t t t t t t t t t t t t t t t t t t t t t t t t t t t t t t t t t t t t t t t t t t t t t t t t t t t t t t t t t t t t t t t t t t t t t t t t t t t t t t t t t t t t t t t t t t t t t t t t t t t t t t t t t t t t t t t t t t t t t t t t t t t t t t t t t t t t t t t t t t t t t t t t t t t t t t t t t t t t t t t t t t t t t t t t t t t t t t t t t t t t t t t t t ",
"t t t t t t t t t t t t t t t t t t t t t t t t t t t t t t t t t t t t t t t t t t t t t t t t t t t t t t t t t t t t t t t t t t t t t t t t t t t t t t t t t t t t t t t t t t t t t t t t t t t t t t t t t t t t t t t t t t t t t t t t t t t t t t t t t t t t t t t t t t t t t t t t t t t t t t t t t t t t t t t t t t t t t t t t t t t t t t t t t t t t t t t t t t t t t t t t t t t t t t t t t t t t t t t t t t t t t t t t t t t t t t t t t t t y t t t t t t y t t t t t t t t t t t t t t t t t t t t t ",
"t t t t t t t t t t t t t t t t t t t t t t t t t t t t t t t t t t t t t t t t t t t t t t t t t t t t t t t t t t t t t t t t t t t t t t t t t t t t t t t t t t t t t t t t t t t t t t t t t t t t t t t t t t t t t t t t t t t t t t t t t t t t t t t t t t t t t t t t t t t t t t t t t t t t t t t t t t t t t t t t t t t t t t t t t t t t t t t t t t t t t t t t t t t t - * t ; ; t t ; > t $ $ > t ; t t ; t ; > t t t $ $ t ; $ $ > t t ; $ ; t > $ $ ; t $ $ t > $ - t t > $ * t t ; > t ; > t * $ t > $ $ > ",
"t t t t t t t t t t t t t t t t t t t t t t t t t t t t t t t t t t t t t t t t t t t t t t t t t t t t t t t t t t t t t t t t t t t t t t t t t t t t t t t t t t t t t t t t t t t t t t t t t t t t t t t t t t t t t t t t t t t t t t t t t t t t t t t t t t t t t t t t t t t t t t t t t t t t t t t t t t t t t t t t t t t t t t t t t t t t t t t t t t t t t t t t t t t y 1.7.g @.@.> > ;.B j q.q.j t ;.p t -.t O.` > t h 8.6.y @.y.i.b > t -.y.%.; B q.}.O.t 7.7.g O.y.>.t > j 9.1.t t ;.c ; @.b t 6.8.h ` t.u.N ",
"t t t t t t t t t t t t t t t t t t t t t t t t t t t t t t t t t t t t t t t t t t t t t t t t t t t t t t t t t t t t t t t t t t t t t t t t t t t t t t t t t t t t t t t t t t t t t t t t t t t t t t t t t t t t t t t t t t t t t t t t t t t t t t t t t t t t t t t t t t t t t t t t t t t t t t t t t t t t t t t t t t t t t t t t t t t t t t t t t t t t t t t t t t t ; 7XsX$ tXcX- c ZX8.-.zX,XaXj lXj g kXg 1Xi.$ > rX5X2Xc tX5X6.b > t dX,XfX*.t.aX7.B 6X9X2XN 9X8XtX,Xt dX1XtX9X; bXtX  tX-.,XqX<XB 3XrX6.N ",
"t t t t t t t t t t t t t t t t t t t t t t t t t t t t t t t t t t t t t t t t t t t t t t t t t t t t t t t t t t t t t t t t t t t t t t t t t t t t t t t t t t t t t t t t t t t t t t t t t t t t t t t t t t t t t t t t t t t t t t t t t t t t t t t t t t t t t t t t t t t t t t t t t t t t t t t t t t t t t t t t t t t t t t t t t t t t t t t t t t t t t t t t t t y $ 9.1X  6XNXN :.MX1.;.9Xt cXN sXc g sXg <Xy.$ ; uX2X; $ yX1X1.h > t sXg 3Xu.7.uX4.j 8X7X> . tX%.7.tX1.yX  > kXO.qXkX+.3X%.1XqXt . 6X9X1.j ",
"t t t t t t t t t t t t t t t t t t t t t t t t t t t t t t t t t t t t t t t t t t t t t t t t t t t t t t t t t t t t t t t t t t t t t t t t t t t t t t t t t t t t t t t t t t t t t t t t t t t t t t t t t t t t t t t t t t t t t t t t t t t t t t t t t t t t t t t t t t t t t t t t t t t t t t t t t t t t t t t t t t t t t t t t t t t t t t t t t t t t t t t t t t t $ e.3X. 3X9Xy.}.rX8.@.nXgX9.p kXt > sXg <Xq.. > p 1XdXc qX7X9.j > t aXzXzX; y.gXq.B ; ,XzXN 3XxXiXb y.3X. ; aX%.8X>.rX8X:.$ }.zXB 2XtXq.c ",
"t t t t t t t t t t t t t t t t t t t t t t t t t t t t t t t t t t t t t t t t t t t t t t t t t t t t t t t t t t t t t t t t t t t t t t t t t t t t t t t t t t t t t t t t t t t t t t t t t t t t t t t t t t t t t t t t t t t t t t t t t t t t t t t t t t t t t t t t t t t t t t t t t t t t t t t t t t t t t t t t t t t t t t t t t t t t t t t t t t t t t t t t t t t $ u.qX  tX6.dX3X@Xt.;.uX$ ; t fX1.%.zX* 3X3Xc m } h fX1.tX1.t g t t dX@.aX` u.3X; j O.g gX9.7X9.$ $ %.zXB 1.zXj sXh i.FX-.B h yXt.3Xy.> c ",
"t t t t t t t t t t t t t t t t t t t t t t t t t t t t t t t t t t t t t t t t t t t t t t t t t t t t t t t t t t t t t t t t t t t t t t t t t t t t t t t t t t t t t t t t t t t t t t t t t t t t t t t t t t t t t t t t t t t t t t t t t t t t t t t t t t t t t t t t t t t t t t t t t t t t t t t t t t t t t t t t t t t t t t t t t t t t t t t t t t t t t t t t t t t t 6XuXt }.` }.;.6.1.+.@X$ g ; @.iXiX-.$ 9.fXgX1.@XgX2Xt ,XaXyX` ; t 6Xg ;.,X:.sXpX>.i.aX3Xt }.%.; g ; 8.uXyX+.> 3Xj p uXO.t.aX6Xg q.sXuX%.",
"t t t t t t t t t t t t t t t t t t t t t t t t t t t t t t t t t t t t t t t t t t t t t t t t t t t t t t t t t t t t t t t t t t t t t t t t t t t t t t t t t t t t t t t t t t t t t t t t t t t t t t t t t t t t t t t t t t t t t t t t t t t t t t t t t t t t t t t t t t t t t t t t t t t t t t t t t t t t t t t t t t t t t t t t t t t t t t t t t t t t t t t t t t t t > ; t ; t ; > > > > ; t t t ; ; ; ; t > ; ; > ; ; - t ; ; > t t t ; t ; > > ; > t ; ; - t ; > t t t - ; ; ; t ; t t - t ; ; ; > > ; > > ",
"t t t t t t t t t t t t t t t t t t t t t t t t t t t t t t t t t t t t t t t t t t t t t t t t t t t t t t t t t t t t t t t t t t t t t t t t t t t t t t t t t t t t t t t t t t t t t t t t t t t t t t t t t t t t t t t t t t t t t t t t t t t t t t t t t t t t t t t t t t t t t t t t t t t t t t t t t t t t t t t t t t t t t t t t t t t t t t t t t t t t t t t t t t t t t t t t t t t t t t t t t t t t t t t t t t t t t t t t t t t t t t t t t t t t t t t t t t t t t t t t t t t t t t t t t t t t t t t t ",
"t t t t t t t t t t t t t t t t t t t t t t t t t t t t t t t t t t t t t t t t t t t t t t t t t t t t t t t t t t t t t t t t t t t t t t t t t t t t t t t t t t t t t t t t t t t t t t t t t t t t t t t t t t t t t t t t t t t t t t t t t t t t t t t t t t t t t t t t t t t t t t t t t t t t t t t t t t t t t t t t t t t t t t t t t t t t t t t t t t t t t t t t t t t t t t t t t t t t t t t t t t t t t t t t t t t t t t t t t t t t t t t t t t t t t t t t t t t t t t t t t t t t t t t t t t t t t t t t ",
"t t t t t t t t t t t t t t t t t t t t t t t t t t t t t t t t t t t t t t t t t t t t t t t t t t t t t t t t t t t t t t t t t t t t t t t t t t t t t t t t t t t t t t t t t t t t t t t t t t t t t t t t t t t t t t t t t t t t t t t t t t t t t t t t t t t t t t t t t t t t t t t t t t t t t t t t t t t t t t t t t t t t t t t t t t t t t t t t t t t t t t t t t t t t t t t t t t t t t t t t t t t t t t t t t t t t t t t t t t t t t t t t t t t t t t t t t t t t t t t t t t t t : : t t t t t t t t t t ",
"t t t t t t t t t t t t t t t t t t t t t t t t t t t t t t t t t t t t t t t t t t t t t t t t t t t t t t t t t t t t t t t t t t t t t t t t t t t t t t t t t t t t t t t t t t t t t t t t t t t t t t t t t t t t t t t t t t t t t t t t t t t t t t t > - ; t t t t t t t t t t t t > t t t t t t t t t t t t t t t t t t t t t t t t t t t t t t t t t t t t t t t t t t t t t t t t t t t t t t t t t t t t t t t t t t t t t t t t t t t t t t t t s s t t t t t t t t t t t t t t t t t t a { { t , t t t t t t t t ",
"t t t t t t t t t t t t t t t t t t t t t t t t t t t t t t t t t t t t t t t t t t t t t t t t t t t t t t t t t t t t t t t t t t t t t t t t t t t t t t t t t t t t t t t t t y t t t t t t t t t t t t t t t t t t t t t t t t t t t t t t t t t t t t > j ;.O.t ; ; p 1.y ; ; t > - > j ; t t ; ; > t ; ; t - > t ; ; t ; ; t j ; t t t t t t t t t t t t t t t t t t t t t t t t t t t t t t t t t t t t y , t t t t t t t t t t t t t t t t t t t t t m.J e t t t t t t t t y t , t t t t y & o.>X+X+Xa t t t t t t t t ",
"t t t t t t t t t t t t t t t t t t t t t t t t t t t t t t t t t t t t t t t t t t t t t t t t t t t t t t t t t t t t t t t t t t t t t t t t t t t t t t t t t t t t t t , y  .d , t t t t t t t t t t t t t t t t t t t t t t t t t t t t t t t t t t t t t.+.} t } @.g q.t +.+.; N -.#.,X` > h ` -.j h } } j -.c p -.O.t #.` N <X` t t t t t t t t t t t t t t t t t t t t t t t t t t t t t t t t t t t , ) [ : t t t t t t t t t t t t t t t t t t e G m.x.t t t t t t : & < & a f : t t t y & o.+X{ >Xd , t t t t t t t ",
"t t t t t t t t t t t t t t t t t t t t t t t t t t t t t t t t t t t t t t t t t t t t t t t t t t t t t t t t t t t t t t t t t t t t t t t t t t t t t t t t t t t t t t a  .f , t t t t t t t t t t t t t t t t t t t t t t t t t t t t t t t t t t t t > 8.;.- ` 9.7.1.>.-.6.9.;.9.O.+.i.b ; B }.@.8.+.,Xm 9.>.q.8.6.j -.6.9.1.t.m t t t t t t t t t t t t t t t t t t t t t t t t t t t t t t t t t t t t , [ [ , t t t t t t t t t t t t t t t t t e x.x.m.G e t t t : X.+X+X+X+X>X) : t t y & o.>X+X+Xa t t t t t t t t ",
"t t t t t t t t t t t t t t t t t t t t t t t t t t t t t t t t t t t t t t t t t t t t t t t t t t t t t t t t t t t t t t t t t t t t t t t t t t t t t t t t t t t t t , a ..a , t t t t t t t t t t t t t t t t t t t t t t t t t t t t t t t t t t t t t > -.7.6.q.;.-.>.q.8.;.7.:.  j 4.- ; B 1.. 7.;.*.t ,X-.1.B 1.` 9.7.>.%.>.; t t t t t t t t t t t t t t t t t t t t t t t t t t t t t t t t t t t t : )  ., t t t t t t t t t t t t t t t t t s m.x.m.b.e t t t : { o.o.o.XX*Xd , t t y & '.XX@ >XX.< t t t t t t t ",
"t t t t t t t t t t t t t t t t t t t t t t t t t t t t t t t t t t t t t t t t t t t t t t t t t t t t t t t t t t t t t t t t t t t t t t t t t t t t t t t t t t t t t t , a  .a , t t t t t t t t t t t t t t t t t t t t t t t t t t t t t t t t t t t y B c 9.:.6.c c 8.:.1.j N t.N N t.c ; B u.` 8.@.1.; t.` c c ` t.1.:.j c t.c t t t t t t t t t t t t t t t t t t t t t t t t t t t t t t t t t t t , )  ., t t t t t t t t t t t t t t t t t e J x.u 6 m.t t t t t : & & & , t : t t t y & o.>X+X+Xa t t t t t t t t ",
"t t t t t t t t t t t t t t t t t t t t t t t t t t t t t t t t t t t t t t t t t t t t t t t t t t t t t t t t t t t t t t t t t t t t t t t t t t t t t t t t t t t t t t t , p a t t t t t t t t t t t t t t t t t t t t t t t t t t t t t t t t t t t t t %.6.B > %.4.N O.p -.1.h ` 6.c @.#.; B e.>.N c ` ; b 6.@.` 6.B t ;.1.h @.#.> t t t t t t t t t t t t t t t t t t t t t t t t t t t t t t t t t t t a t t t t t t t t t t t t t t t t t t t t s s t t s t t t t t t y y y t t t t t t t t p f f t , t t t t t t t t ",
"t t t t t t t t t t t t t t t t t t t t t t t t t t t t t t t t t t t t t t t t t t t t t t t t t t t t t t t t t t t t t t t t t t t t t t t t t t t t t t t t t t t t t t t t t t t t t t t t t t t t t t t t t t t t t t t t t t t t t t t t t t t t t t t ; ; > t ; ; > ; t ; ; t > - > ; > ; ` 6.$ t t > t > - ; > ; > t ; ; t ; ; t t t t t t t t t t t t t t t t t t t t t t t t t t t t t t t t t t t t t t t t t t t t t t t t t t t t t t t t t t t t t t t t t t t t t t t t t t t t t t t t : : t t t t t t t t t t ",
"t t t t t t t t t t t t t t t t t t t t t t t t t t t t t t t t t t t t t t t t t t t t t t t t t t t t t t t t t t t t t t t t t t t t t t t t t t t t t t t t t t t t t t t t t t t t t t t t t t t t t t t t t t t t t t t t t t t t t t t t t t t t t t t t t t t t t t t t t t t t t t t t > c ` t t t t t t t t t t t t t t t t t t t t t t t t t t t t t t t t t t t t t t t t t t t t t t t t t t t t t t t t t t t t t t t t t t t t t t t t t t t t t t t t t t t t t t t t t t t t t t t t t t t t t t t t t t t t t ",
"p p p p p p p p p p p p p p p p p p p p p p p p p p p p p p p p p p p p p p p p p p p p p p p p p p p p p p p p p p p p p p p p p p p p p p p p p p p p p p p p p p p p p p p p p p p p p p p p p p p p p p p p p p p p p p p p p p p p p p p p p p p p p p p p p p p p p p p p p p p p p p p p p t t p p p p p p p p p p p p p p p p p p p p p p p p p p p p p p p p p p p p p p p p p p p p p p p p p p p p p p p p p p p p p p p p p p p p p p p p p p p p p p p p p p p p p p p p p p p p p p p p p p p p p p p p p p p p p ",
"X X X X X X X X X X X X X X X X X X X X X X X X X X X X X X X X X X X X X X X X X X X X X X X X X X X X X X X X X X X X X X X X X X X X X X X X X X X X X X X X X X X X X X X X X X X X X X X X X X X X X X X X X X X X X X X X X X X X X X X X X X X X X X X X X X X X X X X X X X X X X X X X X X X X X X X X X X X X X X X X X X X X X X X X X X X X X X X X X X X X X X X X X X X X X X X X X X X X X X X X X X X X X X X X X X X X X X X X X X X X X X X X X X X X X X X X X X X X X X X X X X X X X X X X X X X X X X X X ",
"iXiXiXiXiXiXiXiXiXiXiXiXiXiXiXiXiXiXiXiXiXiXiXiXiXiXiXiXiXiXiXiXiXiXiXiXiXiXiXiXiXiXiXiXiXiXiXiXiXiXiXiXiXiXiXiXiXiXiXiXiXiXiXiXiXiXiXiXiXiXiXiXiXiXiXiXiXiXiXiXiXiXiXiXiXiXiXiXiXiXiXiXiXiXiXiXiXiXiXiXiXiXiXiXiXiXiXiXiXiXiXiXiXiXiXiXiXiXiXiXiXiXiXiXiXiXiXiXiXiXiXiXiXiXiXiXiXiXiXiXiXiXiXiXiXiXiXiXiXiXiXiXiXiXiXiXiXiXiXiXiXiXiXiXiXiXiXiXiXiXiXiXiXiXiXiXiXiXiXiXiXiXiXiXiXiXiXiXiXiXiXiXiXiXiXiXiXiXiXiXiXiXiXiXiXiXiXiXiXiXiXiXiXiXiXiXiXiXiXiXiXiXiXiXiXiXiXiXiXiXiXiXiXiXiXiXiXiXiXiXiXiXiXiXiXiXiXiXiXiXiXiXiXiXiXiX",
"u.u.u.u.u.u.u.u.u.u.u.u.u.u.u.u.u.u.u.u.u.u.u.u.u.u.u.u.u.u.u.u.u.u.u.u.u.u.u.u.u.u.u.u.u.u.u.u.u.u.u.u.u.u.u.u.u.u.u.u.u.u.u.u.u.u.u.u.u.u.u.u.u.u.u.u.u.u.u.u.u.u.u.u.u.u.u.u.u.u.u.u.u.u.u.u.u.u.u.u.u.u.u.u.u.u.u.u.u.u.u.u.u.u.u.u.u.u.u.u.u.u.u.u.u.u.u.u.u.u.u.u.u.u.u.u.u.u.u.u.u.u.u.u.u.u.u.u.u.u.u.u.u.u.u.u.u.u.u.u.u.u.u.u.u.u.u.u.u.u.u.u.u.u.u.u.u.u.u.u.u.u.u.u.u.u.u.u.u.u.u.u.u.u.u.u.u.u.u.u.u.u.u.u.u.u.u.u.u.u.u.u.u.u.u.u.u.u.u.u.u.u.u.u.u.u.u.u.u.u.u.u.u.u.u.u.u.u.u.u.u.u.u.u.u.u.u.u.u.u.u.u.u.u.u.u.",
"$ $ $ $ $ $ $ $ $ $ $ $ $ $ $ $ $ $ $ $ $ $ $ $ $ $ $ $ $ $ $ $ $ $ $ $ $ $ $ $ $ $ $ $ $ $ $ $ $ $ $ $ $ $ $ $ $ $ $ $ $ $ $ $ $ $ $ $ $ $ $ $ $ $ $ $ $ $ $ $ $ $ $ $ $ $ $ $ $ $ $ $ $ $ $ $ $ $ $ $ $ $ $ $ $ $ $ $ $ $ $ $ $ $ $ $ $ $ $ $ $ $ $ $ $ $ $ $ $ $ $ $ $ $ $ $ $ $ $ $ $ $ $ $ $ $ $ $ $ $ $ $ $ $ $ $ $ $ $ $ $ $ $ $ $ $ $ $ $ $ $ $ $ $ $ $ $ $ $ $ $ $ $ $ $ $ $ $ $ $ $ $ $ $ $ $ $ $ $ $ $ $ $ $ $ $ $ $ $ $ $ $ $ $ $ $ $ $ $ $ $ $ $ $ $ $ $ $ $ $ $ $ $ $ $ $ $ $ $ $ $ $ $ $ $ $ $ $ $ $ $ $ $ $ $ $ ",
"g g g g g g g g g g g g g g g g g g g g g g g g g g g y y p p p p p p p p p p p p p p p p p p p p p p p y y y y y y y y y y y y y y y y y y y y y y y y y y y y y y y y y y y y y y y y y y y y y y y y y y y y y y y y y y y y y y y y y y y y y y y y y y y y y y y y y y y y y y y y y y y y y y y y y y y y y y y y y y y y y y y y y y y y y y y y y y y y y y y y y y y y y y y y y y y y y y y y y y y y y y y y y y y y y y y y y y y y y y y y y y y y y y y y y y y y y y y y y y y y y y y y y y y y y y y y y y y y ",
"w w w w w w w w w w w w w w w w w w w w w w w w w w w t t e e e e e e e e e e e e e e e e e e e e e e t t t t t t t t t t t t t t t t t t t t t t t t t t t t t t t t t t t t t t t t t t t t t t t t t t t t t t t t t t t t t t t t t t t t t t t t t t t t t t t t t t t t t t t t t t t t t t t t t t t t t t t t t t t t t t t t t t t t t t t t t t t t t t t t t t t t t t t t t t t t t t t t t t t t t t t t t t t t t t t t t t t t t t t t t t t t t t t t t t t t t t t t t t t t t t t t t t t t t t t t t t t t t ",
"R R R R R R R R R R R R R R R R T T T T T T T T T T T 8 t J J J J J J J J J J J J J J J J J J J J J J 6 e t t t t t t t t t t t t t t t t t t t t t t t t t t t t t t t t t t t t t t t t t t t t t t t t t t t t t t t t t t t t t t t t t t t t t t t t t t t t t t t t t t t t t t t t t t t t t t t t t t t t t t t t t t t t t t t t t t t t t t t t t t t t t t t t t t t t t t t t t t t t t t t t t t t t t t t t t t t t t t t t t t t t t t t t t t t t t t t t t t t t t t t t t t t t t t t t t t t t t t t t t t t ",
"/././././././././././.^.^.^.^.^.^.^.^.^.^.^.^.^.^.^.P., e b.B.D.B.B.B.B.B.B.B.B.B.V.V.V.V.V.V.M.M.M.M.H e t t t t t t t t t t t t t t t t t t t t t t t t t t t t t t t t t t t t t t t t t t t t t t t t t t t t t t t t t t t t t t t t t t t t t t t t t t t t t t t t t t t t t t t t t t t t t t t t t t t t t t t t t t t t t t t t t t t t t t t t t t t t t t t t t t t t t t t t t t t t t t t t t t t t t t t t t t t t t t t t t t t t t t t t t t t t t t t t t t t t t t t t t t t t t t t t t t t t t t t t t t t ",
"/./././././././././././././.)././.^.^.^.^.^.^.^.!.^.L., ; b.G.K.G.G.G.G.G.G.G.G.G.G.D.B.B.V.V.V.V.V.m.H e , > > > > > > > > > > > > > > > > > > > > > > > > > > > > > > > > > > > > > > > > > > > > > > > > > > > > > > > > > > > > > > > > > > > > > > > > > > > > > > > > > > > > > > > > > > > > > > > > > > > > > > > > > > > > > > > > > > > > > > > > > > > > > > > > > > > > > > > > > > > > > > > > > > > > > > > > > > > > > > > > > > > > > > > > > > > > > > > > > > > > > > > > > > > > > > > > > > > , t t t t t t ",
"R.E.R.R.E.R.R.(.R.(.R.R.(.R.(.T.T.E.T.T.P.T.I.T.Q.Q.E ; ; J S.S.Z.c.Z.Z.S.Z.S.v.N.v.v.N.v.N.v.c.v.N.x.6 ; > > > > > > > > > > > > > > > > > > > > > > > > > > > > > > > > > > > > > > > > > > > > > > > > > > > > > > > > > > > > > > > > > > > > > > > > > > > > > > > > > > > > > > > > > > > > > > > > > > > > > > > > > > > > > > > > > > > > > > > > > > > > > > > > > > > > > > > > > > > > > > > > > > > > > > > > > > > > > > > > > > > > > > > > > > > > > > > > > > > > > > > > > > > > > > > > > > > > > > > > t t t ",
"E./ R./ E./ / R.Q E.Q W T.Q (.Y I.L.Y W I.n.! ! T.Y.R - & J Z.S.P c.c.G c.c.v.G v.L P P P N.P L v.v.x.6 ; ; ; ; ; ; ; ; ; ; ; ; ; ; ; ; ; ; ; ; ; ; ; ; ; ; ; ; ; ; ; ; ; ; ; ; ; ; ; ; ; ; ; ; ; ; ; ; ; ; ; ; ; ; ; ; ; ; ; ; ; ; ; ; ; ; ; ; ; ; ; ; ; ; ; ; ; ; ; ; ; ; ; ; ; ; ; ; ; ; ; ; ; ; ; ; ; ; ; ; ; ; ; ; ; ; ; ; ; ; ; ; ; ; ; ; ; ; ; ; ; ; ; ; ; ; ; ; ; ; ; ; ; ; ; ; ; ; ; ; ; ; ; ; ; ; ; ; ; ; ; ; ; ; ; ; ; ; ; ; ; ; ; ; ; ; ; ; ; ; ; ; ; ; ; ; ; ; ; ; ; ; ; ; ; ; ; ; ; ; ; ; ; ; ; ; ; ; ; ; > > > t ",
"/ ^ / / R./ Y E.Q I.W W L.! T.W P.! I.Y Q Q Y ! P.U.R - * J v.Z.L L c.L I P P I c.L I P L v.P I b.v.b.4 & - - - - - - - - - - - - - - - - - - - - - - - - - - - - - - - - - - - - - - - - - - - - - - - - - - - - - - - - - - - - - - - - - - - - - - - - - - - - - - - - - - - - - - - - - - - - - - - - - - - - - - - - - - - - - - - - - - - - - - - - - - - - - - - - - - - - - - - - - - - - - - - - - - - - - - - - - - - - - - - - - - - - - - - - - - - - - - - - - - - - - - - - - - - - - - - - - - - - - ; ; ; ; > > ",
"/ / E.Y E.Y Y Q W Y U U Y Y I.Y W Y L.T L.W U ( L.L.T * $ H c.A.I c.P L G G I G I I P I I c.I J b.b.b.4 * * * * * * * * * * * * * * * * * * * * * * * * * * * * * * * * * * * * * * * * * * * * * * * * * * * * * * * * * * * * * * * * * * * * * * * * * * * * * * * * * * * * * * * * * * * * * * * * * * * * * * * * * * * * * * * * * * * * * * * * * * * * * * * * * * * * * * * * * * * * * * * * * * * * * * * * * * * * * * * * * * * * * * * * * * * * * * * * * * * * * * * * * * * * * * * * * * * * * - - - - ; ; > ",
"W U W W 0 U Q U Y Y ! ! Y U T T U U Y T T ( R T R E T o $ H P P I G L L P G L P I G G L G G I G J J J 4 $ $ $ $ $ $ $ $ $ $ $ $ $ $ $ $ $ $ $ $ $ $ $ $ $ $ $ $ $ $ $ $ $ $ $ $ $ $ $ $ $ $ $ $ $ $ $ $ $ $ $ $ $ $ $ $ $ $ $ $ $ $ $ $ $ $ $ $ $ $ $ $ $ $ $ $ $ $ $ $ $ $ $ $ $ $ $ $ $ $ $ $ $ $ $ $ $ $ $ $ $ $ $ $ $ $ $ $ $ $ $ $ $ $ $ $ $ $ $ $ $ $ $ $ $ $ $ $ $ $ $ $ $ $ $ $ $ $ $ $ $ $ $ $ $ $ $ $ $ $ $ $ $ $ $ $ $ $ $ $ $ $ $ $ $ $ $ $ $ $ $ $ $ $ $ $ $ $ $ $ $ $ $ $ $ $ $ $ $ $ $ $ $ $ $ $ $ $ $ * - - ; ; ",
"W W W W Y U W W W W W W W W R R R R R R R R R R R R 0 o X 6 L L L L L L L L L L L I I I I I J J J J H 1 o o o o o o o o o o o o o o o o o o o o o o o o o o o o o o o o o o o o o o o o o o o o o o o o o o o o o o o o o o o o o o o o o o o o o o o o o o o o o o o o o o o o o o o o o o o o o o o o o o o o o o o o o o o o o o o o o o o o o o o o o o o o o o o o o o o o o o o o o o o o o o o o o o o o o o o o o o o o o o o o o o o o o o o o o o o o o o o o o o o o o o o o o o o o o o o o o o o o o o o $ $ - - - ",
"U U U U U T U U U U U T U T T T T T T T T T T T T T 7 . . 4 I I G G G G G G G G G G G G G H H H H H H 1 . . . . . . . . . . . . . . . . . . . . . . . . . . . . . . . . . . . . . . . . . . . . . . . . . . . . . . . . . . . . . . . . . . . . . . . . . . . . . . . . . . . . . . . . . . . . . . . . . . . . . . . . . . . . . . . . . . . . . . . . . . . . . . . . . . . . . . . . . . . . . . . . . . . . . . . . . . . . . . . . . . . . . . . . . . . . . . . . . . . . . . . . . . . . . . . . . . . . o o o o o $ * - ",
"7 7 7 7 7 7 7 7 7 7 7 7 7 7 7 7 7 7 7 7 7 7 7 # # 7 # O . 1 4 4 4 4 4 4 4 4 4 4 4 4 4 4 4 4 4 4 4 4 4 1 . . . . . . . . . . . . . . . . . . . . . . . . . . . . . . . . . . . . . . . . . . . . . . . . . . . . . . . . . . . . . . . . . . . . . . . . . . . . . . . . . . . . . . . . . . . . . . . . . . . . . . . . . . . . . . . . . . . . . . . . . . . . . . . . . . . . . . . . . . . . . . . . . . . . . . . . . . . . . . . . . . . . . . . . . . . . . . . . . . . . . . . . . . . . . . . . . . . . . . . o o o $ * ",
"                                                                                                                                                                                                                                                                                                                                                                                                                                                                                                                . . . . o o o $ ",
"- - - - - - - - - - - - - - - - - - - - - - - - - - $ $ $ $ - - - - - - - - - - - - - - - - - - - - * $ $ $ $ $ $ $ $ o - - - - - - - - - - - - - - - - - - - - - - - - - - - - - - - - - - - - - - - - - - - - - - - - - - - - - - - - - - - - - - - - - - - - - - - - - - - - - - - - - - - - - - - - - - - - - - - - - - - - - - - - - - - - - - - - - - - - - - - - - - - - - - - - - - - - - - - - - - - - - - - - - - - - - - - - - - - - - - - - - - - - - - - - - - - - - - - - - - - - - - - - - - - o     . . . o o $ ",
"VXVXVXVXVXVXVXVXBXVXBXVXVXVXVXVXVXVXVXVXVXBXVXVXBXBXVXVXVXVXVXVXVXVXVXVXBXBXVXVXVXVXVXVXVXVXVXBXVXVXVXVXVXVXVXVXVXVXVXCXBXnXnXnXnXnXnXnXnXnXnXnXnXnXnXnXnXnXnXnXnXnXnXnXnXnXnXnXnXnXnXnXnXnXnXnXnXnXnXnXnXnXnXnXnXnXnXnXnXnXnXnXnXnXnXnXnXnXnXnXnXnXnXnXnXnXnXnXnXnXnXnXnXnXnXnXnXnXnXnXnXnXnXnXnXnXnXnXnXnXnXnXnXnXnXnXnXnXnXnXnXnXnXnXnXnXnXnXnXnXnXnXnXnXnXnXnXnXnXnXnXnXnXnXnXnXnXnXnXnXnXnXnXnXnXnXnXnXnXnXnXnXnXnXnXnXnXnXnXnXnXnXnXnXnXnXnXnXnXnXnXnXnXnXnXnXnXnXnXnXnXnXnXnXnXnXnXnXnXnXnXnXnXnXnXNXnXkXu.,   .   . . o ",
"DXSXSXSXSXSXSXFXJXFXFXSXSXSXSXSXSXSXSXSXSXGXDXSXFXJXFXSXSXSXSXSXSXSXSXSXFXGXFXDXSXSXSXSXSXSXSXFXSXSXSXSXSXSXSXSXSXSXSXGXbXg j j j j j j j j j j j j j j j j j j j j j j j j j j j j j j j j j j j j j j j j j j j j j j j j j j j j j j j j j j j j j j j j j j j j j j j j j j j j j j j j j j j j j j j j j j j j j j j j j j j j j j j j j j j j j j j j j j j j j j j j j j j j j j j j j j j j j j j j j j j j j j j j j j j j j j j j j j j j j j j j j j j j j j j j j j j j j j j j j j j j j j j j j ` }.vXV   o o $ - ",
"AXFXSXSXFXZXSXBXxXmXcXSXFXSXZXDXFXZXSXFXZXgXZXZXMXzXmXDXFXZXSXZXSXZXFXGXnXkXnXAXGXDXSXFXZXFXSXvXZXFXSXZXDXFXZXZXZXZXZXFXvX; t > > > > > > > > > > > > > > > > > > > > > > > > > > > > > > > > > > > > > > > > > > > > > > > > > > > > > > > > > > > > > > > > > > > > > > > > > > > > > > > > > > > > > > > > > > > > > > > > > > > > > > > > > > > > > > > > > > > > > > > > > > > > > > > > > > > > > > > > > > > > > > > > > > > > > > > > > > > > > > > > > > > > > > > > > > > > > > > > > > > > > > > > > . B nXm o k M #.",
"CXnXCXdXtXDXBX2XtXcXBXSXcXmXZXMXcXSXmXxXZX}.AXDXi.qXnXCXcXCXCXZXCXAXcXmXzX7XZXMXxXmXmXvXAX7XNXmXFXcXmXDXmXcXZXZXZXZXZXFXcX> t t t t t t t t t t t t t t t t t t t t t t t t t t t t t t t t t t t t t t t t t t t t t t t t t t t t t t t t t t t t t t t t t t t t t t t t t t t t t t t t t t t t t t t t t t t t t t t t t t t t t t t t t t t t t t t t t t t t t t t t t t t t t t t t t t t t t t t t t t t t t t t t t t t t t t t t t t t t t t t t t t t t t t t t t t t t t t t t t t t t t t t t t t g . 2X9.  . . o ",
"vX,X7X}.i.SXmXe.mXmX7XaX2Xt.dXy.2XaXmX2XyX3XAXSX}.vXBX1X,X3XqXMX8XvXkX<XtXyX9XcX,X}.MX<XtX7.pX7XkX<X1XcXt.1XtXGXZXZXZXFXvX> t t t t t t t t t t t t t t t t t t t t t t t t t t t t t t t t t t t t t t t t t t t t t t t t t t t t t t t t t t t t t t t t t t t t t t t t t t t t t t t t t t t t t t t t t t t t t t t t t t t t t t t t t t t t t t t t t t t t t t t t t t t t t t t t t t t t t t t t t t t t t t t t t t t t t t t t t t t t t t t t t t t t t t t t t t t t t t t t t t t t t t t t t t t ; %.dX    . . ",
"qXu.7X1XvXJXDXBX,XtX9X3XFX8XuXyXmX6XcX<X2X3XAXSXi.uXaX8XZX3X9XVXrXdXaXu.3XuX6XZXyXMXlX,X5X8XZX3X3XAXgX9XqXAX2XGXZXZXZXFXsX; t t t t t t t t t t t t t t t t t t t t t t t t t t t t t t t t t t t t t t t t t t t t t t t t t t t t t t t t t t t t t t t t t t t t t t t t t t t t t t t t t t t t t t t t t t t t t t t t t t t t t t t t t t t t t t t t t t t t t t t t t t t t t t t t t t t t t t t t t t t t t t t t t t t t t t t t t t t t t t t t t t t t t t t t t t t t t t t t t t t t t t t t t t t - @.vX  . . o ",
"zX}.bXuX<XDXBXxXqX3X9XtXqX}.pXtXNX<X,X2X2X<XAXSXy.zXNX<X8X3XyX8Xi.9X}.2X<XtX9XqXt.xXy.2X6X<XaX3XuX7X5XsX6XmX,XGXZXZXAXHX1X* t t t t t t t t t t t t t t t t t t t t t t t t t t t t t t t t t t t t t t t t t t t t t t t t t t t t t t t t t t t t t t t t t t t t t t t t t t t t t t t t t t t t t t t t t t t t t t t t t t t t t t t t t t t t t t t t t t t t t t t t t t t t t t t t t t t t t t t t t t t t t t t t t t t t t t t t t t t t t t t t t t t t t t t t t t t t t t t t t t t t t t t t t t t - @.xX  . . o ",
"SXsXaXCXgXBXAXiXaXCXbXBXgXt.cXMXVXnXcXgXnXcXAXZXfX8XbXnX8X,XZXuXdXCXaXkXnXnXnXxXtXdXxXgXmXvXfXbXZXuXxXAXcXAXcXZXAXAXFXBXN ; t t t t t t t t t t t t t t t t t t t t t t t t t t t t t t t t t t t t t t t t t t t t t t t t t t t t t t t t t t t t t t t t t t t t t t t t t t t t t t t t t t t t t t t t t t t t t t t t t t t t t t t t t t t t t t t t t t t t t t t t t t t t t t t t t t t t t t t t t t t t t t t t t t t t t t t t t t t t t t t t t t t t t t t t t t t t t t t t t t t t t t t t t t t - @.xX    . o ",
"GXHXHXJXHXJXJXHXHXGXHXNX9XgXHXJXJXHXHXHXHXHXJXGXHXHXHXHXFXuXHXHXHXJXHXHXHXJXJXHXHXHXHXHXHXHXHXJXJXHXHXJXHXJXHXGXGXJXVX%.; t t t t t t t t t t t t t t t t t t t t t t t t t t t t t t t t t t t t t t t t t t t t t t t t t t t t t t t t t t t t t t t t t t t t t t t t t t t t t t t t t t t t t t t t t t t t t t t t t t t t t t t t t t t t t t t t t t t t t t t t t t t t t t t t t t t t t t t t t t t t t t t t t t t t t t t t t t t t t t t t t t t t t t t t t t t t t t t t t t t t t t t t t t t t - @.xX    . o ",
"dXfXfXdXfXdXdXfXfXdXfXdXsXlXdXfXdXdXfXfXdXfXdXdXfXsXdXfXfXkXdXfXfXdXfXfXdXdXdXfXsXfXfXfXdXfXfXfXdXfXfXdXfXdXfXdXiX,XN ; t t t t t t t t t t t t t t t t t t t t t t t t t t t t t t t t t t t t t t t t t t t t t t t t t t t t t t t t t t t t t t t t t t t t t t t t t t t t t t t t t t t t t t t t t t t t t t t t t t t t t t t t t t t t t t t t t t t t t t t t t t t t t t t t t t t t t t t t t t t t t t t t t t t t t t t t t t t t t t t t t t t t t t t t t t t t t t t t t t t t t t t t t t t t t - @.xX  . . o ",
"- - - - - - - - - - - - ; * - - - - - - - - - - - - - - - * - - - - - - - - - - - - - - - - - - - - - - - - - - - * > t t t t t t t t t t t t t t t t t t t t t t t t t t t t t t t t t t t t t t t t t t t t t t t t t t t t t t t t t t t t t t t t t t t t t t t t t t t t t t t t t t t t t t t t t t t t t t t t t t t t t t t t t t t t t t t t t t t t t t t t t t t t t t t t t t t t t t t t t t t t t t t t t t t t t t t t t t t t t t t t t t t t t e e e e e e e e e e e e t t t t t t t t t t t t t - @.xX    . o ",
"t t t t t t t t t t t t t t t t t t t t t t t t t t t t t t t t t t t t t t t t t t t t t t t t t t t t t t t t t t t t t t t t t t t t t t t t t t t t t t t t t t t t t t t t t t t t t t t t t t t t t t t t t t t t t t t t t t t t t t t t t t t t t t t t t t t t t t t t t t t t t t t t t t t t t t t t t t t t t t t t t t t t t t t t t t t t t t t t t t t t t t t t t t t t t t t t t t t t t t t t t t t t t t t t t t t t t t t t t t t t t t t t 5 6 6 6 6 6 6 6 6 6 5 5 5 5 5 5 5 5 5 5 5 5 5 t t - @.xX  . . o ",
"t t t t t t t t t t t t t t t t t t t t t t t t t t t t t t t t t t t t t t t t t t t t t t t t t t t t t t t t t t t t t t t t t t t t t t t t t t t t t t t t t t t t t t t t t t t t t t t t t t t t t t t t t t t t t t t t t t t t t t t t t t t t t t t t t t t t t t t t t t t t t t t t t t t t t t t t t t t t t t t t t t t t t t t t t t t t t t t t t t t t t t t t t t t t t t t t t t t t t t t t t t t t t t t t t t t t t t t t t t t t t t t > x.M.m.m.m.m.m.m.m.m.m.m.m.m.m.m.m.m.m.m.m.x.6 e t - @.xX      . ",
"t t t t t t t t t t t t t t t t t t t t t t t t t t t t t t t t t t t t t t t t t t t t t t t t t t t t t t t t t t t t t t t t t t t t t t t t t t t t t t t t t t t t t t t t t t t t t t t t t t t t t t t t t t t t t t t t t t t t t t t t t t t t t t t t t t t t t t t t t t t t t t t t t t t t t t t t t t t t t t t t t t t t t t t t t t t t t t t t t t t t t t t t t t t t t t t t t t t t t t t t t t t t t t t t t t t t t t t t t t t t t t t > x.F.H.H.H.F.F.F.F.F.F.D.D.D.D.B.B.B.B.B.B.m.6 e t - @.xX  - , g ",
"t t t t t t t t t t t t t t t t t t t t t t t t t t t t t t t t t t t t t t t t t t t t t t t t t t t t t t t t t t t t t t t t t t t t t t t t t t t t t t t t t t t t t t t t t t t t t t t t t t t t t t t t t t t t t t t t t t t t t t t t t t t t t t t t t t t t t t t t t t t t t t t t t t t t t t t t t t t t t t t t t t t t t t t t t t t t t t t t t t t t t t t t t t t t t t t t t t t t t t t t t t t t t t t t t t t t t t t t t t t t t t t > x.F.H.F.F.F.F.F.F.F.D.D.D.D.D.B.B.B.V.V.B.m.6 e t - @.xX  o - , ",
"t t t t t t t t t t t t t t t t t t t t t t t t t t t t t t t t t t t t t t t t t t t t t t t t t t t t t t t t t t t t t t t t t t t t t t t t t t t t t t t t t t t t t t t t t t t t t t t t t t t t t t t t t t t t t t t t t t t t t t t t t t t t t t t t t t t t t t t t t t t t t t t t t t t t t t t t t t t t t t t t t t t t t t t t t t t t t t t t t t t t t t t t t t t t t t t t t t t t t t t t t t t t t t t t t t t t t t t t t t t t t t t > x.H.H.A.Z.Z.A.G.S.S.c.D.c.v.N.v.B.v.c.V.B.m.6 e t - @.xX      . ",
"t t t t t t t t t t t t t t t t t t t t t t t t t t t t t t t t t t t t t t t t t t t t t t t t t t t t t t t t t t t t t t t t t t t t t t t t t t t t t t t t t t t t t t t t t t t t t t t t t t t t t t t t t t t t t t t t t t t t t t t t t t t t t t t t t t t t t t t t t t t t t t t t t t t t t t t t t t t t t t t t t t t t t t t t t t t t t t t t t t t t t t t t t t t t t t t t t t t t t t t t t t t t t t t t t t t t t t t t t t t t t t t > x.H.H.A.Z.S.P Z.S.Z.c.G.c.c.v.v.B.v.v.V.B.m.6 e t - @.xX  . . o ",
"t t t t t t t t t t t t t t t t t t t t t t t t t t t t t t t t t t t t t t t t t t t t t t t t t t t t t t t t t t t t t t t t t t t t t t t t t t t t t t t t t t t t t t t t t t t t t t t t t t t t t t t t t t t t t t t t t t t t t t t t t t t t t t t t t t t t t t t t t t t t t t t t t t t t t t t t t t t t t t t t t t t t t t t t t t t t t t t t t t t t t t t t t t t t t t t t t t t t t t t t t t t t t t t t t t t t t t t t t t t t t t t > x.H.J.A.K.S.Z.P Z.c.P C.v.N.v.v.D.v.N.B.B.m.6 e t - @.zX  o . o ",
"t t t t t t t t t t t t t t t t t t t t t t t t t t t t t t t t t t t t t t t t t t t t t t t t t t t t t t t t t t t t t t t t t t t t t t t t t t t t t t t t t t t t t t t t t t t t t t t t t t t t t t t t t t t t t t t t t t t t t t t t t t t t t t t t t t t t t t t t t t t t t t t t t t t t t t t t t t t t t t t t t t t t t t t t t t t t t t t t t t t t t t t t t t t t t t t t t t t t t t t t t t t t t t t t t t t t t t t t t t t t t t t > x.H.J.A.Z.Z.K.Z.P Z.S.c.c.v.v.c.N.v.v.V.B.m.6 e t - @.zX  o ; . ",
"t t t t t t t t t t t t t t t t t t t t t t t t t t t t t t t t t t t t t t t t t t t t t t t t t t t t t t t t t t t t t t t t t t t t t t t t t t t t t t t t t t t t t t t t t t t t t t t t t t t t t t t t t t t t t t t t t t t t t t t t t t t t t t t t t t t t t t t t t t t t t t t t t t t t t t t t t t t t t t t t t t t t t t t t t t t t t t t t t t t t t t t t t t t t t t t t t t t t t t t t t t t t t t t t t t t t t t t t t t t t t t t > x.H.J.H.K.H.H.H.G.F.F.G.G.G.D.B.V.B.N.V.B.m.6 e t - @.xX  , $   ",
"t t t t t t t t t t t t t t t t t t t t t t t t t t t t t t t t t t t t t t t t t t t t t t t t t t t t t t t t t t t t t t t t t t t t t t t t t t t t t t t t t t t t t t t t t t t t t t t t t t t t t t t t t t t t t t t t t t t t t t t t t t t t t t t t t t t t t t t t t t t t t t t t t t t t t t t t t t t t t t t t t t t t t t t t t t t t t t t t t t t t t t t t t t t t t t t t t t t t t t t t t t t t t t t t t t t t t t t t t t t t t t t > x.J.jXJ.J.J.J.H.H.H.F.F.F.F.D.D.D.D.B.B.B.M.6 e t - @.zX  - ; - ",
"t t t t t t t t t t t t t t t t t t t t t t t t t t t t t t t t t t t t t t t t t t t t t t t t t t t t t t t t t t t t t t t t t t t t t t t t t t t t t t t t t t t t t t t t t t t t t t t t t t t t t t t t t t t t t t t t t t t t t t t t t t t t t t t t t t t t t t t t t t t t t t t t t t t t t t t t t t t t t t t t t t t t t t t t t t t t t t t t t t t t t t t t t t t t t t t t t t t t t t t t t t t t t t t t t t t t t t t t t t t t t t t > x.B.B.B.B.B.V.V.V.V.V.V.V.M.M.M.M.M.M.M.M.m.6 e t - @.xX  . $ , ",
"t t t t t t t t t t t t t t t t t t t t t t t t t t t t t t t t t t t t t t t t t t t t t t t t t t t t t t t t t t t t t t t t t t t t t t t t t t t t t t t t t t t t t t t t t t t t t t t t t t t t t t t t t t t t t t t t t t t t t t t t t t t t t t t t t t t t t t t t t t t t t t t t t t t t t t t t t t t t t t t t t t t t t t t t t t t t t t t t t t t t t t t t t t t t t t t t t t t t t t t t t t t t t t t t t t t t t t t t t t t t t t t t H H H H H H H H H H H H H H H H H 6 6 6 6 H 5 t t - @.xX    . . ",
"t t t t t t t t t t t t t t t t t t t t t t t t t t t t t t t t t t t t t t t t t t t t t t t t t t t t t t t t t t t t t t t t t t t t t t t t t t t t t t t t t t t t t t t t t t t t t t t t t t t t t t t t t t t t t t t t t t t t t t t t t t t t t t t t t t t t t t t t t t t t t t t t t t t t t t t t t t t t t t t t t t t t t t t t t t t t t t t t t t t t t t t t t t t t t t t t t t t t t t t t t t t t t t t t t t t t t t t t t t t t t t t t e e e e e e e e e e e e e e e e e e e e e e t t t - @.xX  . . o ",
"t t t t t t t t t t t t t t t t t t t t t t t t t t t t t t t t t t t t t t t t t t t t t t t t t t t t t t t t t t t t t t t t t t t t t t t t t t t t t t t t t t t t t t t t t t t t t t t t t t t t t t t t t t t t t t t t t t t t t t t t t t t t t t t t t t t t t t t t t t t t t t t t t t t t t t t t t t t t t t t t t t t t t t t t t t t t t t t t t t t t t t t t t t t t t t t t t t t t t t t t t t t t t t t t t t t t t t t t t t t t t t t t t t t t t t t t t t t t t t t t t t t t t t t t t - @.xX    . o ",
"g g g g g g g g g g g g g g g g g g g g g g g g g g g g g g g g g g h g g g g g g g g g g g g g g g g g g g g g g g g g g g g g g g g g g g g g g g g g g g g g g g g g g g g g g g g g g g g g g g g g g g g g g g g g g g g g g g g g g g g g g g g g g g g g g g g g g g g g g g g g g g g g g g g g g g g g g g g g g g g g g g g g g g g g g g g g g g g g g g g g g g g g g g g g g g g g g g g g g g g g g g g g g g g g g h g g g g g g g g g g g g g g g g g g g g g g g g g g g g g g g g g g g g g g h ; @.xX    . o ",
"j j j j j j j j j j j j j j j j j j j j j j j j j j j j j j j j j j h j j j j j j j j j j j j j j j j j j j j j j j j j j j j j j j j j j j j j j j j j j j j j j j j j j j j j j j j j j j j j j j j j j j j j j j j j j j j j j j j j j j j j j j j j j j j j j j j j j j j j j j j j j j j j j j j j j j j j j j j j j j j j j j j j j j j j j j j j j j j j j j j j j j j j j j j j j j j j j j j j j j j j j j j j j j j j j j j j j j j j j j j j j j j j j j j j j j j j j j j j j j j j j j j j j j j j c ; @.xX  . . o ",
"t t t t t t t t t t t t t t t t t t t t t t t t t t t t t t t t t > h t > t t t t t t t t t t t t t t t t t t t t t t t t t t t t t t t t t t t t t t t t t t t t t t t t t t t t t t t t t t t t t t t t t t t t t t t t t t t t t t t t t t t t t t t t t t t t t t t t t t t t t t t t t t t t t t t t t t t t t t t t t t t t t t t t t t t t t t t t t t t t t t t t t t t t t t t t t t t t t t t t t t t t t t t t t t > t p > t t t t t t t t t t t t t t t t t t t t t t t t t t t t t t t t t t t t t t - @.xX      o ",
"t t t t t t t t t t t t t t t t t t t t t t t t t t t t t t t t t t c p t t t t t t t t t t t t t t t t t t t t t t t t t t t t t t t t t t t t t t t t t t t t t t t t t t t t t t t t t t t t t t t t t t t t t t t t t t t t t t t t t t t t t t t t t t t t t t t t t t t t t t t t t t t t t t t t t t t t t t t t t t t t t t t t t t t t t t t t t t t t t t t t t t t t t t t t t t t t t t t t t t t t t t t t t t t t h j t t t t t t t t t t t t t t t t t t t t t t t t t t t t t t t t t t t t t t t ; @.xX  o o o ",
"t t t t > t t t t t t t t t t t t t t t t t t t t t t t t t t t t t v y t t t t t t t t ; * t > ; t t t t t t t t t t t t t t t t ; t > ; t ; - > t t t t t t t t t t t t t - > t - > > - ; t t t t t t t t t t t t t t > t > ; t t > t t t t t t t t t t t t t t t t > t > t t t t t t t t t t t t t t t ; ; t t t - > > t t t t t t t t t t t t t t t > t t ; - ; > t t t t t t t t t t t t t t t ; t > ; t > t t t t t t t t h h t t t t t t t t t > t > t t t t t t > t t t t t t t t t t t t t t t t t t t t - @.zX  $ , , ",
"t t t t b t t > - t > t > t > t t - ; t t > t ; t t t t t t t t t t v y t t t t t t t > B -.j c @.t t t t t t t t t t t t t t t p B > c +.h @.%.N > t t t t t t t t t t t g #.m p %.c N %.+.p t t t t t t t t t t t t > c h c @.t > m h t t t t t t t t t t t t t t g N h >.; > t t t t t t t t t t t t t B @.t > h %.h %.N * t t t t t t t t t t t t t N t h @.@.O.;.; t t t t t t t t t t t t t g B ; b O.j :.- t t t t t t t h j t t t t t t t t t m t c c N > ; $ B @.X t t t ; ; > t ; t ; t t t t t t t t t - @.zX  o , , ",
"t t t t i.p > c %.g c h m h c > h %.B h h m y.O.> t t t t t t t t t v y t t t t t t t t ,X*.c q.q.%.; t t t t t t t t t t t t ; ;.3Xt e.q.:.` y.8.- t t t t t t t t t t > N 1.q.+.>.t.O.%.1Xj > t t t t t t t t t t t > 6X:.7.7.;.t qX` ; t t t t t t t t t t t t ; 1.<Xh t.g m > t t t t t t t t t t t t %.q.:.$ ` 4.7.q.B b t t t t t t t t t t t ; %.7X; j +.q.}.6.h c > t t t t t t t t t t ; 1.1Xt t.9.1.7.h c > t t t t t h j t t t t t t t > j y.  ;.-.h g #.b +.y.` p t > O.O.c y c 1.7.t t t t t t t t t - @.zX  - o o ",
"t t t t t.p h e.6.7.4.1.}.:.%.$ q.:.1.%.O.6.,X+.> t t t t t t t t t v y t t t t t t t t q.7.;.>.h q.; t t t t t t t t t t t t t h 9.B 4.h q.  6.N ; t t t t t t t t t t t t - y.j ; i.> c 6.; t t t t t t t t t t t ; O.e.} 7.,XB +.t.N ; t t t t t t t t t t t t t j q.h i.7.N > t t t t t t t t t t t y $ +.4.; > t 9.6.q.;.> t t t t t t t t t > h 1.8.> t $ 1.+.t.7.b > t t t t t t t t t t t j 8.` 1.h u.q.7.b > t t t t t h j t t t t t t t t g ,X@.y.6.1.>.7.,X#.}.8.;.$ @.t.+.t.g q.8.q.> t t t t t t t t - @.zX  o   o ",
"t t t y t.$ B 7.$ t.>.i.8.u.j t i.  @.@.` >.4.; t t t t t t t t t t v y t t t t t t t t $ c 3X;.j q.; t t t t t t t t t t t t t t q.B 4.h q.j y.> t t t t t t t t t t t t ; :.+.X 1.` X 9.O.; t t t t t t t t t t > m @Xy.t.>.;.u.y.}.;.; t t t t t t t t t t t t t y e.t rXt.$ t t t t t t t t t t t t > j 8.> > ; 6.c >.uXj ; t t t t t t t t t ; 9.e.2Xc ; m e.y yX9.$ y t t t t t t t t t t t y 9.B 1.h y.8Xq.$ y t t t t t h j t t t t t t t t g ,XO.t.1.6.q.; 6.;.%.c 7.. 8.B $ t.t 8.;.` $ t t t t t t t t - @.xX  . . o ",
"t t t t <X6.` q.q.%.%.}.#.1X> > 8.7.%.q.}.-.9.*.; t t t t t t t t t v y t t t t t t t p %.9.-.7.y.%.; t t t t t t t t t t t t t t y.y 9.y.O.:.%.; t t t t t t t t t t t ; %.6X+.6.3X@.N t.t t t t t t t t t t t t t h } y.t.7.1.q.B <X-.; t t t t t t t t t t t t t g t.j q.6.%.; t t t t t t t t t t t t 1Xq.O.;.1.3X` 8.:.q.t t t t t t t t t t t B -.<X1.N :.#.j 9.7.+.; t t t t t t t t t t t g t.t q.e.1.6.7.+.; t t t t t h j t t t t t t t > j t.. -.7.1.;.8.}.*.;.B 7.$ +.u.O.e.9.i.@.y.t t t t t t t t t - @.xX    . o ",
"t t t t N %.c j O.t g c y c t t y +.h N ` p j B > t t t t t t t t t v y t t t t t t t t ` ` > j ` t t t t t t t t t t t t t t t t c > j } > c y t t t t t t t t t t t t t c O.O.B ` O.j j t t t t t t t t t t t t t t * t t c +.> $ g t t t t t t t t t t t t t t t t c t j p c t t t t t t t t t t t t p ` +.B c N O.O.c t c p t t t t t t t t t t ; ; g j j j t y j g c t t t t t t t t t t t t t c > c ` t j g c t t t t t t h j t t t t t t t t t c t j j h j %.}.c h g j t > ` N j } j t ` g t t t t t t t t - @.xX  . . o ",
"t t t t ; - > t ; t t > t > t t t ; t ; ; t > ; t t t t t t t t t t v y t t t t t t t t ; ; t > ; t t t t t t t t t t t t t t t t > t > ; t > t t t t t t t t t t t t t t > ; ; ; ; ; > > t t t t t t t t t t t t t t t t t > ; t t t t t t t t t t t t t t t t t t t > t > t > t t t t t t t t t t t t t ; ; ; > > ; ; > t > t t t t t t t t t t t t t t > t > t t > t > t t t t t t t t t t t t t > t > ; t > t > t t t t t t h j t t t t t t t t t > t t t ; ` q.@.> t t > t t ; ; > ; > t ; t t t t t t t t t - @.xX    . o ",
"t t t t t t t t t t t t t t t t t t t t t t t t t t t t t t t t t t v y t t t t t t t t t t t t t t t t t t t t t t t t t t t t t t t t t t t t t t t t t t t t t t t t t t t t t t t t t t t t t t t t t t t t t t t t t t t t t t t t t t t t t t t t t t t t t t t t t t t t t t t t t t t t t t t t t t t t t t t t t t t t t t t t t t t t t t t t t t t t t t t t t t t t t t t t t t t t t t t t t t t t t t t t t t t t h j t t t t t t t t t t t t t t > ; > t t t t t t t t t t t t t t t t t t t t t t - @.xX    . o ",
"t t t t t t t t t t t t t t t t t t t t t t t t t t t t t t t t t t v y t t t t t t t t t t t t t t t t t t t t t t t t t t t t t t t t t t t t t t t t t t t t t t t t t t t t t t t t t t t t t t t t t t t t t t t t t t t t t t t t t t t t t t t t t t t t t t t t t t t t t t t t t t t t t t t t t t t t t t t t t t t t t t t t t t t t t t t t t t t t t t t t t t t t t t t t t t t t t t t t t t t t t t t t t t t t h j t t t t t t t t t t t t t t t t t t t t t t t t t t t t t t t t t t t t t t t - @.xX  . . o ",
"g g g g g g g g g g g g g g g g g g g g g g g t g g p g t ; t t t t v y t t t t t t t t t t t t t t t t t t t t t t t t t t t t t t t t t t t t t t t t t t t t t t t t t t t t t t t t t t t t t t t t t t t t t t t t t t t t t t t t t t t t t t t t t t t t t t t t t t t t t t t t t t t t t t t t t t t t t t t t t t t t t t t t t t t t t t t t t t t t t t t t t t t t t t t t t t t t t t t t t t t t t t t t t t t t h j t t t t - t g g g g g g g g g g g g g g g g g g g g g g g t g g p g > ; t t t - @.xX    . o ",
"mXmXmXMXmXmXmXmXMXMXmXMXmXmXmXmXmXmXmXmXmXmXMX}.mXMXmXmXvX-.; t t t v y t t t t t t t t t t t t t t t t t t t t t t t t t t t t t t t t t t t t t t t t t t t t t t t t t t t t t t t t t t t t t t t t t t t t t t t t t t t t t t t t t t t t t t t t t t t t t t t t t t t t t t t t t t t t t t t t t t t t t t t t t t t t t t t t t t t t t t t t t t t t > ; t t t t t t t t t t t t t t t t t t t t t t t t t t t t t t h j t t t > y.vXmXmXmXMXmXmXmXmXMXmXmXMXmXmXmXmXmXmXmXmXmXmXbX}.CXMXmXmXlXO.; t t - @.xX  . - ; ",
"FXFXFXGXDXFXFXSXGXFXGXJXFXDXFXFXDXDXFXDXDXDXSX2XFXFXSXZXHXcXp t t t v y t t t t t t t t t t > t t t t t t t t t t t t t t t t t t t t t t t t t t t t t t t t t t t t t t t t t t > t t t t t t t t t t t t t t t t t t t t t t t t t t t t t t t t t t t t t t t t t t > t t t t t t t t t t t t t t t t t t t t t t t t t t t t t t t t t t t t t t t t h h h B %.j t t t t t t t t t t t t t t t t t t t t t t t t t t t t t h j t t ; N ZXGXFXDXGXGXDXFXFXSXGXFXGXGXDXDXFXFXDXFXFXDXDXFXCX3XJXFXSXSXHXfX> t t - @.xX  - , ; ",
"CXZXBXnXSXZXAXJXzXMXBXbXZXSXCXAXFXZXZXSXFXFXSX<XZXJXe.2XHXAXN ; t t v y t t t t t t t t t > h t > t t t t t t t t t t t t t t t t t > p g > t t t t t t t t t t t t t t t t t t > h t > t t t t t t t t t t t t t t t t t > p g > t t t t t t t t t t t t t t t t t t > h t > t t t t t t t t t t t t t t t t t > p g > t t t t t t t t t t t t t t t t t 3.|.4XpXkX-.; t t t t t t t t t t t t t t t > g g > t t t t t t t t t h j t y * ;.JXZXCXZXmXMXDXZXZXGXdXBXMXnXSXZXCXZXFXZXZXDXFXFXCX2XFXFX4.qXHXmXh t t - @.xX  o ; ; ",
"8.SXtX}.fXFXZXCX2XfX}.7X7XFX6XCXnXAXFXmXnXrXNX<XGXtXX ; lXFXm ; t t v y t t t t t t t t y ;.9.1.c > t t t t t t t t t t t t t t t > B 9.0.#.t t t t t t t t t t t t t t t t t y ,.9.1.c > t t t t t t t t t t t t t t t > B 9.0.#.t t t t t t t t t t t t t t t t t p :.9.1.c > t t t t t t t t t t t t t t t > B 9.0.@.t t t t t t t t t t t t t t t t t w.bXmXAXsXO.> t t t t t t t t t t t t t t > V 9.0.@.> t t t t t t t t h j t y * -.HXrXy.DX8X}.zXFXZXBX,XdXu.6XtXZX6XZXNXZXFXmXbXtXbX2XHX3X  g nXCXg t t - @.xX    - , ",
"@XCXHXlX6XHXaX2Xq.dX1XkX3XnXqXaX}.9XnX}.iX1.uX1XSXlXaXpXxXSXm ; t t v y t t t t t t t ; #.>., V 9.y t t t t t t t t t t t t t t t h 8.m , 0.+.; t t t t t t t t t t t t t t ; %.>.< O.9.t t t t t t t t t t t t t t t t h 9.m , 0.O.; t t t t t t t t t t t t t t ; %.>.< O.8.t t t t t t t t t t t t t t t t h 9.m , 0.O.; t t t t t t t t t t t t t t t w.xXnXmXwXc > t t t t t t t t t t t t t > j 9.m , 9.` ; t t t t t t t h j t y * ;.JXvX,XZXHXgXtXHXyX2Xt.dX3XfX8XxXtXiX}.tXcX}.yX1.gX3XFXfXaXuXnXCXg t t - @.xX    - , ",
"2XZXSX3XBXJX<XAXtXfXu.6XtXuXsX2XHX7X<XdXHX1XFX<XFXuX7X7XzXDXm ; t t v y t t t t t t t > 7.m   o 9.m > t t t t t t t t t t t t t ; V 6.    O.6.; t t t t t t t t t t t t t t > 7.m   o 9.b > t t t t t t t t t t t t t ; ` 6.    O.6.; t t t t t t t t t t t t t t > 0.k   - 9.c > t t t t t t t t t t t t t ; ` 6.    $.1.; t t t t t t t t t t t t t t t w.xXcXnX4Xh t t t t t t t t t t t t t t ; O.>.    $.1.; t t t t t t t h j t y * ;.JXAX2XGXCX3XAXFX,XFX7XdXi.6XiXtXfX1XHX1X<XbXHX5XSX<XGXtX9X6XNXCXg t t - @.xX    . . ",
"}.AXu.7XmXJXqXyXi.sX,XcXy.,XAX5XiX5XaX<XMX}.kX1XGXuXX t cXSXm ; t t v y t t t t t t t > 9.m   o 9.m > t t t t t t t t t t t t t ; ` 6.    V 6.; t t t t t t t t t t t t t t > 9.k   o 9.c > t t t t t t t t t t t t t ; O.6.    O.1.; t t t t t t t t t t t t t t > 9.k   o 9.c > t t t t t t t t t t t t t ; O.6.    O.1.; t t t t t t t t t t t t t t t w.vXcXNX4Xj t t t t t t t t t t t t t t ; +.6.    $.>.; t t t t t t t h j t y * ;.JXCX@XZXq.tXBXGX5XuXy.sX<XvXe.1XZX2XuX6XuX3XnXu.zX1XHX7X  j BXBXg t t - @.xX  . . o ",
"xXVXtXrXdXFXCXiXaXVXuX8XxXcXSXmXqXbXFXuXaXcXaX1XAXHX,X8XHXAXN ; t t v y t t t t t t t > 9.m   o 9.m > t t t t t t t t t t t t t ; ` 0.    O.6.; t t t t t t t t t t t t t t > 9.z   o 9.b > t t t t t t t t t t t t t ; O.0.    O.6.; t t t t t t t t t t t t t t > q.k   o t.c > t t t t t t t t t t t t t ; O.6.    $.6.; t t t t t t t t t t t t t t t w.xXvXcX4Xv t t t t t t t t t t t t t t ; +.6.    $.1.; t t t t t t t h j t y * ;.GXCXxXBXtXrXzXFXmXtXsXBXtXqXvXbXFXMX8XMXSXtXkXxXpX3XFXGXt.pXHXmXh t t - @.xX    . o ",
"JXGXHXHXHXFXGXHXHXGXHXHXHXJXFXJXHXJXFXHXHXHXHX1XGXGXFXFXHXxXt t t t v y t t t t t t t > q.m   o t.m > t t t t t t t t t t t t t ; O.0.    O.7.; t t t t t t t t t t t t t t > t.m   o t.m > t t t t t t t t t t t t t ; O.0.    O.6.; t t t t t t t t t t t t t t > t.k   - t.c > t t t t t t t t t t t t t ; +.0.    $.6.; t t t t t t t t t t t t t t t =.w.w.w.2.j t t t t t t t t t t t t t t ; +.6.    $.4.; t t t t t t t h j t t > c CXHXJXJXHXHXHXFXJXHXHXGXHXHXHXJXFXJXHXJXGXHXHXHXSX3XHXFXFXFXHXaX; t t - @.xX    . o ",
"xXxXzXzXzXxXxXzXzXxXzXzXzXzXxXxXzXxXxXzXzXxXzXt.xXxXxXvXpX` ; t t t v y t t t t t t t > t.m   o t.N ; t t t t t t t t t t t t t ; O.9.    O.7.; t t t t t t t t t t t t t t > t.m   o t.m > t t t t t t t t t t t t t ; O.9.    $.7.; t t t t t t t t t t t t t t > t.k   - t.c > t t t t t t t t t t t t t ; +.0.    $.6.; t t t t t t t t t t t t t t t >.k . ; >.k > t t t t t t t t t t t t t ; @.0.    #.6.; t t t t t t t h j t t t ; 1.dXxXxXzXzXzXxXxXzXzXxXzXzXzXzXxXxXzXxXxXzXzXxXdXy.bXzXxXvXtXN > t t - @.xX    . o ",
"; ; ; ; ; ; ; ; ; ; ; ; ; ; ; ; ; ; ; ; ; ; ; > ; ; ; ; ; ; t t t t v y t t t t t t t > t.m   o t.N ; t t t t t t t t t t t t t ; O.9.    $.8.; t t t t t t t t t t t t t t > t.m   o y.m > t t t t t t t t t t t t t ; +.9.    $.7.; t t t t t t t t t t t t t t > y.m   - y.b > t t t t t t t t t t t t t ; +.9.    #.7.; t t t t t t t t t t t t t t t u.z   - u.c > t t t t t t t t t t t t t ; @.0.    #.6.; t t t t t t t h j t t t t ; ; ; ; ; ; ; ; ; ; ; ; ; ; ; ; ; ; ; ; ; ; ; ; ; > ; ; ; ; - > t t t - @.xX    . o ",
"t t t t t t t t t t t t t t t t t t t t t t t t t t t t t t t t t t v y t t t t t t t > y.C   o i.N ; t t t t t t t t t t t t t ; O.p.    $.9.; t t t t t t t t t t t t t t > y.m   o i.m > t t t t t t t t t t t t t ; +.9.    $.8.; t t t t t t t t t t t t t t > i.m   - i.b > t t t t t t t t t t t t t ; @.9.    #.7.; t t t t t t t t t t t t t t t i.k   - i.c > t t t t t t t t t t t t t ; #.9.    #.7.; t t t t t t t h j t t t t t t t t t t t t t t t t t t t t t t t t t t t t t t t t t t t t t t t - @.xX  . . o ",
"t t t t t t t t t t t t t t t t t t t t t t t t t t t t t t t t t t v y t t t t t t t > i.C   o u.N ; t t t t t t t t t t t t t ; +.t.    $.9.; t t t t t t t t t t t t t t > i.m   o u.N ; t t t t t t t t t t t t t ; +.t.    #.9.; t t t t t t t t t t t t t t > u.m   - u.m > t t t t t t t t t t t t t ; @.9.    #.8.; t t t t t t t t t t t t t t t u.m   - u.c > t t t t t t t t t t t t t ; #.9.    #.7.- t t t t t t t h j t t t t t t t t t t t t t t t t t t t t t t t t t t t t t t t t t t t t t t t - @.xX    . . ",
"t t y t t t t t t t t t t t t t t t t t t t t t t t t t t t t t t t v y t t t t t t t > i.M   o u.N ; t t t t t t t t t t t t t ; +.t.    $.q.; t t t t t t t t t t t t t t > u.C   - u.N ; t t t t t t t t t t t t t ; @.t.    #.9.; t t t t t t t t t t t t t t > u.m   - u.m > t t t t t t t t t t t t t ; #.t.    #.9.- t t t t t t t t t t t t t t t u.m   - u.c > t t t t t t t t t t t t t ; %.9.    -.8.- t t t t t t t h j t t t t t t > t t t t t t t t t t t t t t t t t t t t t t t t t t t t t t t t - @.xX  o o , ",
"B ,X6.g > t > t > > t > > t t > t t > > t > > y t t > t t t t t t t v y t t t t t t t > u.M   o u.N ; t t t t t t t t t t t t t ; +.y.    #.e.; t t t t t t t t t t t t t t > u.C   - u.N ; t t t t t t t t t t t t t ; @.t.    #.q.- t t t t t t t t t t t t t t > u.m   - ,Xm > t t t t t t t t t t t t t ; #.t.    <.9.- t t t t t t t t t t t t t t t }.m   - ,Xc > t t t t t t t t t t t t t ; %.t.    -.9.- t t t t t t t h j t t t t t ; +.,X1.t > t t t > t t > > t > > t t > t t > > y > t > t t t t t t - @.xX  . ; h ",
"%.6.$ +.u.N -.q.N 1.u.;.;.j :.N 6.4.O.y.t.c *.t.q.g 1.c > t t t t t v y t t t t t t t > u.V   o ,XN ; t t t t t t t t t t t t t ; +.i.    #.t.; t t t t t t t t t t t t t t > }.M   - ,XN ; t t t t t t t t t t t t t ; @.y.    #.e.- t t t t t t t t t t t t t t > ,Xm   - ,Xm > t t t t t t t t t t t t t ; %.t.    -.q.- t t t t t t t t t t t t t t t ,Xm   - ,Xb > t t t t t t t t t t t t t - %.t.    -.9.- t t t t t t t h j t t t t t * >.;.$ -.y.N >.9.m 7.u.%.:.g 1.b 8.:.@.i.t.j >.t.8.g 6.h t t t t t - @.xX  . , t ",
"O.6X%.6.:.h 2X8.3X:.N q.7.h 1.7.i.q.@X;.} 9.9.$ :.>.9.t t t t t t t v y t t t t t t t ; }.V   o ,XB ; t t t t t t t t t t t t t ; @.u.    #.t.- t t t t t t t t t t t t t t > ,XM   - ,XN ; t t t t t t t t t t t t t ; #.i.    -.t.- t t t t t t t t t t t t t t > ,XC   - ,Xm ; t t t t t t t t t t t t t - %.y.    -.q.- t t t t t t t t t t t t t t > ,Xm   - ,Xb > t t t t t t t t t t t t t - %.t.    ,.q.* t t t t t t t h j t t t t t - -.5X+.q.@.N <X9.3X#.O.8.8.y 8.8.y.t.@X@.%.8.8.$ 6.:.7.; t t t t t - @.xX  . - - ",
"%.1.  4.+.g 2X+.%.8.O.7.6.O.i.>.}.B 1.%.` q.q.c c 6X%.; t t t t t t v y t t t t t t t ; ,XV   - <XB ; t t t t t t t t t t t t t ; @.u..   -.y.- t t t t t t t t t t t t t t > ,XV   - <XN ; t t t t t t t t t t t t t ; #.u.    -.t.- t t t t t t t t t t t t t t > ,XC   - <XN ; t t t t t t t t t t t t t - %.i.    ,.t.- t t t t t t t t t t t t t t > <Xm   - <Xm > t t t t t t t t t t t t t - *.i.    ,.e.* t t t t t t t h j t t t t t $ >.-.  9.N m <X` :.1.%.1.8.` u.1.u.N 7.} @.8.q.g N 7X` ; t t t t t - @.xX      . ",
"B +.$ O.B - @.8.c -.u.8.c q.6.h ;.>.O.` m ` } y.t }.N > t t t t t t v y t t t t t t t ; ,XV   o ,XN ; t t t t t t t t t t t t t ; #.u.    #.t.* t t t t t t t t t t t t t t > <XV   - 2XN ; t t t t t t t t t t t t t - %.u.    <.t.* t t t t t t t t t t t t t t > <XM   - 2XN ; t t t t t t t t t t t t t - %.i.    -.e.* t t t t t t t t t t t t t t > <XC   - 2Xm > t t t t t t t t t t t t t - -.y.    ,.q.* t t t t t t t h j t t t t t ; } ` $ #.m ; *.6.c :.}.>.B e.1.g 1.-.@.N ` B %.q.p ,Xh t t t t t t - @.xX  . . o ",
"> > t > > t ; ; t $ c 9.$ ; ; t ; > > > > > > $ -.7.; t t t t t t t v y t t t t t t t t %.| ` 1.7X@.; t t t t t t t t t t t t t > N =.' &.}.}.t t t t t t t t t t t t t t t > <XV   - 1XN ; t t t t t t t t t t t t t > N =.' &.}.}.t t t t t t t t t t t t t t t > 2XM   - 1XN ; t t t t t t t t t t t t t > N =.' &.|.}.t t t t t t t t t t t t t t t > 2XC   - 1Xm > t t t t t t t t t t t t t > N =.' &.#Xu.t t t t t t t t h j t t t t t t > > t ; t t ; > t $ B 6.$ ; ; t ; > > > > > ; * 1.1.; t t t t t t - @.xX    . o ",
"t t t t t t t t t t p h t t t t t t t t t t t t N g t t t t t t t t v y t t t t t t t t 2.pXkXbXxX:.; t t t t t t t t t t t t t , N 4XkXxXnX7Xh t t t t t t t t t t t t t t > 2XV   - 1XN ; t t t t t t t t t t t t t , N eXkXxXnX7Xg t t t t t t t t t t t t t t > 1XV   - 1XN ; t t t t t t t t t t t t t , ' eXkXxXnX5Xg t t t t t t t t t t t t t t > 1XM   - 1Xm ; t t t t t t t t t t t t t , ' eXkXxXnX3Xp t t t t t t t h j t t t t t t t t t t t t t t t t g h t t t t t t t t t t t t N t t t t t t t t - @.xX    . o ",
"t t t t t t t t t t t t t t t t t t t t t t t t > t t t t t t t t t v y t t t t t t t t 5.cXmXCXpX` > t t t t t t t t t t t t t , n wXmXBXMXr.t t t t t t t t t t t t t t t > 1XV   - 1XB ; t t t t t t t t t t t t t , N wXmXBXMXr.t t t t t t t t t t t t t t t > 1XV   - 6XN ; t t t t t t t t t t t t t , ' rXmXBXMXe.t t t t t t t t t t t t t t t > 1XM   - 6XN ; t t t t t t t t t t t t t , ' yXmXBXMXw.t t t t t t t t h j t t t t t t t t t t t t t t t t t t t t t t t t t t t t t t ; t t t t t t t t - @.xX    . o ",
"t t t t t t t t t t t t t t t t t t t t t t t t t t t t t t t t t t v y t t t t t t t t 5.zXcXMXwXv , t t t t t t t t t t t t t , n wXNXnXvX3.> t t t t t t t t t t t t t t > 1XV   - 6XB ; t t t t t t t t t t t t t , N wXNXnXvX3.> t t t t t t t t t t t t t t > 3XV   - 6XN ; t t t t t t t t t t t t t , ' wXNXnXxX=.> t t t t t t t t t t t t t t > 6XM   - 6XN ; t t t t t t t t t t t t t , ' wXNXnXxX=.> t t t t t t t h j t t t t t t t t t t t t t t t t t t t t t t t t t t t t t t t t t t t t t t t - @.xX    . o ",
"t t t t t t t t t t t t t t t t t t t t t t t t t t t t t t t t t t v y t t t t t t t t 5.zXcXnX4Xv t t t t t t t t t t t t t t , n wXcXcXkX=., t t t t t t t t t t t t t t > 0X~   - 6XB ; t t t t t t t t t t t t t , N wXcXcXkX=., t t t t t t t t t t t t t t > 6XV   - 6XN ; t t t t t t t t t t t t t , ' wXcXcXkX&., t t t t t t t t t t t t t t > 6XV   < 6XN ; t t t t t t t t t t t t t , ' wXcXcXkX&., t t t t t t t h j t t t t t t t t t t t t t t t t y t t t , t t y t t t t t t t t t t t t t t t - @.xX  . . . ",
"t t t t t t t t t t : t a a a a , : t t t t t t t t t t t t t t t t v y t t t t t t t t 5.vXNXnX4Xv t t t t t t t t t t t t t t , n wXMXnXkX=., t t t t t t t t t t t t t t ; 6XO.  - 7XB ; t t t t t t t t t t t t t , N wXMXnXkX=., t t t t t t t t t t t t t t > 6XV   - 7XN ; t t t t t t t t t t t t t , ' rXnXnXkX&., t t t t t t t t t t t t t t > 6XV   < 9XN ; t t t t t t t t t t t t t , ' yXnXnXkX&., t t t t t t t h j t t t t t t t t t t t t t t y , < t a a a a : < t t t t t t t t t t t t t t t - @.xX    . $ ",
"t t t t t t t t : a [ _ ]._.'.].[ [ p : t t t t t t t t t t t t t t v y t t t t t t t t 2.pXpXpX4Xc , t t t t t t t t t t t t t , N eXpXpXyX=., t t t t t t t t t t t t t t ; 6XO.  - 9XB ; t t t t t t t t t t t t t > N eXpXpXyX=., t t t t t t t t t t t t t t > 7XV   - 9XN ; t t t t t t t t t t t t t > ' eXpXpXyX&., t t t t t t t t t t t t t t > 7XV   < 9XN ; t t t t t t t t t t t t t > ' eXpXpXyX&., t t t t t t t h j t t t t t t t t t t t t t t < f ..X.*X].%X%XX.X.t : t t t t t t t t t t t t t - @.xX  . , g ",
"t t t t t t t t ) ..&X].&X`.].%X].&XX.) t t t t t t t t t t t t t t v y t t t t t t t t %.@.' ` ;.c > t t t t t t t t t t t t t > N =.' ' &.@.> t t t t t t t t t t t t t t ; 7XO.  - 8XB ; t t t t t t t t t t t t t > N =.' ' &.+.> t t t t t t t t t t t t t t > 9X~   - 8XB ; t t t t t t t t t t t t t > N =.' ' &.+.> t t t t t t t t t t t t t t > 9XV   < 8XN ; t t t t t t t t t t t t t > N =.' ' &.+.> t t t t t t t h j t t t t t t t t t t t t t a [ ].:X&X:XoX*X;X*X;X..) , t t t t t t t t t t t t - @.zX  o , o ",
"t t t t t t < ..-X..`.XX_.[ [ _.oX`._.%X[ < t t t t t t t t t t t t v y t t t t t t t ; 6XO.  - 7X` ; t t t t t t t t t t t t t * *.1X    ,.,X$ t t t t t t t t t t t t t t ; 9XO.  - 8XB ; t t t t t t t t t t t t t * -.1X    >.,X$ t t t t t t t t t t t t t t > 8XO.  - 8XB ; t t t t t t t t t t t t t * ;.2X    >.}.$ t t t t t t t t t t t t t t > 8XV   < 8XN ; t t t t t t t t t t t t t $ :.<X    6.u.$ y t t t t t t h j t t t t t t t t t t t t < _.:X`.*X*X].X...XX-X%XoX;X[ < t t t t t t t t t t t - @.xX  o , * ",
"t t t t t , '.].-XoXd r + O O + r f XXoX'.X., t t t t t t t t t t t v y t t t t t t t ; 8X$.  - 8X` ; t t t t t t t t t t t t t * -.6X.   >.2X$ t t t t t t t t t t t t t t ; 8XO.  - 8XB ; t t t t t t t t t t t t t * ;.6X    6.<X$ t t t t t t t t t t t t t t > 8XO.  - 8XB ; t t t t t t t t t t t t t $ :.6X    0.<X$ y t t t t t t t t t t t t t > 8XV   , tXN ; t t t t t t t t t t t t t $ 1.1X    0.,X$ y t t t t t t h j t t t t t t t t t t t y `.].;X%Xf > @ O O @ a [ -X-XoX .: t t t t t t t t t t - @.xX  . o o ",
"t t t t : f -X:X&Xd + O - , < - O o d ].&XXXa , t t t t t t t t t t v y t t t t t t t ; 8X$.  - 8X` ; t t t t t t t t t t t t t * -.7X.   >.1X$ t t t t t t t t t t t t t t ; 8X$.  - tX` ; t t t t t t t t t t t t t $ ;.6X    6.2X$ y t t t t t t t t t t t t t > 8XO.  - tXB ; t t t t t t t t t t t t t $ :.6X    0.<X$ y t t t t t t t t t t t t t > qXF   , tXN ; t t t t t t t t t t t t t $ 1.1X    0.,X$ y t t t t t t h j t t t t t t t t t t : ) -X:X%Xa O o - , , - O + _ *X-X].y t t t t t t t t t t - @.xX    . . ",
"t t t t a XX`.XX) O -.0.l M M m l * O ) _...o.t t t t t t t t t t t v y t t t t t t t ; 8X#.  - tX` ; t t t t t t t t t t t t t * ;.9X.   6.1X$ t t t t t t t t t t t t t t ; qX$.  - tX` ; t t t t t t t t t t t t t $ :.7X    6.1X$ y t t t t t t t t t t t t t > tXO.  < tXB ; t t t t t t t t t t t t t $ >.6X    0.<X$ y t t t t t t t t t t t t t > tXO.  , tXN ; t t t t t t t t t t t t t $ 1.6X    9.,X$ y t t t t t t h j t t t t t t t t t , d oX`.XXd O * g z M M m , - @ [ _....., t t t t t t t t t - @.xX  . . o ",
"t t t : ) -X;XX.@ . p.GXu.z ~ ~ ~ k o + [ %XoXd : t t t t t t t t t v y t t t t t t t ; qX#.  - tX` ; t t t t t t t t t t t t t $ ;.8X.   6.3X$ y t t t t t t t t t t t t t ; qX$.  - tX` ; t t t t t t t t t t t t t $ :.9X    0.1X$ y t t t t t t t t t t t t t > tXO.  < yXB ; t t t t t t t t t t t t t $ >.7X    0.2X$ y t t t t t t t t t t t t t > tXO.  , yXN ; t t t t t t t t t t t t t $ 1.6X    9.<X$ y t t t t t t h j t t t t t t t t y < [ ;X;X_ O * l C V V V M i.8Xb @ X.%XoXa , t t t t t t t t - @.xX    . o ",
"t t t , X.oX-X) O , z kXFXa.M ~ ~ V g O d oX'.) , t t t t t t t t t v y t t t t t t t ; tX#.  - yX` ; t t t t t t t t t t t t t $ ;.8X.   6.5X$ y t t t t t t t t t t t t t ; iX$.  - yX` ; t t t t t t t t t t t t t $ :.8X    0.1X$ y t t t t t t t t t t t t t > tX$.  < iXB ; t t t t t t t t t t t t t $ 1.9X    9.1X$ y t t t t t t t t t t t t t > yXO.  , iXB ; t t t t t t t t t t t t t $ 1.6X    9.2X$ y t t t t t t h j t t t t t t t t t t ..%X-Xa O 8 C M M V ~ 6XHXuXg O ) %X_.f , t t t t t t t t - @.xX    . o ",
"t t t : %X:X%X- o l z K mXyXz ~ K ~ k o ; ].&X_.: t t t t t t t t t v y t t t t t t t ; tX#.  - iX` ; t t t t t t t t t t t t t $ ;.8X.   6.6X$ y t t t t t t t t t t t t t t 1.` v %.7XO.; t t t t t t t t t t t t t $ >.8X    0.3X$ y t t t t t t t t t t t t t > yX$.  < uXB ; t t t t t t t t t t t t t $ 1.8X    9.1X$ y t t t t t t t t t t t t t > yXO.  , uXB ; t t t t t t t t t t t t y $ 4.9X    9.2X$ y t t t t t t h j t t t t t t t t t t *X:XoX+ o l C C V z 6XHX8XV l o r XX&X..< t t t t t t t t - @.xX  . . o ",
"t t t , _.oX..+ o l C z $.O.M V V K m o - X._.X., t t t t t t t t t v y t t t t t t t ; tX#.  - uX} ; t t t t t t t t t t t t t $ :.tX.   0.6X$ y t t t t t t t t t t t t t t 3.wXpXlXkX;.; t t t t t t t t t t t t t $ >.8X    0.6X$ y t t t t t t t t t t t t t > yX$.  , uXB ; t t t t t t t t t t t t t $ 1.8X    9.3X$ y t t t t t t t t t t t t t > uXO.  , uXB ; t t t t t t t t t t t t y $ 6.9X    p.1X$ y t t t t t t h j t t t t t t t t t t '.oXX.O * k C C M C -.t.C V z o ; .._.[ : t t t t t t t t - @.xX    . o ",
"t t t : XX-X].+ o l m C m C M M V V k o - _.oX..: t t t t t t t t t v y t t t t t t t ; yX#.  - uX} ; t t t t t t t t t t t t t $ :.tX.   0.7X$ y t t t t t t t t t t t t t t w.bXmXAXsX` > t t t t t t t t t t t t t $ 1.tX    9.6X$ y t t t t t t t t t t t t t ; aX#.  < aX` ; t t t t t t t t t t t t t $ 1.8X    9.3X$ y t t t t t t t t t t t t t > uXO.  , uXB ; t t t t t t t t t t t t y $ 6.8X    t.1X$ y t t t t t t h j t t t t t t t t t t %X-X'.@ * k m C C M C z V V l o > `.oX .: t t t t t t t t - @.zX  o - o ",
"t t t : `.-X&X> o g m m C C M M M M g O r XXXX..: t t t t t t t t t v y t t t t t t t ; uX-.  - uXO.; t t t t t t t t t t t t t $ >.tX.   0.7X$ y t t t t t t t t t t t t t t 5.xXcXmXwXc , t t t t t t t t t t t t t $ 1.tX    9.6X$ y t t t t t t t t t t t t t > 1XV   h rXB ; t t t t t t t t t t t t y $ 4.tX    9.6X$ y t t t t t t t t t t t t t > uX$.  , aXB ; t t t t t t t t t t t t y $ 6.8X    t.3X$ y t t t t t t h j t t t t t t t t t t ].-X%X- o g m m C C M M M M 8 O d oXXXX.: t t t t t t t t - @.zX  o , . ",
"t t t : ) &X;X[ O - l m m C C C M Z - O _ %X`.f , t t t t t t t t t v y t t t t t t t ; uX-.  - aXO.; t t t t t t t t t t t t t $ >.yX.   0.9X$ y t t t t t t t t t t t t t t 5.xXcXnX4Xv t t t t t t t t t t t t t t $ 1.tX    9.7X$ y t t t t t t t t t t t t t t &.w. XeXiX%.; t t t t t t t t t t t t y $ 6.tX    t.6X$ y t t t t t t t t t t t t t > aX$.  , aXB ; t t t t t t t t t t t t y $ 7.hX    t.3X$ y t t t t t t h j t t t t t t t t t : [ *X;Xf O - k m m C C C M k - O X.&X'.d , t t t t t t t t - @.zX  o , . ",
"t t t , d -X&X .; . < l z m m m k < O > [ `.oXa , t t t t t t t t t v y t t t t t t t ; uX-.  - aXO.; t t t t t t t t t t t t t $ >.iX.   9.9X$ y t t t t t t t t t t t t t t 5.vXNXnX4Xv t t t t t t t t t t t t t t $ 1.yX    9.7X$ y t t t t t t t t t t t t t t w.vXMXCXkX@.; t t t t t t t t t t t t y $ 6.tX    t.6X$ y t t t t t t t t t t t t t > aX$.  , aXB ; t t t t t t t t t t t t y $ 7.tX    t.6X$ y t t t t t t h j t t t t t t t t t : ) -X%XX.- . , k z m m m k - O t [ ].XXy t t t t t t t t t - @.zX  o , . ",
"t t t t : [ %X;X_.@ . + , g g , + o + ..%X_.) : t t t t t t t t t t v y t t t t t t t ; gX-.  - aXO.; t t t t t t t t t t t t t $ 1.uX.   9.8X$ y t t t t t t t t t t t t t t 5.kXkXkX4Xv , t t t t t t t t t t t t y $ 1.yX    9.9X$ y t t t t t t t t t t t t t t 5.vXnXmXwXc > t t t t t t t t t t t t y $ 6.tX    t.7X$ y t t t t t t t t t t t t t > aX$.  , sXB ; t t t t t t t t t t t t y $ 7.tX    y.6X$ y t t t t t t h j t t t t t t t t t t :  .%X;X..@ . - , g g , o O & _.oX_.f : t t t t t t t t t - @.zX  o ; , ",
"t t t t , a *X-X-X`.> $ . O . o $ t ..oXXX].t t t t t t t t t t t t v y t t t t t t t ; aX,.  - aXO.; t t t t t t t t t t t t t $ 1.aX.   9.9X$ y t t t t t t t t t t t t t t &.&.&.&.=.v t t t t t t t t t t t t t y $ 1.uX.   9.7X$ y t t t t t t t t t t t t t t w.xXcXMX4Xh t t t t t t t t t t t t t y $ 6.uX    t.6X$ y t t t t t t t t t t t t t > fX#.  , aXB ; t t t t t t t t t t t t y $ 8.iX    y.6X$ y t t t t t t h j t t t t t t t t t t , d -X-X-X_.; $ . O o o $ y '.oXoX`.: t t t t t t t t t t - @.xX  . . o ",
"t t t t t : d ].:X&Xt t t > > t t t ].%XX.a , t t t t t t t t t t t v y t t t t t t t $ <XuXg 9.fXg t t t t t t t t t t t t t t > N zX,.k sX9.$ t t t t t t t t t t t t t t - u.8Xg 9.tXt t t t t t t t t t t t t t t ; N zX,.k fX8.* t t t t t t t t t t t t t t t 5.xXcXcX4Xv t t t t t t t t t t t t t t ; B xX-.k dX7.* t t t t t t t t t t t t t t * 5XtXg t.aXt t t t t t t t t t t t t t t ; B xX-.m dX6.* t t t t t t t h j t t t t t t t t t t t : ) XX:XoX: y t > > t t a oXoX[ a t t t t t t t t t t t - @.xX    . . ",
"t t t t t y : ) &X[ < t t t t t t : _ `.d : t t t t t t t t t t t t v y t t t t t t t t g 6XdXsX%.; t t t t t t t t t t t t t t t ; ;.aXzX1Xg t t t t t t t t t t t t t t t > j 7XdXsX-.; t t t t t t t t t t t t t t t ; :.aXzX2Xp t t t t t t t t t t t t t t t t w.vXcXnX4Xv t t t t t t t t t t t t t t t ; >.aXzX<Xy t t t t t t t t t t t t t t t > h 7XdXaX@.; t t t t t t t t t t t t t t t ; 1.aXzX<Xt t t t t t t t t h j t t t t t t t t t t t y < [ &X) : t t t t t t < [ `.a , t t t t t t t t t t t - @.xX  . . o ",
"t t t t t t t : t t t t t t t t t t t t , t t t t t t t t t t t t t v y t t t t t t t t t ; b g ; t t t t t t t t t t t t t t t t t ; g b ; > t t t t t t t t t t t t t t t t > ; m g - t t t t t t t t t t t t t t t t t ; g b ; t t t t t t t t t t t t t t t t t 2.$X|.$X Xc > t t t t t t t t t t t t t t t ; h b ; t t t t t t t t t t t t t t t t t > ; m p ; t t t t t t t t t t t t t t t t t ; h c ; t t t t t t t t t h j t t t t t t t t t t t t t : t t t t t t t t t t t t , t t t t t t t t t t t t - @.xX    . o ",
"t t t t t t t t t t t t t t t t t t t t t t t t t t t t t t t t t t v y t t t t t t t t t t > t t t t t t t t t t t t t t t t t t t t t > t t t t t t t t t t t t t t t t t t t t > t t t t t t t t t t t t t t t t t t t t t > t t t t t t t t t t t t t t t t t t h h h h h y t t t t t t t t t t t t t t t t t t > t t t t t t t t t t t t t t t t t t t t ; t t t t t t t t t t t t t t t t t t t t t > t t t t t t t t t t h j t t t t t t t t t t t t t t t t t t t t t t t t t t t t t t t t t t t t t t t - @.xX    . o ",
"t t t t t t t t t t t t t t t t t t t t t t t t t t t t t t t t t t v y t t t t t t t t t t t t t t t t t t t t t t t t t t t t t t t t t t t t t t t t t t t t t t t t t t t t t t t t t t t t t t t t t t t t t t t t t t t t t t t t t t t t t t t t t t t t t t t t t t t t t t t t t t t t t t t t t t t t t t t t t t t t t t t t t t t t t t t t t t t t t t t t t t t t t t t t t t t t t t t t t t t t t t t t t t t t h j t t t t t t t t t t t t t t t t t t t t t t t t t t t t t t t t t t t t t t t - @.xX    . o ",
"t t t t t t t t t t t t t t t t t t t t t t t t t t t t t t t t t t v y t t t t t t t t t t t t t t t t t t t t t t t t t t t t t t t t t t t t t t t t t t t t t t t t t t t t t t t t t t t t t t t t t t t t t t t t t t t t t t t t t t t t t t t t t t t t t t t t t t t t t t t t t t t t t t t t t t t t t t t t t t t t t t t t t t t t t t t t t t t t t t t t t t t t t t t t t t t t t t t t t t t t t t t t t t t t h j t t t t t t t t t t t t t t t t t t t t t t t t t t t t t t t t t t t t t t t - @.xX  . . o ",
"t t t t t t t t t t t t t t t t t t t t t t t t t t t t t t t t t t v y t t t t t t t t t t t t t t t t t t t t t t t t t t t t t t t t t t t t t t t t t t t t t t t t t t t t t t t t t t t t t t t t t t t t t t t t t t t t t t t t t t t t t t t t t t t t t t t t t t t t t t t t t t t t t t t t t t t t t t t t t t t t t t t t t t t t t t t t t t t t t t t t t t t t t t t t t t t t t t t t t t t t t t t t t t t t h j t t t t t t t t t t t t t t t t t t t t t t t t t t t t t t t t t t t t t t t - @.xX    . o ",
"t t t t t t t t t ; ; t ; ; t t t ; t t t t t t t t t t t t t t t t v y t t t t t t ; > t t t ; t > ; t t t t t t t t t t t t t ; t t t ; > t ; t t t t t t t t t t t t t t ; > t t > ; t ; ; t t t t t t t t t t t t ; t t t ; > t ; t t t t t t t t t t t t t > t > ; t t t ; t t ; t t t t t t t t t t t ; t t t ; t t ; t t t t t t t t t t t t > t > ; t t t ; t t ; t t t t t t t t t t t t ; t t t ; t t ; t t t t t t t h j t t t t t t t t t t t t t t > t > > t > > t ; > t ; > t t t t t t t t t t t t - @.xX  - o . ",
"t t t t t t t t t N O.g N O.g t y ` y t t t t t t t t t t t t t t t v y t t t t t > N c > t h B ; j B > t t t t t t t t t t t g ` t t > B j > B h > t t t t t t t t t t t > B j > > j B > N N > t t t t t t t t t t g ` t t > B j > B h > t t t t t t t t t t t c t b B t t t B h > ` g t t t t t t t t t h B t t t B h > ` h > t t t t t t t t t t c t c B t t t B h > ` g t t t t t t t t t t h B t t t B h > ` h > t t t t t h j t t t t t t t t t t t t t g j ; b N ; N c ; N c ; B j > t t t t t t t t t t t - @.xX  o ,   ",
"t t t t t t t > h ,X@.N ,X#.h ; 7.7.6.> t t t t t t t t t t t t t t v y t t t t ; ` i.q.j t q.y.%.8.i.O.; t t t t t t t t t > 7.i.*.$ @.u.6.*.i.7.t t t t t t t t t t t ; O.t.q.h g q.e.%.;.y.} ; t t t t t t t t t 8.i.%.$ @.u.4.-.i.7.t t t t t t t t t t ; -.3Xt :.y.%.$ %.u.1.;.i.6.> t t t t t t t t 8.i.%.$ #.u.1.-.i.7.t t t t t t t t t ; -.3Xt ;.y.%.$ %.u.1.;.i.6.t t t t t t t t t t 9.i.%.$ %.u.1.-.i.6.t t t t t t h j t t t t t t t t t t t t > y.q.g u.q.#.y.9.%.y.8.%.y.q.g t t t t t t t t t t t - @.xX  . ; o ",
"t t t t t t t > h }.:.B }.:.h ; 1.i.;.; t t t t t t t t t t t t t t v y t t t t ; 4.B -.+.c 7.y 3X;.c 9.; t t t t t t t t > c 9.p t.; 8.c :.1Xt 7.N ; t t t t t t t t t $ 8.B 4.} N 7.b y.  :.-.; t t t t t t t > c 8.g t.; 9.c >.1Xt 7.N > t t t t t t t > t j t.g $ @.4.$ q.h 7.<Xt 9.c > t t t t t > b 8.g t.; q.j 1.2Xt 8.b > t t t t t t t t j t.g $ @.6.$ q.h 6.<Xt 9.c > t t t t t t > m 7.h e.- q.j 4.2Xt 8.c > t t t t h j t t t t t t t t t t t t > O.1.@.#.N 7XN O.7Xc #.6Xh >.O.; t t t t t t t t t t - @.xX  . - , ",
"t t t t t t t t t $ -.6.. 1.:.$ 1.8.1.> t t t t t t t t t t t t t t v y t t t t ; 1.m -.O.j 6.t 6X*.j q.; t t t t t t t t > c 7.t t.$ 7.j :.1X> 7.B ; t t t t t t t > +.1.N 7.<XN ; 1.u.4.h 8.> t t t t t t t t > c 7.t t.$ 8.h >.1X> 7.N ; t t t t t t p 7.` ; t.t h 9.t * 9.p 7.<X> 9.c > t t t t t > m 6.t t.$ 8.h 1.2X> 8.N > t t t t t t t t > t.t h 9.t * 9.p 7.<X> 9.c > t t t t t t > N 6.p t.$ 9.g 4.2X> 8.m > t t t t h j t t t t t t t t t t t t ; N 1.@.+.N 9Xc } 7Xj #.6Xp >.+.; t t t t t t t t t t - @.xX    . . ",
"t t t t t t t t h +.7.:.} 7.>.#.q.%.t.t t t t t t t t t t t t t t t v y t t t t ; O.q.8.;.O.8.9.1.7.q.%.; t t t t t t t t t t 9.9.6.@.*.q.7.1.8.q.g t t t t t t t t t y y p -.7.#.` m e.+.2X1.c t t t t t t t t t t 9.9.6.@.-.q.7.1.8.q.g t t t t t t t t g t t i.p <X6.` %.;.q.7.1.9.9.t t t t t t t t t 9.9.6.@.-.q.7.1.9.q.p t t t t t t t t t t i.p <X6.B %.-.q.7.1.9.9.t t t t t t t t t t q.8.6.@.-.q.7.1.9.q.t t t t t t h j t t t t t t t t t t t t ; B 8.j t.8.1.9.8.1.9.8.1.8.e.c > t t t t t t t t t t - @.xX  . . o ",
"t t t t t t t t p %.O.y *.` h N j ;.j > t t t t t t t t t t t t t t v y t t t t t > @.B c c c %.> N %.t t t t t t t t t t t > c %.g B t %.N > %.b > t t t t t t t t t t > j -.h c c +.` h %.-.N > t t t t t t t t > c %.g B t %.N > %.c > t t t t t t t t t t t N h #.*.O.N t %.c t *.c > t t t t t t t > c %.g B t %.m t %.c > t t t t t t t t t t N h #.*.O.N t %.c t *.c > t t t t t t t t > c %.g B t %.b t *.c > t t t t t h j t t t t t t t t t t t t t g m ; } O.; +.` ; @.` ; #.B > t t t t t t t t t t t - @.xX    . o ",
"t t t t t t t t t - ; t - ; t > > * > t t t t t t t t t t t t t t t v y t t t t t t ; ; > > > ; y > - t t t t t t t t t t t t > - t ; t ; > t - > t t t t t t t t t t t t t * t > > ; > t - - > t t t t t t t t t t > - t ; t ; t t - > t t t t t t t t t t t t > t - - ; > t ; > t - > t t t t t t t t t > - t ; t ; t t - > t t t t t t t t t t t > t ; - ; > t ; > t - > t t t t t t t t t t > - t ; t ; t t - > t t t t t t h j t t t t t t t t t t t t t t > t ; ; t ; ; t ; ; t ; ; t t t t t t t t t t t t - @.xX    . o ",
"t t t t t t t t t t > t t > t y t t t t t t t t t t t t t t t t t t v y t t t t t t t t y t t ; * > t t t t t t t t t t t t t t t t t > t - ; t t t t t t t t t t t t t t t t y t t ; - > y t t t t t t t t t t t t t t t t > t - ; t t t t t t t t t t t t t t t t g t t ; * t t t t t t t t t t t t t t t t t t > t - ; t t t t t t t t t t t t t t t t g t t ; ; t t t t t t t t t t t t t t t t t t > t - ; t t t t t t t t h j t t t t t t t t t t t t t t t t t > t > t y y t t t t t t t t t t t t t t t t - @.xX    . o ",
"t t t t t t t t t > m j g N ; * > t t t t t t t t t t t t t t t t t v y t t t t t t t t X @.` ` >.c > t t t t t t t t t t t t t t ; > 1.j :.@.t t t t t t t t t t t t t t t t X @.` ` >.c > t t t t t t t t t t t t t t ; > 1.j :.+.t t t t t t t t t t t t t t t t X #.` ` :.c > t t t t t t t t t t t t t t ; t 1.j >.+.t t t t t t t t t t t t t t t t X %.` } :.c > t t t t t t t t t t t t t t ; t 1.j >.+.t t t t t t t t h j t t t t t t t t t t t t t t t t h N t N y $ ; t t t t t t t t t t t t t t t t - @.xX    . o ",
"t t t t t t t t t $ 8.N t e.` :.b > t t t t t t t t t t t t t t t t v y t t t t t t t t } y.%.y.@.i.p t t t t t t t t t t t t t > b :.q.;.6.6.-.; t t t t t t t t t t t t t t } i.%.y.@.i.y t t t t t t t t t t t t t > m >.q.;.6.7.*.; t t t t t t t t t t t t t t O.i.#.y.@.i.t t t t t t t t t t t t t t > m 1.q.:.4.7.%.; t t t t t t t t t t t t t y O.i.#.y.@.i.t t t t t t t t t t t t t t > N 1.9.:.1.7.%.; t t t t t t h j t t t t t t t t t t t t t t t ; ` 8.  8.%.-.+.t t t t t t t t t t t t t t t t - @.xX  . . o ",
"t t t t t t t t t * 6.q.1.y.c 3XO.; t t t t t t t t t t t t t t t t v y t t t t t t ; %.7.u.#.t.6.q.t t t t t t t t t t t t t t y t.1.y.%.t.q.} ; t t t t t t t t t t t t ; *.7.u.@.t.6.q.> t t t t t t t t t t t t t g t.1.t.%.t.q.` ; t t t t t t t t t t t t ; -.6.u.@.y.6.9.> t t t t t t t t t t t t t g t.1.t.*.e.e.` ; t t t t t t t t t t t t ; ;.6.}.+.y.6.9.> t t t t t t t t t t t t t h t.4.e.-.e.e.B ; t t t t t t h j t t t t t t t t t t t t t t t ; N <X%.,XN 9.t.; t t t t t t t t t t t t t t t - @.xX    . . ",
"t t t t t t t t t * 6.1.%.q.m -.$ t t t t t t t t t t t t t t t t t v y t t t t t t ; 8.c #.-.q.O.t.j > t t t t t t t t t t t > b q.- 9.-.1.;.:.; t t t t t t t t t t t t ; 9.j %.*.e.O.t.h t t t t t t t t t t t t > m 9.; 9.-.1.:.;.; t t t t t t t t t t t t ; 9.j %.%.e.} t.h t t t t t t t t t t t t > N 9.; 9.;.1.>.;.; t t t t t t t t t t t t ; q.h -.%.e.} t.h t t t t t t t t t t t t > N 8.; 9.;.>.>.-.; t t t t t t h j t t t t t t t t t t t t t t t ; N }.N }.b >.t t t t t t t t t t t t t t t t t - @.xX  o , - ",
"t t t t t t t t t * 6.N t 8.@Xq.c > t t t t t t t t t t t t t t t t v y t t t t t t ; O.e.,X@.i.>.y.h t t t t t t t t t t t t t t q.q.t.%.y.8.-.; t t t t t t t t t t t t ; +.q.,X+.i.>.y.h t t t t t t t t t t t t t t q.e.e.*.t.8.*.; t t t t t t t t t t t t ; +.q.,X+.u.>.y.g t t t t t t t t t t t t t t q.e.q.-.t.8.%.; t t t t t t t t t t t t ; @.q.,X+.u.>.t.g t t t t t t t t t t t t t t q.t.q.-.t.9.%.; t t t t t t h j t t t t t t t t t t t t t t t ; B 7.. 1.t.<XO.t t t t t t t t t t t t t t t t - @.zX  - , g ",
"t t t t t t t t t t h g t j c ` j t t t t t t t t t t t t t t t t t v y t t t t t t t > N b t c O.h > t t t t t t t t t t t t t t h B h g ` N > t t t t t t t t t t t t t t > N b t b O.h > t t t t t t t t t t t t t > h B h g ` N > t t t t t t t t t t t t t t > N b t b O.h > t t t t t t t t t t t t t > h B h g ` N > t t t t t t t t t t t t t t > N c t m O.g > t t t t t t t t t t t t t > h B h g ` N > t t t t t t t h j t t t t t t t t t t t t t t t t y h t h c ` N t t t t t t t t t t t t t t t t - @.zX  - - k ",
"t t t t t t t t t t t t t > > ; > t t t t t t t t t t t t t t t t t v y t t t t t t t t > > t > ; t t t t t t t t t t t t t t t t t ; t t ; ; t t t t t t t t t t t t t t t t > > t > ; t t t t t t t t t t t t t t t t t ; t t ; ; t t t t t t t t t t t t t t t t ; > t > ; t t t t t t t t t t t t t t t t t ; t t ; ; t t t t t t t t t t t t t t t t ; > t > ; t t t t t t t t t t t t t t t t t ; t t ; ; t t t t t t t t h j t t t t t t t t t t t t t t t t t t t t > ; ; t t t t t t t t t t t t t t t t ; %.xX  o . , ",
"t t t t t t t t t t t t t t t t t t t t t t t t t t t t t t t t t t v y t t t t t t t t t t t t t t t t t t t t t t t t t t t t t t t t t t t t t t t t t t t t t t t t t t t t t t t t t t t t t t t t t t t t t t t t t t t t t t t t t t t t t t t t t t t t t t t t t t t t t t t t t t t t t t t t t t t t t t t t t t t t t t t t t t t t t t t t t t t t t t t t t t t t t t t t t t t t t t t t t t t t t t t t t t t t h j t t t t t t t t t t t t t t t t t t t t t t t t t t t t t t t t t t t t t t p $ e.3X  . . . ",
"p p p p p p p p p p p p p p p p p p p p p p p p p p p p p p p p p t c h y p p p p p p p p p p p p p p p p p p p p p p p p p p p p p p p p p p p p p p p p p p p p p p p p p p p p p p p p p p p p p p p p p p p p p p p p p p p p p p p p p p p p p p p p p p p p p p p p p p p p p p p p p p p p p p p p p p p p p p p p p p p p p p p p p p p p p p p p p p p p p p p p p p p p p p p p p p p p p p p p p p p p p p p p p p t j c t p p p p p p p p p p p p p p p p p p p p p p p p p p p p p p p p p p p p y > - aXN   . . o ",
"X X X X X X X X X X X X X X X X X X X X X X X X X X X X X X X X X X X X X X X X X X X X X X X X X X X X X X X X X X X X X X X X X X X X X X X X X X X X X X X X X X X X X X X X X X X X X X X X X X X X X X X X X X X X X X X X X X X X X X X X X X X X X X X X X X X X X X X X X X X X X X X X X X X X X X X X X X X X X X X X X X X X X X X X X X X X X X X X X X X X X X X X X X X X X X X X X X X X X X X X X X X X X X X X X X X X X X X X X X X X X X X X X X X X X X X X X X X X X X X X X X X X X X X $ j iX1X  . o o $ ",
"qXqXqXqXqXqXqXqXqXqXqXqXqXqXqXqXqXqXqXqXqXqXqXqXqXqXqXqXqXqXqXqXqXqXqXqXqXqXqXqXqXqXqXqXqXqXqXqXqXqXqXqXqXqXqXqXqXqXqXqXqXqXqXqXqXqXqXqXqXqXqXqXqXqXqXqXqXqXqXqXqXqXqXqXqXqXqXqXqXqXqXqXqXqXqXqXqXqXqXqXqXqXqXqXqXqXqXqXqXqXqXqXqXqXqXqXqXqXqXqXqXqXqXqXqXqXqXqXqXqXqXqXqXqXqXqXqXqXqXqXqXqXqXqXqXqXqXqXqXqXqXqXqXqXqXqXqXqXqXqXqXqXqXqXqXqXqXqXqXqXqXqXqXqXqXqXqXqXqXqXqXqXqXqXqXqXqXqXqXqXqXqXqXqXqXqXqXqXqXqXqXqXqXqXqXqXqXqXqXqXqXqXqXqXqXqXqXqXqXqXqXqXqXqXqXqXqXqXqXqXqXqXqXqXqXqXqXqXqXqXqXqXqXqXqXqXqXrXxX7X  , k M #.>.",
"u.u.u.u.u.u.u.u.u.u.u.u.u.u.u.u.u.u.u.u.u.u.u.u.u.u.u.u.u.u.u.u.u.u.u.u.u.u.u.u.u.u.u.u.u.u.u.u.u.u.u.u.u.u.u.u.u.u.u.u.u.u.u.u.u.u.u.u.u.u.u.u.u.u.u.u.u.u.u.u.u.u.u.u.u.u.u.u.u.u.u.u.u.u.u.u.u.u.u.u.u.u.u.u.u.u.u.u.u.u.u.u.u.u.u.u.u.u.u.u.u.u.u.u.u.u.u.u.u.u.u.u.u.u.u.u.u.u.u.u.u.u.u.u.u.u.u.u.u.u.u.u.u.u.u.u.u.u.u.u.u.u.u.u.u.u.u.u.u.u.u.u.u.u.u.u.u.u.u.u.u.u.u.u.u.u.u.u.u.u.u.u.u.u.u.u.u.u.u.u.u.u.u.u.u.u.u.u.u.u.u.u.u.u.u.u.u.u.u.u.u.u.u.u.u.u.u.u.u.u.u.u.u.u.u.u.u.u.u.u.u.u.u.u.u.u.}.6.- o , k M $.,.8.",
"                                                                                                                                                                                                                                                                                                                                                                                                                                                                                                              O , g m M O.-.6.t.",
". . . . . . . . . . . . . . . . . . . . . . . . . . . . . . . . . . . . . . . . . . . . . . . . . . . . . . . . . . . . . . . . . . . . . . . . . . . . . . . . . . . . . . . . . . . . . . . . . . . . . . . . . . . . . . . . . . . . . . . . . . . . . . . . . . . . . . . . . . . . . . . . . . . . . . . . . . . . . . . . . . . . . . . . o o o o o o o o o o o o o o o o o o o o o o o o o o o o o o o o o o o o o o o o o o o o o o o o o o o o o o o o . . o , - k k g k c k c k k k k c m k m k k k l l M k $.,.6.t.,X",
"                                                                                                                                                                                                                                          . . . . . . . . . . . . . . . . . . . . . . . . . . . . . . . . . . . . . . . . . . . . . . . . . . . . . . . . . . . . . . . . . . . . . . . . . . . . . . . . . . . . . . . . . . . . . . . . . . . . . . . . . . .     . t - } g k g m V m M V V V M m M m V V C g k m c -.-.9.6.>.",
"                                                                                                                                                      . . . . . . . . . . . . . . . . . . . . . . . . . . . . . . . . . . . . . . . . . . . . . . . . . . . . . . . . . . . . . . . . . . . . . . . . . . . . . . . . . . . . . . . . . . . . . . . . . o o o o o o o o o o o o o o o o o o o o o o o o o o o o o o o o o o o o o o o o o o o o o o o o o o . o   . o k , -.c -.O.m j V m O.V V k m k m ` ,.$.k B ` V 6.,.%.-.-.",
"                                                                          . . . . . . . . . . . . . . . . . . . . . . . . . . . . . . . . . . . . . . . . . . . . . . . . . . . . . . . . . . . . . . . . . . . . . . . o o o o o o o o o o o o o o o o o o o o o o o o o o o o o o o o o o o o o o o o o o o o o o o o o o o o o o o o o o o o o o o o o o o o o o o o o o o o o o o o o o o o o o o o o o o o o o o o o o o o o o o o o o o o o o o o o o o o   . o m t 0.V 8.,.V V 9.O.>.#.+.O.>.O.,.O.9.>.m -.q.+.9.>.#.6.6X",
"                                      . . . . . . . . . . . . . . . . . . . . . . . . . . . . . . . . . . . . . . . . . . . . . . . . . . . . . . . . . . o o o o o o o o o o o o o o o o o o o o o o o o o o o o o o o o o o o o o o o o o o o o o o o o o o o o o o o o o o o o o o o o o o o o o o o o o o o o o o o o o o o o o o o o o o o o o o o o o o o o o o o o o o o o o o o o o o o o o o o o o o o o o o o o o o o o o o o o o o o o o o o o o o o   o $ V h u.` -.O.6.O.@X,.#.V ;.#.8.#.6.*.,X0.#.<X,X%.>.-.>.e.t.",
"                    . . . . . . . . . . . . . . . . . . . . . . . . . . . . . . . . . . . . . . . . . . . . . . . o o o o o o o o o o o o o o o o o o o o o o o o o o o o o o o o o o o o o o o o o o o o o o o o o o o o o o o o o o o o o o o o o o o o o o o o o o o o o o o o o o o o o o o o o o o o o o o o o o o o o o o o o o o o o o o o o o o o o o o o o o o o o o o o o o o o o o o o o o o o o o o o o o o - - - - - - - - - - - - - - - - - - - - O o - @.k 0Xi.7.u.6Xu.3X1Xe.t.<X,X2X,X<X,X6X2X}.6X7X2X8X,X9XsXqX",
"  . . . . . . . . . . . . . . . . . . . . . . . . . . . . . . . . . . . . . . o . o o o o o . o o o o o o o o o o o o o o o o o o o o o o o o o o o o o o o o o o o o o o o o o o o o o o o o o o o o o o o o o o o o o o o o o o o o o o o o o o o o o o o o o o o o o o o o o o o o o o o o o o o o - - - - - - - - - - - - - - - - - - - - - - - - - - - - - - - - - - - - - - - - - - - - - - - - - - - - - - - - - - - - - - - - - - - - - - - - - - - - - O o - -.m qXtXyXtXqXtXqXrXyXtXtXtXtXtXtXtXqXtXtXtXyXgXaXzXvXcXVX",
". . . . . . . . . . . . . . . . . . . . . . . . . . . . . o o o o o o o o o o o o o o o o o o o o o o o o o o o o o o o o o o o o o o o o o o o o o o o o o o o o o o o o o o o o o o o o o o o o o o o o o o o o o o o o o o o o o o o o o o o o o o - - - - - - - - - - - - - - - - - - - - - - - - - - - - - - - - - - - - - - - - - - - - - - - - - - - - - - - - - - - - - - - - - - - - - - - - - - - - - - - - - - - - - - - - - - - - - - - - - - - - - O $ ; >.` zXzXzXzXzXzXzXzXzXzXzXzXzXzXzXzXzXzXzXxXcXbXMXmXAXDXGX",
". . . . . . . . . . . . o o o o o o o o o o o o o o o o o o o o o o o o o o o o o o o o o o o o o o o o o o o o o o o o o o o o o o o o o o o o o o o o o o o o o o o o o o o o o o o o o o o o o o o o o - - - - - - - - - - - - - - - - - - - - - - - - - - - - - - - - - - - - - - - - - - - - - - - - - - - - - - - - - - - - - - - - - - - - - - - - - - - - - - - - - - - - - - - - - - - - - - - - - - - - - - - - - - - - - - - - - - - - - - - - - - < O $ > 7.j <X<X<X<X<X<X<X<X<X<X<X<X<X<X<X<X<X<X2X2X1X3X6X9XqXtXtX",
". . . . . . . . . . . . o o o o o o o o o o o o o o o o o o o o o o o o o o o o o o o o o o o o o o o o o o o o o o o o o o o o o o o o o o o o o o o o o o o o - - - - - - - - - - - - - - - - - - - - - - - - - - - - - - - - - - - - - - - - - - - - - - - - - - - - - - - - - - - - - - - - - - - - - - - - - - - - - - - - - - - - - - - - < < < < < < < < < < < < < < < < < < < < < < < < < < < < < < < < < < < < < < < < < < < < < < < < < < < < < < < , O - ; ,Xq.-.;.;.;.;.;.;.;.;.;.;.;.;.;.;.;.;.;.;.;.:.:.:.:.;.;.;.",
". . . o o o o o o o o o o o o o o o o o o o o o o o o o o o o o o o o o o o o o o o o o o o o o o o o o o o o o o o o o o o o o o o o o o o - - - - - - - - - - - - - - - - - - - - - - - - - - - - - - - - - - - - - - - - - - - - - - - - - - - - - - - - - - - - - - - - - - - - - - - - - - - - - - - - - - < < < < < < < < < < < < < < < < < , , , , , , , , , , , , , , , , , , , , , , , , , , , , , , , , , , , , , , , , , , , , , , , , , , , , , , , o - p B ;.;.;.;.;.;.;.;.;.;.;.;.;.;.;.;.;.;.;.;.;.;.;.;.;.;.:.:.",
". . . . o o o o o o o o o o o o o o o o o o o o o o o o o o o o o o o o o o o o o o o o o o o o o o o o o o o o o o o o o o o o o o o o o o o - - - - - - - - - - - - - - - - - - - - - - - - - - - - - - - - - - - - - - - - - - - - - - - - - - - - - - - - - - - - - - - - - - - - - - - - - - - - - - - - - - - < < < < < < < < < < < < < < < < < < , , , , , , , , , , , , , , , , , , , , , , , , , , , , , , , , , , , , , , , , , , , , , , , , , , , , o $ h , ; ; ; ; ; ; ; ; ; ; ; ; ; ; ; ; ; ; ; ; ; ; ; ; ; ; ; ; ",
". . . . o o o o o o o o o o o o o o o o o o o o o o o o o o o o o o o o o o o o o o o o o o o o o o o o o o o o o o o o o o o o o o o o o o o o - - - - - - - - - - - - - - - - - - - - - - - - - - - - - - - - - - - - - - - - - - - - - - - - - - - - - - - - - - - - - - - - - - - - - - - - - - - - - - - - - - - - < < < < < < < < < < < < < < < < < < , , , , , , , , , , , , , , , , , , , , , , , , , , , , , , , , , , , , , , , , , , , , , , , , , , o * g t t t t p p p p p p p p p p t t t y p p p p p p p p p t t ",
". . . . . o o o o o o o o o o o o o o o o o o o o o o o o o o o o o o o o o o o o o o o o o o o o o o o o o o o o o o o o o o o o o o o o o o o - - - - - - - - - - - - - - - - - - - - - - - - - - - - - - - - - - - - - - - - - - - - - - - - - - - - - - - - - - - - - - - - - - - - - - - - - - - - - - - - - - - - - < < < < < < < < < < < < < < < < < < < , , , , , , , , , , , , , , , , , , , , , , , , , , , , , , , , , , , , , , , , , , , , , , , , o $ h t t t t > > > > > > > > ; > t t t > > > > > > > > > ; t t ",
". . . . . o o o o o o o o o o o o o o o o o o o o o o o o o o o o o o o o o o o o o o o o o o o o o o o o o o o o o o o o o o o o o o o o o o o o - - - - - - - - - - - - - - - - - - - - - - - - - - - - - - - - - - - - - - - - - - - - - - - - - - - - - - - - - - - - - - - - - - - - - - - - - - - - - - - - - - - - - - < < < < < < < < < < < < < < < < < < < , , , , , , , , , , , , , , , , , , , , , , , , , , , , , , , , , , , , , , , , , , , , , , o $ h t t > m -.-.-.,.,.,.>.>.>.>.m ; k -.-.-.,.,.,.,.>.>.6.` > ",
". . . . . . o o o o o o o o o o o o o o o o o o o o o o o o o o o o o o o o o o o o o o o o o o o o o o o o o o o o o o o o o o o o o o o o o o o o - - - - - - - - - - - - - - - - - - - - - - - - - - - - - - - - - - - - - - - - - - - - - - - - - - - - - - - - - - - - - - - - - - - - - - - - - - - - - - - - - - - - - - < < < < < < < < < < < < < < < < < < < < < , , , , , , , , , , < , - , - - , - , , - - , , < < < - < , < < - , - - , , - < , , , o $ h t t > B yXdXsXfXdXdXzXzXcXaXN ; k 7XdXsXfXdXdXzXzXcXzX#.; ",
". . . . . . o o o o o o o o o o o o o o o o o o o o o o o o o o o o o o o o o o o o o o o o o o o o o o o o o o o o o o o o o o o o o o o o o o o o o - - - - - - - - - - - - - - - - - - - - - - - - - - - - - - - - - - - - - - - - - - - - - - - - - - - - - - - - - - - - - - - - - - - - - - - - - - - - - - - - - - - - - - - < < < < < < < < < < < < < < < < < < < < < , , , , , , < - , - k - g g - k - - l k - , , , , k , - , , k - k g - - l g - , , o * h t t > N tXfXdXvXcXcXcXzXcXuXm > j 6XdXdXvXcXcXcXzXvXdX$.> ",
". . . . . . . o o o o o o o o o o o o o o o o o o o o o o o o o o o o o o o o o o o o o o o o o o o o o o o o o o o o o o o o o o o o o o o o o o o o - - - - - - - - - - - - - - - - - - - - - - - - - - - - - - - - - - - - - - - - - - - - - - - - - - - - - - - - - - - - - - - - - - - - - - - - - - - - - - - - - - - - - - - - - < < < < < < < < < < < < < < < < < < < < < < , , , o t.0.V 6X-.u.t.6.,X-.o $.u.$.  0.k k ,X,.9.t.m ,X>.6.u., l u.t.g - , o * h t t > N tXdX6X8.t.9.,XzXvXuXm > j 6XdXtX8.q.9.y.dXxXdX$.> ",
". . . . . . . o o o o o o o o o o o o o o o o o o o o o o o o o o o o o o o o o o o o o o o o o o o o o o o o o o o o o o o o o o o o o o o o o o o o o - - - - - - - - - - - - - - - - - - - - - - - - - - - - - - - - - - - - - - - - - - - - - - - - - - - - - - - - - - - - - - - - - - - - - - - - - - - - - - - - - - - - - - - - - - < < < < < < < < < < < < < < < < < < < < < < , - #.6.0.k tX#.#.<X1X#.o k 1XV < t., - k t.O.9.. M t.  i.k g 1Xu., < , o * h t t > N tXdXtXq.$ %.8XdXxXuXm > j 6XdXyXy $ . %.xXzXdX+.> ",
". . . . . . . . o o o o o o o o o o o o o o o o o o o o o o o o o o o o o o o o o o o o o o o o o o o o o o o o o o o o o o o o o o o o o o o o o o o o o - - - - - - - - - - - - - - - - - - - - - - - - - - - - - - - - - - - - - - - - - - - - - - - - - - - - - - - - - - - - - - - - - - - - - - - - - - - - - - - - - - - - - - - - - - - < < < < < < < < < < < < < < < < < < < < , - m 6.6.m tX#.,.6X9.>.o - ,.>.m 0.o < 9.k k 0.- t., #.,.  M t.u.k - , o * h t t > N tXaXzX8.; O.zXzXzXiXm > j 6XaXzX1X> m sXzXzXsX+.> ",
". . . . . . . . o o o o o o o o o o o o o o o o o o o o o o o o o o o o o o o o o o o o o o o o o o o o o o o o o o o o o o o o o o o o o o o o o o o o o o - - - - - - - - - - - - - - - - - - - - - - - - - - - - - - - - - - - - - - - - - - - - - - - - - - - - - - - - - - - - - - - - - - - - - - - - - - - - - - - - - - - - - - - - - - - - < < < < < < < < < < < < < < < < < < , - C -.M 6X-.t.y.6.y.0.V -.,XM -.V . ,.tX$.m -.6.8X,.tX9.$.O.t.t.l - , o * h t t > N hXdX1X$ ; . 6.zXzXtXm > j 0XdXtXt.> B 2XsXzXaXO.> ",
". . . . . . . . . o o o o o o o o o o o o o o o o o o o o o o o o o o o o o o o o o o o o o o o o o o o o o o o o o o o o o o o o o o o o o o o o o o o o o o - - - - - - - - - - - - - - - - - - - - - - - - - - - - - - - - - - - - - - - - - - - - - - - - - - - - - - - - - - - - - - - - - - - - - - - - - - - - - - - - - - - - - - - - - - - - - < < < < < < < < < < < < < < < < < < < , - g - , , - l < , g g - , < , , g l < , , g l , l g - g , - , , o * h t t > N 8XsX6Xt.i.t.<XdXdXtXm > j 1XfX8Xq.i.y.u.aXdXaXO.> ",
". . . . . . . . . . o o o o o o o o o o o o o o o o o o o o o o o o o o o o o o o o o o o o o o o o o o o o o o o o o o o o o o o o o o o o o o o o o o o o o - - - - - - - - - - - - - - - - - - - - - - - - - - - - - - - - - - - - - - - - - - - - - - - - - - - - - - - - - - - - - - - - - - - - - - - - - - - - - - - - - - - - - - - - - - - - - - - - < < < < < < < < < < < < < < < < < < - , - - < - < - - - , < , , < - - , < < - - - - - , - - , < , O - g t t > m 8XaXsXzXzXzXzXsXdXtXm > j 1XaXaXzXzXzXzXfXdXaXO.> ",
". . . . . . . . . . o o o o o o o o o o o o o o o o o o o o o o o o o o o o o o o o o o o o o o o o o o o o o o o o o o o o o o o o o o o o o o o o o o o o o o - - - - - - - - - - - - - - - - - - - - - - - - - - - - - - - - - - - - - - - - - - - - - - - - - - - - - - - - - - - - - - - - - - - - - - - - - - - - - - - - - - - - - - - - - - - - - - - - - < < < < < < < < < < < < < < < < < < < < < < < < < < < < < < < < < < < < , , , , , , , , < , <   , g t t > N 8XuXuXuXuXuXuXaXaX8Xm > k 1XuXiXuXuXuXuXaXaXuXO.> ",
". . . . . . . . o . o o o o o o o o o o o o o o o o o o o o o o o o o o o o o o o o o o o o o o o o o o o o o o o o o o o o o o o o o o o o * - - - - - - - - - - - - - - - - - - - - - - - - - - - - - - - - - - - - - - - - - - - - - - - - - - - - - - - - - - - - - - - - - - - - - - - - - - - - - - - - - - - - - - - - < < < < < < < < < < < < < < < < < < < < < , , , , , , , , , , , , , , , , , , , , , , , , , , , , , , , , , , , , , , , , , , , O . p p t t t c $.O.$.$.$.$.$.$.$.#.c > j $.O.+.$.$.$.$.$.$.#.N t ",
"                      O O O O O O O O O O O O O O O O O O O O O O O O O O O O O O O O O O O O O O O O o o o o o o o o o o o o o o o o o o o o o o o o o o o o o o o o o o o o o o o o o o o o o o o o o o o o o o o o o o o o o o o o o o o o o o o o o o o o o o o o o o o o o o o o o o o o o o o + + + + + + + + + + + + + o + - - - - - - - - - - - - - - - - - - - - - - - - - - - - - - - - - - - - - - - - - - - - - - - - - - - - - - - - - - - - o   . t t g t t t t > > > > > > > > > > t t t > > > > > > > > > > t t ",
". . . . . . . . . . . . . . . . . . . . . . . . . . . . . . . . . . . . . . . . . . . . . . . . . . . . . . . . . . . . . . . . . . . . . . . . . . . . . . . . . . . . . . . . . . . . . . . . . . . . . . . . . . . . . . . . . . . . . . . . . . . . . . . . . . . . . . . . . . . . . . . . . . . . . . . . . . . . . . . . . . . . . . . . . . . . . . . . . . . . . . . . . . . . . . . . . . . . . . . . . . . . . . . . . . . . . . . . . . . . . . - t t t p t t t t t t t t t t t t t t t t t t t t t t t t t t t t t ",
"t t t t t t t t t t t t t t t t t t t t t t t t t t t t t t t t t t t t t t t t t t t t t t t t t t t t t t t t t t t t t t t t t t t t t t t t t t t t t t t t t t t t t t t t t t t t t t t t t t t t t t t t t t t t t t t t t t t t t t t t t t t t t t t t t t t t t t t t t t t t t t t t t t t t t t t t t t t t t t t t t t t t t t t t t t t t t t t t t t t t t t t t t t t t t t t t t t t t t t t t t t t t t t t t t t t t t t t t t t t t t t t t t t t t t t t t t t t t t t t t t t t t t t t t t t t t t t t t ",
"t t t t t t t t t t t t t t t t t t t t t t t t t t t t t t t t t t t t t t t t t t t t t t t t t t t t t t t t t t t t t t t t t t t t t t t t t t t t t t t t t t t t t t t t t t t t t t t t t t t t t t t t t t t t t t t t t t t t t t t t t t t t t t t t t t t t t t t t t t t t t t t t t t t t t t t t t t t t t t t t t t t t t t t t t t t t t t t t t t t t t t t t t t t t t t t t t t t t t t t t t t t t t t t t t t t t t t t t y t t t t t t t t t t t t t t t t t t t t t t t t t t t t t t t t t t t t t t t ",
"t t t t t t t t t t t t t t t t t t t t t t t t t t t t t t t t t t t t t t t t t t t t t t t t t t t t t t t t t t t t t t t t t t t t t t t t t t t t t t t t t t t t t t t t t t t t t t t t t t t t t t t t t t t t t t t t t t t t t t t t t t t t t t t t t h h t t t t t t t t t t t t t t t t t t t t t t t t t t t t t t t t t t t t t t t t t t t t t t t t t t t t t t t t t t t t t t t t t t t t t t t t t t t t t t t t t t t t t c t t t t t t t t t t t t t t t t t t t t t t t t t t t t t t t t t t t t t t t ",
"t t t t t t t t t t t t t t t t t t t t t t t > > > t t t t t t t t t t t t t t t t t t t t t t t t ; t t t t t > t t t t t t t t t t t t t t t t t t > t t t t t t t t t t t t t t t t t t t t t t t t t t t t t t > > t t t t t t t t t t t t t t t t t t t t t h h t t t t t t t t t t t t t t t t t t t t t t t t t t t t t t t t t t t t t t t t t t ; t t t > t t t t t t t t t t t t t t t t t t t t t > t t t t t t t t t t t t t t t t c t t t t t t t t t t t t t t t t t t t t t t t t t t t t t t t t t t t t t t t ",
"t t t t t t t t > t t t t t t t t g t g t t t b b c > t t t t t t > > t t t t t t t t h p t t t t p B t t t t h m > t t t t t t t t t t p h t t t t > N h t t t t t t t t t t t > t t t t t t t t t t t t t t t t > c c > t > > t t t t t t t t t t t t t t t t t h h t t t t t > t g t t t t t t t t t t t t t t t t t t t t t t g t t t t t t t t t t t B t t > N h > t t t t t t t t t t t t > t t > t t > N h > t t t t t t t t t t t t t t c t t t t t t t t t t g t > t t t t t t t t t t t t t t t t t t t t t t t t > t ",
"p t > h t t t g @.y t t t t t t h 9.3X1.g h t t 1.%.- t p g t t ; O.b > t t t t t ; e.y.O.t h > > m y.$ h t t g j > g t t t t t t t ; +.,X:.g h t t ; t.m > g > t > g > t t t t @.g t t t t t t t t t t t t ; ` ;.- j h t p B B ; g t > p t t t t t t t t t t t t h h t t t t t h 7.q.c > g > t t t t t g > h t g t t t t t t ; 1.u.7.g > g > h > t t > j i.; h $ 8.` t g > t t t t t t t t ; +.,X$ O.,Xt j $ q.B ; t h t t t t t t y > t t t t c t t t t t t t t ; 6.u.q.c ; g t t t t t t t t t t t t t t t t t t > N :.c u.> ",
"t > 1.9.6.m @.>.8XO.> t t t t t > g e.; ` t.@.-.:.%.$ ` i.>.;.j 1.@Xy.> t t t t t > y.c > O.t.B 1.}.q.m t.:.; B *.>.u.8.t t t t t t * ;.>.; c 8.:.O.t.2XN 4.9.c ; %.}.%.@.O.` >.7X%.> t t t t t t t t t t t ; +.7.X #.%.8.;.u.@X` t.*.:.i.q.g t t t t t t t t t t h h t t t t ; B ,X> p 9.i.N 4.g 1.+.@XB :.e.O.9.1.t t t t t - 9.` t.%.}.O.#.t.+.$ ; 1.i.i.c t.*.7.` @.9.7.B %.+.; t t t t ; @.8Xg 1.3Xj 8.;.1.-.;.} t.%.6.h 1.+.i.t.N > t t t c t t t t t t t t ; e.j +.8.7.7.8.j 1.m > t t t t t t t t t t t t t t h q.@.6X} ",
"t c y.. 6.N %.;.4.; t t t t t t t j q.t N q.e.6.:.%.$ q.c j 8.g 7.>.m ; t t t t t ; }.u.` N e.u.1.j q.q.q.,Xp ` 4.9.c q.c > t t t t - %.3X-.c >.}.i.h 6.4.u.y.;.> i.> 9.7.` O.:.6.> t t t t t t t t t t t t ; O.1.  ;.:.7.` ;.` 8.t.y.@Xm 6.B ; t t t t t t t t t h h t t t t t > %.t.1.-.c q.9.t 7.>.4.t i.X 9.t.@XN > t t t * 8.<X} } e.; 2X7.@X*.+.9.g q.9.t.y.i.B B u.q.1.9.c > t t t t ; O.i.-.6.q.c >.y.9.rXh u.q.u.u.t 6.1.;.N 8.- t t t c t t t t t t t t ; 9.c h q.}.p %.4.8.t t t t t t t t t t t t t t t t ; 7.q.;.u.",
"t h u.h 6.%.t.-.t.h t t t t t t > j t.j }.q.y.7.1.*.X 8.%.N t.%.q.1.%.; t t t t t > i.t j }.q.i.7.@.y.6.9.` ; ` 6.8.h e.c > t t t t $ :.-.. t.q.u.y.} i.;.}.+.j t y.` 8.:.:.8.:.t.c t t t t t t t t t t t t ; +.t.> 1.;.h i.i.%.4.e.c t.c 7.` ; t t t t t t t t t h h t t t t t h p 1.i.1.%.1.9.O.u.:.;.> }.j 6.t.` g t t t t * q.B . +.6.$ @X:.B B N t.O.i.1.t.b 8.6.t.u.%.t.t.; t t t t t - *.;.1X:.8.t.e.y.q.}.%.q.7.m t.O.}.-.8.-.1.; t t t c t t t t t t t t - t.` 1.1.q.g p 3X;.; t t t t t t t t t t t t t t t ; ;.7Xp tX",
"t > +.9.B 6.6.j ;.@.; t t t t t t g %.t -.1.O.+.` B ; j q.+.%.9.O.N 6.t t t t t t t %.h t :.1.N @.9.@.h 6.%.> c O.+.g @.h t t t t t ; ` ` ; } 6.@.N 7.1.g %.6.j ; B e.B y 6.7.c %.*.; t t t t t t t t t t t > c y.6.@.` :.:.m 6.c 1.#.@.h O.c > t t t t t t t t t h h t t t t > j 8.1.t -.8.t ` 9.-.B ` * +.q.b >.;.t t t t t ; +.b ; m +.* B 7.` ; ; @.8.%.p 6.%.+.N >.1.p 6.;.- t t t t t ; B N %.m O.} 6.+.@.c %.m 7.O.B 9.-.@.,X1.h t t t t c t t t t t t t t ; %.t.:.t %.g $ u.B ; t t t t t t t t t t t t t t t > N -.; >.",
"t t ; ; > ; - t ; > t t t t t t t t ; t ; ; ; ; > > t t - > ; - ; > ; t t t t t t t ; t t ; ; > ; - ; t ; ; t > > ; t ; t t t t t t t > > t > ; ; > ; ; t ; ; t t > - > t ; - > ; ; t t t t t t t t t t t t t t * ; ; > ; ; > ; > ; > ; t > t t t t t t t t t t t h h t t t t t t ; ; t ; - t > - ; > > t ; ; > ; ; t t t t t t ; > t > ; t > ; > t t ; ; ; t ; > ; > ; $ B y.p t t t t t t t > > ; > ; ; ; ; ; t ; > ; > > ; X @.-.. t t t t t c t t t t t t t t t ; - ; t > ; -.8.> t t t t t t t t t t t t t t t t t > ; t ; ",
"t t t t t t t t t t t t t t t t t t t t t t t t t t t t t t t t t t t t t t t t t t t t t t t t t t t t t t t t t t t t t t t t t t t t t t t t t t t t t t t t t t t t t t t t t t t t t t t t t t t t t t t t t t t t t t t t t t t t t t t t t t t t t t t t t h h t t t t t t t t t t t t t t t t t t t t t t t t t t t t t t t t t t t t t t t t t t t t t t t t t t j h > t t t t t t t t t t t t t t t t t t t t t t t t y g t t t t t t c t t t t t t t t t t t t t t t c p t t t t t t t t t t t t t t t t t t t t t t ",
"t t t t t t t t t t t t t t t t t t t t t t t t t t t t t t t t t t t t t t t t t t t t t t t t t t t t t t t t t t t t t t t t t t t t t t t t t t t t t t t t t t t t t t t t t t t t t t t t t t t t t t t t t t t t t t t t t t t t t t t t t t t t t t t t t h h t t t t t t t t t t t t t t t t t t t t t t t t t t t t t t t t t t t t t t t t t t t t t t t t t t > t t t t t t t t t t t t t t t t t t t t t t t t t t t t t t t t t t c t t t t t t t t t t t t t t t > t t t t t t t t t t t t t t t t t t t t t t t ",
"t t t t t t t t t t t t t t t t t t t t t t t t t t t t t t t t t t t t t t t t t t t t t t t t t t t t t t t t t t t t t t t t t t t t t t t t t t t t t t t t t t t t t t t t t t t t t t t t t t t t t t t t t t t t t t t t t t t t t t t t t t t t t t t t > h h > t t t t t t t t t t t t t t t t t t t t t t t t t t t t t t t t t t t t t t t t t t t t t t t t t t t t t t t t t t t t t t t t t t t t t t t t t t t t t t t t t t t t c t t t t t t t t t t t t t t t t t t t t t t t t t t t t t t t t t t t t t t t ",
"v v v v v v v v v v v v v v v v v v v v v v v v v v v v v v v v v v v v v v v v v v v v v v v v v v v v v v v v v v v v v v v v v v v v v v v v v v v v v v v v v v v v v v v v v v v v v v v v v v v v v v v v v v v v v v v v v v v v v v v v v v v v v v v c h h h h c v v v v v v v v v v v v v v v v v v v v v v v v v v v v v v v v v v v v v v v v v v v v v v v v v v v v v v v v v v v v v v v v v v v v v v v v v v v v v v v v v c p v p c v v v v v v v v v v v v v v v v v v v v v v v v v v v v v v v v v v v v v ",
"y y y y y y y y y y y y y y y y y y y y y y y y y y y y y y y y y y y y y y y y y y y y y y y y y y y y y y y y y y y y y y y y y y y y y y y y y y y y y y y y y y y y y y y y y y y y y y y y y y y y y y y y y y y y y y y y y y y y y y y y y y y y y y y y t h h t y y y y y y y y y y y y y y y y y y y y y y y y y y y y y y y y y y y y y y y t y t y y y y y y y y y y y y y y y y y y y y y y y y y y t y t y y y y y y y y y y y y t c t y y y y y y y y y y y p y p p y y y y y y y y y y y y y y y y y y y y y y y ",
"t t t t t t t t t t t t t t t t t t t t t t t t t t t t t t t t t t t t t t t t t t t t t t t t t t t t t t t t t t t t t t t t t t t t t t t t t t t t t t t t t t t t t t t t t t t t t t t t t t t t t t t t t t t t t t t t t t t t t t t t t t t t t t t t > h h > t t t t t t t t t t t t t t t t t t t t t t t t t t t t t t t t t t t t t t t r r r r t t t t t t t t t t t t t t t t t t t t t t t t t r r r r t t t t t t t t t t t t c t t t t t t t t t t t t w r w r t t t t t t t t t t t t t t t t t t t t t t , ",
", t t t t t t t t t t t t t t t t t t t t t t t , , , , t t t t t t t t t t t t t t t t t t t t t t w r w t t t t t t t t t t t t t t t t t t t t t t t t w r w r t t t t t t t t t t t t t t t t t t t t t t t t t t t t t t t t t t t t t t t t t t t t t t t t h h t t t t t t t t t t t t t t t t t t t t t t t t t t t t t t t t t t t t t r r i 3 3 3 3 r r t t t t t t t t t t t t t t t t t t t t q q i 2 3 2 3 q q t t t t t t t t t t c t t t t t t t t t w u p 9 8 8 8 r w t t t t t t t t t t t t t t t t y t < , d ",
"a : : t t t t t t t t t t t t t t t t t t t : : a d d d t < t t t t t t t t t t t t t t t t t t u p 9 8 x g u w t t t t t t t t t t t t t t t t t t t w w 9 8 8 8 w w t t t t t t t t t t t t t t t t t t t t t t t t t t t t t t t t t t t t t t t t t t t t t t h h t t t t t t t t t t t t t t t t t t t t t t t t t t t t t t t t t t t t r S D A f.D d.s.A A t r t t t t t t t t t t t t t t t t r r A D s.k.s.k.g.D A r r t t t t t t t t c t t t t t t t t u U L.! !.E P.P.Y ( p w t t t t t t t t t t t t t t < a {.X..X",
"_. .X.< , t t t t t t t t t t t t t t t , < [  ._.]._.].[ ..y < t t t t t t t t t t t t t t u 9 E ( Y.E Y.W E U u t t t t t t t t t t t t t t t t w r ! Y U.L.P.L.W W w w t t t t t t t t t t t t t t t t t t t t t t t t t t t t t t t t t t t t t t t t t t t t h h t t t t t t t t t t t t t t t t t t t t t t t t t t t t t t t t t t t 3 A s.j.d.j.s.f.f.f.f.A S r t t t t t t t t t t t t t t r S D h.k.l.k.g.k.l.k.j.D S r t t t t t t t c t t t t t t t x ! U.~.!.~.L.U.W.Y.W.Y U t t t t t t t t t t t t t t ] {.=X=X=X",
"oX%X`...) : t t t t t t t t t t t t t : )  .'.%XoXXX'.%XoXoX..[ : t t t t t t t t t t t r g ! ! Q.Y.Q.E Q.Y.Q.E ! l w t t t t t t t t t t t t t w Y W U.Y.Q.P.U.Q.Q.U.! U w t t t t t t t t t t t t t t t t t t t t t t t t t t t t t t t t t t t t t t t t t t t h h t t t t t t t t t t t t t t t t t t t t t t t t t t t t t t t t t t r s.h.D d.s.A 2 A D d.D d.h.2 r t t t t t t t t t t t t r i j.k.s.l.g.D S D g.l.s.l.l.3 r t t t t t t c t t t t t t w I.~.P.Q.Q.z.9 U Q U.L.P.Q.U w t t t t t t t t t t : _ =X.X[.=X{.",
"..`...%X_.a t t t t t t t t t t t t t a ..%X..`._._ ) X.`...XXXXf , t t t t t t t t t t g U Y.P.L.P.Y 9 Y L.L.L.Q.Y t t t t t t t t t t t t t t 9 P.Y.Q U.Q 9 U Q P.! Q.L.8 t t t t t t t t t t t t t t t t t t t t t t t t t t t t t t t t t t t t t t t t t t t h h t t t t t ; * * * * * * * * * * - * ; ; * - * * t t t t t t t t t 3 s.s.h.D t = % X X = > S h.d.s.A r t t t t t t t t t t r S f.f.k.s.t = % X X = t D k.h.h.S r t t t t t c t t t t t g T.U.~.Y.l * % $ X % ; 9 Y.U.P.W w t t t t t t t t : {.[..X=X_ ; @ ",
"+ < X.%XXXXXy t t t t t t t t t t t a XX].oXX.< + O O O & f oXXXoX_ : t t t t t t t t u Q Y.Y.P.g % % . X % t L.Y.Y.L.w t t t t t t t t t t w 9 Y.U.Y.U * % . X % u Y W.U.Y.8 r t t t t t t t t t t t t t t t t t t t t t t t t t t t t t t t t t t t t t t t t t h h t t t t t +.-.*.*.*.*.*.*.*.*.*.*.;.} O.;.%.%.*.j ; t t t t t t r S h.j.D ; X o < , : # . = 2 f.j.s.t t t t t t t t t t t r s.k.k.D = . + < , < + . = D k.k.s.r t t t t t c t t t t w U ^.~.T.> X O O.9.8 # o % 9 U.!.P.g t t t t t t t t y .X=X=X) + . p ",
"- . + X.oX..[ , t t t t t t t t t , [ ..oXX.& . * , , - o O f oX'.X.a t t t t t t t r 9 ! P.P., . o < , < # . ; L.U.! 9 w t t t t t t t t t t W L.Y.U % O - , , - o % Y Y.E Y t t t t t t t t t t t t t t t t t t t t t t t t t t t t t t t t t t t t t t t t t t h h t t t h fXSXGXJXJXJXJXJXGXGXJXJXFXHXaXsXHXFXHXJXcXb > t t t t r 2 s.D D ; . < l C M M C g o = A D s.D r t t t t t t t t q D h.s.D = O : k C M M m 8 o = s.s.f.D q t t t t c t t t w 9 Q.P.I.8 . < , i.CX<.z l # % U Q E E w t t t t t t : [.[.[._ O $ , ~ ",
"m 8 o ; [ ].oXa , t t t t t t t , a oXXX_ - O , Z M V M l o + ) _.%X[ : t t t t t t u E Q.! g . # l C V V z < . t W Y.P.w t t t t t t t t w U Q.P.9 $ o 8 z M V C g o * U P.Y.9 w t t t t t t t t t t t t t t t t t t t t t t t t t t t t t t t t t t t t t t t t h h t y * >.HXJXFXAXAXZXAXAXZXZXAXAXAXGXuXpXGXAXzXZXHX,X$ y t t t r A h.f.3 X - Z M V V ~ ~ V l o = D j.d.t t t t t t t t t q s.k.j.t . : z M V V ~ O.V g o q f.k.d.q t t t t c t t t w Y ~.~.U . # k Z t.FX6.M ~ k o % ( !.U.g t t t t t t y .X=X{.@ o g m ~ ",
"~ M , O _ %X_.f , t t t t t t t , f ..%X_ O - z V V V ~ K l O r oX].[ t t t t t t t g Y Y.I.% o l C V V ~ ~ m # % E Q.! l t t t t t t t t t U I.Y.8 . , m V V K ~ V 5 . 9 Q.L.9 r t t t t t t t t t t t t t t t t t t t t t t t t t t t t t t t t t t t t t t t t h h t p $ y.CX8XzXAXbXFXGXHXxXaXHXZXAXHXpXpXHXtXt lXHX7X$ p t t t i D d.s.; o l C M V V V K ~ M < X A f.D 2 r t t t t t t r 2 s.l.g.= + l M M M V M C M l o = s.k.s.3 r t t t c t t t t E Q.!., . g C z -.HXu.z O.V 5 . U Y.L.9 w t t t t : ] [.=X] O ; z M k ",
"~ ~ l O a XX%X..< t t t t t t t < ..%XXXy O g m k C V V ~ m - + _.%X].t t t t t t w 9 Y.Q.Y X - z M M V V ~ V 8 . U Y.Q.U w t t t t t t t r P.Q.I.* o l M M V V K ~ k o , U.Q.L.w t t t t t t t t t t t t t t t t t t t t t t t t t t t t t t t t t t t t t t t t h h t p $ }.yXrX1XdXmXCXiXvXkX}.dXVXt.zXaXaXZX} > -.JX7X$ p t t t i f.j.D = - k M C m V V V ~ K l X 3 f.j.A r t t t t t t r S k.k.D X < z C M M M #.0.9.9.F = A k.k.A q t t t c t t t t !.~.U.% # k C m $.tXa.M ~ ~ l o , U.!.! w t t t y < {.=X=Xa O g m M z ",
"V K Z o ;  ._.[ : t t t t t t t : [ _. .; O , M ,X,.C V K M - o [ _. .t t t t t t w x E E 9 . < m C C m V V V l . 8 E E 9 w t t t t t t t t W L.Y $ + k m M C M V K z o - W L.Y w t t t t t t t t t t t t t t t t t t t t t t t t t t t t t t t t t t t t t t t t h h t p $ u.gX,X7XaX7XqXtXt.aX}.9XyXi.bXaXaXSXMXCXnXFX9X$ p t t t i D s.S X - m z M -.C V V V V l o : D D S r t t t t t t r 2 g.g.2 . : m C C V Z ,XJXFXGX6X; 3 s.s.2 r t t t c t t t t L.U.( % # k C C C k C V V K k o ; W z.Y w t t t t : ] [.{.> O g m C M ",
"M V l o > `.%X..< t t t t t t t < ..%X`.r o ,.nXHX0Xk V V m - @  .%X`.t t t t t t w 9 Y.Y.U . < k V lXi.z V M 8 . 9 Y.Y.U w t t t t t t t r P.Q.E $ o l z aXuXm M V k o ; I.Q.E w t t t t t g h g g g h h h h h h h h h h k y t h h g g h h h h h h h h h h j j > h h t p $ u.aX@X3XnX3X3XFX9XiXaXnXqX7XHXpXaXCX:.%.9.JX9X$ p t t t i d.h.A % - g V sXBXO.C V V V l . 3 d.h.A r t t t t t t r S k.k.A X < z m C M C <.p.0.>.Z X 2 f.f.2 r t t t c t t t t !.~.I.% # k m C C V M M V V l o , P.W.W w t t t y < {.=X.Xr O g m m C ",
"M m , O ) oX'._ : t t t t t t t : _ '.%X) - ,XdX9.M C M M l o ; ].XX .t t t t t t r 8 Q Y.L.% # 8 8XHX9.z V z - % W W.L.9 w t t t t t t t t Y U.Y.8 . < 6XHX<Xz M C 8 . 0 Y.P.Y w t t t t t k u.1X1X1X0X6X6X6X7X9X9X8X8XtXi.p > #.1X1X1X1X6X6X6X6X7X9X9X8X8X8X#.; j h t p $ }.uXcXuX6XtXgX3Xy.gXpXvXtX7XaXaXuXHXu.  8XHX7X$ p t t t i D f.s.= O >.CXFXu.C M M M C : X S f.s.S r t t t t t t r 2 f.k.s.= + k m m C M m z z k + X D f.s.2 r t t t c t t t t I.^.Y.; o g m m C C M M M C 8 . 9 Y.P.Y w t t t t : [ .X=X) O , z m m ",
"m g o + [ oXXXa , t t t t t t t , a XX%X[ + , , g z m m l - o d `.%X[ : t t t t t t w E !.L.w   k cX6Xl C k , O ; ! Q.L.w t t t t t t t t w U Q.U.x . g aX6Xl C z g o $ U Y.Y.9 w t t t t t h 6XzXdXdXzXzXzXxXvXvXcXcXcXMX,Xt > #.sXdXdXdXzXzXzXxXvXcXcXcXnXvX#.; j h t p $ 8.FXCXAXMXCXMXgXy.mXCXCXCXBXmXuXuXJXBX7XZXHX6X$ p t t t r A f.f.: - ,XsX-.l m C M C l o = D j.s.t t t t t t t t t r s.k.h.; O , Z m m C C M C g o = s.h.D r t t t t c t t t w Y ^.~.9 . - k m m C C M C l # % W !.P.l t t t t t , a [.=X{.@ o g z m ",
"- o @ _ `. ...t t t t t t t t t t t _.'.%X[ O o < , 8 , o O t `.....f , t t t t t t w Y n.E E % , #.8 , , - O % W L.! ( w t t t t t t t t r 8 L.! P.8 * C - , 8 < o % 9 P.W E g t t t t t t h 1XfXaXaXfXdXdXdXdXzXzXzXzXcX,Xt > #.gXaXaXsXfXdXdXdXdXzXzXzXvXdX#.; j h t t > c mXHXHXHXHXMXtXnXHXHXHXHXHXHXfXdXHXJXHXHXZX@.; t t t t r S f.D S ; , < g m m m z l + X 3 A d.s.r t t t t t t t t q D l.g.S = O , k z m m z g o $ 2 D f.D r t t t t c t t t w U ^.T.W ; O < l z m m m l # . 8 Y P.P.t t t t t t t , [..X{.d O * g Z ",
"o - [ XX%XoXa , t t t t t t t t t , d -X;X-XX.- o o . o * d `.oX%X[ : t t t t t t t t w E Q.Y.E , o o . . o , ! Y.Q.P.w t t t t t t t t t t w U Q.Y.U.9 X o o . o * U U.Y.Y.9 w t t t t t t h 0XfXaXsXdXdXdXdXzXzXzXzXzXcXu.t > #.aXaXaXfXdXdXzXzXzXzXzXzXvXdX$.; j h t t t ; ` ,X2X2X<X3X7X3X2X2X2X2X<X3X8.8.3X<X<X2X+.; t t t t t t r A h.k.A = O - , 8 , - o $ i d.h.D i r t t t t t t t t t t s.l.l.2 = O - , 8 , - o = 2 f.f.D t t t t t t c t t t t w W !.~.Q % O o < 5 , < o X r P.W.L.8 w t t t t t t , d [.=X.X, O o - ",
"y : ..&X.._ t t t t t t t t t t t t , [ ].:X`.< y t t t , ) %X`.[ a t t t t t t t t t t 8 W Y.Q.l t t > t t t P.Q.W 9 r t t t t t t t t t t t t Y P.~.W w p t t t w W !.n.U t t t t t t t t h 1XfXaXsXfXsXzXdXdXzXzXzXzXcXu.t > #.aXaXaXfXaXaXaXaXaXdXzXzXxXdX$.; j h t t t t ; $ $ $ $ $ X $ $ $ $ $ $ $ * * $ $ $ $ ; t t t t t t t r S l.j.k.D > $ . . o o * 3 d.d.d.D r t t t t t t t t t t q A l.j.l.A ; o . . o o ; S f.d.f.A r t t t t t c t t t t w 9 ^.!.~.I.w $ o . . o $ g P.U.U.L.w t t t t t t t t : [.=X=X.Xd - o ",
"t , a `.[ < t t t t t t t t t t t t y & X.&Xa , t t t t t : .._.: t t t t t t t t t t t w p U.W u t t t t t w 9 U.9 u t t t t t t t t t t t t t u L.T.w t t t t t t t I.W u t t t t t t t t h 1XfXaXsXsX%.9.dXvXzXzXzXzXvXu.t > #.uXaXaXzXy.t j j t 2XcXdXzXdX$.; j h t t t t t p p p p p p p p p p p p p y y p p p p t t t t t t t t t r 2 f.k.s.q t t t t t y 3 h.f.S t t t t t t t t t t t t t r S j.k.D r t t t t t r S j.d.2 r t t t t t t c t t t t t w 9 U.~.U.w p t t t t t g U.W.U t t t t t t t t t t t t ..=X=Xd , t ",
"t t t t : t t t t t t t t t t t t t t y : t t t t t t t t t t , t t t t t t t t t t t t t t t t t t t t t t t t t w t t t t t t t t t t t t t t t w t t t t t t t t t t w t t t t t t t t t h 1XsXaXaXaXB $ B <XfXdXzXdXvXu.t > #.uXaXaXzX9.$ t t $ }.cXdXzXfX$.; j h t t t t t t t t t t t t t t t t t t t t t t t t t t t t t t t t t t r A f.i r t t t t t t q D D t t t t t t t t t t t t t t t r D g.r t t t t t t t r D D r t t t t t t t c t t t t t t w U Y.9 w t t t t t t w Y L.t t t t t t t t t t t t , t [.X.< t t ",
"t t t t t t t t t t t t t t t t t t t t t t t t t t t t t t t t t t t t t t t t t t t t t t t t t t t t t t t t t t t t t t t t t t t t t t t t t t t t t t t t t t t t t t t t t t t t t t h 1XsXaXaXaX` t * ; 2XzXdXdXxXu.t > #.uXaXaXzXq.; g g ; ,XvXdXzXsX$.; j h t t t t t t t t t t t t t t t t t t t t t t t t t t t t t t t t t t t r r t t t t t t t t t t r t t t t t t t t t t t t t t t t r r t t t t t t t t t r r t t t t t t t t c t t t t t t t w w t t t t t t t t t t w t t t t t t t t t t t t t , : , t t t ",
"t t t t t t t t t t t t t t t t t t t t t t t t t t t t t t t t t t t t t t t t t t t t t t t t t t t t t t t t t t t t t t t t t t t t t t t t t t t t t t t t t t t t t t t t t t t t t t h 1XaXaXaXaXB $ @.9XdXdXdXdXzXi.t > #.uXaXuXzX8.$ > > $ u.vXdXdXaX+.; j h t t t t t t t t t t t t t t t t t t t t t t t t t t t t t t t t t t t t t t t t t t t t t t t t t t t t t t t t t t t t t t t t t t t t t t t t t t t t t t t t t t t t t c t t t t t t t t t t t t t t t t t t t t t t t t t t t t t t t t t t t t t t t ",
"t t t t t t t t t t t t t t t t t t t t t t t t t t t t t t t t t t t t t t t t t t t t t t t t t t t t t t t t t t t t t t t t t t t t t t t t t t t t t t t t t t t t t t t t t t t t t t h 1XaXuXaXaX>.u.dXzXfXdXdXdXzXi.t > #.uXaXuXdXu.j N N c 1XzXfXdXaXO.; j h t t t t t t t t t t t t t t t t t t t t t t t t t t t t t t t t t t t t t t t t t t t t t t t t t t t t t t t t t t t t t t t t t t t t t t t t t t t t t t t t t t t t t c t t t t t t t t t t t t t t t t t t t t t t t t t t t t t t t t t t t t t t t ",
"; > t t t t t t t t t t t t t t t t t t t > > t > t t > t t t > t t t t t t t t t t t t t t t t > t t ; > t t > t t t t t t t t t t t t t t t t t t t ; ; t ; ; t ; > t t t t t t t t t t t h 1XaXuXaXaXsXdXaXaXsXfXfXsXzXy.t > #.uXaXaXaXaXsXsXfXdXfXfXfXdXaXO.; j h t t t t t t t t t t t t t t t t t t t t t t t t t t t t t t t t t t t t t ; ; t t ; ; t > ; t t t t t t t t t t t t t t t t t t t > t t t > t t ; ; t ; ; > t t t t t t t c t t t t t t t t > ; t > ; t t t ; > t t > t t t t t t t t t t t t t t ; > t ; ",
"` m > t t t t t t t t t t t t t t t t t > c j ; c h ; c h > p c t t t t t t t t t t t t t t t > c g h +.j > g c t t t t t t t t t t t t t t t t t t t ` B ; B ` ; ` N > t t t t t t t t t t h 1XaXuXaXaXaXaXaXaXaXsXsXaXdXy.t > $.uXuXuXaXaXaXaXaXaXaXsXsXdXaXO.; j h t t t t t t t t t t t t t t t t t t t t t t t t t t t t t t t t t t t t > ` N > t B O.> c ` > t t t t t t t t t t t t t t t t t > c h > p c t > N N h @.O.j t t t t t t t c t t t t t t t t c @.y c +.y t p O.c > t c t t t t t t t t t t t t t g +.m t +.",
"y.q.j > t t t t t t t t t t t t t t t t g 3X-.t 7X@.p 9XO.X 7.,X* t t t t t t t t t t t t t > j 7X` B 7.q.- q.i.$ t t t t t t t t t t t t t t t t t j >.q.>.8.7.4.8.q.b > t t t t t t t t t h 2XaXuXuXuXuXaXaXaXaXaXaXaXdXt.t > $.yXuXuXuXuXaXaXaXaXaXaXaXsXuXO.; j h t t t t t t t t t t t t t t t t t t t t t t t t t t t t t t t t t t t ; +.9.q.N t %.8.>.8.y.+.; t t t t t t t t t t t t t t t > c 7XO.X 7.,X$ N q.9.%.@.<X%.; t t t t t t c t t t t t t t t +.1.7.@.q.1.- N 4.y.y %.3X; t t t t t t t t t t t > N ;.q.@.1.",
"N *.#.; t t t t t t t t t t t t t t t t > -.;.$ 1.%.$ 6.` g 8.6.; t t t t t t t t t t t t t t > 1.+.$ y e.m 8.1.; t t t t t t t t t t t t t t t t t y X 1.;.t.9.q.O.;.;.- t t t t t t t t t h 1XsXaXaXaXaXsXsXfXfXdXdXfXzXy.t > $.uXaXaXaXaXaXsXsXfXfXdXdXdXaXO.; j h t t t t t t t t t t t t t t t t t t t t t t t t t t t t t t t t t t t ; N }.q.h t h 8.q.;.j 9.; t t t t t t t t t t t t t t t t > 6.` g 8.6.$ -.-.+.1.. 9.h t t t t t t t c t t t t t t t t t 1.7.X N q.; t $ e.B 1.9.> t t t t t t t t t t t t t ` i.j $ ",
"N *.%.; t t t t t t t t t t t t t t t t * #.:.. ;.*.. 1.} q.q.}.t t t t t t t t t t t t t t y $ >.+.$ 6.B e.q.u.> t t t t t t t t t t t t t t t t t ; ` >.c 7.6.%.>.,X+.; t t t t t t t t t j 0.t.t.t.t.y.y.y.i.i.i.i.i.u.6.t > O.t.t.t.t.y.y.y.i.i.i.i.i.i.u.O.; j h t t t t t s s t t t t t t t t t t t t t t t t t t t t t t t t t t t t ; O.6.8.m * j 1.y.-.j q.; t t t t t t t t t t t t t t t y $ >.} q.q.@X> g 1.,X#.` 7.- t t t t t t t c t t t t t t 1.%.> ;.8.t 8.h ; - -.O.6.q.,Xh t t t t t t t t t > ` 7.t B y.j %.",
"e.t.c > t t t t t t t t t t t t t t t t - %.>.. >.-.. 4.@.B 6.3Xt t t t t t t t t t t t t t t $ 4.` :.2XO.@.7.2X> t t t t t t t t t t t t t t t t > c 7X-.;.7.6.%.O.e.h t t t t t t t t t t t t t t t t t t t t t t t t t g t t g t t t t t t t t t t t t t t g t h h t t t s 5 6 6 5 s t t t t t > t t t t t t t t t t t t t t t t t t t t ; -.6.6.7.@.` 1.7.7.t.%.; t t t t t t t t t t t t t t t t $ 1.@.B 6.<X:.N } t.h q.B ; t t t t t t t c t t t t t t t t O.-.9.u.y.` ;.-.5X@.@.;.6Xh t t t t t t t t t t t > B @.9.8.3X",
"` N > t t t t t t t t t t t t t t t t t t j j > j j > c h - ; j > t t t t t t t t t t t t t t > c h N @.+.; > j > t t t t t t t t t t t t t t t t t j +.%.c ` O.t %.c > t t t t t t t t t t t t t t t t t t t t t t t t t t t t t t t t t t t t t t t t t t t t t h h t t s 5 J N.S.L 6 s t t > j N > t $ t ; c j ; t > > - t t t t t t t t t t +.B j c O.@.> c +.t t t t t t t t t t t t t t t t t t > c h - > h c j +.b > m t t t t t t t t t c t t t t t t t t ` %.h ` #.} b N +.%.t - j t t t t t t t t t t t t t c *.m c @.",
"; ; t t t t t t t t t t t t t t t t t t t t > t > > t > t t t > t t t t t t t t t t t t t t t t > t ; - ; t t > t t t t t t t t t t t t t t t t t t > ; - > ; ; t - > t t t t t t t t t t t t t t t t t t t t t t t t t t t t t t t t t t t t t t t t t t t t t t h h t t s H V.jXjXJ.I 5 t t ; >.1X; c %.6.q.c ` j h c N %.t t t t t t t t t t ; ; > > ; ; t > ; t t t t t t t t t t t t t t t t t t t > t t t t > t ; > t > t t t t t t t t t c t t t t t t t t ; - t ; - ; t > ; - t t > t t t t t t t t t t t t t > - > > ; ",
"t p t t t t t t t t t t t t t t t t t t t t t t t t t t t t t t t t t t t t t t t t t t t t t t t t t p t t y t t t t t t t t t t t t t t t t t t t t y p t p t t p t t t t t t t t t t t t t t t t t t t t t t t t t t t t t t t t t t t t t t t t t t t t t t t h h t t s b.D.LXKXjXv.5 p t t 8.q.N q.#.8.8.;.y.-.%.7.9.y.;.; t t t t t t t t t y t t y t t y t t t t t t t t t t t t t t t t t t t t t t t y t t ; - t t t t t t t t t t t t c t t t t t t t t t t t p t t - ; t t t t t t t t t t t t t t t t t t t t t y t ",
"t - ; t t t t t t t t t t t t t t t t t t t > - ; ; ; t ; ; t t t t t t t t t t t t t t t t t t ; - ; - t > * > t t t t t t t t t t t t t t t t t t t > - ; - > t - ; t t t t t t t t t t t t t t t t t t t t t t t t t t t t t t t t t t t t t t t t t t t t t t h h t t s J V.jXjXH.J 5 p ; N 2X,X9.q.  %.` @.%.6.q.#.2X1.%.; t t t t t t t t t - ; ; ; t ; ; t t t t t t t t t t t t t t t t t t t t t t t X :.N %.1.c > t t t t t t t t t t c t t t t t t t t t t t $ 4.c >.;.g t t t t t t t t t t t t t t t t t t t t X @.",
"g ;.` > t t t t t t t t t t t t t t t t t > c -.@.#.@.> @.*.t t t t t t t t t t t t t t t t t t +.;.} :.p c >.c > t t t t t t t t t t t t t t t t t > N :.O.-.N t -.O.> t t t t t t t t t t t t t t t t t t t t t t t t t t t t t t t t t t t t t t t t t t t t t h h t t s 6 b.M.V.x.6 s t ; 1.} t q.q.6.-.q.6.` :.,X> t.:.c t t t t t t t t > j -.#.#.#.> +.-.y t t t t t t t t t t t t t t t t t t t t t h %.u.@.t.+.y.> t t t t t t t t t t c t t t t t t t t t > c ;.i.%.9.-.7.; t t t t t t t t t t t t t t t t t t t +.i.",
";.u.j t t t t t t t t t t t t t t t t t t * :.t.y.7.9.O.<X` t t t t t t t t t t t t t t t t t h <X1.}.4.-.q.7.g t t t t t t t t t t t t t t t t t t * y.6.,X>.7.%.@Xc t t t t t t t t t t t t t t t t t t t t t t t t t t t t t t t t t t t t t t t t t t t t t t h h t t t s 5 G G 6 s t t t j t t h g ` g m c t g j > h O.h t t t t t t t t - -.y.t.8.9.O.,XO.t t t t t t t t t t t t t t t t t t t t t ; 6.:.}.O.u.9.1.; t t t t t t t t t t c t t t t t t t t t > q.;.u.+.u.q.%.; t t t t t t t t t t t t t t t t t ; %.6.y.",
"p >.:.> t t t t t t t t t t t t t t t t t * ;.} *.B :.B ` 9.h t t t t t t t t t t t t t t t > j 9.j 4.m 1.g 8.O.; t t t t t t t t t t t t t t t t t ; q.j 7.j 8.h -.1.> t t t t t t t t t t t t t t t t t t t t t t t t t t t t t t t t t t t t t t t t t t t t t h h t t t t s s s s t t t t > t t t t ; t > > t t > t t ; t t t t t t t t t - -.+.%.` ;.` B 9.h > t t t t t t t t t t t t t t t t t t t ; t.t 1.%.q.` t.t t t t t t t t t t t c t t t t t t t t t g y.- 9.%.7.+.8.; t t t t t t t t t t t t t t t t t - 7.m @.",
"N 9.8.; t t t t t t t t t t t t t t t t t - ;.+.-.` :.O.-.u.c > t t t t t t t t t t t t t t t j 9.b 6.B 1.B y.*.; t t t t t t t t t t t t t t t t t ; 8.m 7.b 6.B 6.q.t t t t t t t t t t t t t t t t t t t t t t t t t t t t t t t t t t t t t t t t t t t t t t h h t t t t t t t t t t t t t t t t t t t t t t t t t t t t t t t t t t t t - %.#.%.O.;.+.%.u.c > t t t t t t t t t t t t t t t t t t t ; %.e.,X` }.4.9.t t t t t t t t t t t c t t t t t t t t t ; 1.e.u.O.}.7.1.; t t t t t t t t t t t t t t t t t ; ` t.,X",
"h B t t t t t t t t t t t t t t t t t t t t g y p y g p N j > t t t t t t t t t t t t t t t t t g t g t p c N > t t t t t t t t t t t t t t t t t t t g t g t g g B y t t t t t t t t t t t t t t t t t t t t t t t t t t t t t t t t t t t t t t t t t t t t t t h h t t t t t t t t t t t t t t t t t t t t t t t t t t t t t t t t t t t t t p p p y p y N j > t t t t t t t t t t t t t t t t t t t t t t b j t c B t t t t t t t t t t t t c t t t t t t t t t t t m h t N N > t t t t t t t t t t t t t t t t t t t > c c ",
"t ; t t t t t t t t t t t t t t t t t t t t t t t t t t ; > t t t t t t t t t t t t t t t t t t t t t t t > > t t t t t t t t t t t t t t t t t t t t t t t t t t ; t t t t t t t t t t t t t t t t t t t t t t t t t t t t t t t t t t t t t t t t t t t t t t t h h t t t t t t t t t t t t t t t t t t t t t t t t t t t t t t t t t t t t t t t t t t t ; > t t t t t t t t t t t t t t t t t t t t t t t > > t > ; t t t t t t t t t t t t c t t t t t t t t t t t > t t > ; t t t t t t t t t t t t t t t t t t t t t > > ",
"t t t t t t t t t t t t t t t t t t t t t t t t t t t t t t t t t t t t t t t t t t t t t t t t t t t t t t t t t t t t t t t t t t t t t t t t t t t t t t t t t t t t t t t t t t t t t t t t t t t t t t t t t t t t t t t t t t t t t t t t t t t t t t t t t h h t t t t t t t t t t t t t t t t t t t t t t t t t t t t t t t t t t t t t t t t t t t t t t t t t t t t t t t t t t t t t t t t t t t t t t t t t t t t t t t t t t t t t c t t t t t t t t t t t t t t t t t t t t t t t t t t t t t t t t t t t t t t t ",
"p p p p p p p p p p p p p p p p p p p p p p p p p p p p p p p p p p p p p p p p p p p p p p p p p p p p p p p p p p p p p p p p p p p p p p p p p p p p p p p p p p p p p p p p p p p p p p p p p p p p p p p p p p p p p p p p p p p p p p p p p p p p p p p p t j j t p p p p p p p p p p p p p p p p p p p p p p p p p p p p p p p p p p p p p p p p p p p p p p p p p p p p p p p p p p p p p p p p p p p p p p p p p p p p p p p p p p p g c y p p p p p p p p p p p p p p p p p p p p p p p p p p p p p p p p p p p p p p ",
"X X X X X X X X X X X X X X X X X X X X X X X X X X X X X X X X X X X X X X X X X X X X X X X X X X X X X X X X X X X X X X X X X X X X X X X X X X X X X X X X X X X X X X X X X X X X X X X X X X X X X X X X X X X X X X X X X X X X X X X X X X X X X X X X X X X X X X X X X X X X X X X X X X X X X X X X X X X X X X X X X X X X X X X X X X X X X X X X X X X X X X X X X X X X X X X X X X X X X X X X X X X X X X X X X X X X X X X X X X X X X X X X X X X X X X X X X X X X X X X X X X X X X X X X X X X X X X X X ",
"yXyXyXyXyXyXyXyXyXyXyXyXyXyXyXyXyXyXyXyXyXyXyXyXyXyXyXyXyXyXyXyXyXyXyXyXyXyXyXyXyXyXyXyXyXyXyXyXyXyXyXyXyXyXyXyXyXyXyXyXyXyXyXyXyXyXyXyXyXyXyXyXyXyXyXyXyXyXyXyXyXyXyXyXyXyXyXyXyXyXyXyXyXyXyXyXyXyXyXyXyXyXyXyXyXyXyXyXyXyXyXyXyXyXyXyXyXyXyXyXyXyXyXyXyXyXyXyXyXyXyXyXyXyXyXyXyXyXyXyXyXyXyXyXyXyXyXyXyXyXyXyXyXyXyXyXyXyXyXyXyXyXyXyXyXyXyXyXyXyXyXyXyXyXyXyXyXyXyXyXyXyXyXyXyXyXyXyXyXyXyXyXyXyXyXyXyXyXyXyXyXyXyXyXyXyXyXyXyXyXyXyXyXyXyXyXyXyXyXyXyXyXyXyXyXyXyXyXyXyXyXyXyXyXyXyXyXyXyXyXyXyXyXyXyXyXyXyXyXyXyXyXyXyXyXyX",
"@X@X@X@X@X@X@X@X@X@X@X@X@X@X@X@X@X@X@X@X@X@X@X@X@X@X@X@X@X@X@X@X@X@X@X@X@X@X@X@X@X@X@X@X@X@X@X@X@X@X@X@X@X@X@X@X@X@X@X@X@X@X@X@X@X@X@X@X@X@X@X@X@X@X@X@X@X@X@X@X@X@X@X@X@X@X@X@X@X@X@X@X@X@X@X@X@X@X@X@X@X@X@X@X@X@X@X@X@X@X@X@X@X@X@X@X@X@X@X@X@X@X@X@X@X@X@X@X@X@X@X@X@X@X@X@X@X@X@X@X@X@X@X@X@X@X@X@X@X@X@X@X@X@X@X@X@X@X@X@X@X@X@X@X@X@X@X@X@X@X@X@X@X@X@X@X@X@X@X@X@X@X@X@X@X@X@X@X@X@X@X@X@X@X@X@X@X@X@X@X@X@X@X@X@X@X@X@X@X@X@X@X@X@X@X@X@X@X@X@X@X@X@X@X@X@X@X@X@X@X@X@X@X@X@X@X@X@X@X@X@X@X@X@X@X@X@X@X@X@X@X@X@X@X@X@X",
"                                                                                                                                                                                                                                                                                                                                                                                                                                                                                                                                ",
"sXsXsXsXsXsXsXsXsXsXsXsXsXsXsXsXsXsXsXsXsXsXsXsXsXsXsXsXsXsXsXsXsXsXsXsXsXsXsXsXsXsXsXsXsXsXsXsXsXsXsXsXsXsXsXsXsXsXsXsXsXsXsXsXsXsXsXsXsXsXsXsXsXsXsXsXsXsXsXsXsXsXsXsXsXsXsXsXsXsXsXsXsXsXsXsXsXsXsXsXsXsXsXsXsXsXsXsXsXsXsXsXsXsXsXsXsXsXsXsXsXsXsXsXsXsXsXsXsXsXsXsXsXsXsXsXsXsXsXsXsXsXsXsXsXsXsXsXsXsXsXsXsXsXsXsXsXsXsXsXsXsXsXsXsXsXsXsXsXsXsXsXsXsXsXsXsXsXsXsXsXsXsXsXsXsXsXsXsXsXsXsXsXsXsXsXsXsXsXsXsXsXsXsXsXsXsXsXsXsXsXsXsXsXsXsXsXsXsXsXsXsXsXsXsXsXsXsXsXsXsXsXsXsXsXsXsXsXsXsXsXsXsXsXsXsXsXsXsXsXsXsXsXsXsXsX",
"q.q.q.q.q.q.q.q.q.q.q.q.q.q.q.q.q.q.q.q.q.q.q.q.q.q.q.q.q.q.q.q.q.q.q.q.q.q.q.q.q.q.q.q.q.q.q.q.q.q.q.q.q.q.q.q.q.q.q.q.q.q.q.q.q.q.q.q.q.q.q.q.q.q.q.q.q.q.q.q.q.q.q.q.q.q.q.q.q.q.q.q.q.q.q.q.q.q.q.q.q.q.q.q.q.q.q.q.q.q.q.q.q.q.q.q.q.q.q.q.q.q.q.q.q.q.q.q.q.q.q.q.q.q.q.q.q.q.q.q.q.q.q.q.q.q.q.q.q.q.q.q.q.q.q.q.q.q.q.q.q.q.q.q.q.q.q.q.q.q.q.q.q.q.q.q.q.q.q.q.q.q.q.q.q.q.q.q.q.q.q.q.q.q.q.q.q.q.q.q.q.q.q.q.q.q.q.q.q.q.q.q.q.q.q.q.q.q.q.q.q.q.q.q.q.q.q.q.q.q.q.q.q.q.q.q.q.q.q.q.q.q.q.q.q.q.q.q.q.q.q.q.q.q.q.q.",
"$ $ $ $ $ $ $ $ $ $ $ $ $ $ $ $ $ $ $ $ $ $ $ $ $ $ $ $ $ $ $ $ $ $ $ $ $ $ $ $ $ $ $ $ $ $ $ $ $ $ $ $ $ $ $ $ $ $ $ $ $ $ $ $ $ $ $ $ $ $ $ $ $ $ $ $ $ $ $ $ $ $ $ $ $ $ $ $ $ $ $ $ $ $ $ $ $ $ $ $ $ $ $ $ $ $ $ $ $ $ $ $ $ $ $ $ $ $ $ $ $ $ $ $ $ $ $ $ $ $ $ $ $ $ $ $ $ $ $ $ $ $ $ $ $ $ $ $ $ $ $ $ $ $ $ $ $ $ $ $ $ $ $ $ $ $ $ $ $ $ $ $ $ $ $ $ $ $ $ $ $ $ $ $ $ $ $ $ $ $ $ $ $ $ $ $ $ $ $ $ $ $ $ $ $ $ $ $ $ $ $ $ $ $ $ $ $ $ $ $ $ $ $ $ $ $ $ $ $ $ $ $ $ $ $ $ $ $ $ $ $ $ $ $ $ $ $ $ $ $ $ $ $ $ $ $ ",
"y y y y y y y y y y y y y y y y y y y y y y y y y y y y y y y y y y y y y y y y y y y y y y y y y y y y y y y y y y y y y y y y y y y y y y y y y y y y y y y y y y y y y y y y y y y y y y y y y y y y y y y y y y y y y y y y y y y y y y y y y y y y y y y y y y y y y y y y y y y y y y y y y y y y y y y y y y y y y y y y y y y y y y y y y y y y y y y y y y y y y y y y y y y y y y y y y y y y y y y y y y y y y y y y y y y y y y y y y y y y y y y y y y y y y y y y y y y y y y y y y y y y y y y y y y y y y y y y ",
"t t t t t t t t t t t t t t t t t t t t t t t t t t t t t t t t t t t t t t t t t t t t t t t t t t t t t t t t t t t t t t t t t t t t t t t t t t t t t t t t t t t t t t t t t t t t t t t t t t t t t t t t t t t t t t t t t t t t t t t t t t t t t t t t t t t t t t t t t t t t t t t t t t t t t t t t t t t t t t t t t t t t t t t t t t t t t t t t t t t t t t t t t t t t t t t t t t t t t t t t t t t t t t t t t t t t t t t t t t t t t t t t t t t t t t t t t t t t t t t t t t t t t t t t t t t t t t t t ",
"t t t t , t t t t t t t t t t t t t t t t t t t t t t t t t t t t t t t t t t t t t t t t t t t t t t t t t t t t t t t t t t t t t t t t t t t t t t t t t t t t t t t t t t t t t t t t t t t t t t t t t t t t t t t t t t t t t t t t t t t t t t t t t t t t t t t t t t t t t t t t t t t t t t t t t t t t t t t t t t t t t t t t t t t t t t t t t t t t t t t t t t t t t t t t t t t t t t t t t t t t t t t t t t t t t t t t t t t t t t t t t t t t t t t t t t t t t t t t t t t t t t t t t t t t t t t t t t t ",
"t t t < [ a : t t , : : : , t t t t t t t t t t t t t t t t t t t t t t t t t t t t t t t t t t t t t t t t t t t t t t t t t t t t t t t t t t t t t t t t t t t t t t t t t t t t t t t t t t t t t t t t t t t t t t t t t t t t t t t t t t t t t t t t t t t t t t t t t t t t t t t t t t t t t t t t t t t t t t t t t t t t t t t t t t t t t t t t t t t t t t t t t t t t t t t t t t t t t t t t t t t t t t t t t t t t t t t t t t t t t t t t t t t t t t t t t t t t t t t t t t t t t t t t t t t t t t t t t t ",
"t t a ) '.[ d t t d _ ) _ d , t t t t t t t t t t t t t t t t t t t t t t t t t t t t t t t t t t t t t t t t t t t t t t t t t t t t t t t t t t t t t t t t t t t t t t t t t t t t t t t t t t t t t t t t t t t t t t t t t t t t t t t t t t t t t t t t t t t t t t t t t t t t t t t t t t t t t t t t t t t t t t t t t t t t t t t t t t t t t t t t t t t t t t t t t t t t t t t t t t t t t t t t t t t t t t t t t t t t t t t t t t t t t t t t t t t t t t t t t t t t t t t t t t t t t t t t t t t t t t t t t ",
"t , d  .`.o._ , , f .. ...) : t t t t t t t t t t t t t t t t t t t t t t t t t t t t t t t t t t t t t t t t t t t t t t t t t t t t t t t t t t t t t t t t t t t t t t t t t t t t t t t t t t t t t t t t t t t t t t t t t t t t t t t t t t t t t t t t t t t t t t t t t t t t t t t t t t t t t t t t t t t t t t t t t t t t t t t t t t t t t t t t t t t t t t t t t t t t t t t t t t t t t t t t t t t t t t t t t t t t t t t t t t t t t t t t t t t t t t t t t t t t t t t t t t t t t t t t t t t t t t t t t ",
"t t t < ..d < t t , : : : , t t t t t t t t t t t t t t t t t t t t t t t t t t t t t t t t t t t t t t t t t t t t t t t t t t t t t t t t t t t t t t t t t t t t t t t t t t t t t t t t t t t t t t t t t t t t t t t t t t t t t t t t t t t t t t t t t t t t t t t t t t t t t t t t t t t t t t t t t t t t t t t t t t t t t t t t t t t t t t t t t t t t t t t t t t t t t t t t t t t t t t t t t t t t t t t t t t t t t t t t t t t t t t t t t t t t t t t t t t t t t t t t t t t t t t t t t t t t t t t t t t ",
"t t t t a y t t t t t t t t t t t t t t t t t t t t t t t t t t t t t t t t t t t t t t t t t t t t t t t t t t t t t t t t t t t t t t t t t t t t t t t t t t t t t t t t t t t t t t t t t t t t t t t t t t t t t t t t t t t t t t t t t t t t t t t t t t t t t t t t t t t t t t t t t t t t t t t t t t t t t t t t t t t t t t t t t t t t t t t t t t t t t t t t t t t t t t t t t t t t t t t t t t t t t t t t t t t t t t t t t t t t t t t t t t t t t t t t t t t t t t t t t t t t t t t t t t t t t t t t t t ",
"t t t t t t t t t t t t t t t t t t t t t t t t t t t t t t t t t t t t t t t t t t t t t t t t t t t t t t t t t t t t t t t t t t t t t t t t t t t t t t t t t t t t t t t t t t t t t t t t t t t t t t t t t t t t t t t t t t t t t t t t t t t t t t t t t t t t t t t t t t t t t t t t t t t t t t t t t t t t t t t t t t t t t t t t t t t t t t t t t t t t t t t t t t t t t t t t t t t t t t t t t t t t t t t t t t t t t t t t t t t t t t t t t t t t t t t t t t t t t t t t t t t t t t t t t t t t t t t t ",
"t t t t t t t t t t t t t t t t t t t t t t t t t t t t t t t t t t t t t t t t t t t t t t t t t t t t t t t t t t t t t t t t t t t t t t t t t t t t t t t t t t t t t t t t t t t t t t t t t t t t t t t t t t t t t t t t t t t t t t t t t t t t t t t t t t t t t t t t t t t t t t t t t t t t t t t t t t t t t t t t t t t t t t t t t t t t t t t t t t t t t t t t t t t t t t t t t t t t t t t t t t t t t t t t t t t t t t t t t t t t t t t t t t t t t t t t t t t t t t t t t t t t t t t t t t t t t t t t ",
"t t t t t t t t t t t t t t t t t t t t t t t t t t t t t t t t t t t t t t t t t t t t t t t t t t t t t t t t t t t t t t t t t t t t t t t t t t t t t t t t t t t t t t t t t t t t t t t t t t t t t t t t t t t t t t t t t t t t t t t t t t t t t t t t t t t t t t t t t t t t t t t t t t t t t t t t t t t t t t t t t t t t t t t t t t t t t t t t t t t t t t t t t t t t t t t t t t t t t t t t t t t t t t t t t t t t t t t t t t t t t t t t t t t t t t t t t t t t t t t t t t t t t t t t t t t t t t t t ",
"t t t t t t t t t t t t t t t t t t t t t t t t t t t t t t t t t t t t t t t t t t t t t t t t t t t t t t t t t t t t t t t t t t t t t t t t t t t t t t t t t t t t t t t t t t t t t t t t t t t t t t t t t t t t t t t t t t t t t t t t t t t t t t t t t t t t t t t t t t t t t t t t t t t t t t t t t t t t t t t t t t t t t t t t t t t t t t t t t t t t t t t t t t t t t t t t t t t t t t t t t t t t t t t t t t t t t t t t t t t t t t t t t t t t t t t t t t t t t t t t t t t t t t t t t t t t t t t t "
};
