/* XPM */
static char *impulse_responses_mono[] = {
/* columns rows colors chars-per-pixel */
"256 256 238 2 ",
"   c #0B0E19",
".  c #0B0E13",
"X  c #140C18",
"o  c #0D1217",
"O  c #121316",
"+  c #191216",
"@  c #151619",
"#  c #1A161B",
"$  c #17181C",
"%  c #19191E",
"&  c #08080A",
"*  c #291A1E",
"=  c #0D3E11",
"-  c #0A310C",
";  c #3E3601",
":  c #3D3C0D",
">  c #28281B",
",  c #3E3611",
"<  c #37371A",
"1  c #151D22",
"2  c #1B1C22",
"3  c #191725",
"4  c #141229",
"5  c #231E24",
"6  c #211B29",
"7  c #271C24",
"8  c #281C32",
"9  c #271C31",
"0  c #331E20",
"q  c #152226",
"w  c #1F2025",
"e  c #172529",
"r  c #1C252B",
"t  c #1B292F",
"y  c #1C2B23",
"u  c #1C2D32",
"i  c #1E2632",
"p  c #1E3137",
"a  c #1C333B",
"s  c #1A3321",
"d  c #202127",
"f  c #25272E",
"g  c #26282F",
"h  c #2C2C2C",
"j  c #2B272B",
"k  c #3A2629",
"l  c #23322A",
"z  c #242330",
"x  c #262931",
"c  c #2A2C34",
"v  c #2D2F38",
"b  c #232F38",
"n  c #21353B",
"m  c #2F313A",
"M  c #253137",
"N  c #31333D",
"B  c #35393F",
"V  c #383824",
"C  c #473D00",
"Z  c #4E251B",
"A  c #68251C",
"S  c #79261A",
"D  c #472828",
"F  c #572925",
"G  c #6E2E28",
"H  c #401F1E",
"J  c #004101",
"K  c #004A00",
"L  c #0D4B0E",
"P  c #005400",
"I  c #005C00",
"U  c #175E1C",
"Y  c #125816",
"T  c #124717",
"R  c #006400",
"E  c #006B00",
"W  c #0B6D0E",
"Q  c #007400",
"!  c #007D00",
"~  c #08780A",
"^  c #136615",
"/  c #1A4E20",
"(  c #4A4506",
")  c #544B01",
"_  c #5A4D00",
"`  c #524600",
"'  c #5C5300",
"]  c #565302",
"[  c #494717",
"{  c #575118",
"}  c #645400",
"|  c #6A5B00",
" . c #685700",
".. c #715F00",
"X. c #61591A",
"o. c #756401",
"O. c #777307",
"+. c #1B3C45",
"@. c #233A43",
"#. c #283C45",
"$. c #223F49",
"%. c #263841",
"&. c #343741",
"*. c #373944",
"=. c #383A45",
"-. c #3A3D49",
";. c #373A49",
":. c #1B434C",
">. c #1D4C54",
",. c #1E4E5A",
"<. c #194852",
"1. c #1E525C",
"2. c #18535C",
"3. c #22424C",
"4. c #29414B",
"5. c #3E414E",
"6. c #3B4045",
"7. c #214752",
"8. c #224A55",
"9. c #2A4B56",
"0. c #214E5A",
"q. c #2A4B57",
"w. c #3F4252",
"e. c #26515D",
"r. c #1F5663",
"t. c #1F5966",
"y. c #1F5D6A",
"u. c #145B65",
"i. c #0F5862",
"p. c #215561",
"a. c #2A5B68",
"s. c #1E616D",
"d. c #1B6067",
"f. c #1B6972",
"g. c #19737B",
"h. c #0B6874",
"j. c #286877",
"k. c #2D606F",
"l. c #42454D",
"z. c #424553",
"x. c #464856",
"c. c #464959",
"v. c #4A4D5C",
"b. c #474A57",
"n. c #4D515A",
"m. c #53575B",
"M. c #4B4E60",
"N. c #4E5162",
"B. c #4E536A",
"V. c #515466",
"C. c #535669",
"Z. c #56596C",
"A. c #585C6F",
"S. c #595C61",
"D. c #565B72",
"F. c #5A5E72",
"G. c #595E7A",
"H. c #5E6175",
"J. c #5E627A",
"K. c #5E6266",
"L. c #62657B",
"P. c #65697E",
"I. c #696C72",
"U. c #75787B",
"Y. c #65696D",
"T. c #8C2616",
"R. c #852618",
"E. c #922716",
"W. c #903529",
"Q. c #AA3929",
"!. c #A02B19",
"~. c #C83F2A",
"^. c #887601",
"/. c #D9412A",
"(. c #E9442A",
"). c #F5462A",
"_. c #008401",
"`. c #008B00",
"'. c #088609",
"]. c #009D00",
"[. c #069207",
"{. c #02A302",
"}. c #01AC02",
"|. c #979200",
" X c #908901",
".X c #A48902",
"XX c #B09202",
"oX c #187A83",
"OX c #197780",
"+X c #087986",
"@X c #2F7484",
"#X c #317C8E",
"$X c #307687",
"%X c #317E91",
"&X c #5E6482",
"*X c #666A82",
"=X c #696D84",
"-X c #696E8A",
";X c #636883",
":X c #6C7087",
">X c #6D728A",
",X c #71758E",
"<X c #7B7E81",
"1X c #6D7393",
"2X c #727792",
"3X c #757993",
"4X c #787C99",
"5X c #676E90",
"6X c #757CA3",
"7X c #068A97",
"8X c #318295",
"9X c #32899D",
"0X c #298E9A",
"qX c #0297A5",
"wX c #338EA2",
"eX c #3392A7",
"rX c #3495AA",
"tX c #3499AE",
"yX c #359DB3",
"uX c #2899A6",
"iX c #01A6B4",
"pX c #36A4BA",
"aX c #36A1B7",
"sX c #21A8B3",
"dX c #7D819D",
"fX c #7E8184",
"gX c #7C83A6",
"hX c #7E86B1",
"jX c #25AEC2",
"kX c #28C2D0",
"lX c #8B8E91",
"zX c #8489A7",
"xX c #848CB7",
"cX c #9096B6",
"vX c #A2A4A6",
"bX c #9098C4",
"nX c #A6AEDB",
"mX c #A7B0DD",
/* pixels */
"f f f f f f f f f f f f f f f f f f f f f f f f f f f f f f f f f f f f f f f f f f f f f f f f f f f f f f f f f f f f f f f f f f f f f f f f f f f f f f f f f f f f f f f f f f f f f f f f f f f f f f f f f f f f f f f f f f f f f f f f f f f f f f f f f f f f f f f f f f f f f f f f f f f f f f f f f f f f f f f f f f f f f f f f f f f f f f f f f f f f f f f f f f f f f g g g f g f f f g f g g g f f g f f g g f g f f f g g g f g g g g f f g g g f f g g g f f g g f g g g f f f g g g f g g f f g f f g g ",
"f f f f f f f f f f f f f f f f f f f f f f f f f f f f f f f f f f f f f f f f f f f f f f f f f f f f f f f f f f f f f f f f f f f f f f f f f f f f f f f f f f f f f f f f f f f f f f f f f f f f f f f f f f f f f f f f f f f f f f f f f f f f f f f f f f f f f f f f f f f f f f f f f f f f f f f f f f f f f f f f f f f f f f f f f f f f f f f f f f f f f f f f f f f f f f d f f f f g f f f f d d g f f f g f f f f f f g f d f f f d d f g f f d d g f f d d f g d f f f d d g f g f d f g f f g f f f g f d ",
"f f f f f f f f f f f f f f f f f f f f f f f f f f f f f f f f f f f f f f f f f f f f f f f f f f f f f f f f f f f f f f f f f f f f f f f f f f f f f f f f f f f f f f f f f f f f f f f f f f f f f f f f f f f f f f f f f f f f f f f f f f f f f f f f f f f f f f f f f f f f f f f f f f f f f f f f f f f f f f f f f f f f f f f f f f f f f f f f f f f f f f f f f f f f f &.;.v x &.g f x &.x c -.*.f f N x f m c x N f g f x ;.m f N -.-.c f f v -.&.f f N -.-.c f =.N f v -.&.f f d m ;.g d c N f f m c d &.*.",
"f f f f f f f f f f f f f f f f f f f f f f f f f f f f f f f f f f f f f f f f f f f f f f f f f f f f f f f f f f f f f f f f f f f f f f f f f f f f f f f f f f f f f f f f f f f f f f f f f f f f f f f f f f f f f f f f f f f f f f f f f f f f f f f f f f f f f f f f f f f f f f f f f f f f f f f f f f f f f f f f f f f f f f f f f f f f f f f f f f f f f f f f f f f g d N.4XN *.gX=.2 z.gXc M.>X;XD.f -X&.2 J.w.m *Xf f c L.L.J.x ;X;XF.&.f d Z.-X;XC.f -XJ.F.m Z.;X;Xm C.>X*XC.w c.-XJ.=Xv &.4X;.w ;X&.x.*X;X",
"f f f f f f f f f f f f f f f f f f f f f f f f f f f f f f f f f f f f f f f f f f f f f f f f f f f f f f f f f f f f f f f f f f f f f f f f f f f f f f f f f f f f f f f f f f f f f f f f f f f f f f f f f f f f f f f f f f f f f f f f f f f f f f f f f f f f f f f f f f f f f f f f f f f f f f f f f f f f f f f f f f f f f f f f f f f f f f f f f f f f f f f f f f f g d =.;Xw -.gXV.2 G.4Xc C.v.w 4Xv -X&.2 L.z.m -Xf d *.3Xx f f -X5.c x g w H.z.f 4Xc -X;.c x 2X;.d d J.w.x 3Xv 1X*.% D.F.N 4XL.f ;X&.L.V.2 ",
"f f f f f f f f f f f f f f f f f f f f f f f f f f f f f f f f f f f f f f f f f f f f f f f f f f f f f f f f f f f f f f f f f f f f f f f f f f f f f f f f f f f f f f f f f f f f f f f f f f f f f f f f f f f f f f f f f f f f f f f f f f f f f f f f f f f f f f f f f f f f f f f f f f f f f f f f f f f f f f f f f f f f f f f f f f f f f f f f f f f f f f f f f f f g d -.*Xd 5.*XD.&.J.;XN N.-XJ.J.f -X&.w J.z.m -Xf x f C.1Xv.d *X-XL.N f d D.*XJ.D.f >X-XJ.c z.1XZ.d D.*XL.Z.&.-Xf d 5.L.-.F.Z.M.H.=.&.-X;X",
"f f f f f f f f f f f f f f f f f f f f f f f f f f f f f f f f f f f f f f f f f f f f f f f f f f f f f f f f f f f f f f f f f f f f f f f f f f f f f f f f f f f f f f f f f f f f f f f f f f f f f f f f f f f f f f f f f f f f f f f f f f f f f f f f f f f f f f f f f f f f f f f f f f f f f f f f f f f f f f f f f f f f f f f f f f f f f f f f f f f f f f f f f f f g d *.L.2 z.F.N.;Xc.J.N N.;X-.x f >X&.$ *Xw.m =X2 w f % m 2X&.;XN % f x w D.F.-Xz.w -Xc 2 f 2 d >Xz.C.J.;.f v 2Xv @ N.J.*.J.x -X>X=.2 2 F.",
"f f f f f f f f f f f f f f f f f f f f f f f f f f f f f f f f f f f f f f f f f f f f f f f f f f f f f f f f f f f f f f f f f f f f f f f f f f f f f f f f f f f f f f f f f f f f f f f f f f f f f f f f f f f f f f f f f f f f f f f f f f f f f f f f f f f f f f f f f f f f f f f f f f f f f f f f f f f f f f f f f f f f f f f f f f f f f f f f f f f f f f f f f f f g d M.4Xv z.J.=.gXm -XN Z.V.$ x d N.-XF.-Xc N 4XH.C.-.J.D.*Xv -XL.Z.&.f w J.c.v 2XN 1XJ.C.*.F.Z.-X&.H.v.% x d C.-XD.>X&.-.=X% v.zX&.B.D.;X",
"f f f f f f f f f f f f f f f f f f f f f f f f f f f f f f f f f f f f f f f f f f f f f f f f f f f f f f f f f f f f f f f f f f f f f f f f f f f f f f f f f f f f f f f f f f f f f f f f f f f f f f f f f f f f f f f f f f f f f f f f f f f f f f f f f f f f f f f f f f f f f f f f f f f f f f f f f f f f f f f f f f f f f f f f f f f f f f f f f f f f f f f f f f f f f -.x.m v *.x =.f ;.x &.&.f g f f -.x.v d c w.c.z.v w.x.m d -.x.c.m f f *.N d -.N ;.c.x.v -.c.&.d *.N f g f f -.c.N d v =.f x -.c &.c.-.",
"f f f f f f f f f f f f f f f f f f f f f f f f f f f f f f f f f f f f f f f f f f f f f f f f f f f f f f f f f f f f f f f f f f f f f f f f f f f f f g g g g g g g g g g g g g g g g g g g g g g g g g g g g g g g g g g g g g g g g g g g g g g g g g g g g g g g g g g g g g g g g g g g g g g g g g g g g g g g g g g g g g g g g g g g g g g g g g g g g g g g g g g g g g g g g d w f f d g d g d f f f x g g g d w f x f d w d f d w f x d w w f g g d f x d f d w w f d w f x d f g g g g d w f x f d g g d f d w d ",
"f f f f f f f f f f f f f f f f f f f f f f f f f f f f f f f f f f f f f f f f f f f f f f f f f f f f f f f f f f f f f f f f f f f f f f f f f f f f g d w w w w w w w w w w w w w w w w w w w w w w w w w w w w w w w w w w w w w w w w w w w w w w w w w w w w w w w w w w w w w w w w w w w w w w w w w w w w w w w w w w w w w w w w w w w w w w w w w w w w w w w w w w w w w w w d d w w d w d w d w w w w w w w d d w w w d d d w d d w w d d d d d d d d d f d f f f d d f d d d d d d d d f f d d d f d d f d d f f ",
"f f f f f f f f f f f f f f f f f f f f f f f f f f f f f f f f f f f f f f f f f f f f f f f f f f f f f f f f f f f f f f f f f f f f f f f f f f f g d 2 2 2 2 2 2 2 2 2 2 2 2 2 2 2 2 2 2 2 2 2 2 2 2 2 2 2 2 2 2 2 2 2 2 2 2 2 2 2 2 2 2 2 2 2 2 2 2 2 2 2 2 2 2 2 2 2 2 2 2 2 2 2 2 2 2 2 2 2 2 2 2 2 2 2 2 2 2 2 2 2 2 2 2 2 2 2 2 2 2 2 2 2 2 2 2 2 2 2 2 2 2 2 2 2 2 2 2 2 2 2 2 2 2 2 2 2 2 2 2 2 2 2 2 2 2 2 2 2 2 2 2 2 2 2 2 2 2 2 2 2 2 2 2 2 w 2 2 2 w w 2 2 2 2 2 2 2 2 2 2 2 2 2 2 2 2 2 2 2 2 w w w w 2 2 2 2 ",
"f f f f f f f f f f f f f f f f f f f f f f f f f f f f f f f f f f f f f f f f f f f f f f f f f f f f f f f f f f f f f f f f f f f f f f f f f f g d 2 2 2 2 2 2 2 2 2 2 2 2 2 2 2 2 2 2 2 2 2 2 2 2 2 2 2 2 2 2 2 2 2 2 2 2 2 2 2 2 2 2 2 2 2 2 2 2 2 2 2 2 2 2 2 2 2 2 2 2 2 2 2 2 2 2 2 2 2 2 2 2 2 2 2 2 2 2 2 2 2 2 2 2 2 2 2 2 2 2 2 2 2 2 2 2 2 2 2 2 2 2 2 2 2 2 2 2 2 2 2 2 2 2 2 2 2 2 2 2 2 2 2 2 2 2 2 2 2 2 2 2 2 2 2 2 2 2 2 2 2 2 2 2 2 w w w w w 2 6 w w w w w w w w w w w w w w w w w w w w 5 5 5 w w w w w ",
"f f f f f f f f f f f f f f f f f f f f f f f f f f f f f f f f f f f f f f f f f f f f f f f f f f f f f f f f f f f f f f f f f f f f f f f f f g d 2 2 2 2 2 2 2 2 2 2 2 2 2 2 2 2 2 2 2 2 2 2 2 2 2 2 2 2 2 2 2 2 2 2 2 2 2 2 2 2 2 2 2 2 2 2 2 2 2 2 O O % 2 2 2 2 2 2 2 2 2 2 2 2 % 2 2 2 2 2 2 2 2 2 2 2 2 2 2 2 2 2 2 2 2 % 2 2 2 2 2 2 2 2 2 2 2 2 2 2 2 2 2 2 2 2 2 2 2 2 2 2 2 2 2 2 2 2 2 2 2 2 2 2 2 2 2 2 2 2 2 2 2 2 2 2 2 2 2 2 2 2 2 2 w w w w w 2 y s 2 w w w w w w w w w w w w w w w w w w 2 p :.+.w 2 w w w ",
"f f f f f f f f f f f f f f f f f f f f f f f f f f f f f f f f f f f f f f f f f f f f f f f f f f f f f f f f f f f f f f f f f f f f f f f f g d 2 2 2 2 2 2 2 2 % 2 2 2 2 2 2 2 2 2 2 2 2 2 2 2 2 2 2 2 2 2 2 2 2 2 2 2 2 2 2 2 2 2 2 2 2 2 2 2 2 2 w V.F.c $ O . &.L.@ O O 2 % O O m 2 % 2 $ O O 2 $ O @ % O $ 2 O O 2 @ O @ x f @ 2 2 2 2 2 2 2 2 2 2 2 2 2 2 2 2 2 2 2 2 2 2 2 2 2 2 2 2 2 2 2 2 2 2 2 2 2 2 r % 2 2 2 2 2 2 2 2 2 2 2 2 2 2 2 w w w w w w 6 Y `.w w w w w w w w w w w w 5 w w w w w w 5 h.h.h.h.w w w w ",
"f f f f f f f f f f f f f f f f f f f f f f f f f f f f f f f f f f f f f f f f f f f f f f f f f f f f f f f f f f f f f f f f f f f f f f f g d 2 2 2 2 2 2 2 2 # u j.t 2 2 2 2 2 2 2 2 2 2 2 2 2 2 2 2 2 2 2 2 2 2 2 2 2 2 2 2 2 2 2 2 2 2 2 2 2 2 O F.F.=.v d Z.&.N *X$ N.c.@ v Z.z.gXH.w % *.c.V.2 m z.5.x A.N 2 N.N.2 =.Z.d =X3Xx % 2 2 2 2 2 2 2 2 2 2 2 2 2 2 2 2 2 2 2 2 2 2 2 2 2 2 2 2 2 2 2 2 2 2 2 2 # :.y.# 2 2 2 2 2 2 2 2 2 2 2 2 2 w w w w w w 2 w W ~ T 6 w w w w w 5 5 5 * 2 a 5 w w w w w 5 h.<.:.+Xw w w w ",
"f f f f f f f f f f f f f f f f f f f f f f f f f f f f f f f f f f f f f f f f f f f f f f f f f f f f f f f f f f f f f f f f f f f f f f g d 2 2 2 2 2 2 2 2 % u j.u % 2 2 2 2 2 2 2 2 2 2 2 2 2 2 2 2 2 2 2 2 2 2 2 2 2 2 2 2 2 2 2 2 2 2 2 2 2 2 O v.>Xf O =XC.>XV.A.C.F.=XN.=Xv.*.3Xx.2 O 3XF.L.N.F.2Xm :XV.>XL.*XN =.:XZ.=XL.J.w 2 2 2 2 2 2 2 2 2 2 2 2 2 2 2 2 2 2 2 2 2 2 2 2 2 2 2 2 2 2 2 2 2 2 2 2 2 2 # ,.t.2 2 2 2 2 2 2 2 2 2 2 2 w w w w w w w 6 T ~ ^ W 6 w w w w 5 :.h.h.u.h.7X<.5 w w w w 5 h.+X+Xh.2 w w w ",
"f f f f f f f f f f f f f f f f f f f f f f f f f f f f f f f f f f f f f f f f f f f f f f f f f f f f f f f f f f f f f f f f f f f f f g d 2 2 2 2 2 2 2 2 2 # +.j.% 2 2 2 2 2 2 2 2 2 2 2 2 2 2 2 2 2 2 2 2 2 2 2 2 2 2 2 2 2 2 2 2 2 2 2 2 2 2 2 2 @ 5.3Xv.dXF.*XV.F.,XP.L.P.J.& @ P.f % @ *Xx d *XA.5.f zXZ.=X-.L.z.v.dXF.H.Z.5.O 2 2 2 2 2 2 2 2 2 2 2 2 2 2 2 2 2 2 2 2 2 2 2 2 2 2 2 2 2 2 2 2 2 2 2 2 2 2 + +.j.2 2 2 2 2 2 2 2 2 2 2 w w w w w w w w 6 ^ '.W '.y 6 w w w 5 +.i.2.2.i.+X+.5 w w w w 5 h.+.# +Xa 5 w w ",
"f f f f f f f f f f f f f f f f f f f f f f f f f f f f f f f f f f f f f f f f f f f f f f f f f f f f f f f f f f f f f f f f f f f f g d 2 2 2 2 2 2 2 2 2 2 2 # +.j.w 2 2 2 2 2 2 2 2 2 2 2 2 2 2 2 2 2 2 2 2 2 2 2 2 2 2 2 2 2 2 2 2 2 2 2 2 2 2 2 c $ N.P.=X=.2 -.L.L.v.2 m 3Xc d >X*.2 O ,Xx.x.F.Z.x.w 4Xc f f f ,XH.*Xf 2 F.C.@ 2 2 2 2 2 2 2 2 2 2 2 2 2 2 2 2 2 2 2 2 2 2 2 2 2 2 2 2 2 2 2 2 2 2 2 2 2 % +.j.w % 2 2 2 2 2 2 2 2 2 w w w w w w w w 6 y '.y 6 W Y 6 w w w w 5 * 5 * 5 u 5 w w w w w 5 h.+Xh.h.r 2 w w ",
"f f f f f f f f f f f f f f f f f f f f f f f f f f f f f f f f f f f f f f f f f f f f f f f f f f f f f f f f f f f f f f f f f f f g d 2 2 2 2 2 2 2 2 2 2 2 2 2 # p r 2 2 2 2 2 2 2 2 2 2 2 2 2 2 2 2 2 2 2 2 2 2 2 2 2 2 2 2 2 2 2 2 2 2 2 2 2 2 $ z.:XL.f &.>XF.=.M.x =X*Xc z.,X-.z.*Xf O *X=X=Xf c.-.O z.,XC.5.=XA.w C.,Xx.v >XN $ 2 2 2 2 2 2 2 2 2 2 2 2 2 2 2 2 2 2 2 2 2 2 2 2 2 2 2 2 2 2 2 2 2 2 2 2 2 p r % 2 2 2 2 2 2 2 2 2 w w w w w w w w w 2 y s 2 2 y s 6 w w w w w w w w w 2 w w w w w w 2 u +.+.r 5 w w w ",
"f f f f f f f f f f f f f f f f f f f f f f f f f f f f f f f f f f f f f f f f f f f f f f f f f f f f f f f f f f f f f f f f f f g d 2 2 2 2 2 2 2 2 2 2 2 2 2 2 2 # 2 2 2 2 2 2 2 2 2 2 2 2 2 2 2 2 2 2 2 2 2 2 2 2 2 2 2 2 2 2 2 2 2 2 2 2 2 2 2 2 % % $ 2 $ $ % % $ % @ % 2 $ $ 2 $ $ 2 @ =XN O 2 % % 2 $ $ % % % $ 2 @ % % % $ 2 2 2 2 2 2 2 2 2 2 2 2 2 2 2 2 2 2 2 2 2 2 2 2 2 2 2 2 2 2 2 2 2 2 2 2 2 2 2 # 2 2 2 2 2 2 2 2 2 2 w w w w w w w w w w w 2 6 w w 6 6 w w w w w w w w w w w w w w w w w w 5 5 5 2 w w w w ",
"g g g g g g g g g g g g g g g g g g g g g g g g g g g g g g g g g g g g g g g g g g g g g g g g g g g g g g g g g g g g g g g g g g d 2 2 2 2 2 2 2 2 2 2 2 2 2 2 2 2 2 2 2 2 2 2 2 2 2 2 2 2 2 2 2 2 2 2 2 2 2 2 2 2 2 2 2 2 2 2 2 2 2 2 2 2 2 2 2 2 2 2 2 2 2 2 2 2 2 2 2 2 2 2 2 2 2 2 2 2 @ A.m % 2 2 2 2 2 2 2 2 2 2 2 2 2 2 2 2 2 2 2 2 2 2 2 2 2 2 2 2 2 2 2 2 2 2 2 2 2 2 2 2 2 2 2 2 2 2 2 2 2 2 2 2 2 2 2 2 2 2 2 2 2 2 2 2 2 w w w w w w w w w w w w w w w w w w w w w w w w w w w w w w w w w w w w w w w w w w w w ",
"f f f f f f f f f f f f f f f f f f f f f f f f f f f f f f f f f f f f f f f f f f f f f f f f f f f f f f f f f f f f f f f f f d 2 2 2 2 2 2 2 2 2 2 2 2 2 2 2 2 2 2 2 2 2 2 2 2 2 2 2 2 2 2 2 2 2 2 2 2 2 2 2 2 2 2 2 2 2 2 2 2 2 2 2 2 2 2 2 2 2 2 2 2 2 2 2 2 2 2 2 2 2 2 2 2 2 2 2 2 2 2 % 2 2 2 2 2 2 2 2 2 2 2 2 2 2 2 2 2 2 2 2 2 2 2 2 2 2 2 2 2 2 2 2 2 2 2 2 2 2 2 2 2 2 2 2 2 2 2 2 2 2 2 2 2 2 2 2 2 2 2 2 2 2 2 2 2 2 w 2 2 2 2 2 2 2 2 2 2 2 2 2 2 2 2 2 2 2 2 2 2 2 2 2 2 2 2 2 2 2 2 2 2 2 2 2 2 2 2 2 2 2 2 ",
"2 2 2 2 2 2 2 2 2 2 2 2 2 2 2 2 2 2 2 2 2 2 2 2 2 2 2 2 2 2 2 2 2 2 2 2 2 2 2 2 2 2 2 2 2 2 2 2 2 2 2 2 2 2 2 2 2 2 2 2 2 2 2 2 2 2 2 2 2 2 2 2 2 2 2 2 2 2 2 2 2 2 2 2 2 2 2 2 2 2 2 2 2 2 2 2 2 2 2 2 2 2 2 2 2 2 2 2 2 2 2 2 2 2 2 2 2 2 2 2 2 2 2 2 2 2 2 2 2 2 2 2 2 2 2 2 2 2 2 2 2 2 2 2 2 2 2 2 2 2 2 2 2 2 2 2 2 2 2 2 2 2 2 2 2 2 2 2 2 2 2 2 2 2 2 2 2 2 2 2 2 2 2 2 2 2 2 2 2 2 2 2 2 2 2 2 2 2 2 2 2 2 2 2 2 2 2 2 2 2 2 2 2 2 2 2 2 2 2 2 2 2 2 2 2 2 2 2 2 2 2 2 2 2 2 2 2 2 2 2 2 2 2 2 2 2 2 2 2 2 2 2 2 2 2 2 ",
"2 2 2 2 2 2 2 2 2 2 2 2 2 2 2 2 2 2 2 2 2 2 2 2 2 2 2 2 2 2 2 2 2 2 2 2 2 2 2 2 2 2 2 2 2 2 2 2 2 2 2 2 2 2 2 2 2 2 2 2 2 2 2 2 2 2 2 2 2 2 2 2 2 2 2 2 2 2 2 2 2 2 2 2 2 2 2 2 2 2 2 2 2 2 2 2 2 2 2 2 2 2 2 2 2 2 2 2 2 2 2 2 2 2 2 2 2 2 2 2 2 2 2 2 2 2 2 2 2 2 2 2 2 2 2 2 2 2 2 2 2 2 2 2 2 2 2 2 2 2 2 2 2 2 2 2 2 2 2 2 2 2 2 2 2 2 2 2 2 2 2 2 2 2 2 2 2 2 2 2 2 2 2 2 2 2 2 2 2 2 2 2 2 2 2 2 2 2 2 2 2 2 2 2 2 2 2 2 2 2 2 2 2 2 2 2 2 2 2 2 2 2 2 2 2 2 2 2 2 2 2 2 2 2 2 2 2 2 2 2 2 2 2 2 2 2 2 2 2 2 2 2 2 2 2 2 ",
"f f f f f f f f f f f f f f f f f f f f f f f f f f f f f f f f f f f f f f f f f f f f f f f f f f f f f f f f f f f f f f f f f f f f f f f f f f f f f f f f f f f f f f f f f f f f f f f f f f f f f f f f f f f f f f f f f f f f f f f f f f f f f f f f f f f f f f f f f f f f f f f f f f f f f f f f f f f f f f f f f f f f f f f f f f f f f f f f f f f f f f f f f f f f f f f f f f f f f f f f f f f f f f f f f f f f f f f f f f f f f f f f f f f f f f f f f f f f f f f f f f f f f f f f f f f f f f f f ",
"h h h h h h h h h h h h h h h h h h h h h h h h h g f g g g g g g g g g g g g g g g g g g g g g g g g g f f f f f f f f f f f f f f f f f f f f f f f f f f f f f f f f f f f f f f f f f f f f f f f f f f f f f f f f f f f f f f f f f f f f f f f f f f f f f f f f f f f f f f f f f f f f f f f f f f f f f f f f f f f f f f f f f f f f f f f f f f f f f f f f f f f f f f f f f f f f f f f f f f f f f f f f f f f f f f f f f f f f f f f f f f f f f f f f f f f f f f f f f f f f f f f f f f f f f f f f f f f f ",
".X.X.X.X.X.X.X.X.X.X.X.X.X.X.X.X.X.X.X.X.X.X.X.XXX{ 9 ^ }.{.{.{.{.{.{.{.{.{.{.{.{.{.{.{.{.{.{.{.{.{.}.U 8 g f f f f f f f f f f f f f f f f f f f f f f f f f f f f f f f f f f f f f f f f f f f f f f f f f f f f f f f f f f f f f f f f f f f f f f f f f f f f f f f f f f f f f f f f f f f f f f f f f f f f f f f f f f f f f f f f f f f f f f f f f f f f f f f f f f f f f f f f f f f f f f f f f f f f f f f f f f f f f f f f f f f f f f f f f f f f f f f f f f f f f f f f f f f f f f f f f f f f f f f f f f ",
"| | | | | | | | | | | | | | | | | | | | | | | } .XX.4 ^ ].R E E E E E E E E E E E E E E E E E E E R ].U 9 f f f f f f f f f f f f f f f f f f f f f f f f f f f f f f f f f f f f f f f f f f f f f f f f f f f f f f f f f f f f f f f f f f f f f f f f f f f f f f f f f f f f f f f f f f f f f f f f f f f f f f f f f f f f f f f f f f f f f f f f f f f f f f f f f f f f f f f f f f f f f f f f f f f f f f f f f f f f f f f f f f f f f f f f f f f f f f f f f f f f f f f f f f f f f f f f f f f f f f f f f f f ",
"_ ) _ _ _ _ _ _ _ _ _ _ _ _ _ ) _ _ _ _ ) _ ' ) ^.X.4 ^ `.P I I I I I I I I I I I I I I I I I I I P ].U 6 f f f f f f f f f f f f f f f f f f f f f f f f f f f f f f f f f f f f f f f f f f f f f f f f f f f f f f f f f f f f f f f f f f f f f f f f f f f f f f f f f f f f f f f f f f f f f f f f f f f f f f f f f f f f f f f f f f f f f f f f f f f f f f f f f f f f f f f f f f f f f f f f f f f f f f f f f f f f f f f f f f f f f f f f f f f f f f f f f f f f f f f f f f f f f f f f f f f f f f f f f f f ",
"} o.' } ' } ' _  ._ } _ } | | .. .| | } o.} _ ` ^.{ 4 ^ `.P I E E R R I R I E I E Q R R R I E E R P `.Y 6 d d d d d d d d d d d d d d d d d d d d d d d d d d d d d d d d d d d d d d d d d d d d d d d d d d d d d d d d d d d d d d d d d d d d d d d d d d d d d d d d d d d d d d d d d d d d d d d d d d d d d d d d d d d d d d d d d d d d d d d d d d d d d d d d d d d d d d d d d d d d d d d d d d d d d d d d d d d d d d d d d d d d d d d d d d d d d d d d d d d d d d d d d d d d d d d d d d d d d d d d d d d ",
"o. ...o._ | } } ^.) o.) } o._ o.o.o.' | | o._ ` ^.{ 4 ^ _.K I ! I E _.R E I _.P Q Q Q Q R P ! R I P `.Y 6 d d d d d d d d d d d d d d d d d d d d d d d d d d d d d d d d d d d d d d d d d d d d d d d d d d d d d d d d d d d d d d d d d d d d d d d d d d d d d d d d d d d d d d d d d d d d d d d d d d d d d d d d d d d d d d d d d d d d d d d d d d d d d d d d d d d d d d d d d d d d d d d d d d d d d d d d d d d d d d d d d d d d d d d d d d d d d d d d d d d d d d d d d d d d d d d d d d d d d d d d d d d ",
"} ( | o.) } }  ...' | ` _  .` | ) o.}  .| | ) ( ^.{ 4 Y ! K P Q R R Q Q R R Q R E Q R E I P Q E P K _.T 6 w w w w w w w w w w w w w w w w w w w w w w w w w w w w w w w w w w w w w w w w w w w w w w w w w w w w w w w w w w w w w w w w w w w w w w w w w w w w w w w w w w w w w w w w w w w w w w w w w w w w w w w w w w w w w w w w w w w w w w w w w w w w w w w w w w w w w w w w w w w w w w w w w w w w w w w w w w w w w w w w w w w w w w w w w w w w w w w w w w w w w w w w w w w w w w w w w w w w w w w w w w w ",
" .(  .| ) } } ..o. . .` ) } } ' ` | C } ..} ` C o.[ 4 Y Q K P E K R I Q E E Q E R P R E P P E K P K ! T 3 w 2 2 2 2 2 2 2 2 2 2 2 2 2 2 2 2 2 2 2 2 2 2 2 2 2 2 2 2 2 2 2 2 2 2 2 2 2 2 2 2 2 2 2 2 2 2 2 2 2 2 2 2 2 2 2 2 2 2 2 2 2 2 2 2 2 2 2 2 2 2 2 2 2 2 2 2 2 2 2 2 2 2 2 2 2 2 2 2 2 2 2 2 2 2 2 2 2 2 2 2 2 2 2 2 2 2 2 2 2 2 2 2 2 2 2 2 2 2 2 2 2 2 2 2 2 2 2 2 2 2 2 2 2 2 2 2 2 2 2 2 2 2 2 2 2 2 2 2 2 2 2 2 2 2 2 2 2 2 2 2 2 2 2 2 2 2 2 2 2 2 2 2 2 2 2 2 2 2 2 2 2 2 2 2 2 2 2 2 2 2 2 2 2 2 2 2 2 2 2 2 2 2 ",
"' | _ ` } } _ _ ( ' } } _ }  .} _  .' _ ` _ ` C o.[ 4 Y Q J K E I I P P E I K I R E I I E I R R P J Q T 3 2 2 2 2 2 2 2 2 2 2 2 2 2 2 2 2 2 2 2 2 2 2 2 2 2 2 2 2 2 2 2 2 2 2 2 2 2 2 2 2 2 2 2 2 2 2 2 2 2 2 2 2 2 2 2 2 2 2 2 2 2 2 2 2 2 2 2 2 2 2 2 2 2 2 2 2 2 2 2 2 2 2 2 2 2 2 2 2 2 2 2 2 2 2 2 2 2 2 2 2 2 2 2 2 2 2 2 2 2 2 2 2 2 2 2 2 2 2 2 2 2 2 2 2 2 2 2 2 2 2 2 2 2 2 2 2 2 2 2 2 2 2 2 2 2 2 2 2 2 2 2 2 2 2 2 2 2 2 2 2 2 2 2 2 2 2 2 2 2 2 2 2 2 2 2 2 2 2 2 2 2 2 2 2 2 2 2 2 2 2 2 2 2 2 2 2 2 2 2 2 2 2 2 ",
"C ` _ C C C C C C C C C C C C C C C C C C C C C ..[ 4 L E J K K K K K K K K K K K K K K K K K K K J Q T 3 2 2 2 2 2 2 2 2 2 2 2 2 2 2 2 2 2 2 2 2 2 2 2 2 2 2 2 2 2 2 2 2 2 2 2 2 2 2 2 2 2 2 2 2 2 2 2 2 2 2 2 2 2 2 2 2 2 2 2 2 2 2 2 2 2 2 2 2 2 2 2 2 2 2 2 2 2 2 2 2 2 2 2 2 2 2 2 2 2 2 2 2 2 2 2 2 2 2 2 2 2 2 2 2 2 2 2 2 2 2 2 2 2 2 2 2 2 2 2 2 2 2 2 2 2 2 2 2 2 2 2 2 2 2 2 2 2 2 2 2 2 2 2 2 2 2 2 2 2 2 2 2 2 2 2 2 2 2 2 2 2 2 2 2 2 2 2 2 2 2 2 2 2 2 2 2 2 2 2 2 2 2 2 2 2 2 2 2 2 2 2 2 2 2 2 2 2 2 2 2 2 2 2 ",
"; ; ; ; ; ; ; ; ; ; ; ; ; ; ; ; ; ; ; ; ; ; ; ;  .C 4 L R - J J J J J J J J J J J J J J J J J J J - E T 3 % % % % % % % % % % % % % % % % % % % % % % % % % % % % % % % % % % % % % % % % % % % % % % % % % % % % % % % % % % % % % % % % % % % % % % % % % % % % % % % % % % % % % % % % % % % % % % % % % % % % % % % % % % % % % % % % % % % % % % % % % % % % % % % % % % % % % % % % % % % % % % % % % % % % % % % % % % % % % % % % % % % % % % % % % % % % % % % % % % % % % % % % % % % % % % % % % % % % % % % % % % % ",
"} } } } } } } } } } } } } } } } } } } } } } } } o.C 4 L Q R R R R R R R R R R R R R R R R R R R R R Q = 3 % % % % % % % % % % % % % % % % % % % % % % % % % % % % % % % % % % % % % % % % % % % % % % % % % % % % % % % % % % % % % % % % % % % % % % % % % % % % % % % % % % % % % % % % % % % % % % % % % % % % % % % % % % % % % % % % % % % % % % % % % % % % % % % % % % % % % % % % % % % % % % % % % % % % % % % % % % % % % % % % % % % % % % % % % % % % % % % % % % % % % % % % % % % % % % % % % % % % % % % % % % % ",
", , , , , , , , , , , , , , , , , , , , , , , , , > $ s = = = = = = = = = = = = = = = = = = = = = = = 1 $ $ $ $ $ $ $ $ $ $ $ $ $ $ $ $ $ $ $ $ $ $ $ $ $ $ $ $ $ $ $ $ $ $ $ $ $ $ $ $ $ $ $ $ $ $ $ $ $ $ $ $ $ $ $ $ $ $ $ $ $ $ $ $ $ $ $ $ $ $ $ $ $ $ $ $ $ $ $ $ $ $ $ $ $ $ $ $ $ $ $ $ $ $ $ $ $ $ $ $ $ $ $ $ $ $ $ $ $ $ $ $ $ $ $ $ $ $ $ $ $ $ $ $ $ $ $ $ $ $ $ $ $ $ $ $ $ $ $ $ $ $ $ $ $ $ $ $ $ $ $ $ $ $ $ $ $ $ $ $ $ $ $ $ $ $ $ $ $ $ $ $ $ $ $ $ $ $ $ $ $ $ $ $ $ $ $ $ $ $ $ $ $ $ $ $ $ $ $ $ $ $ $ $ ",
"                                                  o O O X X X X X X X X X X X X X X X X X X X X X X X O O O O O O O O O O O O O O O O O O O O O O O O O O O O O O O O O O O O O O O O O O O O O O O O O O O O O O O O O O O O O O O O O O O O O O O O O O O O O O O O O O O O O O O O O O O O O O O O O O O O O O O O O O O O O O O O O O O O O O O O O O O O O O O O O O O O O O O O O O O O O O O O O O O O O O O O O O O O O O O O O O O O O O O O O O O O O O O O O O O O O O O O O O O O O O O O O O O O O O O O O O O O O ",
"g g g g g g g g g g g g g g g g g g g g g g g g g g f g g g g g g g g g g g g g g g g g g g g g g g g g f g g g g g g g g g g g g g g g g g g g g g g g g g g g g g g g g g g g g g g g g g g g g g g g g g g g g g g g g g g g g g g g g g g g g g g g g g g g g g g g g g g g g g g g g g g g g g g g g g g g g g g g g g g g g g g g g g g g g g g g g g g g g g g g g g g g g g g g g g g g g g g g g g g g g g g g g g g g g g g g g g g g g g g g g g g g g g g g g g g g g g g g g g g g g g g g g g g g g g g g g g g g ",
"-.-.-.-.-.-.-.=.-.-.-.-.-.-.-.-.-.-.-.-.-.-.-.-.-.-.-.-.-.-.-.-.-.-.-.-.-.=.-.-.-.-.-.-.-.-.=.=.-.-.-.-.-.-.-.-.-.-.-.-.-.-.-.-.-.-.-.-.-.-.-.-.-.-.-.-.-.-.-.-.-.-.-.-.-.-.-.-.-.-.-.-.-.-.-.-.-.-.-.-.-.-.-.-.-.-.-.-.-.-.-.-.-.-.-.-.-.-.-.-.-.-.-.-.-.-.-.-.-.-.-.-.-.-.-.-.-.-.-.-.-.-.-.-.-.-.-.-.-.-.-.-.-.-.-.-.-.-.-.-.-.-.-.-.-.-.-.-.-.-.-.-.-.-.-.-.-.-.-.-.-.-.-.-.-.-.-.-.-.-.-.-.-.-.-.-.-.-.-.-.-.-.-.-.-.-.-.-.-.-.-.-.-.-.-.-.-.-.-.-.-.-.-.-.-.-.-.-.-.-.-.-.-.-.-.-.-.-.-.-.-.-.-.-.-.-.-.-.-.-.-.-.-.-.-.-.",
"*.*.*.*.N m &.-.*.*.=.*.*.=.*.*.*.=.*.*.*.*.N m N *.=.*.*.*.*.*.*.=.*.*.*.-.*.=.=.*.=.*.*.*.-.=.*.=.*.*.*.=.*.*.*.*.*.*.*.*.*.*.*.*.*.*.*.*.*.*.*.*.*.*.*.*.*.*.*.*.*.*.*.*.*.*.*.*.*.*.*.*.*.*.*.*.*.*.*.*.*.*.*.*.*.*.*.*.*.*.*.*.*.*.*.*.*.*.*.*.*.*.*.*.*.*.*.*.*.*.*.*.*.*.*.*.*.*.*.*.*.*.*.*.*.*.*.*.*.*.*.*.*.*.*.*.*.*.*.*.*.*.*.*.*.*.*.*.*.*.*.*.*.*.*.*.*.*.*.*.*.*.*.*.*.*.*.*.*.*.*.*.*.*.*.*.*.*.*.*.*.*.*.*.*.*.*.*.*.*.*.*.*.*.*.*.*.*.*.*.*.*.*.*.*.*.*.*.*.*.*.*.*.*.*.*.*.*.*.*.*.*.*.*.*.*.*.*.*.*.*.*.*.*.",
"-.N *.&.v.L.x.c.=.N N &.&.N N =.N m -.=X&.&.V.P.V.&.N N &.&.*.N *.N v C.Z.z.=.m N &.N N -.N z.z.N N &.*.N N *.*.*.*.*.*.*.*.*.*.*.*.*.*.*.*.*.*.*.*.*.*.*.*.*.*.*.*.*.*.*.*.*.*.*.*.*.*.*.*.*.*.*.*.*.*.*.*.*.*.*.*.*.*.*.*.*.*.*.*.*.*.*.*.*.*.*.*.*.*.*.*.*.*.*.*.*.*.*.*.*.*.*.*.*.*.*.*.*.*.*.*.*.*.*.*.*.*.*.*.*.*.*.*.*.*.*.*.*.*.*.*.*.*.*.*.*.*.*.*.*.*.*.*.*.*.*.*.*.*.*.*.*.*.*.*.*.*.*.*.*.*.*.*.*.*.*.*.*.*.*.*.*.*.*.*.*.*.*.*.*.*.*.*.*.*.*.*.*.*.*.*.*.*.*.*.*.*.*.*.*.*.*.*.*.*.*.*.*.*.*.*.*.*.*.*.*.*.*.*.*.*.",
"-X;X&.z.2Xv.x.c.*.C.Z.z.z.D.N.&.N.D.5.1X&.N 2XV.5.5.D.N.5.c.*.v.-.F.c.Z.J.5.x.F.Z.z.H.z.L.-Xx.5.5.J.z.=.V.D.-.*.*.*.*.*.*.*.*.*.*.*.*.*.*.*.*.*.*.*.*.*.*.*.*.*.*.*.*.*.*.*.*.*.*.*.*.*.*.*.*.*.*.*.*.*.*.*.*.*.*.*.*.*.*.*.*.*.*.*.*.*.*.*.*.*.*.*.*.*.*.*.*.*.*.*.*.*.*.*.*.*.*.*.*.*.*.*.*.*.*.*.*.*.*.*.*.*.*.*.*.*.*.*.*.*.*.*.*.*.*.*.*.*.*.*.*.*.*.*.*.*.*.*.*.*.*.*.*.*.*.*.*.*.*.*.*.*.*.*.*.*.*.*.*.*.*.*.*.*.*.*.*.*.*.*.*.*.*.*.*.*.*.*.*.*.*.*.*.*.*.*.*.*.*.*.*.*.*.*.*.*.*.*.*.*.*.*.*.*.*.*.*.*.*.*.*.*.*.*.*.*.",
"2XJ.&.-.2XZ.*.>XV.*X>XJ.-XL.1Xz.x.-XH.=X*.N ,XJ.z.=XF.4XC.=X*.2X=.Z.>XJ.A.-Xz.H.4X-.F.=X-XJ.J.D.;XH.=XN.4XH.;XN =.*.*.*.*.*.*.*.*.*.*.*.*.*.*.*.*.*.*.*.*.*.*.*.*.*.*.*.*.*.*.*.*.*.*.*.*.*.*.*.*.*.*.*.*.*.*.*.*.*.*.*.*.*.*.*.*.*.*.*.*.*.*.*.*.*.*.*.*.*.*.*.*.*.*.*.*.*.*.*.*.*.*.*.*.*.*.*.*.*.*.*.*.*.*.*.*.*.*.*.*.*.*.*.*.*.*.*.*.*.*.*.*.*.*.*.*.*.*.*.*.*.*.*.*.*.*.*.*.*.*.*.*.*.*.*.*.*.*.*.*.*.*.*.*.*.*.*.*.*.*.*.*.*.*.*.*.*.*.*.*.*.*.*.*.*.*.*.*.*.*.*.*.*.*.*.*.*.*.*.*.*.*.*.*.*.*.*.*.*.*.*.*.*.*.*.*.*.*.*.",
"=Xw.N &.N =XL.L.;Xc.z.J.;X*.J.C.D.2X;X=X*.N >XZ.x.>Xc P.Z.L.N >Xv.P.2X;XZ.*X=.F.w.N.*X>X;Xz.V.L.*Xf =XF.F.=.>XN =.*.*.*.*.*.*.*.*.*.*.*.*.*.*.*.*.*.*.*.*.*.*.*.*.*.*.*.*.*.*.*.*.*.*.*.*.*.*.*.*.*.*.*.*.*.*.*.*.*.*.*.*.*.*.*.*.*.*.*.*.*.*.*.*.*.*.*.*.*.*.*.*.*.*.*.*.*.*.*.*.*.*.*.*.*.*.*.*.*.*.*.*.*.*.*.*.*.*.*.*.*.*.*.*.*.*.*.*.*.*.*.*.*.*.*.*.*.*.*.*.*.*.*.*.*.*.*.*.*.*.*.*.*.*.*.*.*.*.*.*.*.*.*.*.*.*.*.*.*.*.*.*.*.*.*.*.*.*.*.*.*.*.*.*.*.*.*.*.*.*.*.*.*.*.*.*.*.*.*.*.*.*.*.*.*.*.*.*.*.*.*.*.*.*.*.*.*.*.*.",
"P.;X&.5.V.J.L.-XV.-X>XH.=X5.L.P.>X*X*X>X*.N 2XD.z.=XJ.4Xv.>XL.2X;X=X-X-XD.;XF.gXv.2X;X>XL.P.J.A.;XL.;XV.L.5.>XN =.*.*.*.*.*.*.*.*.*.*.*.*.*.*.*.*.*.*.*.*.*.*.*.*.*.*.*.*.*.*.*.*.*.*.*.*.*.*.*.*.*.*.*.*.*.*.*.*.*.*.*.*.*.*.*.*.*.*.*.*.*.*.*.*.*.*.*.*.*.*.*.*.*.*.*.*.*.*.*.*.*.*.*.*.*.*.*.*.*.*.*.*.*.*.*.*.*.*.*.*.*.*.*.*.*.*.*.*.*.*.*.*.*.*.*.*.*.*.*.*.*.*.*.*.*.*.*.*.*.*.*.*.*.*.*.*.*.*.*.*.*.*.*.*.*.*.*.*.*.*.*.*.*.*.*.*.*.*.*.*.*.*.*.*.*.*.*.*.*.*.*.*.*.*.*.*.*.*.*.*.*.*.*.*.*.*.*.*.*.*.*.*.*.*.*.*.*.*.*.",
"-.Z.=.-.Z.Z.=.c.=.v.-XJ.5.-.z.-.N.V.z.c.*.&.v.H.M.-.V.2Xz.x.Z.x.-.Z.c.z.z.z.c.D.C.z.Z.x.-.V.v.-.-.F.-.-.z.=.c.&.*.*.*.*.*.*.*.*.*.*.*.*.*.*.*.*.*.*.*.*.*.*.*.*.*.*.*.*.*.*.*.*.*.*.*.*.*.*.*.*.*.*.*.*.*.*.*.*.*.*.*.*.*.*.*.*.*.*.*.*.*.*.*.*.*.*.*.*.*.*.*.*.*.*.*.*.*.*.*.*.*.*.*.*.*.*.*.*.*.*.*.*.*.*.*.*.*.*.*.*.*.*.*.*.*.*.*.*.*.*.*.*.*.*.*.*.*.*.*.*.*.*.*.*.*.*.*.*.*.*.*.*.*.*.*.*.*.*.*.*.*.*.*.*.*.*.*.*.*.*.*.*.*.*.*.*.*.*.*.*.*.*.*.*.*.*.*.*.*.*.*.*.*.*.*.*.*.*.*.*.*.*.*.*.*.*.*.*.*.*.*.*.*.*.*.*.*.*.*.*.",
"*.N *.*.N N =.N z.;X-Xx.N =.&.*.N N &.&.=.=.N N N =.c J.x.N N &.*.N &.&.&.&.&.N N &.N &.*.N &.*.*.N *.*.&.*.&.=.*.=.=.=.=.=.=.=.=.=.=.=.=.=.=.=.=.=.=.=.=.=.=.=.=.=.=.=.=.=.=.=.=.=.=.=.=.=.=.=.=.=.=.=.=.=.=.=.=.=.=.=.=.=.=.=.=.=.=.=.=.=.=.=.=.=.=.=.=.=.=.=.=.=.=.=.=.=.=.=.=.=.=.=.=.=.=.=.=.=.=.=.=.=.=.=.=.=.=.=.=.=.=.=.=.=.=.=.=.=.=.=.=.=.=.=.=.=.=.=.=.=.=.=.=.=.=.=.=.=.=.=.=.=.=.=.=.=.=.=.=.=.=.=.=.=.=.=.=.=.=.=.=.=.=.=.=.=.=.=.=.=.=.=.=.=.=.=.=.=.=.=.=.=.=.=.=.=.=.=.=.=.=.=.=.=.=.=.=.=.=.=.=.=.=.=.=.=.=.=.",
"&.*.&.&.*.*.&.&.&.-.*.N *.&.&.&.*.*.&.&.&.&.&.*.&.&.*.&.&.&.*.&.&.*.&.&.&.&.&.*.*.&.*.&.&.*.&.&.&.*.&.&.&.&.&.&.&.&.&.&.&.&.&.&.&.&.&.&.&.&.&.&.&.&.&.&.&.&.&.&.&.&.&.&.&.&.&.&.&.&.&.&.&.&.&.&.&.&.&.&.&.&.&.&.&.&.&.&.&.&.&.&.&.&.&.&.&.&.&.&.&.&.&.&.&.&.&.&.&.&.&.&.&.&.&.&.&.&.&.&.&.&.&.&.&.&.&.&.&.&.&.&.&.&.&.&.&.&.&.&.&.&.&.&.&.&.&.&.&.&.&.&.&.&.&.&.&.&.&.&.&.&.&.&.&.&.&.&.&.&.&.&.&.&.&.&.&.&.&.&.&.&.&.&.&.&.&.&.&.&.&.&.&.&.&.&.&.&.&.&.&.&.&.&.&.&.&.&.&.&.&.&.&.&.&.&.&.&.&.&.&.&.&.&.&.&.&.&.&.&.&.&.&.&.&.&.",
"f f f f f f f f f f f g f f f f f f f f f f f f f f f f f f f f f f f f f f f f f f f f f f f f f f f f f f f f f f f f f f f f f f f f f f f f f f f f f f f f f f f f f f f f f f f f f f f f f f f f f f f f f f f f f f f f f f f f f f f f f f f f f f f f f f f f f f f f f f f f f f f f f f f f f f f f f f f f f f f f f f f f f f f f f f f f f f f f f f f f f f f f f f f f f f f f f f f f f f f f f f f f f f f f f f f f f f f f f f f f f f f f f f f f f f f f f f f f f f f f f f f f f f f f f f f f f f f f ",
"f f f f f f f f f f f f f f f f f f f f f f f f f f f f f f f f f f f f f f f f f f f f f f f f f f f f f f f f f f f f f f f f f f f f f f f f f f f f f f f f f f f f f f f f f f f f f f f f f f f f f f f f f f f f f f f f f f f f f f f f f f f f f f f f f f f f f f f f f f f f f f f f f f f f f f f f f f f f f f f f f f f f f f f f f f f f f f f f f f f f f f f f f f f f f f f f f f f f f f f f f f f f f f f f f f f f f f f f f f f f f f f f f f f f f f f f f f f g l l l l l l l l l l l l l l l l l l l l ",
"f f f f f f f f f f f f f f f f f f f f f f f f f f f f f f f f f f f f f f f f f f f f f f f f f f f f f f f f f f f f f f f f f f f f f f f f f f f f f f f f f f f f f f f f f f f f f f f f f f f f f f f f f f f f f f f f f f f f f f f f f f f f f f f f f f f f f f f f f f f f f f f f f f f f f f f f f f f f f f f f f f f f f f f f f f f f f f f f f f f f f f f f f f f f f f f f f f f f f f f f f f f f f f f f f f f f f f f f f f f f f f f f f f f f f f f f f g z '.}.{.{.{.{.{.{.{.{.{.{.{.{.{.{.{.{.{.{.{.",
"f f f f f f f f f f f f f f f f f f f f f f f f f f f f f f f f f f f f f f f f f f f f f f f f f f f f f f f f f f f f f f f f f f f f f f f f f f f f f f f f f f f f f f f f f f f f f f f f f f f f f f f f f f f f f f f f f f f f f f f f f f f f f f f f f f f f f f f f f f f f f f f f f f f f f f f f f f f f f f f f f f f f f f f f f f f f f f f f f f f f f f f f f f f f f f f f f f f f f f f f f f f f f f f f f f f f f f f f f f f f f f f f f f f f f f f f f g z [._.R E E E E E E E E E E E E E E E E E E ",
"f f f f f f f f f f f f f f f f f f f f f f f f f f f f f f f f f f f f f f f f f f f f f f f f f f f f f f f f f f f f f f f f f f f f f f f f f f f f f f f f f f f f f f f f f f f f f f f f f f f f f f f f f f f f f f f f f f f f f f f f f f f f f f f f f f f f f f f f f f f f f f f f f f f f f f f f f f f f f f f f f f f f f f f f f f f f f f f f f f f f f f f f f f f f f f f f f f f f f f f f f f f f f f f f f f f f f f f f f f f f f f f f f f f f f f f f f g z [.! I R I R R R R R R R R R I R R R R I R ",
"f f f f f f f f f f f f f f f f f f f f f f f f f f f f f f f f f f f f f f f f f f f f f f f f f f f f f f f f f f f f f f f f f f f f f f f f f f f f f f f f f f f f f f f f f f f f f f f f f f f f f f f f f f f f f f f f f f f f f f f f f f f f f f f f f f f f f f f f f f f f f f f f f f f f f f f f f f f f f f f f f f f f f f f f f f f f f f f f f f f f f f f f f f f f f f f f f f f f f f f f f f f f f f f f f f f f f f f f f f f f f f f f f f f f f f f f f g z [.! I E ! Q Q E E E E Q R ! ! E Q R E ! Q ",
"f f f f f f f f f f f f f f f f f f f f f f f f f f f f f f f f f f f f f f f f f f f f f f f f f f f f f f f f f f f f f f f f f f f f f f f f f f f f f f f f f f f f f f f f f f f f f f f f f f f f f f f f f f f f f f f f f f f f f f f f f f f f f f f f f f f f f f f f f f f f f f f f f f f f f f f f f f f f f f f f f f f f f f f f f f f f f f f f f f f f f f f f f f f f f f f f f f f f f f f f f f f f f f f f f f f f f f f f f f f f f f f f f f f f f f f f f g z [.! I Q `.R `._.Q Q ! `.R `.! ! _.R Q `.E ",
"f f f f f f f f f f f f f f f f f f f f f f f f f f f f f f f f f f f f f f f f f f f f f f f f f f f f f f f f f f f f f f f f f f f f f f f f f f f f f f f f f f f f f f f f f f f f f f f f f f f f f f f f f f f f f f f f f f f f f f f f f f f f f f f f f f f f f f f f f f f f f f f f f f f f f f f f f f f f f f f f f f f f f f f f f f f f f f f f f f f f f f f f f f f f f f f f f f f f f f f f f f f f f f f f f f f f f f f f f f f f f f f f f f f f f f f f f g z [.! I Q `.Q ! `._.Q _._.E `.`.Q _.R Q `.Q ",
"f f f f f f f f f f f f f f f f f f f f f f f f f f f f f f f f f f f f f f f f f f f f f f f f f f f f f f f f f f f f f f f f f f f f f f f f f f f f f f f f f f f f f f f f f f f f f f f f f f f f f f f f f f f f f f f f f f f f f f f f f f f f f f f f f f f f f f f f f f f f f f f f f f f f f f f f f f f f f f f f f f f f f f f f f f f f f f f f f f f f f f f f f f f f f f f f f f f f f f f f f f f f f f f f f f f f f f f f f f f f f f f f f f f f f f f f f g z [.! I Q ! I _.Q ].! `.`._.! E _._.R Q ! R ",
"f f f f f f f f f f f f f f f f f f f f f f f f f f f f f f f f f f f f f f f f f f f f f f f f f f f f f f f f f f f f f f f f f f f f f f f f f f f f f f f f f f f f f f f f f f f f f f f f f f f f f f f f f f f f f f f f f f f f f f f f f f f f f f f f f f f f f f f f f f f f f f f f f f f f f f f f f f f f f f f f f f f f f f f f f f f f f f f f f f f f f f f f f f f f f f f f f f f f f f f f f f f f f f f f f f f f f f f f f f f f f f f f f f f f f f f f f g z [.! I Q `.Q ! R ! _.E R ! _.`.Q _._.Q `.! ",
"f f f f f f f f f f f f f f f f f f f f f f f f f f f f f f f f f f f f f f f f f f f f f f f f f f f f f f f f f f f f f f f f f f f f f f f f f f f f f f f f f f f f f f f f f f f f f f f f f f f f f f f f f f f f f f f f f f f f f f f f f f f f f f f f f f f f f f f f f f f f f f f f f f f f f f f f f f f f f f f f f f f f f f f f f f f f f f f f f f f f f f f f f f f f f f f f f f f f f f f f f f f f f f f f f f f f f f f f f f f f f f f f f f f f f f f f f g z [.! R R R R R R R R R R R R R R R R R R R ",
"f f f f f f f f f f f f f f f f f f f f f f f f f f f f f f f f f f f f f f f f f f f f f f f f f f f f f f f f f f f f f f f f f f f f f f f f f f f f f f f f f f f f f f f f f f f f f f f f f f f f f f f f f f f f f f f f f f f f f f f f f f f f f f f f f f f f f f f f f f f f f f f f f f f f f f f f f f f f f f f f f f f f f f f f f f f f f f f f f f f f f f f f f f f f f f f f f f f f f f f f f f f f f f f f f f f f f f f f f f f f f f f f f f f f f f f f f g z [.Q P I I I I I I I I I I I I I I I I I I ",
"f f f f f f f f f f f f f f f f f f f f f f f f f f f f f f f f f f f f f f f f f f f f f f f f f f f f f f f f f f f f f f f f f f f f f f f f f f f f f f f f f f f f f f f f f f f f f f f f f f f f f f f f f f f f f f f f f f f f f f f f f f f f f f f f f f f f f f f f f f f f f f f f f f f f f f f f f f f f f f f f f f f f f f f f f f f f f f f f f f f f f f f f f f f f f f f f f f f f f f f f f f f f f f f f f f f f f f f f f f f f f f f f f f f f f f f f f g z [.}.].].].].].].].].].].].].].].].].].].].",
"f f f f f f f f f f f f f f f f f f f f f f f f f f f f f f f f f f f f f f f f f f f f f f f f f f f f f f f f f f f f f f f f f f f f f f f f f f f f f f f f f f f f f f f f f f f f f f f f f f f f f f f f f f f f f f f f f f f f f f f f f f f f f f f f f f f f f f f f f f f f f f f f f f f f f f f f f f f f f f f f f f f f f f f f f f f f f f f f f f f f f f f f f f f f f f f f f f f f f f f f f f f f f f f f f f f f f f f f f f f f f f f f f f f f f f f f f f f / U U U U U U U U U U U U U U U U U U U U ",
"g g g g g g g g g g g g g g g g g g g g g g g g g g g g g g g g g g g g g g g g g g g g g g g g g g g g g g g g g g g g g g g g g g g g g g g g g g g g g g g g g g g g g g g g g g g g g g g g g g g g g g g g g g g g g g g g g g g g g g g g g g g g g g g g g g g g g g g g g g g g g g g g g g g g g g g g g g g g g g g g g g g g g g g g g g g g g g g g g g g g g g g g g g g g g g g g g g g g g g g g g g g g g g g g g g g g g g g g g g g g g g g g g g g g g g g g g f g z 8 8 8 8 8 8 8 8 8 8 8 8 8 8 8 8 8 8 8 8 ",
"f f f f f f f f f f f f f f f f f f f f f f f f f f f f f f f f f f f f f f f f f f f f f f f f f f f f f f f f f f f f f f f f f f f f f f f f f f f f f f f f f f f f f f f f f f f f f f f f f f f f f f f f f f f f f f f f f f f f f f f f f f f f f f f f f f f f f f f f f f f f f f f f f f f f f f f f f f f f f f f f f f f f f f f f f f f f f f f f f f f f f f f f f f f f f f f f f f f f f f f f f f f f f f f f f f f f f f f f f f f f f f f f f f f f f f f f f f f f f f f f f f f f f f f f f f f f f f f f ",
"2 2 2 2 2 2 2 2 2 2 2 2 2 2 2 2 2 2 2 2 2 2 2 2 2 2 2 2 2 2 2 2 2 2 2 2 2 2 2 2 2 2 2 2 2 2 2 2 2 2 2 2 2 2 2 2 2 2 2 2 2 2 2 2 2 2 2 2 2 2 2 2 2 2 2 2 2 2 2 2 2 2 2 2 2 2 2 2 2 2 2 2 2 2 2 2 2 2 2 2 2 2 2 2 2 2 2 2 2 2 2 2 2 2 2 2 2 2 2 2 2 2 2 2 2 2 2 2 2 2 2 2 2 2 2 2 2 2 2 2 2 2 2 2 2 2 2 2 2 2 2 2 2 2 2 2 2 2 2 2 2 2 2 2 2 2 2 2 2 2 2 2 2 2 2 2 2 2 2 2 2 2 2 2 2 2 2 2 2 2 2 2 2 2 2 2 2 2 2 2 2 2 2 2 2 2 2 2 2 2 2 2 2 2 2 2 2 2 2 2 2 2 2 2 2 2 2 2 2 2 2 2 2 2 2 2 2 2 2 2 2 2 2 2 2 2 2 2 2 2 2 2 2 2 2 2 ",
"2 2 2 2 2 2 2 2 2 2 2 2 2 2 2 2 2 2 2 2 2 2 2 2 2 2 2 2 2 2 2 2 2 2 2 2 2 2 2 2 2 2 2 2 2 2 2 2 2 2 2 2 2 2 2 2 2 2 2 2 2 2 2 2 2 2 2 2 2 2 2 2 2 2 2 2 2 2 2 2 2 2 2 2 2 2 2 2 2 2 2 2 2 2 2 2 2 2 2 2 2 2 2 2 2 2 2 2 2 2 2 2 2 2 2 2 2 2 2 2 2 2 2 2 2 2 2 2 2 2 2 2 2 2 2 2 2 2 2 2 2 2 2 2 2 2 2 2 2 2 2 2 2 2 2 2 2 2 2 2 2 2 2 2 2 2 2 2 2 2 2 2 2 2 2 2 2 2 2 2 2 2 2 2 2 2 2 2 2 2 2 2 2 2 2 2 2 2 2 2 2 2 2 2 2 2 2 2 2 2 2 2 2 2 2 2 2 2 2 2 2 2 2 2 2 2 2 2 2 2 2 2 2 2 2 2 2 2 2 2 2 2 2 2 2 2 2 2 2 2 2 2 2 2 2 2 ",
"f f f f f f f f f f f f f f f f f f f f f f f f f f f f f f f d 2 2 f f f f f f f f f f f f f f f f f f f f f f f f f f f f f f f f f f f f f f f f f f f f f f f f f f f f f f f f f f f f f f f f f f f f f f f f f f f f f f f f f f f f f f f f f f f f f f f f f f f f f f f f f f f f f f f f f f f f f f f f f f f f f f f f f f f f f f f f f f f f f f f f f f f f f f f f f f f f f f f f f f f f f f f f f f f f f f f f f f f f f f d 2 w f f f f f f f f f f f f f f f f f f f f f f f f f f f f f f f f f f f f f ",
"g g g g g g g g g g g g g g g g g g g g g g g g g g g g g f g d 2 2 g f g g g g g f g x x g x x f g g g g g g g g g g g g g g f g g f x x g x x x f g g g g g g g g g g g g g x x g x x g x x g f g g g g g g g g g g g g g g x g x x f g x g g g g g g g g g g g g g g g f g x g g g g g g g g g g g g g g g g g g x x g f g x x g g g g g g g g g g g g g g g g f x g f g x x g g g g g g g g g g g g g g g g f g x f x x g g g g g g g g f g d 2 w g f g g g g g g g g g f g g f g g g g g g g g g g g g g g g g g g g g g g ",
"f g f x g g g g g g g f g x g g f g f g g f f f f f f f f f g d 2 2 g f f f f f f g d 2 w g 2 d g f f f f f f f f f f f f f f g d d x w w f 2 2 w g f f f f f f f f f f f g f 2 d f 2 d f 2 2 d g f f f f f f f f f f f f g f d f 2 d g f d f f f f f f f f f f f f f f f g d d f f g g f f f f f f f f f f f f f g w 2 f g f 2 w f f g g f f f f f f f f f f f f g d f g d 2 2 d f g g f f f f f f f f f f f f g d d x d 2 f f g g f f f f f g d 2 w g f f f f f f f g f d g d f x f x g g f g g f f f x g g f g f g g f f f f ",
"v f g 2 d f f f f f f g f 2 d f f d g d f g f f f f f f f f g d 2 2 g f f f f f g f N C.x.f v.-.d g f f f f f f f f f f f f g d *.=.w z.c.v N.V.5.f g f f f f f f f f f g f v N.-.g N.5.N V.N.-.d g f f f f f f f f f f g f c -.f v.5.d f 5.x f f f f f f f f f f f f f g d N =.m F.2 f g f f f f f f f f f f f g f 5.N.c f x v.z.&.A.2 f g f f f f f f f f f f g d -.m d -.V.c.N.v.2 f g f f f f f f f f f f g d N -.w -.v.c H.d d g f f f f g d 2 w g f f f f f f f f c -.f &.&.-.f w w d H.d w g f f 2 w d g d f f d g f f f ",
"5.w g v.=.v m N N m N d x v.-.N x N Z.L.x f g f f f f f f f g d 2 2 g f f f f f x 2 J.L.m N.P.P.N f g f f f f f f f f f f g f x 3XH.v =XL.N.-.L.*X2 x f f f f f f f f f g d -.V.*Xx.N.*Xv.5.>XA.2 x f f f f f f f f f f x 2 H.3XN.F.*XN -.cXc f g f f f f f f f f f f g f f >X*Xc *Xx =.f g f f f f f f f f f f f x v.H.F.2 &.V.L.A.F.c *.f g f f f f f f f f g f c zXz.2 -.x.>X=XN.v N f g f f f f f f f f g f f >X*Xx =XH.C.P.c -.f g f f f g d 2 w g f f f f f f g d *.=X. V.V.m f z.z.c =XN.=.f f g v.5.&.g N N.*Xc f g f f ",
"5.2 C.J.L.Z.C.P.L.Z.z.2 H.F.v.L.x *XF.:Xg f g f f f f f f f g d 2 2 g f f f f f x w C.>Xc.L.m N.v.2 x f f f f f f f f f f f f d z.C.x.v.N L.. F.5.w g f f f f f f f f f f g f % *X*.O L.-.@ L.N d g f f f f f f f f f g d &.H.A.5.,XL.m C.P.c f f f f f f f f f f f f f f f -.H.c =XF.5.d g f f f f f f f f f f f x % 5.H.d x @ A.A.L.H.=.d g f f f f f f f f g d v.*X-.d d f F.x.P.H.N f g f f f f f f f f f f f -.F.5.C.c :XL.H.x.d g f f f g d 2 w g f f f f f f g d N 3X5.=XZ.L.c.L.,XN.=XF.>Xv 2 A.J.c.*Xf =XZ.,Xx f g f f ",
"&.$ =Xw v.A.J.L.L.*Xc x :X% N H.d L.N.z.% x f f f f f f f f g d 2 2 g f f f f f f g d w *X3Xx V.v.2 x f f f f f f f f f f f g w z.Z.z.v.N L.x :Xf g f f f f f f f f f f f x 2 N.N.@ c.Z.% 5.P.w x f f f f f f f f f f g f :XA.>Xv.F.F.>XF.,X=.d g f f f f f f f f f f f g d *.L.f cX*X% x f f f f f f f f f f f g d c P.c w 2 z.Z.c cXH.% x f f f f f f f f g w x.=XP.Z.2 w N.V.&.bXv.% x f f f f f f f f f f g d *.F.-.C.c *XgX2X2 x f f f f g d 2 w g f f f f f f g d N 3Xx.:XC.F.J.m z.V.L.w L.*.d =Xd x P.2 L.v.v.$ x f f f ",
"H.&.F.Z.*X&.,XF.H.,Xd d P.C.z.=XZ.>Xc.=Xf f g f f f f f f f g d 2 2 g f f f f f g f -.v.J.A.F.*X*.d g f f f f f f f f f f f g w z.H.m *XL.z.C.C.2 x f f f f f f f f f f g w v.dX-.c.dXx.x L.z.w g f f f f f f f f f f f x M.H.zXP.v.J.L.N.zX5.d g f f f f f f f f f f f g d =.P.v =XH.v.w g f f f f f f f f f g f g 3XF.&.N.z.dXz.x.P.L.z.d g f f f f f f f g d -.V.dXP.N.x >Xc x.L.P.=.d g f f f f f f f f f g d -.P.x *XF.F.P.H.V.w g f f f g d 2 w g f f f f f f g d *.=X. N.F.L.N.H.=XN.*Xg =X=.2 H.F.-.:XV.3Xz.>Xx f g f f ",
"H.N.c V.z.w 5.N &.-.d f v A.=.5.V.-.x V.m f g f f f f f f f g d 2 2 g f f f f f g f -.F.*.d V.z.d g f f f f f f f f f f f f g f m -.w x.N.d 5.v f g f f f f f f f f f f g f z.Z.V.v.V.Z.*.-.x f f f f f f f f f f f f f f 2 d *.x Z.x.2 2 =.g f f f f f f f f f f f f f g f v -.x -.v 5.d g f f f f f f f f f g f v V.C.v.5.5.C.C.z.&.N 5.d g f f f f f f f f g f % N N 5.c 5.d &.N &.=.d g f f f f f f f f f g f v -.w 5.V.c -.c z.f g f f f g d 2 w g f f f f f f g f c 5.d *.*.-.x z.=XN.*.g -.v d c Z.-.-.C.5.g N.N d g f f ",
"2 2 f 2 w x d f d d g g f 2 d d 2 d f 2 f g f f f f f f f f g d 2 2 g f f f f f f g d 2 d g 2 w g f f f f f f f f f f f f f f g f d x w 2 g d f g f f f f f f f f f f f f g w 2 2 w 2 2 d d f f f f f f f f f f f f f f f x g d f 2 w x x d f f f f f f f f f f f f f f f g f d f d f d g f f f f f f f f f f f g f 2 2 w d d 2 2 w f f d g f f f f f f f f f f g x f f d f d g f f d d g f f f f f f f f f f f g f d x d 2 f d f w g f f f f g d 2 w g f f f f f f f g f d g d f 2 *.H.P.N 2 g d f g f 2 d d 2 d f 2 f g f f f ",
"x x g x x f g g g g f f g x g g x g f x g f f f f f f f f f g d 2 2 g f f f f f f f g x g f x g f f f f f f f f f f f f f f f f g g f x x f g g f f f f f f f f f f f f f f g x x x x x g g g f f f f f f f f f f f f f f f f g g x x f f g f f f f f f f f f f f f f f f f g g f g g g f f f f f f f f f f f f f g x x x g g x x g g g g f f f f f f f f f f f f f g g g g g f g g g g f f f f f f f f f f f f f g g f g x g g g g f f f f f g d 2 w g f f f f f f f f g g f g g g x N c f x f g g f g x g g x g f x g f f f f ",
"f f f f f f f f f f f f f f f f f f f f f f f f f f f f f f g d 2 2 g f f f f f f f f f f f f f f f f f f f f f f f f f f f f f f f f f f f f f f f f f f f f f f f f f f f f f f f f f f f f f f f f f f f f f f f f f f f f f f f f f f f f f f f f f f f f f f f f f f f f f f f f f f f f f f f f f f f f f f f f f f f f f f f f f f f f f f f f f f f f f f f f f f f f f f f f f f f f f f f f f f f f f f f f f f f f f f f f f f f f g d 2 w g f f f f f f f f f f f f f g f f f g f f f f f f f f f f f f f f f f f f ",
"f f f f f f f f f f f f f f f f f f f f f f f f f f f f f f g d 2 2 g f f f f f f f f f f f f f f f f f f f f f f f f f f f f f f f f f f f f f f f f f f f f f f f f f f f f f f f f f f f f f f f f f f f f f f f f f f f f f f f f f f f f f f f f f f f f f f f f f f f f f f f f f f f f f f f f f f f f f f f f f f f f f f f f f f f f f f f f f f f f f f f f f f f f f f f f f f f f f f f f f f f f f f f f f f f f f f f f f f f f g d 2 w g f f f f f f f f f f f f f f f f f f f f f f f f f f f f f f f f f f f f ",
"2 2 2 2 2 2 2 2 2 2 2 2 2 2 2 2 2 2 2 w w 2 2 2 2 2 2 2 d g g d 2 2 g f f f f f f f f g g g g f f f f f f f f f f f f f f f f f f f g g g g f f f f f f f f f f f f f f f f f f f g g g g f f f f f f f f f f f f f f f f f f g g g g g f f f f f f f f f f f f f f f f f f g g g g g f f f f f f f f f f f f f f f f f f g g g g g f f f f f f f f f f f f f f f f f f f f f f f f f f f f f f f f f f f f f f f f f g g g g f f f f f f f f g d 2 w g g f 2 2 2 2 2 2 2 2 2 2 2 2 2 2 2 2 2 2 2 2 2 2 2 2 2 2 2 2 d 2 2 2 2 2 ",
"2 2 2 2 2 2 2 2 2 2 2 2 2 2 2 2 2 2 2 w 2 2 2 2 2 2 2 2 d g g d 2 2 g f f f f f f f f f f f f f f f f f f f f f f f f f f f f f f f f f f f f f f f f f f f f f f f f f f f f f f f f f f f f f f f f f f f f f f f f f f f g f f f f f f f f f f f f f f f f f f f f f f g f f f f f g f f f f f f f f f f f f f f f f g f f f f f g f f f f f f f f f f f f f f f f f f f f f f f f f f f f f f f f f f f f f f f f f f f f f f f f f f f f g d 2 w g g f 2 2 2 2 2 2 2 2 2 2 2 2 2 2 2 2 2 2 2 2 2 2 2 2 2 2 2 2 d 2 2 2 2 2 ",
"2 2 2 2 % O O 2 2 $ 2 2 2 2 2 2 2 2 2 w 2 2 2 2 2 2 2 2 d g g d 2 2 g f f f f f f f f %.@.@.@.x f f f f f f f f f f f f f f f f f x @.@.@.@.x f f f f f f f f f f f f f f f f f x @.@.@.%.f f f f f f f f f f f f f f f f g f b @.@.@.n f f f f f f f f f f f f f f f f g f M @.@.@.n f g f f f f f f f f f f f f f f g f n @.@.@.M f g f f f f f f f f f f f f f f f g 2 2 2 2 f g f f f f f f f f f f f f f f f f g %.@.@.@.x f f f f f f f g d 2 w g g f 2 2 $ $ 2 O @ 2 2 2 2 2 2 @ O $ 2 2 $ 2 2 2 2 2 2 2 2 2 d 2 2 2 2 2 ",
"2 O d C.f N.x.2 % N 2 O % 2 $ O 2 $ % w 2 2 @ m 5Xw % 2 d g g d 2 2 g f f f f f f f g t.y.y.s.n f g f f f f f f f f f f f f f g f b y.y.y.y.b f g f f f f f f f f f f f f f g f n s.y.y.t.g f f f f f f f f f f f f f f f g f @.s.y.s.0.f g f f f f f f f f f f f f f f g d 3.s.y.s.8.d g f f f f f f f f f f f f f f g f 0.s.y.s.3.d g f f f f f f f f f f f f f f f g 2 2 2 2 d g f f f f f f f f f f f f f f f f x t.y.y.s.M f g f f f f f g d 2 w g g f 2 $ N v 2 x.5.% 2 2 & c.=.&.V.&.@ f m O O 2 2 O @ 2 @ 2 d 2 2 @ D.B.",
"% N N.F.v.F.N.V.d L.d c.c @ N z.F.A.2 2 w % d 1XbXG.% 2 d g g d 2 2 g f f f f f f f g p.t.t.y.n f g f f f f f f f f f f f f f g f x t.t.t.t.x f g f f f f f f f f f f f f f g f n y.t.t.p.g f f f f f f f f f f f f f f f g f @.y.r.y.0.f g f f f f f f f f f f f f f f g f 3.y.r.y.7.f g f f f f f f f f f f f f f f g f 8.y.r.y.$.f g f f f f f f f f f f f f f f f g 2 2 2 2 d g f f f f f f f f f f f f f f f f x r.t.t.t.M f g f f f f f g d 2 w g g f % d 4XV.w v.L.-.@ d =.P.-.*X-.=Xf v.z.c x.2 2 z.z.-X=.% d 2 @ w.xXxX",
"c *XA.L.z.F.Z.5.5.x.C.C.L.N =X-.*XH.2 2 w 2 d v x v 2 2 d g g d 2 2 g f f f f f f f g p.y.t.y.n f g f f f f f f f f f f f f f g f x t.t.t.t.x f g f f f f f f f f f f f f f g f n y.t.y.p.g f f f f f f f f f f f f f f f g f @.y.t.y.0.f g f f f f f f f f f f f f f f g f 3.y.t.y.7.f g f f f f f f f f f f f f f f g f 8.y.t.y.$.f g f f f f f f f f f f f f f f f g 2 2 2 2 d g f f f f f f f f f f f f f f f f x r.t.t.y.M f g f f f f f g d 2 w g g f 2 $ 5.V.O . Z.z.. V.Z.,X-.L.x.P.f A.=.L.A.v.c.H.5.4X*.% d 2 2 c c c ",
"z.v.@ F.z.J.V.v.C.&.P.& C.J.v.& V.N O d w % f G.&XB.2 2 d g g d 2 2 g f f f f f f f g p.y.t.y.n f g f f f f f f f f f f f f f g f x t.t.t.t.x f g f f f f f f f f f f f f f g f n y.t.y.p.g f f f f f f f f f f f f f f f g f @.y.t.y.0.f g f f f f f f f f f f f f f f g f 3.y.t.y.7.f g f f f f f f f f f f f f f f g f 8.y.t.y.$.f g f f f f f f f f f f f f f f f g % # # # d g f f f f f f f f f f f f f f f f x r.t.t.y.M f g f f f f f g d 2 w g g f 2 O -.C.& ;.Z.@ % P.@ v.5.L.c.F.z.v.x.x.O *XJ.2 o L.. 2 d 2 $ -.&X&X",
"v P.V.P.c.A.z.,XF.$ L.M.J.*.=X&.C.F.% w w 2 $ G.bXw.$ 2 d g g d 2 2 g f f f f f f f g p.y.t.y.n f g f f f f f f f f f f f f f g f x t.t.t.t.x f g f f f f f f f f f f f f f g f n y.t.y.p.g f f f f f f f f f f f f f f f g f @.y.t.y.0.f g f f f f f f f f f f f f f f g f 3.y.t.y.7.f g f f f f f f f f f f f f f f g f 8.y.t.y.$.f g f f f f f f f f f f f f f f f f b a n a x f f f f f f f f f f f f f f f f f x r.t.t.y.M f g f f f f f g d 2 w g g f 2 O z.V.g dXz.c O Z.N.,X5.*X*.L.>X*.v P.C.v.M.F.m :X*.% d 2 % x hX6X",
"$ ;.v.m x V.c.v v $ f N.m @ ;.v.g c.d 2 w 2 % w w.$ 2 2 d g g d 2 2 g f f f f f f f g p.y.t.y.n f g f f f f f f f f f f f f f g f x t.t.t.t.x f g f f f f f f f f f f f f f g f n y.t.y.p.g f f f f f f f f f f f f f f f g f @.y.t.y.0.f g f f f f f f f f f f f f f f g f 3.y.t.y.7.f g f f f f f f f f f f f f f f g f 8.y.t.y.$.f g f f f f f f f f f f f f f f g f 8XyXrXaXq.5 x f f f f f f f f f f f f f f f x r.t.t.y.M f g f f f f f g d 2 w g g f 2 % x c c N.N.N $ d c.z.d -.C.=.m d $ -.v.2 2 M.*.&.5.$ d 2 2 @ &.m ",
"2 @ O $ % O O $ % 2 2 O $ 2 @ O 2 O 2 w 2 2 2 2 $ 2 2 2 d g g d 2 2 g f f f f f f f g p.y.t.y.n f g f f f f f f f f f f f f f g f x t.t.t.t.x f g f f f f f f f f f f f f f g f n y.t.y.p.g f f f f f f f f f f f f f f f g f @.y.t.y.0.f g f f f f f f f f f f f f f f g f 3.y.t.y.7.f g f f f f f f f f f f f f f f g f 8.y.t.y.$.f g f f f f f f f f f f f f f f g f 8XyXeXyX9.d x f f f f f f f f f f f f f f f x r.t.t.y.M f g f f f f f g d 2 w g g f 2 2 % % % O O $ 2 2 O @ 2 @ O @ $ 2 2 @ O 2 2 O $ $ @ 2 d 2 2 2 % % ",
"2 2 2 2 2 2 2 2 2 2 2 2 2 2 2 2 2 2 2 2 2 2 2 2 2 2 2 2 w g g d 2 2 g f f f f f f f g p.y.t.y.n f g f f f f f f f f f f f f f g f x t.t.t.t.x f g f f f f f f f f f f f f f g f n y.t.y.p.g f f f f f f f f f f f f f f f g f @.y.t.y.0.f g f f f f f f f f f f f f f f g f 3.y.t.y.7.f g f f f f f f f f f f f f f f g f 8.y.t.y.$.f g f f f f f f f f f f f f f f g f 8XyXeXyX9.d x f f f f f f f f f f f f f f f x r.t.t.y.M f g f f f f f g d 2 w g g d 2 2 2 2 2 2 2 2 2 2 2 2 2 2 2 2 2 2 2 2 2 2 2 2 2 2 2 2 d 2 2 2 2 2 ",
"d d d d d d d d d d d d d d d d d d d d d d d d d d d d f g g d 2 2 g f f f f f f f g p.y.t.y.n f g f f f f f f f f f f f f f g f x t.t.t.t.x f g f f f f f f f f f f f f f g f n y.t.y.p.g f f f f f f f f f f f f f f f g f @.y.t.y.0.f g f f f f f f f f f f f f f f g f 3.y.t.y.7.f g f f f f f f f f f f f f f f g f 8.y.t.y.$.f g f f f f f f f f f f f f f f g f 8XyXeXyX9.d x f f f f f f f f f f f f f f f x r.t.t.y.M f g f f f f f g d 2 w g f f d d d d d d d d d d d d d d d d d d d d d d d d d d d d f d d d d d ",
"g g g g g g g g g g g g g g g g g g g g g g g g g g g g g f g d 2 2 g f f f f f f f g p.y.t.y.n f g f f f f f f f f f f f f f g f x t.t.t.t.x f g f f f f f f f f f f f f f g f n y.t.y.p.g f f f f f f f f f f f f f f f g f @.y.t.y.0.f g f f f f f f f f f f f f f f g f 3.y.t.y.7.f g f f f f f f f f f f f f f f g f 8.y.t.y.$.f g f f f f f f f f f f f f f f g f 8XyXeXyX9.d x f f f f f f f f f f f f f f f x r.t.t.y.M f g f f f f f g d 2 w g f g g g g g g g g g g g g g g g g g g g g g g g g g g g g g g g g g g g ",
"f f f f f f f f f f f f f f f f f f f f f f f f f f f f f f g d 2 2 g f f f f f f f g p.y.t.y.n f g f f f f f f f f f f f f f g f x t.t.t.t.x f g f f f f f f f f f f f f f g f n y.t.y.p.g f f f f f f f f f f f f f f f g f @.y.t.y.0.f g f f f f f f f f f f f f f f g f 3.y.t.y.7.f g f f f f f f f f f f f f f f g f 8.y.t.y.$.f g f f f f f f f f f f f f f f g f 8XyXeXyX9.d x f f f f f f f f f f f f f f f x r.t.t.y.M f g f f f f f g d 2 w g f f f f f f g x x f f f f f f f f f f f f f f f f f f f f f f f f f f f ",
"g g x g f x x g g f g f g x g x x g f x x g f g f f f f f f g d 2 2 g f f f f f f f g p.y.t.y.n f g f f f f f f f f f f f f f g f x t.t.t.t.x f g f f f f f f f f f f f f f g f n y.t.y.p.g f f f f f f f f f f f f f f f g f @.y.t.y.0.f g f f f f f f f f f f f f f f g f 3.y.t.y.7.f g f f f f f f f f f f f f f f g f 8.y.t.y.$.f g f f f f f f f f f f f f f f g f 8XyXeXyX9.d x f f f f f f f f f f f f f f f x r.t.t.y.M f g f f f f f g d 2 w g f f f f f g d 2 w g x g g x f g x g g g g g f x g g x x f g x x f g g f ",
"d f 2 d g 2 w f d g d f w 2 f w 2 f g 2 2 f f d f f f f f f g d 2 2 g f f f f f f f g p.y.t.y.n f g f f f f f f f f f f f f f g f x t.t.t.t.x f g f f f f f f f f f f f f f g f n y.t.y.p.g f f f f f f f f f f f f f f f g f @.y.t.y.0.f g f f f f f f f f f f f f f f g f 3.y.t.y.7.f g f f f f f f f f f f f f f f g f 8.y.t.y.$.f g f f f f f f f f f f f f f f g f 8XyXeXyX9.d x f f f f f f f f f f f f f f f x r.t.t.y.M f g f f f f f g d 2 w g f f f f g d z.F.v.d 2 f d 2 g d 2 d f d f d f 2 d f 2 2 g f 2 w f d d g ",
"z.x V.=.f v.c.m -.f -.f z.v.g z.V.N f v.V.N x -.g f f f f f g d 2 2 g f f f f f f f g p.y.t.y.n f g f f f f f f f f f f f f f g f x t.t.t.t.x f g f f f f f f f f f f f f f g f n y.t.y.p.g f f f f f f f f f f f f f f f g f @.y.t.y.0.f g f f f f f f f f f f f f f f g f 3.y.t.y.7.f g f f f f f f f f f f f f f f g f 8.y.t.y.$.f g f f f f f f f f f f f f f f g f 8XyXeXyX9.d x f f f f f f f f f f f f f f f x r.t.t.y.M f g f f f f f g d 2 w g f f f f x 2 =Xv.m *.v.N *.V.f &.N.-.N &.c =.g V.&.m v.v.d N C.c.f &.&.f ",
"N F.H.P.H.A.,XN.*Xf =Xc.P.L.F.3XC.L.v.L.N.L.-.*Xw g f f f f g d 2 2 g f f f f f f f g p.y.t.y.n f g f f f f f f f f f f f f f g f x t.t.t.t.x f g f f f f f f f f f f f f f g f n y.t.y.p.g f f f f f f f f f f f f f f f g f @.y.t.y.0.f g f f f f f f f f f f f f f f g f 3.y.t.y.7.f g f f f f f f f f f f f f f f g f 8.y.t.y.$.f g f f f f f f f f f f f f f f g f 8XyXeXyX9.d x f f f f f f f f f f f f f f f x r.t.t.y.M f g f f f f f g d 2 w g f f f f x 2 *XF.m =XP.N *XH.H.P.C.3XN.C.*.L.C.L.L.=XL.P.x.P.v.=X5.H.z.w ",
"@ 3XL.H.2Xf c.V.L.2 L.F.2XA.H.F.w P.L.&.O H.P.z.w x f f f f g d 2 2 g f f f f f f f g p.t.t.y.n f g f f f f f f f f f f f f f g f x t.t.t.t.x f g f f f f f f f f f f f f f g f n y.t.y.p.g f f f f f f f f f f f f f f f g f @.y.t.y.0.f g f f f f f f f f f f f f f f g f 3.y.t.y.7.f g f f f f f f f f f f f f f f g f 8.y.t.y.$.f g f f f f f f f f f f f f f f g f 8XyXeXyX9.d x f f f f f f f f f f f f f f f x r.t.t.y.M f g f f f f f g d 2 w g f f f f x 2 *XF.N L.m *.dXZ.-XH.@ P.N.v.m L.>XL.F.*XN z.L.H.. *.*XJ.x f ",
"@ A.H.*.C.H.,Xc.L.Z.4Xz.=Xz.z.P.x =XM.=X=.x.zXf f f f f f f g d 2 2 g f f f f f f f g p.y.y.s.n f g f f f f f f f f f f f f f g f b y.y.y.y.b f g f f f f f f f f f f f f f g f n y.t.y.p.g f f f f f f f f f f f f f f f g f @.s.y.s.0.f g f f f f f f f f f f f f f f g f 3.y.t.y.7.f g f f f f f f f f f f f f f f g f 8.s.y.s.3.d g f f f f f f f f f f f f f f g f 8XyXeXyX9.d x f f f f f f f f f f f f f f f x p.y.y.y.M f g f f f f f g d 2 w g f f f f x 2 =XN O *X=.x =Xv.*.=XZ.2X5.=XP.L.N.J.N L.-.N.C.L.Z.c ,XF.2 x ",
"d x v.x.x z.=Xv.c N.5.f -.V.&.&.g -.f v.-.z.L.w x f f f f f g d 2 2 g f f f f f f f g >.,.,.1.M f g f f f f f f f f f f f f f f f x ,.,.,.,.x f f f f f f f f f f f f f f f g f n y.t.y.p.g f f f f f f f f f f f f f f f g f n 1.,.1.7.f g f f f f f f f f f f f f f f g f 3.y.t.y.7.f g f f f f f f f f f f f f f f g f 3.1.,.1.@.f g f f f f f f f f f f f f f f g f 8XyXeXyX9.d x f f f f f f f f f f f f f f f x ,.,.,.1.b f g f f f f f g d 2 w g f f f f g f =.v f =.c d &.C.N N v.,Xg z.c.N g N.z.*.c N m m C.x P.5.d g ",
"g f 2 w x @ c.c.2 w d g d 2 d d f d g 2 c :X&.d g f f f f f g d 2 2 g f f f f f f f f 2 % 2 % f g f f f f f f f f f f f f f f f g f 2 % % 2 f g f f f f f f f f f f f f f f g f n y.t.y.p.g f f f f f f f f f f f f f f f f g d % 2 % 2 g f f f f f f f f f f f f f f f g f 3.y.t.y.7.f g f f f f f f f f f f f f f f f g 2 % 2 % d g f f f f f f f f f f f f f f f g f 8XyXeXyX9.d x f f f f f f f f f f f f f f f f 2 % 2 % f g f f f f f f g d 2 w g f f f f f g d f g d f g d 2 f f 2 J.x w 2 f f 2 w d f f f f $ N.H.d g f ",
"f g x x f x f f g x g f g x g g f g f g x g f g f f f f f f g d 2 2 g f f f f f f f f 2 2 2 2 f g f f f f f f f f f f f f f f f g f 2 2 2 2 f g f f f f f f f f f f f f f f g f n y.t.y.p.g f f f f f f f f f f f f f f f f g d 2 2 2 2 g f f f f f f f f f f f f f f f g f 3.y.t.y.7.f g f f f f f f f f f f f f f f f g w 2 2 2 d g f f f f f f f f f f f f f f f g f 8XyXeXyX9.d x f f f f f f f f f f f f f f f f 2 2 2 2 f g f f f f f f g d 2 w g f f f f f f g g f g g f g x g g x f f x x g f x g g g g g g x c f f f f ",
"f f f f f f f f f f f f f f f f f f f f f f g f f f f f f f g d 2 2 g f f f f f f f f 2 2 2 2 f g f f f f f f f f f f f f f f f g f 2 2 2 2 f g f f f f f f f f f f f f f f g f n y.t.y.p.g f f f f f f f f f f f f f f f f g d 2 2 2 2 g f f f f f f f f f f f f f f f g f 3.y.t.y.7.f g f f f f f f f f f f f f f f f g 2 2 2 2 d g f f f f f f f f f f f f f f f g f 8XyXeXyX9.d x f f f f f f f f f f f f f f f f 2 2 2 2 f g f f f f f f g d 2 w g f f f f f f f f f f f f f f f f f g f f f f f f f f f f f f f f g g f f ",
"f f f f f f f f f f f f f f f f f f f f f f f f f f f f f f g d 2 2 g f f f f f f f f 2 2 2 2 f g f f f f f f f f f f f f f f f g f 2 2 2 2 f g f f f f f f f f f f f f f f g f n y.t.y.p.g f f f f f f f f f f f f f f f f g d 2 2 2 w g f f f f f f f f f f f f f f f g f 3.y.t.y.7.f g f f f f f f f f f f f f f f f g w 2 2 2 d g f f f f f f f f f f f f f f f g f 8XyXeXyX9.d x f f f f f f f f f f f f f f f f 2 2 2 2 f g f f f f f f g d 2 w g f f f f f f f f f f f f f f f f f f f g g f f f f f f f f f f f f f f f ",
"f f f f f g g f f f f g g f f f f f f f f f f f f f f f f f g d 2 2 g f f f f f f f f # + + + d g f f f f f f f f f f f f f f f g f + + + + f g f f f f f f f f f f f f f f g f n y.t.y.p.g f f f f f f f f f f f f f f f f x 5 + + + # g f f f f f f f f f f f f f f f g f 3.y.t.y.7.f g f f f f f f f f f f f f f f f x % + + + 2 x f f f f f f f f f f f f f f f g f 8XyXeXyX9.d x f f f f f f f f f f f f f f g f + + + + d g f f f f f f g d 2 w g f f f f f f f f f f f f f f f f g g f f f f x g f f f f f f f f f f f f ",
"f f f g g f f f g g g f f f g f f f f f f f f f f f f f f f g d 2 2 g f f f f f f f g e.a.p.a.M f g f f f f f f f f f f f f f g f x p.p.p.p.x f g f f f f f f f f f f f f f g f n y.t.y.p.g f f f f f f f f f f f f f f f g f %.a.p.a.q.f g f f f f f f f f f f f f f f g f 3.y.t.y.7.f g f f f f f f f f f f f f f f g f 7.a.p.a.#.f g f f f f f f f f f f f f f f g f 8XyXeXyX9.d x f f f f f f f f f f f f f f f x e.p.p.a.M f g f f f f f g d 2 w g f f f f f f f f f f f f f f g g d d f x x f 5 f g g f f f f f f f f f f ",
"f f g f f x $.8.0.p.0.7.n f f g f f f f f f f f f f f f f f g d 2 2 g f f f f f f f g rXpXyXpX4.d x f f f f f f f f f f f f f g f n yXaXaXyXn f g f f f f f f f f f f f f f g f n y.t.y.p.g f f f f f f f f f f f f f f f x 5 a.pXyXpX8Xd g f f f f f f f f f f f f f f g f 3.y.t.y.7.f g f f f f f f f f f f f f f f x 5 #XpXyXpXk.5 x f f f f f f f f f f f f f f g f 8XyXeXyX9.d x f f f f f f f f f f f f f g f x tXpXyXpX#.d g f f f f f g d 2 w g f f f f f f f f f f f f f x f d 4.j.%X9X9X#Xa.%.d f g f f f f f f f f f ",
"f g f g $.r.s.s.y.y.y.s.y.0.n f g f f f f f f f f f f f f f g d 2 2 g f f f f f f f g 9XrXeXtX4.d g f f f f f f f f f f f f f g f M eXrXrXeXM f g f f f f f f f f f f f f f g f n y.t.y.p.g f f f f f f f f f f f f f f f x 5 e.yXeXtX#Xd g f f f f f f f f f f f f f f g f 3.y.t.y.7.f g f f f f f f f f f f f f f f x 5 @XyXeXyXa.5 x f f f f f f f f f f f f f f g f 8XyXeXyX9.d x f f f f f f f f f f f f f g f x wXrXeXtX#.d g f f f f f g d 2 w g f f f f f f f f f f f f x d %.@XtXpXyXyXyXyXpXrXj.x f g f f f f f f f f ",
"g f x $X@Xt.0.+.u t u +.1.s.t.@.f g f f f f f f f f f f f f g d 2 2 g f f f f f f f g 9XtXrXyX4.d g f f f f f f f f f f f f f g f M rXrXrXrXM f g f f f f f f f f f f f f f g f n y.t.y.p.g f f f f f f f f f f f f f f f x 5 e.yXeXyX#Xd g f f f f f f f f f f f f f f g f 3.y.t.y.7.f g f f f f f f f f f f f f f f x 5 @XyXeXyXa.5 x f f f f f f f f f f f f f f g f 8XyXeXyX9.d x f f f f f f f f f f f f f g f x wXtXrXtX#.d g f f f f f g d 2 w g f f f f f f f f f f f x d 4.wXaXeXj.3.n n 3.j.tXaX%XM f g f f f f f f f ",
"g f j.aX9Xa O # 2 % % # w :.y.y.n f g f f f f f f f f f f f g d 2 2 g f f f f f f f g 9XtXrXyX4.d g f f f f f f f f f f f f f g f M rXrXrXrXM f g f f f f f f f f f f f f f g f n y.t.y.p.g f f f f f f f f f f f f f f f x 5 e.yXeXyX#Xd g f f f f f f f f f f f f f f g f 3.y.t.y.7.f g f f f f f f f f f f f f f f x 5 @XyXeXyXa.5 x f f f f f f f f f f f f f f g f 8XyXeXyX9.d x f f f f f f f f f f f f f g f x wXtXrXtX#.d g f f f f f g d 2 w g f f f f f f f f f f g f #.eXyX$Xp # # # # # # $.9XpXj.f g f f f f f f f ",
"d 9.yXeX$.5 D.x $ 2 2 2 2 % :.y.r.x f g f f f f f f f f f f g d 2 2 g f f f f f f f g 9XtXrXyX4.d g f f f f f f f f f f f f f g f M rXrXrXrXM f g f f f f f f f f f f f f f g f n y.t.y.p.g f f f f f f f f f f f f f f f x 5 e.yXeXyX#Xd g f f f f f f f f f f f f f f g f 3.y.t.y.7.f g f f f f f f f f f f f f f f x 5 @XyXeXyXa.5 x f f f f f f f f f f f f f f g f 8XyXeXyX9.d x f f f f f f f f f f f f f g f x wXtXrXtX#.d g f f f f f g d 2 w g f f f f f f f f f f g d $XpX@Xw # 2 2 2 2 2 % X u j.y.3.f g f f f f f f ",
"g %XaXa.X -.mX2X@ 2 2 2 2 2 2 ,.y.$.f g f f f f f f f f f f g d 2 2 g f f f f f f f g 9XtXrXyX4.d g f f f f f f f f f f f f f g f M rXrXrXrXM f g f f f f f f f f f f f f f g f n y.t.y.p.g f f f f f f f f f f f f f f f x 5 e.yXeXyX#Xd g f f f f f f f f f f f f f f g f 3.y.t.y.7.f g f f f f f f f f f f f f f f x 5 @XyXeXyXa.5 x f f f f f f f f f f f f f f g f 8XyXeXyX9.d x f f f f f f f f f f f f f g f x wXtXrXtX#.d g f f f f f g d 2 w g f f f f f f f f f g d 9.yXeXu # 2 2 2 2 2 O z.gXd u a.r.x f g f f f f f ",
"%.rXeXt 2 $ ;XmXD.$ 2 2 2 2 % a s.0.f f f f f f f f f f f f g d 2 2 g f f f f f f f g 9XtXrXyX4.d g f f f f f f f f f f f f f g f M rXrXrXrXM f g f f f f f f f f f f f f f g f n y.t.t.p.g f f f f f f f f f f f f f f f x 5 e.yXeXyX#Xd g f f f f f f f f f f f f f f g f 3.y.t.y.7.f g f f f f f f f f f f f f f f x 5 @XyXeXyXa.5 x f f f f f f f f f f f f f f g f 8XyXeXyX9.d x f f f f f f f f f f f f f g f x wXtXrXtX#.d g f f f f f g d 2 w g f f f f f f f f f x d k.pXj.+ 2 2 2 2 2 2 N.nXbXc % ,.y.@.f g f f f f f ",
"e.aX@X2 2 2 % gXxX2 2 2 2 2 % t t.p.x f g f f f f f f f f f g d 2 2 g f f f f f f f g 9XtXrXyX4.d g f f f f f f f f f f f f f g f M rXrXrXrXM f g f f f f f f f f f f f f f g f n y.y.y.p.g f f f f f f f f f f f f f f f x 5 e.yXeXyX#Xd g f f f f f f f f f f f f f f g f 3.y.t.y.7.f g f f f f f f f f f f f f f f x 5 @XyXeXyXa.5 x f f f f f f f f f f f f f f g f 8XyXeXyX9.d x f f f f f f f f f f f f f g f x wXtXrXtX#.d g f f f f f g d 2 w g f f f f f f f f f f f #XyX3.# 2 2 2 2 @ c.mXgXf $ 2 +.s.3.f g f f f f f ",
"a.pXj.# 2 2 $ x c $ 2 2 2 2 2 2 r.t.b f g f f f f f f f f f g d 2 2 g f f f f f f f g 9XtXrXyX4.d g f f f f f f f f f f f f f g f M rXrXrXrXM f g f f f f f f f f f f f f f g f M r.1.1.,.g f f f f f f f f f f f f f f f x 5 e.yXeXyX#Xd g f f f f f f f f f f f f f f g f 3.y.t.y.7.f g f f f f f f f f f f f f f f x 5 @XyXeXyXa.5 x f f f f f f f f f f f f f f g f 8XyXeXyX9.d x f f f f f f f f f f f f f g f x wXtXrXtX#.d g f f f f f g d 2 w g f f f f f f f f f f g 9XyXn # 2 2 2 2 % x C.d $ 2 % a s.7.f g f f f f f ",
"a.pXj.# 2 2 2 % % 2 2 2 2 2 2 w r.y.b f g f f f f f f f f f g d 2 2 g f f f f f f f g 9XtXrXyX4.d g f f f f f f f f f f f f f g f M rXrXrXrXM f g f f f f f f f f f f f f f f g f 2 2 2 2 f f f f f f f f f f f f f f f f x 5 e.yXeXyX#Xd g f f f f f f f f f f f f f f g f 3.y.t.y.7.f g f f f f f f f f f f f f f f x 5 @XyXeXyXa.5 x f f f f f f f f f f f f f f g f 8XyXeXyX9.d x f f f f f f f f f f f f f g f x wXtXrXtX#.d g f f f f f g d 2 w g f f f f f f f f f f g 8XyXn # 2 2 2 2 2 2 O 2 2 2 % a s.8.f g f f f f f ",
"e.aX#X2 2 2 2 2 2 2 2 2 2 2 2 t t.p.x f g f f f f f f f f f g d 2 2 g f f f f f f f g 9XtXrXyX4.d g f f f f f f f f f f f f f g f M rXrXrXrXM f g f f f f f f f f f f f f f f g f 2 2 2 2 f f f f f f f f f f f f f f f f x 5 e.yXeXyX#Xd g f f f f f f f f f f f f f f g f 3.y.r.y.7.f g f f f f f f f f f f f f f f x 5 @XyXeXyXa.5 x f f f f f f f f f f f f f f g f 8XyXeXyX9.d x f f f f f f f f f f f f f g f x wXtXrXtX#.d g f f f f f g d 2 w g f f f f f f f f f f f #XaX0.# 2 2 2 2 2 2 2 2 2 2 % +.s.3.f g f f f f f ",
"n eXtXp # 2 2 2 2 2 2 2 2 2 % +.s.7.f g f f f f f f f f f f g d 2 2 g f f f f f f f g 9XtXrXyX4.d g f f f f f f f f f f f f f g f M rXrXrXrXM f g f f f f f f f f f f f f f f g f 2 2 2 2 f f f f f f f f f f f f f f f f x 5 e.yXeXyX#Xd g f f f f f f f f f f f f f f g d 3.s.a.s.8.d g f f f f f f f f f f f f f f x 5 @XyXeXyXa.5 x f f f f f f f f f f f f f f g f 8XyXeXyX9.d x f f f f f f f f f f f f f g f x wXtXrXtX#.d g f f f f f g d 2 w g f f f f f f f f f x d a.pX@X# 2 2 2 2 2 2 2 2 2 2 2 1.y.n f g f f f f f ",
"d @XaXj.# 2 2 2 2 2 2 2 2 % r r.y.@.f g f f f f f f f f f f g d 2 2 g f f f f f f f g 9XtXrXyX4.d g f f f f f f f f f f f f f g f M rXrXrXrXM f g f f f f f f f f f f f f f f g f 2 2 2 2 f f f f f f f f f f f f f f f f x 5 e.yXeXyX#Xd g f f f f f f f f f f f f f f g f n +.+.+.n f g f f f f f f f f f f f f f f x 5 @XyXeXyXa.5 x f f f f f f f f f f f f f f g f 8XyXeXyX9.d x f f f f f f f f f f f f f g f x wXtXrXtX#.d g f f f f f g d 2 w g f f f f f f f f f g d #.rXrX$.+ 2 2 2 2 2 2 2 2 # +.y.e.x f g f f f f f ",
"d #.rXyXp.# 2 2 2 2 2 2 2 2 >.s.0.f f f f f f f f f f f f f g d 2 2 g f f f f f f f g 9XtXrXyX4.d g f f f f f f f f f f f f f g f M rXrXrXrXM f g f f f f f f f f f f f f f f g d + + + # f f f f f f f f f f f f f f f f x 5 e.yXeXyX#Xd g f f f f f f f f f f f f f f f g 5 # # # 2 g f f f f f f f f f f f f f f f x 5 @XyXeXyXa.5 x f f f f f f f f f f f f f f g f 8XyXeXyX9.d x f f f f f f f f f f f f f g f x wXtXrXtX#.d g f f f f f g d 2 w g f f f f f f f f f f g d j.pX9Xu # 2 2 2 2 2 2 % u t.y.@.f g f f f f f f ",
"x d a.yXyXk.2 2 2 2 2 2 r 1.y.r.b f g f f f f f f f f f f f g d 2 2 g f f f f f f f g 9XtXrXyX4.d g f f f f f f f f f f f f f g f M rXrXrXrXM f g f f f f f f f f f f f f f g f M e.0.0.8.g f f f f f f f f f f f f f f f x 5 e.yXeXyX#Xd g f f f f f f f f f f f f f f f g d 2 2 2 w g f f f f f f f f f f f f f f f x 5 @XyXeXyXa.5 x f f f f f f f f f f f f f f g f 8XyXeXyX9.d x f f f f f f f f f f f f f g f x wXtXrXtX#.d g f f f f f g d 2 w g f f f f f f f f f f g f x #XaXwX@.% 2 2 2 2 2 a y.y.7.f f f f f f f f f ",
"f g d a.yXj.d d w w d d x e.r.n f g f f f f f f f f f f f f g d 2 2 g f f f f f f f g 9XtXeXyX4.d g f f f f f f f f f f f f f g f M rXrXrXrXM f g f f f f f f f f f f f f f x d 4.pXyXpXeXx f f f f f f f f f f f f f f f x 5 e.yXeXyX#Xd g f f f f f f f f f f f f f f f g d 2 2 2 w g f f f f f f f f f f f f f f f x 5 @XyXeXyXa.5 x f f f f f f f f f f f f f f g f 8XtXeXyX9.d x f f f f f f f f f f f f f g f x wXtXrXtX#.d g f f f f f g d 2 w g f f f f f f f f f f f g f c #XtX#.d d w w d d @.y.7.g f g f f f f f f f ",
"f f g d 4.c f g g g g g f M b f g f f f f f f f f f f f f f g d 2 2 g f f f f f f f g wXyXtXaX4.d x f f f f f f f f f f f f f g f M tXyXyXtXn f g f f f f f f f f f f f f f g d 4.yXrXyXwXg f f f f f f f f f f f f f f f x 5 e.pXrXaX8Xd g f f f f f f f f f f f f f f f g d 2 2 2 w g f f f f f f f f f f f f f f f x 5 $XaXrXpXa.5 x f f f f f f f f f f f f f f g f 8XyXtXpXq.5 x f f f f f f f f f f f f f g f x eXyXtXyX#.d g f f f f f g d 2 w g f f f f f f f f f f f f g f b 4.d g g g g g f f n g f g f f f f f f f f ",
"f f f g d f g f f f f f f f f g f f f f f f f f f f f f f f g d 2 2 g f f f f f f f f #.#.#.#.x f g f f f f f f f f f f f f f f f x #.#.#.#.x f f f f f f f f f f f f f f f g f x #.#.#.#.g f f f f f f f f f f f f f f f g f b #.#.#.%.f f f f f f f f f f f f f f f f f g w 2 2 2 w g f f f f f f f f f f f f f f f g f n #.#.#.M f g f f f f f f f f f f f f f f f f %.#.#.#.b f g f f f f f f f f f f f f f f f g #.#.#.#.x f f f f f f f g d 2 w g f f f f f f f f f f f f f g f d g f f f f f f f f f g f f f f f f f f f ",
"f f f f g g f f f f f f f g g f f f f f f f f f f f f f f f g d 2 2 g f f f f f f f f d d d d f g f f f f f f f f f f f f f f f f f d d d d f f f f f f f f f f f f f f f f f g f d d d d f f f f f f f f f f f f f f f f f g f d d d f g f f f f f f f f f f f f f f f f g f f f f f g f f f f f f f f f f f f f f f f g f d d d f g f f f f f f f f f f f f f f f f f d d d d f g f f f f f f f f f f f f f f f f f d d d d f f f f f f f f g d 2 w g f f f f f f f f f f f f f f g g f f f f f f f f g f f f f f f f f f f f ",
"f f f f f f f f f f f f f f f f f f f f f f f f f f f f f f g d 2 2 g f f f f f f f f g g g g g f f f f f f f f f f f f f f f f f f g g g g f f f f f f f f f f f f f f f f f f g g g g g f f f f f f f f f f f f f f f f f f g g g g g f f f f f f f f f f f f f f f f f f g g g g g f f f f f f f f f f f f f f f f f f g g g g g f f f f f f f f f f f f f f f f f f g g g g g f f f f f f f f f f f f f f f f f f g g g g f f f f f f f f g d 2 w g f f f f f f f f f f f f f f f f f f f f f f f f f f f f f f f f f f f f ",
"f f f f f f f f f f f f f f f f f f f f f f f f f f f f f f g d 2 2 g f f f f f f f f f f f f f f f f f f f f f f f f f f f f f f f f f f f f f f f f f f f f f f f f f f f f f f f f f f f f f f f f f f f f f f f f f f f f f f f f f f f f f f f f f f f f f f f f f f f f f f f f f f f f f f f f f f f f f f f f f f f f f f f f f f f f f f f f f f f f f f f f f f f f f f f f f f f f f f f f f f f f f f f f f f f f f f f f f f f f g d 2 w g f f f f f f f f f f f f f f f f f f f f f f f f f f f f f f f f f f f f ",
"f f f f g g g f g g f f g g g f f f f f f f f f f f f f f f g d 2 2 g f f f f f g g f f f g g f g g f f f f f f f f f f f f f g g f f f g g f g g f f f f f f f f f f f f f f g g f f g g f g g g f f f f f f f f f f f f g g f f g g f g g f f f f f f f f f f f f f g g f g g f f f g g f g g f f f f f f f f f f g g f f f g g f g g f f f f f f f f f f f f g f f g g f f g g f f g g f f f f f f f f f f f g g f f f g g f g g f f f f f g d 2 w g f f f f f f f f f f f f f f g f g g f f g g f g g f g g f f f f f f f f ",
"f f f g f d d f d d f g f d f g f f f f f f f f f f f f f f g d 2 2 g f f f f g f d g f g d f x d f g f f f f f f f f f f f g d d g f g d f g d f g f f f f f f f f f f f f g d f g f f d f f d f g f f f f f f f f f f g d f g g f d g f d f g f f f f f f f f f f g f f g d d g f g d f x d f g f f f f f f f f g f d g f g d d x f d g f f f f f f f f f f g f f f d f g f f d f f d f g f f f f f f f f f g f d g f g d f x d f g f f f f g d 2 w g f f f f f f f f f f f f f f f g f d g f d f g d f g d f g f f f f f f f ",
"f f f f x -.=.x -.-.x f f -.c f g f f f f f f f f f f f f f g d 2 2 g f f f g f m &.d g f *.v w &.m d g f f f f f f f f f g d N N d g f =.c d *.c f g f f f f f f f f f f g f *.v f f g =.f c -.x f g f f f f f f f f f f =.c f f c =.f x =.f f g f f f f f f f f g f x c f *.&.d g f *.v w &.m d g f f f f f f g f c =.f g d N &.w m &.d g f f f f f f f f g d v x x -.c f f x =.f f =.x f g f f f f f f f g d N &.d g f *.c d *.m f g f f f g d 2 w g f f f f f f f f f f f f f f m f x =.f f =.x f =.c d *.v f g f f f f f f ",
"f f x 2 V.:X5.c.>Xc.c w A.L.L.g f g f f f f f f f f f f f f g d 2 2 g f f g f m =X=X-.2 x.>XH.z.:X*Xm f g f f f f f f f g d =.:X=XN 2 V.,XZ.c.>XL.x f g f f f f f f f f x d z.=XP.v d A.:XV.x.*XH.f f g f f f f f f x w N.>XH.f f L.>Xx.Z.>XV.d g f f f f f f f x g g 2XF.g L.=X5.2 c.>XH.z.:X*Xm f g f f f f f g f L.>Xv.2 &.:X*X5.P.:X5.d g f f f f f f g d =.zX&.5.*XP.c d H.,Xv.V.,XA.d g f f f f f f g d N =X=X=.2 v.,XF.z.>XP.v f g f f g d 2 w g f f f f f f f f f f f g d Z.4X2 H.,Xv.C.,XV.v.,XZ.b.>XL.x f g f f f f f ",
"f f x 2 C.>X&.c.2Xz.g d H.A.H.x f g f f f f f f f f f f f f g d 2 2 g f f g w v.N.*.L.% P.N N.dXN v.N.2 x f f f f f f f x w A.5.x.C.w =Xx H.3Xc A.z.w g f f f f f f f g d % P.m C.v.x =X2 :Xm w :Xc f g f f f f f g f f *Xx L.&.&.L.f 2XP.f =Xc f f f f f f f g d 2 f V.F.d % V.C.2 P.N N.dXN v.N.2 x f f f f g d *.L.g =X2 C.c.*.dXv.&.L.2 x f f f f f f g f c *X-.f 2 =XN m *Xf :X=Xf P.N f g f f f f f g w V.v.-.F.2 *Xv C.4Xm V.v.2 x f f g d 2 w g f f f f f f f f f f f f f -.*XN P.f >X=Xf *X,Xf H.3Xc A.z.w g f f f f f ",
"f f f f x N =X5.c *Xx.@ N.3XF.f g f f f f f f f f f f f f f g d 2 2 g f f g w N.c.N L.@ L.c N.dXv c.C.2 x f f f f f f f g w A.=.z.C.2 *Xd H.4Xf Z.x.2 x f f f f f f g f N.v.x.P.,Xx.$ H.L.3Xd V.V.w x f f f f f f g f x P.f H.&.&.F.w 4XH.d =Xv f f f f f f g d z.Z.w 5.F.$ N =Xx 2 L.c N.dXc v.V.2 x f f f f g d -.F.d =X2 C.z.&.zXz.N P.2 x f f f f f f f x % F.5.@ v.F.$ N L.2 ,X=Xw P.&.d g f f f f f g w V.z.=.H.$ P.x C.dXx N.N.2 x f f g d 2 w g f f f f f f f f f f f f f g P.*.H.w 2X*X2 =X>Xw H.4Xf Z.x.2 x f f f f f ",
"f f f f N c L.c.f F.C.=.=XN :XN d g f f f f f f f f f f f f g d 2 2 g f f g d 5.H.N.H.&.F.v.F.*Xv.H.x.w g f f f f f f f x w v.Z.Z.Z.&.L.c.L.*Xc.P.=.d g f f f f f f f f &.&.f z.*Xz.=.g Z.F.v.=Xc g f f f f f f f f g w L.b.L.x.-.L.x.P.L.z.*Xf f f f f f f g f N =.w z.H.d ,Xz.v -.A.v.F.*Xv.H.z.w g f f f f g f v *Xx.P.-.v.A.V.*XA.N.A.w x f f f f f f f x 2 P.-.-.,Xc =.-.L.x.P.P.z.*Xc f g f f f f f g w x.F.V.F.&.H.v.H.*Xv.L.5.d g f f g d 2 w g f f f f f f f f f f f f f c >Xx *Xz.P.P.x.L.P.x.L.*Xc.P.=.d g f f f f f ",
"f f g d z.=Xc.=.=XN.-.c.-.=Xv.f g f f f f f f f f f f f f f g d 2 2 g f f f f f Z.H.&.N.v P.N.g L.Z.f g f f f f f f f f g f x H.Z.=.v.N =Xz.c *XN.d g f f f f f f f f g f 2 &.L.-.-.x.z.L.m F.*XH.c f g f f f f f f g d &.=Xz.x.-.z.=Xm 5.=X-.d g f f f f f f g f d d *.z.*.>XH.N.v.v P.N.g L.Z.f g f f f f f f g d x.=X&.N.v A.H.f V.L.c f g f f f f f f f x w v.N V.=XF.N.-.-.:X&.*.=Xz.d g f f f f f f g f f A.F.&.N.v *Xv.x L.C.f g f f f g d 2 w g f f f f f f f f f f f f f x N.d z.=X&.=.=X-.N =Xz.c *XN.d g f f f f f f ",
"f f f g d w d f w d d d d 2 d f f f f f f f f f f f f f f f g d 2 2 g f f f f f w w f d f 2 d f w w f f f f f f f f f f f g f w w d d f 2 d f 2 d g f f f f f f f f f f g g f w d f d f w f w w d f f f f f f f f f f g f 2 d d f d 2 f d 2 d g f f f f f f f f g g g f d f 2 d d d f 2 d f 2 w f f f f f f f f f g d 2 f w f w w f w 2 f g f f f f f f f f f g d f w 2 d d d d 2 f f 2 d g f f f f f f f f f f w w f d f 2 d f 2 w f f f f f g d 2 w g f f f f f f f f f f f f f f w g d 2 f f 2 d f 2 d f 2 d g f f f f f f f ",
"f f f f g x x g x x g g g x g f f f f f f f f f f f f f f f g d 2 2 g f f f f f x x g g d x x g x x f f f f f f f f f f f f g x x g f d x g g x g f f f f f f f f f f f f f g x x f f x x x x x x f f f f f f f f f f f g x g x f f x g x x g f f f f f f f f f f f f g g g x f f x g x x g x x f f f f f f f f f f g x g x d x x g x x g f f f f f f f f f f f g g g x g d x x x x g x g f f f f f f f f f f f x x g f d x x g x x f f f f f g d 2 w g f f f f f f f f f f f f f f x f g x g g x g g x g g x x f f f f f f f f ",
"f f f f f f d f f d g g g f f f f f f f f f f f f f f f f f g d 2 2 g f f f f f f g g c =.d f f d g f f f f f f f f f f f f f f g f v *.w f d f g f f f f f f f f f f f f f f g f N N w f d f g f f f f f f f f f f f f f f g f &.m w f d f g f f f f f f f f f f f f f f x f *.c d f d f f f f f f f f f f f f f f f f x f =.g d f d f f f f f f f f f f f f f f f f g x =.f f f d g f f f f f f f f f f f f f f g f c =.d f f d g f f f f f g d 2 w g f f f f f f f f f f f f f f f f g d f f d g g g f f f f f f f f f f f f ",
"f f f f f g F.f -.N.w d f g f f f f f f f f f f f f f f f f g d 2 2 g f f f f f f f 2 m P.5.3X*X-.d g f f f f f f f f f f f f g f 2 -.H.x.2XP.&.f g f f f f f f f f f f f f g f $ v.V.V.,XL.v f g f f f f f f f f f f f f g f $ F.c.H.>XF.x f g f f f f f f f f f f f f g f % P.5.*X=XC.f g f f f f f f f f f f f f f g d 2 =X=.>X=Xv.d g f f f f f f f f f f f f f f w x =X-.2X*Xz.d g f f f f f f f f f f f f f f 2 &.L.z.3XP.=.d g f f f f g d 2 w g f f f f f f f f f f f f f f f g d A.c N C.d d d g f f f f f f f f f f f ",
"f f f f f g >Xw 5.L.v.3Xx.w x f f f f f f f f f f f f f f f g d 2 2 g f f f f f f f A.:XL.N.v.z.L.w x f f f f f f f f f f f g f c H.,XZ.A.-.V.Z.2 x f f f f f f f f f f f g f N L.3Xv.L.m J.c.w g f f f f f f f f f f f g d =.L.3Xz.*Xg =X-.d g f f f f f f f f f f f g d z.P.3X5.P.f ,Xm f g f f f f f f f f f f f g d v.*X,Xz.H.c ,Xf f g f f f f f f f f f f f g d C.=X=Xc.C.*.=Xd g f f f f f f f f f f f f f g F.>XH.V.z.x.H.2 x f f f f g d 2 w g f f f f f f f f f f f f f f f g d :Xx &.P.v.3XN.w x f f f f f f f f f f ",
"f f f f g f 3XP.3XH.d ,X&.d g f f f f f f f f f f f f f f f g d 2 2 g f f f f g d 5.L.=.*Xc.dX,Xx.d g f f f f f f f f f f f g w N.Z.x.F.C.4X,X-.d g f f f f f f f f f f f x 2 F.c.C.N.L.3X,Xm f g f f f f f f f f f f f g w P.-.L.z.:X,X=Xx f g f f f f f f f f f f g f f -XN =X-.3X,XP.f g f f f f f f f f f f f g f v :Xm >X-.dX,XA.d g f f f f f f f f f f f g d *.*X&.=Xz.dX,XN.w g f f f f f f f f f f f g w x.H.5.L.v.dX,Xz.d g f f f f g d 2 w g f f f f f f f f f f f f f f f x w ,X=X,X*Xw >X-.d g f f f f f f f f f f ",
"f f f f f g >Xx x.A.N.v.2 x f f f f f f f f f f f f f f f f g d 2 2 g f f f f g w z.F.c *Xv.v.*.=Xd g f f f f f f f f f f f x 2 V.v.=.H.Z.-.x.L.2 x f f f f f f f f f f f x 2 H.-.v.V.H.m Z.C.2 x f f f f f f f f f f f g d *Xv F.v.P.f L.x.w x f f f f f f f f f f g f x :Xd P.z.P.d :X=.d g f f f f f f f f f f g f m =Xw =Xz.J.f ,Xv f g f f f f f f f f f f g d -.L.f =Xc.C.v >Xf f f f f f f f f f f f f g w v.Z.m L.N.c.-.*Xw g f f f f g d 2 w g f f f f f f f f f f f f f f f g d :Xm -.H.c.N.% x f f f f f f f f f f f ",
"f f f f f g L.f -.F.,X=X-.d g f f f f f f f f f f f f f f f g d 2 2 g f f f f g f x P.=XH.z.3X*Xv.d g f f f f f f f f f f f g f m *X>XV.N.,X*Xz.d g f f f f f f f f f f f g d =.=X,Xx.H.:X=X=.d g f f f f f f f f f f f g d x.=X2X-.=X*X*Xm f g f f f f f f f f f f f x w N.*X,X*.,XP.L.c f g f f f f f f f f f f f g d A.*X:X*.3XP.F.f f f f f f f f f f f f f f f f L.=XP.5.3XP.V.d g f f f f f f f f f f f g f c P.:XA.c.3X*Xc.d g f f f f g d 2 w g f f f f f f f f f f f f f f f g d L.c &.F.>X:Xz.d g f f f f f f f f f f ",
"f f f f f f g f f g x m c f f f f f f f f f f f f f f f f f g d 2 2 g f f f f f g f g c f f v v d f f f f f f f f f f f f f f g f x c f g m c d g f f f f f f f f f f f f f g d c x f x m c d g f f f f f f f f f f f f f g d c x f x N g f g f f f f f f f f f f f f f f f v g f c N f f g f f f f f f f f f f f f f f f v f f c m f f g f f f f f f f f f f f f g f f v f f v m d f f f f f f f f f f f f f f g f x c f f m v d g f f f f f g d 2 w g f f f f f f f f f f f f f f f f f g f f g x m c f g f f f f f f f f f f ",
"f f f f f f f f f f f f f f f f f f f f f f f f f f f f f f g d 2 2 g f f f f f f g f f f f f f g f f f f f f f f f f f f f f f g f f f f f f g f f f f f f f f f f f f f f f g f f f f f f g f f f f f f f f f f f f f f f g f f f f f f g f f f f f f f f f f f f f f f g f f f f f f g f f f f f f f f f f f f f f f g f f f f f g f f f f f f f f f f f f f f f g f f f f f f g f f f f f f f f f f f f f f f g f f f f f f g f f f f f f g d 2 w g f f f f f f f f f f f f f f f f f f f f f f f f g f f f f f f f f f f f ",
"f f f f f f g f f g g g g f f f f f f f f f f f f f f f f f g d 2 2 g f f f f f f f g g g g g g f f f f f f f f f f f f f f f f f g g g g g g f f f f f f f f f f f f f f f f f g g g g g g f f f f f f f f f f f f f f f f f g g f g g g f f f f f f f f f f f f f f f f g g g f g g g f f f f f f f f f f f f f f f f g g g f g g g f f f f f f f f f f f f f f f f g g g f g g g f f f g f f f f f f f f f f f f g g f f g g f f f f f f f g d 2 w g f f f f f f f f f f f f f f f g f f f f g f f f f f f f f f f f f f f f ",
"f f f f f f f f f f f f f f f f f f f f f f f f f f f f f f g d 2 2 g f f f f f f f f f f f f f f f f f f f f f f f f f f f f f f f f f f f f f f f f f f f f f f f f f f f f f f f f f f f f f f f f f f f f f f f f f f f f f f f f f f f f f f f f f f f f f f f f f f f f f f f f f f f f f f f f f f f f f f f f f f f f f f f f f f f f f f f f f f f f f f f f f f f f f f f f f f f f f f f f f f f f f f f f f f f f f f f f f f f f g d 2 w g f f f f f f f f f f f f f f f f g c c g f x c f g c x g x c x g x g c x ",
"O O O O O O O O O O O O O O O O O O O O O O O O O O O O O O O O O O O O O O O O O O O O O O O O O O O O O O O O O O O O O O O O O O O O O O O O O O O O O O O O O O O O O O O O O O O O O O O O O O O O O O O O O O O O O O O O O O O O O O O O O O O O O O O O O O O O O O O O O O O O O O O O O O O O O O O O O O O O O O O O O O O O O O O O O O O O O O O O O O O O O O O O O O O O O @ 1 1 1 1 1 1 1 1 1 1 1 1 1 1 1 1 1 1 1 1 1 1 1 1 1 1 1 1 1 1 1 1 1 1 1 1 1 1 1 1 1 $ O $ % @ 2 m v 2 @ x v $ 2 v c 2 f v w 2 w % m f ",
"O O O O O O O O O O O O O O O O O O O O O O O O O O O O O O O O O O O O O O O O O O O O O O O O O O O O O O O O O O O O O O O O O O O O O O O O O O O O O O O O O O O O O O O O O O O O O O O O O O O O O O O O O O O O O O O O O O O O O O O O O O O O O O O O O O O O O O O O O O O O O O O O O O O O O O O O O O O O O O O O O O O O O O O O O O O O O O O O O O O O O O O O O O O O @ 1 1 1 1 1 1 1 1 1 1 1 1 1 1 1 1 1 1 1 1 1 1 1 1 1 1 1 1 1 1 1 1 1 1 1 1 1 1 1 1 1 q $ O $ % @ @ O O @ @ @ O @ @ O O @ @ O @ @ @ @ O @ ",
"O O O O O O O O O O O O O O O O O O O O O O O O O O O O O O O O O O O O O O O O O O O O O O O O O O O O O O O O O O O O O O O O O O O O O O O O O O O O O O O O O O O O O O O O O O O O O O O O O O O O O O O O O O O O O O O O O O O O O O O O O O O O O O O O O O O O O O O O O O O O O O O O O O O O O O O O O O O O O O O O O O O O O O O O O O O O O O O O O O O O O O O O O O O $ q q q q q q q q q q q q q q q q q q q q q q q q q q q q q q q q q q q q q q q q q q q 1 O % 2 $ % % % % $ % % $ % % % % % % % % % $ % % ",
"@ @ @ @ @ @ @ @ @ @ @ @ @ @ @ @ @ @ @ @ @ @ @ @ @ @ @ @ @ @ @ @ @ @ @ @ @ @ @ @ @ @ @ @ @ @ @ @ @ @ @ @ @ @ @ @ @ @ @ @ @ @ @ @ @ @ @ @ @ @ @ @ @ @ @ @ @ @ @ @ @ @ @ @ @ @ @ @ @ @ @ @ @ @ @ @ @ @ @ @ @ @ @ @ @ @ @ @ @ @ @ @ @ @ @ @ @ @ @ @ @ @ @ @ @ @ @ @ @ @ @ @ @ @ @ @ @ @ @ @ @ @ @ @ @ @ @ @ @ @ @ @ @ @ @ @ @ @ @ @ @ @ @ @ @ @ @ @ @ @ @ @ @ @ @ @ @ @ @ @ @ @ @ @ O @ q e q q q q q q q q q q q q q q q q q q q q q q q q q q q q q q q q q q q q q q q q q q e 1 O 2 2 $ $ $ $ $ $ $ $ $ $ $ $ $ $ $ $ $ $ $ $ $ ",
"@ @ @ @ @ @ @ @ @ @ @ @ @ @ @ @ @ @ @ @ @ @ @ @ @ @ @ @ @ @ @ @ @ @ @ @ @ @ @ @ @ @ @ @ @ @ @ @ @ @ @ @ @ @ @ @ @ @ @ @ @ @ @ @ @ @ @ @ @ @ @ @ @ @ @ @ @ @ @ @ @ @ @ @ @ @ @ @ @ @ @ @ @ @ @ @ @ @ @ @ @ @ @ @ @ @ @ @ @ @ @ @ @ @ @ @ @ @ @ @ @ @ @ @ @ @ @ @ @ @ @ @ @ @ @ @ @ @ @ @ @ @ @ @ @ @ @ @ @ @ @ @ @ @ @ @ @ @ @ @ @ @ @ @ @ @ @ @ @ @ @ @ @ @ @ @ @ @ @ @ @ @ @ @ % e e e e e e e e e e e e e e e e e e e e e e e e e e e e e e e e e e e e e e e e e e e e e e 1 O 2 2 x v c c c c c c c c c c c c c c c c c c c ",
"$ $ $ $ $ $ $ $ $ $ $ $ $ $ $ $ $ $ $ $ $ $ $ $ $ $ $ $ $ $ $ $ $ $ $ $ $ $ $ $ $ $ $ $ $ $ $ $ $ $ $ $ $ $ $ $ $ $ $ $ $ $ $ $ $ $ $ $ $ $ $ $ $ $ $ $ $ $ $ $ $ $ $ $ $ $ $ $ $ $ $ $ $ $ $ $ $ $ $ $ $ $ $ $ $ $ $ $ $ $ $ $ $ $ $ $ $ $ $ $ $ $ $ $ $ $ $ $ $ $ $ $ $ $ $ $ $ $ $ $ $ $ $ $ $ $ $ $ $ $ $ $ $ $ $ $ $ $ $ $ $ $ $ $ $ $ $ $ $ $ $ $ $ $ $ $ $ $ $ $ $ $ $ q e e e e e e e e e e e e e e e e e e e e e e e e e e e e e e e e e e e e e e e e e e e e e e t q @ 2 w m &.&.&.&.&.&.&.&.&.&.&.&.&.&.&.&.&.&.&.&.",
"$ $ $ $ $ $ $ $ $ $ $ $ $ $ $ $ $ $ $ $ $ $ $ $ $ $ $ $ $ $ $ $ $ $ $ $ $ $ $ $ $ $ $ $ $ $ $ $ $ $ $ $ $ $ $ $ $ $ $ $ $ $ $ $ $ $ $ $ $ $ $ $ $ $ $ $ $ $ $ $ $ $ $ $ $ $ $ $ $ $ $ $ $ $ $ $ $ $ $ $ $ $ $ $ $ $ $ $ $ $ $ $ $ $ $ $ $ $ $ $ $ $ $ $ $ $ $ $ $ $ $ $ $ $ $ $ $ $ $ $ $ $ $ $ $ $ $ $ $ $ $ $ $ $ $ $ $ $ $ $ $ $ $ $ $ $ $ $ $ $ $ $ $ $ $ $ $ $ $ $ $ 1 e t t t t t t t t t t t t t t t t t t t t t t t t t t t t t t t t t t t t t t t t t t t t t t t t e @ w d m *.*.*.*.&.&.&.&.&.&.&.&.&.&.&.&.&.&.*.*.",
"% % % % % % % % % % % % % % % % % % % % % % % % % % % % % % % % % % % % % % % % % % % % % % % % % % % % % % % % % % % % % % % % % % % % % % % % % % % % % % % % % % % % % % % % % % % % % % % % % % % % % % % % % % % % % % % % % % % % % % % % % % % % % % % % % % % % % % % % % % % % % % % % % % % % % % % % % % % % % % % % % % % % % % % % % % % % % % % % % % % % w t u u u u u u u u u u u u u u u u u u u u u u u u u u u u u u u u u u u u u u u u u u u u u u u t u r $ d d N =.N &.&.=.=.=.=.=.=.=.=.=.=.=.=.=.=.&.B ",
"2 2 2 2 2 2 2 2 2 2 2 2 2 2 2 2 2 2 2 2 2 2 2 2 2 2 2 2 2 2 2 2 2 2 2 2 2 2 2 2 2 2 2 2 2 2 2 2 2 2 2 2 2 2 2 2 2 2 2 2 2 2 2 2 2 2 2 2 2 2 2 2 2 2 2 2 2 2 2 2 2 2 2 2 2 2 2 2 2 2 2 2 2 2 2 2 2 2 2 2 2 2 2 2 2 2 2 2 2 2 2 2 2 2 2 2 2 2 2 2 2 2 2 2 2 2 2 2 2 2 2 2 2 2 2 2 2 2 2 2 2 2 2 2 2 2 2 2 2 2 2 2 2 2 2 2 2 2 2 2 2 2 2 2 2 2 2 2 2 2 2 2 2 2 2 2 2 % 2 r u u u u u u u u u u u u u u u u u u u u u u u u u u u u u u u u u u u u u u u u u u u u u u u u u u u r $ d f N c.*XL.v.*.*.=.*.-.=.=.*.*.*.*.=.-.*.Z.=X",
"2 2 2 2 2 2 2 2 2 2 2 2 2 2 2 2 2 2 2 2 2 2 2 2 2 2 2 2 2 2 2 2 2 2 2 2 2 2 2 2 2 2 2 2 2 2 2 2 2 2 2 2 2 2 2 2 2 2 2 2 2 2 2 2 2 2 2 2 2 2 2 2 2 2 2 2 2 2 2 2 2 2 2 2 2 2 2 2 2 2 2 2 2 2 2 2 2 2 2 2 2 2 2 2 2 2 2 2 2 2 2 2 2 2 2 2 2 2 2 2 2 2 2 2 2 2 2 2 2 2 2 2 2 2 2 2 2 2 2 2 2 2 2 2 2 2 2 2 2 2 2 2 2 2 2 2 2 2 2 2 2 2 2 2 2 2 2 2 2 2 2 2 2 2 2 2 2 w u p u u u u u u u u u u u u u u u u u u u u u u u u u u u u u u u u u u u u u u u u u u u u u u u u u u p t % f f N A.P.z.,Xv.L.Z.Z.z.V.v.F.P.A.*XV.-.=.=Xv.",
"2 2 2 2 2 2 2 2 2 2 2 2 2 2 2 2 2 2 2 2 2 2 2 2 2 2 2 2 2 2 2 2 2 2 2 2 2 2 2 2 2 2 2 2 2 2 2 2 2 2 2 2 2 2 2 2 2 2 2 2 2 2 2 2 2 2 2 2 2 2 2 2 2 2 2 2 2 2 2 2 2 2 2 2 2 2 2 2 2 2 2 2 2 2 2 2 2 2 2 2 2 2 2 2 2 2 2 2 2 2 2 2 2 2 2 2 2 2 2 2 2 2 2 2 2 2 2 2 2 2 2 2 2 2 2 2 2 2 2 2 2 2 2 2 2 2 2 2 2 2 2 2 2 2 2 2 2 2 2 2 2 2 2 2 2 2 2 2 2 2 2 2 2 2 2 2 r p p p p p p p p p p p p p p p p p p p p p p p p p p p p p p p p p p p p p p p p p p p p p p p p p p p p p p t % f x N A.P.B L.=X4X5.,Xc.L.H.3XZ.4XC.>Xl.-.:X2X",
"2 2 2 2 2 2 2 2 2 2 2 2 2 2 2 2 2 2 2 2 2 2 2 2 2 2 2 2 2 2 2 2 2 2 2 2 2 2 2 2 2 2 2 2 2 2 2 2 2 2 2 2 2 2 2 2 2 2 2 2 2 2 2 2 2 2 2 2 2 2 2 2 2 2 2 2 2 2 2 2 2 2 2 2 2 2 2 2 2 2 2 2 2 2 2 2 2 2 2 2 2 2 2 2 2 2 2 2 2 2 2 2 2 2 2 2 2 2 2 2 2 2 2 2 2 2 2 2 2 2 2 2 2 2 2 2 2 2 2 2 2 2 2 2 2 2 2 2 2 2 2 2 2 2 2 2 2 2 2 2 2 2 2 2 2 2 2 2 2 2 2 2 2 2 2 u n n n n n n n n n n n n n n n n n n n n n n n n n n n n n n n n n n n n n n n n n n n n n n n n n n n n n n n u 2 g x &.H.P.&.,X*X*X&.3Xb.*XL.:Xx.,Xb.,Xz.-.,XH.",
"w w w w w w w w w w w w w w w w w w w w w w w w w w w w w w w w w w w w w w w w w w w w w w w w w w w w w w w w w w w w w w w w w w w w w w w w w w w w w w w w w w w w w w w w w w w w w w w w w w w w w w w w w w w w w w w w w w w w w w w w w w w w w w w w w w w w w w w w w w w w w w w w w w w w w w w w w w w w w w w w w w w w w w w w w w w w 2 r b n n n n n n n n n n n n n n n n n n n n n n n n n n n n n n n n n n n n n n n n n n n n n n n n n n n n n n n n b 2 x c =.H.zX,X=XZ.,X=.*X3XzXH.,Xv.3Xv.,Xx.l.,XV.",
"w w w w w w w w w w w w w w w w w w w w w w w w w w w w w w w w w w w w w w w w w w w w w w w w w w w w w w w w w w w w w w w w w w w w w w w w w w w w w w w w w w w w w w w w w w w w w w w w w w w w w w w w w w w w w w w w w w w w w w w w w w w w w w w w w w w w w w w w w w w w w w w w w w w w w w w w w w w w w w w w w w w w w w w w w w w 2 f n n n n n n n n n n n n n n n n n n n n n n n n n n n n n n n n n n n n n n n n n n n n n n n n n n n n n n n n n n b 2 x c -.c.V.C.z.b.v.x.x.V.v.b.v.x.v.x.v.x.x.v.b.",
"w w w w w w w w w w w w w w w w w w w w w w w w w w w w w w w w w w w w w w w w w w w w w w w w w w w w w w w w w w w w w w w w w w w w w w w w w w w w w w w w w w w w w w w w w w w w w w w w w w w w w w w w w w w w w w w w w w w w w w w w w w w w w w w w w w w w w w w w w w w w w w w w w w w w w w w w w w w w w w w w w w w w w w w w w 2 w x n n n n n n n n n n n n n n n n n n n n n n n n n n n n n n n n n n n n n n n n n n n n n n n n n n n n n n n n n n n b 2 x c -.b.z.z.x.x.z.x.x.z.z.x.z.x.z.x.z.x.x.z.x.",
"w w w w w w w w w w w w w w w w w w w w w w w w w w w w w w w w w w w w w w w w w w w w w w w w w w w w w w w w w w w w w w w w w w w w w w w w w w w w w w w w w w w w w w w w w w w w w w w w w w w w w w w w w w w w w w w w w w w w w w w w w w w w w w w w w w w w w w w w w w w w w w w w w w w w w w w w w w w w w w w w w w w w w w w w 2 w b n n n n n n n n n n n n n n n n n n n n n n n n n n n n n n n n n n n n n n n n n n n n n n n n n n n n n n n n n n n n b 2 x c l.v.b.c.b.b.b.b.b.c.b.b.b.b.b.b.b.b.b.b.b.",
"w w w w w w w w w w w w w w w w w w w w w w w w w w w w w w w w w w w w w w w w w w w w w w w w w w w w w w w w w w w w w w w w w w w w w w w w w w w w w w w w w w w w w w w w w w w w w w w w w w w w w w w w w w w w w w w w w w w w w w w w w w w w w w w w w w w w w w w w w w w w w w w w w w w w w w w w w w w w w w w w w w w w w w w 2 f n n n n n n n n n n n n n n n n n n n n n n n n n n n n n n n n n n n n n n n n n n n n n n n n n n n n n n n n n n n n n n b 2 x x &.-.-.-.-.-.-.-.-.-.-.-.-.-.-.-.-.-.-.-.-.",
"w w w w w w w w w w w w w w w w w w w w w w w w w w w w w w w w w w w w w w w w w w w w w w w w w w w w w w w w w w w w w w w w w w w w w w w w w w w w w w w w w w w w w w w w w w w w w w w w w w w w w w w w w w w w w w w w w w w w w w w w w w w w w w w w w w w w w w w w w w w w w w w w w w w w w w w w w w w w w w w w w w w w w 2 w x n n n n n n n n n n n n n n n n n n n n n n n n n n n n n n n n n n n n n n n n n n n n n n n n n n n n n n n n n n n n n n n b 2 x N c c c c c c c c c c c c c c c c c c c c c ",
"w w w w w w w w w w w w w w w w w w w w w w w w w w w w w w w w w w w w w w w w w w w w w w w w w w w w w w w w w w w w w w w w w w w w w w w w w w w w w w w w w w w w w w w w w w w w w w w w w w w w w w w w w w w w w w w w w w w w w w w w w w w w w w w w w w w w w w w w w w w w w w w w w w w w w w w w w w w w w w w w w w w w 2 w b n n n n n n n n n n n n n n n n n n n n n n n n n n n n n n n n n n n n n n n n n n n n n n n n n n n n n n n n n n n n n n n n x 2 d g g g g g g g g g g g g g g g g g g g g g g ",
"w w w w w w w w w w w w w w w w w w w w w w w w w w w w w w w w w w w w w w w w w w w w w w w w w w w w w w w w w w w w w w w w w w w w w w w w w w w w w w w w w w w w w w w w w w w w w w w w w w w w w w w w w w w w w w w w w w w w w w w w w w w w w w w w w w w w w w w w w w w w w w w w w w w w w w w w w w w w w w w w w w w 2 f n n n n n n n n n n n n n n n n n n n n n n n n n n n n n n n n n n n n n n n n n n n n n n n n n n n n n n n n n n n n n n n n n n x 2 w 2 2 2 2 2 2 2 2 2 2 2 2 2 2 2 2 2 2 2 2 2 2 ",
"w w w w w w w w w w w w w w w w w w w w w w w w w w w w w w w w w w w w w w w w w w w w w w w w w w w w w w w w w w w w w w w w w w w w w w w w w w w w w w w w w w w w w w w w w w w w w w w w w w w w w w w w w w w w w w w w w w w w w w w w w w w w w w w w w w w w w w w w w w w w w w w w w w w w w w w w w w w w w w w w w 2 w x n n n n n n n n n n n n n n n n n n n n n n n n n n n n n n n n n n n n n n n n n n n n n n n n n n n n n n n n n n n n n n n n n n n x 2 d f f f f f f f f f f f f f f f f f f f f f f ",
"w w w w w w w w w w w w w w w w w w w w w w w w w w w w w w w w w w w w w w w w w w w w w w w w w w w w w w w w w w w w w w w w w w w w w w w w w w w w w w w w w w w w w w w w w w w w w w w w w w w w w w w w w w w w w w w w w w w w w w w w w w w w w w w w w w w w w w w w w w w w w w w w w w w w w w w w w w w w w w w w 2 w b n n n n n n n n n n n n n n n n n n n n n n n n n n n n n n n n n n n n n n n n n n n n n n n n n n n n n n n n n n n n n n n n n n n n x 2 d g g f f f f f f f f f f f f f g f f f f f f ",
"w w w w w w w w w w w w w w w w w w w w w w w w w w w w w w w w w w w w w w w w w w w w w w w w w w w w w w w w w w w w w w w w w w w w w w w w w w w w w w w w w w w w w w w w w w w w w w w w w w w w w w w w w w w w w w w w w w w w w w w w w w w w w w w w w w w w w w w w w w w w w w w w w w w w w w w w w w w w w w w 2 f n n n n n n n n n n n n n n n n n n n n n n n n n n n n n n n n n n n n n n n n n n n n n n n n n n n n n n n n n n n n n n n n n n n n n n x 2 d g f x N N N N N N N N N N N v f x N N N N N ",
"w w w w w w w w w w w w w w w w w w w w w w w w w w w w w w w w w w w w w w w w w w w w w w w w w w w w w w w w w w w w w w w w w w w w w w w w w w w w w w w w w w w w w w w w w w w w w w w w w w w w w w w w w w w w w w w w w w w w w w w w w w w w w w w w w w w w w w w w w w w w w w w w w w w w w w w w w w w w w 2 w x n n n n n n n n n n n n n n n n n n n n n n n n n n n n n n n n n n n n n n n n n n n n n n n n n n n n n n n n n n n n n n n n n n n n n n n x 2 d g f c *.m m m m m m m m v N &.f c *.m m m m ",
"w w w w w w w w w w w w w w w w w w w w w w w w w w w w w w w w w w w w w w w w w w w w w w w w w w w w w w w w w w w w w w w w w w w w w w w w w w w w w w w w w w w w w w w w w w w w w w w w w w w w w w w w w w w w w w w w w w w w w w w w w w w w w w w w w w w w w w w w w w w w w w w w w w w w w w w w w w w w 2 r M n n n n n n n n n n n n n n n n n n n n n n n n n n n n n n n n n n n n n n n n n n n n n n n n n n n n n n n n n n n n n n n n n n n n n n n n x 2 d g f c &.f f d d f d d f d c &.f c &.f f f f ",
"w w w w w w w w w w w w w w w w w w w w w w w w w w w w w w w w w w w w w w w w w w w w w w w w w w w w w w w w w w w w w w w w w w w w w w w w w w w w w w w w w w w w w w w w w w w w w w w w w w w w w w w w w w w w w w w w w w w w w w w w w w w w w w w w w w w w w w w w w w w w w w w w w w w w w w w w w w w 2 f n n n n n n n n n n n n n n n n n n n n n n n n n n n n n n n n n n n n n n n p u t t t t t t t t t t t t t t t t t t t t t t t t t t t t t t t t n b 2 d g f c &.f g v v c v c g f v &.f c &.f g c c ",
"w w w w w w w w w w w w w w w w w w w w w w w w w w w w w w w w w w w w w w w w w w w w w w w w w w w w w w w w w w w w w w w w w w w w w w w w w w w w w w w w w w w w w w w w w w w w w w w w w w w w w w w w w w w w w w w w w w w w w w w w w w w w w w w w w w w w w w w w w w w w w w w w w w w w w w w w w 2 w b n n n n n n n n n n n n n n n n n n n n n n n n n n n n n n n n n n n n n n n u 1 2 2 1 2 2 2 2 1 2 2 1 1 2 2 1 1 2 1 1 2 2 1 2 1 2 2 1 2 2 1 1 2 2 q t 2 d g f c &.f x D.1X6X5XB.f f v &.f c &.f f &XhX",
"w w w w w w w w w w w w w w w w w w w w w w w w w w w w w w w w w w w w w w w w w w w w w w w w w w w w w w w w w w w w w w w w w w w w w w w w w w w w w w w w w w w w w w w w w w w w w w w w w w w w w w w w w w w w w w w w w w w w w w w w w w w w w w w w w w w w w w w w w w w w w w w w w w w w w w w w 2 r M n n n n n n n n n n n n n n n n n n n n n n n n n n n n n n n n n n n n n n n n r 2 $ @ 2 . $ 1 . 1 o o 2 1 o o 1 2 $ 1 1 . @ 1 o 1 o o 1 . $ 2 1 o @ 2 w w d g f c &.f x d G.bXN.d x f v &.f c &.g d w.xX",
"w w w w w w w w w w w w w w w w w w w w w w w w w w w w w w w w w w w w w w w w w w w w w w w w w w w w w w w w w w w w w w w w w w w w w w w w w w w w w w w w w w w w w w w w w w w w w w w w w w w w w w w w w w w w w w w w w w w w w w w w w w w w w w w w w w w w w w w w w w w w w w w w w w w w w w w 2 f n n n n n n n n n n n n n n n n n n n n n n n n n n n n n n n n n n n n n n n n n n r $ N l.$ K.B c Y.w n.n.1 2 m.m.w $ B x w Y.l.2 n.w S.n.x I.N $ w S.l.$ 2 w d g f c &.f d &.hXxX6Xc f f v &.f c &.f g 2 G.",
"w w w w w w w w w w w w w w w w w w w w w w w w w w w w w w w w w w w w w w w w w w w w w w w w w w w w w w w w w w w w w w w w w w w w w w w w w w w w w w w w w w w w w w w w w w w w w w w w w w w w w w w w w w w w w w w w w w w w w w w w w w w w w w w w w w w w w w w w w w w w w w w w w w w w w 2 w b n n n n n n n n n n n n n n n n n n n n n n n n n n n n n n n n n n n n n n n n n n n r o U.fXl.<XU.<XI.<XU.<XB 1 l.lXl.. <Xv f m.U.S.vXv l.<Xm.m.<Xo b.<XU.x 1 d d g f c &.f d ;XbXxXbXD.d f v &.f c &.f g B.1X",
"w w w w w w w w w w w w w w w w w w w w w w w w w w w w w w w w w w w w w w w w w w w w w w w w w w w w w w w w w w w w w w w w w w w w w w w w w w w w w w w w w w w w w w w w w w w w w w w w w w w w w w w w w w w w w w w w w w w w w w w w w w w w w w w w w w w w w w w w w w w w w w w w w w w w 2 r b n n n n n n n n n n n n n n n n n n n n n n n n n n n n n n n n n n n n n n n n n n n n r @ N K.Y.x <XlX2 lXlXlXw @ l.lXx c U.$ @ w <X2 I.x . <Xw N U.o v vXU.$ 2 w d g f c &.f g &.;.;.;.&.f f v &.f c &.f g ;.-.",
"w w w w w w w w w w w w w w w w w w w w w w w w w w w w w w w w w w w w w w w w w w w w w w w w w w w w w w w w w w w w w w w w w w w w w w w w w w w w w w w w w w w w w w w w w w w w w w w w w w w w w w w w w w w w w w w w w w w w w w w w w w w w w w w w w w w w w w w w w w w w w w w w w w w 2 f n n n n n n n n n n n n n n n n n n n n n n n n n n n n n n n n n n n n n n n n n n n n n n r @ B I.S.b.U.lX*.vXS.U.l.1 o Y.m.l.K.. w <X6.o <Xf I.m.w lXx o S.K.<Xm $ d d g f c &.f f d d d d d f f c &.f c &.f f d w ",
"w w w w w w w w w w w w w w w w w w w w w w w w w w w w w w w w w w w w w w w w w w w w w w w w w w w w w w w w w w w w w w w w w w w w w w w w w w w w w w w w w w w w w w w w w w w w w w w w w w w w w w w w w w w w w w w w w w w w w w w w w w w w w w w w w w w w w w w w w w w w w w w w w 2 w b n n n n n n n n n n n n n n n n n n n n n n n n n n n n n n n n n n n n n n n n n n n n n n n r $ v S.f lXS.n.lXb.U.U.m.6.U.fXr S.m o l.vXI.f S.=.vXI.<XvXK.n.=.fXI.w 2 d d g f c *.c c c c c c c c c m &.f c *.c c c c ",
"w w w w w w w w w w w w w w w w w w w w w w w w w w w w w w w w w w w w w w w w w w w w w w w w w w w w w w w w w w w w w w w w w w w w w w w w w w w w w w w w w w w w w w w w w w w w w w w w w w w w w w w w w w w w w w w w w w w w w w w w w w w w w w w w w w w w w w w w w w w w w w w w 2 r b n n n n n n n n n n n n n n n n n n n n n n n n n n n n n n n n n n n n n n n n n n n n n n n n r 1 1 1 1 1 1 $ 1 @ 1 1 1 2 2 1 1 1 1 2 1 $ w 1 $ 1 $ w 1 1 w 2 $ 2 1 1 2 w d g f x &.&.&.&.&.&.&.&.&.&.&.N f x &.&.&.&.&.",
"w w w w w w w w w w w w w w w w w w w w w w w w w w w w w w w w w w w w w w w w w w w w w w w w w w w w w w w w w w w w w w w w w w w w w w w w w w w w w w w w w w w w w w w w w w w w w w w w w w w w w w w w w w w w w w w w w w w w w w w w w w w w w w w w w w w w w w w w w w w w w w w w f n n n n n n n n n n n n n n n n n n n n n n n n n n n n n n n n n n n n n n n n n n n n n n n n n n u 1 2 2 2 2 2 2 2 2 2 2 2 1 1 2 2 2 2 1 2 2 1 1 2 2 2 1 2 2 1 1 2 2 2 1 r 2 d g g g f f f f f f f f f f f f g g f f f f f ",
"w w w w w w w w w w w w w w w w w w w w w w w w w w w w w w w w w w w w w w w w w w w w w w w w w w w w w w w w w w w w w w w w w w w w w w w w w w w w w w w w w w w w w w w w w w w w w w w w w w w w w w w w w w w w w w w w w w w w w w w w w w w w w w w w w w w w w w w w w w w w w 2 w x n n n n n n n n n n n n n n n n n n n n n n n n n n n n n n n n n n n n n n n n n n n n n n n n n n n b r 2 2 2 2 2 2 2 2 2 2 2 2 2 2 2 2 2 2 2 2 2 2 2 2 2 2 2 2 2 2 2 2 2 t x 2 d f f f f f f f f f f f f f f f f f f f f f f ",
"2 2 2 2 2 2 2 2 2 2 2 2 2 2 2 2 2 2 2 2 2 2 2 2 2 2 2 2 2 2 2 2 2 2 2 2 2 2 2 2 2 2 2 2 2 2 2 2 2 2 2 2 2 2 2 2 2 2 2 2 2 2 2 2 2 2 2 2 2 2 2 2 2 2 2 2 2 2 2 2 2 2 2 2 2 2 2 2 2 2 2 2 2 2 2 2 2 2 2 2 2 2 2 2 2 2 2 2 2 2 2 2 2 2 2 2 2 2 2 2 2 2 2 2 2 2 2 2 2 2 2 2 2 2 2 2 2 2 2 2 2 2 2 2 2 2 2 2 2 2 2 2 2 2 2 2 2 2 2 2 2 2 2 2 2 2 2 2 2 2 2 2 2 2 2 2 2 2 2 2 2 2 2 2 2 2 2 2 2 2 2 2 2 2 2 2 2 2 2 2 2 2 2 2 2 2 2 2 2 2 2 2 2 2 2 2 2 2 2 2 2 2 2 2 2 2 2 2 2 2 2 2 2 2 2 2 2 2 2 2 2 2 2 2 2 2 2 2 2 2 2 2 2 2 2 2 ",
"2 2 2 2 2 2 2 2 2 2 2 2 2 2 2 2 2 2 2 2 2 2 2 2 2 2 2 2 2 2 2 2 2 2 2 2 2 2 2 2 2 2 2 2 2 2 2 2 2 2 2 2 2 2 2 2 2 2 2 2 2 2 2 2 2 2 2 2 2 2 2 2 2 2 2 2 2 2 2 2 2 2 2 2 2 2 2 2 2 2 2 2 2 2 2 2 2 2 2 2 2 2 2 2 2 2 2 2 2 2 2 2 2 2 2 2 2 2 2 2 2 2 2 2 2 2 2 2 2 2 2 2 2 2 2 2 2 2 2 2 2 2 2 2 2 2 2 2 2 2 2 2 2 2 2 2 2 2 2 2 2 2 2 2 2 2 2 2 2 2 2 2 2 2 2 2 2 2 2 2 2 2 2 2 2 2 2 2 2 2 2 2 2 2 2 2 2 2 2 2 2 2 2 2 2 2 2 2 2 2 2 2 2 2 2 2 2 2 2 2 2 2 2 2 2 2 2 2 2 2 2 2 2 2 2 2 2 2 2 2 2 2 2 2 2 2 2 2 2 2 2 2 2 2 2 2 ",
"f f f f f f f f f f f f f f f f f f f f f f f f f f f f f f f f f f f f f f f f f f f f f f f f f f f f f f f f f f f f f f f f f f f f f f f f f f f f f f f f f f f f f f f f f f f f f f f f f f f f f f f f f f f f f f f f f f f f f f f f f f f f f f f f f f f 2 2 f f f f f f f f f f f f f f f f f f f f f f f f f f f f f f f f f f f f f f f f f f f f f f f f f f f f f f f f f f f f f f f f f f f f f f f f f f f f f f f f f f f f f f f f f f f f f 2 2 f f f f f f f f f f f f f f f f f f f f f f f f f f f f ",
"g g f f f f f f f f x x x g f g f f f f f f f f f f f g g f f f f f f f f g x x g f f f f f f f f f f g f f f f f f f f f f f f f x x x f f f f f f f f f f f f f f f f f f f g f f f f f f f f f f f f f f f g g f f f g f f g f f f f f f f f f f f f f f f f f g f 2 2 f f f f f f f g x g f f f f f f f f f f f f f f f f f f f f f f f g x x g f f f f f f f f f f f f f f f f f f f f f f f f f f f f f f x g f g x f f f f f f f f f f f f f f f f f f f g f 2 2 f g f f f f f f x x x f f f f f f f f f f f f f f f f f ",
"f g g f f f f f f g d 2 2 d x x g c f f f f x x g f g g f g f f f f f f g f 2 2 f x x f g x f f x x f f c g g x g f f f f f f f g d 2 w g x g f x g f g x g f f g x f g g g g f g f f f f f f f f f f f f f g f d f x c f x g f g g x g g x g f f f f f f f f f f g f 2 2 f f f f f f g d 2 d g x g g g f g g x g g x g x x f f f f f f f g f 2 2 f g x g g x f f f g x f f x x f f g x g g f g g f f f f f f g w d x d w g x g f f g g x x g g f g g x x f f f g f 2 2 f f f f f f f g w 2 w g g x x g g g f f f f f f f f f f ",
"c d f g f f f f g d z.A.A.l.2 2 c N V.z.w x w 2 d f d f x d g f f f f g f c Z.A.&.2 2 g w d L.f w w g f -.c 2 2 f g f f f f f g d z.H.v.f 2 d x @ v.v.2 2 f g g d 2 g d f f d c w g f f f f f f f f f f f g f N -.d v =.w 2 d x d f 2 f d 2 d g f f f f f f f f f g f 2 2 f f f f f g d -.F.=.d 2 f f d f d f 2 d f 2 f w w g f f f f f g d &.F.N.g d w f w 2 g f g w f L.d w % x.V.% 2 d d g d f g f f f f g d z.-.2 *.c.d 2 % N.v.% g w w f d f d f 2 w g f f g f 2 2 f f f f f f g f c.F.x.d d w w f f d g f f f f f f f f f ",
"*XH.f f g f f f g f m *X*Xv c.N.c m Z.v.2 f c.v.-.g *.z.4X=.f g f f f g w 5.>XN v x.N.f -.C.>Xd v.z.d f =.v z.V.N f g f f f f x 2 =Xv.m N C.=.f c.=Xc.c Z.v f f 5.V.f -.c N -.3Xc.f g f f f f f f f f f f x 2 x.L.2 m &.N V.c.4X-.N C.c -.V.5.d g f f f f f f f f g f 2 2 f f f f g f N >X5.&.v Z.N v =.x -.N v.&.N Z.v c.x.d g f f f f x 2 Z.A.F.C.&.v.c z.v.f g d -.C.>Xw N.-.x.Z.c Z.=.-.f -.c f g f f f x % 3X,X@ L.gXx Z.&.V.v.*.v x.c.c =.x -.N v.c.f f f g f 2 2 f f f f f f g d 2Xx.*XN.N c.c.c m -.f g f f f f f f f f ",
"P.A.f f f f f f f x 2 v.v.% 5.*XZ.H.V.v.$ c.=X-.>Xg L.N.3XN f g f f f g d -.,Xz.v -.*XV.P.Z.>Xx.P.=Xz.2 =Xx.3XV.P.2 x f f f f x 2 P.F.*.m V.P.A.A.>Xv.H.H.*Xw -.*XA.V.J.*.V.C.2X5.f g f f f f f f f f f f g w z.H.% z.L.L.A.-.4X-.*XH.H.3XV.>Xc f g f f f f f f f g f 2 2 f f f f g f x >XV.d P.V.L.v.F.m L.F.=Xm :Xx.V.L.=Xz.w g f f f x 2 N.P.L.z.3XN.l.*XP.N.w N -XZ.>Xx.P.L.L.N.x Z.=X=X&.:Xc f g f f f x w H.>XN P.*Xc N.*XC.*XC.x.P.L.P.F.m P.F.P.P.x.w g g f 2 2 f f f f f f g f *Xf &.L.,XZ.C.N.V.V.2 x f f f f f f f f ",
"Z.N w g f f f f f g w V.N.c A.>XH.Z.V.v.@ H.5.. :X2 H.x.F.$ x f f f f g d -.,Xz.-.Z.:X>XZ.% P.H.>XJ.z.2 L.c.A.d =Xd g f f f f x 2 P.F.*.c.J.>X>Xf c.A.3XF.L.2 N.N.2 *XH.m N.v.H.2 g f f f f f f f f f f f g w z.A.. 5.H.m H.x.F.c zXA.F.*X2 P.&.d g f f f f f f f g f 2 2 f f f f f g f w F.=XP.. L.Z.V.c H.A.=.N P.& H.>XH.z.w g f f f x 2 N.=X&.d =X2 N.3XA.L.A.N.A.2 P.H.>XA.L.V.z.P.*XN.*XV.2 x f f f f x w F.A.L.Z.H.z.H.>XZ.cX-.N.3XZ.P.V.x H.A.N 5.F.2 x g f 2 2 f f f f f f g f *Xd =.P.L.c x P.P.m f g f f f f f f f f ",
"V.L.f f f f f f f x 2 C.N.5.>XL.L.F.Z.v.$ c.>X-.*XZ.4X-.,X=.f g f f f g w z.L.. c.>XL.H.P.F.,Xz.*Xz.v w *Xv.H.c >Xd g f f f f x 2 *XN % >XH.=XF.F.2Xv.H.C.=.d =.=XH.N.V.H.3Xx.*Xc.d g f f f f f f f f f f g w z.4Xz.M.L.N L.L.=Xz.P.N.&.>Xf =X&.d g f f f f f f f g f 2 2 f f f f g f v c.Z.A.J.F.L.-.=XL.P.F.z.f >Xv.N.P.z.c f g f f f x 2 C.v.% g >Xf -.=Xx.m d m =XA.,Xz.*X-.N.H.*XH.:Xm zX=.d g f f f f x 2 L.5.zX5.P.*XL.*XL.Z.L.v.*Xz.-.=XH.*XZ.=X*Xz.w g g f 2 2 f f f f f f g d 3XV.:Xz.P.&.2 L.>X2 x f f f f f f f f f ",
"c v.x f g f f f f g f N N f c.z.N &.N m f f x.x.m v.5.g 5.-.d g f f f g f v *.f g x.z.c *.v.=.d z.N.c f *.m &.g =.f g f f f f g f *.v f N v.*.x c.z.c v V.-.f d -.v.f c v.z.c *.z.f g f f f f f f f f f f g f c N.V.=.N 5.N.g -.-.v V.=.*.f =.c f f f f f f f f f g f 2 2 f f f f g f x v.v.f v N.N d z.v.N &.v d &.V.c z.N.c f g f f f g f N N f f =.x d -.V.m f d =.v.=.d x.v.&.m &.v.N m :Xg f g f f f f g f *.c *.c &.m v.*.&.v &.m -.V.c 5.v.c F.H.-.f g f g f 2 2 f f f f f f g f 5.V.-.w =.c 2 F.v.2 x f f f f f f f f f ",
"f 2 f g f f f f f f g f f g 2 w f d f f g g w w f 2 d f w d g f f f f f g f d g f w w f d 2 d g w 2 f g d f d f d g f f f f f f g d f g d 2 d f w w f f 2 d g g d 2 g f 2 w f d w g f f f f f f f f f f f f g f 2 2 d f d 2 f d d f 2 d d f d f g f f f f f f f f g f 2 2 f f f f f f f 2 2 f f 2 f g w 2 f d f g d 2 f w 2 f g f f f f f g f f g f d f g d 2 f g g d 2 d g w 2 d f d 2 f P.c.w x f f f f f f g d f d f d f 2 d d f d f d 2 f d w 2 C.*.% x f f g f 2 2 f f f f f f f g w 2 d x d w z.*Xg f g f f f f f f f f f ",
"f x f f f f f f f f f g g f x g g g g g f f g g g x g f g g f f f f f f f f g f f x g f g x g f g x f f g g g f g f f f f f f f f g f f g x g f x g f g x g f f g x f f x g f g g f f f f f f f f f f f f f f f x x g g g x f g g g x g g f g f f f f f f f f f f g f 2 2 f f f f f f f x x f g x g f g x g g g f g x f g x f f f f f f f f g g f f g f f g x f f f g x g f g x g g g x g x d g f f f f f f f f g f g f g g x g g g g g g x f g x g f f x f f f f f 2 2 f f f f f f f f g x g f g f x f f f f f f f f f f f f f ",
"g g g g g g g g g g g g g g g g g g g g g g g g g g g g g g g g g g g g g g g g g g g g g g g g g g g g g g g g g g g g g g g g g g g g g g g g g g g g g g g g g g g g g g g g g g g g g g g g g g g g g g g g g g g g g g g g g g g g g g g g g g g g g g g g g x f 2 2 g g g g g g g g g g g g g g g g g g g g g g g g g g g g g g g g g g g g g g g g g g g g g g g g g g g g g g g g g x g g g g g g g g g g g g g g g g g g g g g g g g g g g g g g g g g g f 2 2 g g g g g g g g g g g g g g f g g g g g g g g g g g g g ",
"d d d d d d d d d d d d d d d d d d d d d d d d d d d d d d d d d d d d d d d d d d d d d d d d d d d d d d d d d d d d d d d d d d d d d d d d d d d d d d d d d d d d d d d d d d d d d d d d d d d d d d d d d d d d d d d d d d d d d d d d d d d d d d d d w d w 2 2 d d d d d d d d d d d d d d d d d d d d d d d d d d d d d d d d d d d d d d d d d d d d d d d d d d d d d d d d d d d d d d d d d d d d d d d d d d d d d d d d d d d d d d d d d d d d w 2 2 w d d d d d d d d d d d d d d d d d d d d d d d d d d d ",
"2 2 2 2 2 2 2 2 2 2 2 2 2 2 2 2 2 2 2 2 2 2 2 2 2 2 2 2 2 2 2 2 2 2 2 2 2 2 2 2 2 2 2 2 2 2 2 2 2 2 2 2 2 2 2 2 2 2 2 2 2 2 2 2 2 2 2 2 2 2 2 2 2 2 2 2 2 2 2 2 2 2 2 2 2 2 2 2 2 2 2 2 2 2 2 2 2 2 2 2 2 2 2 2 2 2 2 2 2 2 2 2 2 2 2 2 2 2 2 2 2 2 2 2 2 2 2 2 2 2 2 2 2 2 2 2 2 2 2 2 2 2 2 2 2 2 2 2 2 2 2 2 2 2 2 2 2 2 2 2 2 2 2 2 2 2 2 2 2 2 2 2 2 2 2 2 2 2 2 2 2 2 2 2 2 2 2 2 2 2 2 2 2 2 2 2 2 2 2 2 2 2 2 2 2 2 2 2 2 2 2 2 2 2 2 2 2 2 2 2 2 2 2 2 2 2 2 2 2 2 2 2 2 2 2 2 2 2 2 2 2 2 2 2 2 2 2 2 2 2 2 2 2 2 2 2 ",
"d d d d d d d d d d d d d d d d d d d d d d d d d d d d d d d d d d d d d d d d d d d d d d d d d d d d d d d d d d d d d d d d d d d d d d d d d d d d d d d d d d d d d d d d d d d d d d d d d d d d d d d d d d d d d d d d d d d d d d d d d d d d d d d d d d w 2 2 d d d d d d d d d d d d d d d d d d d d d d d d d d d d d d d d d d d d d d d d d d d d d d d d d d d d d d d d d d d d d d d d d d d d d d d d d d d d d d d d d d d d d d d d d d d d w 2 2 d d d d d d d d d d d d d d d d d d d d d d d d d d d d ",
"g g g g g g g g g g g g g g g x g f f f f f g x g g g g g g g g g g g g g g g g g g g x f f f f f f x x g g g g g g g g g g g g g g g g g g g g x g f f f f f g x x g g g g g g g g g g g g g g g g g g g g g g g g g g g g g g g g g g g g g g g g g g g g g g g x f 2 2 g g g g g g g g g g g g g g g g g g g g g g g g g g g g g g g g g g g g g g g g g g g g x i i x g g g g g g g g g g g g g g g g g g g g g g g g g g g f t t t t g g g g g g g g g g g g f 2 2 g g g g g g g g g g z z z z x g g g g g g g g g g g g g ",
"f f f f f f f f f f f f f f f f f b n @.@.M f f f g f f f f f f f f f f f f f f f g f d x @.3.3.$.b f f g f f f f f f f f f f f f f f f f f f g f f M @.3.3.@.x d f g f f f f f f f f f f f f f f f f f f f f f f f f f f f f f f f f f f f f f f f f f f f f f f g f 2 2 f f f f f f f f f f f f f f f f f f f f f f f f f f f f f f f f f f f f f f f f f f f j k D D D j f f f f f f f f f f f f f f f f f f f f f f f g r f D F G G D g r f g f f f f f f f f f 2 2 f f f f f f g f i j V < < < h f z f f f f f f f f f f f ",
"f f f f f f f f f f f f g f f n 0.t.y.s.s.y.0.$.x f g f f f f f f f f f f f f f g f x >.f.g.oXoXOXg.r.@.f f g f f f f f f f f f f f f f f g f f n t.g.g.oXoXg.f.>.b f g f f f f f f f f f f f f f f f f f f f f f f f f f f f f f f f f f f f f f f f f f f f f f g f 2 2 f f f f f f f f f f f f f f f f f f f f f f f f f f f f f f f f f f f f f f f f f j F S R.T.T.T.S A k t f f f f f f f f f f f f f f f f f f g f r D Q./.(.).(./.~.W.k t g f f f f f f g f 2 2 f f f f f g z g { O. XO.] ' ] ( < f f f f f f f f f f f ",
"f f f f f f f f f f f g f x 7.y.s.t.,.>.>.1.y.s.0.M f g f f f f f f f f f f f g f @.f.oXg.f.t.r.u.g.oXg.1.f f g f f f f f f f f f f f f g f f 1.g.oXg.d.r.r.s.g.oXf.@.f g f f f f f f f f f f f f f f f f f f f f f f f f f f f f f f f f f f f f f f f f f f f f g f 2 2 f f f g g g g g g g g g g g g g g g g g g g g g g g g g g g f f f f f f f f f f D S T.R.S A A A R.T.R.F f f f f f f f f f f f f f f f f f g f g W./.(./.Q.Q.Q.Q.(.(.~.F t g f f f f f g f 2 2 f f f f g z V O.|.|. X' ( ( ) ' ] [ j f f f f f f f f f ",
"f f f f f f f f f f f f x 0.y.t.+.r 2 % 2 2 u ,.y.t.n f g f f f f f f f f f g f $.g.OXd.a w 2 % 2 t >.g.oX1.f f f f f f f f f f f f f f f f r.oXg.2.u 2 % % 2 a u.OXg.$.f g f f f f f f f f f f f f f f f f f f f f f f f f f f f f f f f f f f f f f f f f f f f g f 2 2 f f f f d f d d d d d d d d d d d d f d f f d f d d d f d f g f f f f f f f f D R.T.A 0 5 1 1 2 7 F R.T.F f f f f f f f f f f f f f f f f f f Q.(./.W.k 2 1 1 5 D Q.(./.F t g f f f f g f 2 2 f f f g z V  X|.O.[ > @ $ 2 > < ) ' ( g f f f f f f f f ",
"f f f f f f f f f f g f 7.y.1.u # 2 2 2 2 2 % 2 <.y.r.x f g f f f f f f f g f M g.g.2.2 # 2 2 2 2 % # a f.oX>.f g f f f f f f f f f f g d >.oXf.+.# % 2 2 2 2 # 2 >.OXg.n f g f f f f f f f f f f f f f f f f f f f f f f f f f f f f f f f f f f f f f f f f f f g f 2 2 f f f 2 2 2 2 2 2 2 2 2 2 2 2 2 2 2 2 2 2 2 2 2 2 2 2 2 2 d g f f f f f f f k R.R.Z 2 1 2 2 2 2 1 1 H R.T.D t g f f f f f f f f f f f f g t G (.~.F 1 1 2 2 2 2 1 2 W.(./.k r g f f f g f 2 2 f f f f h O.|.O.> 4 2 2XH.$ 2 3 > ( ' [ z f f f f f f f ",
"g f f f f f f f f g f M t.y.u # 2 2 2 2 2 2 2 2 2 ,.s.7.f g f f f f f f f g f 1.oXu.2 2 2 2 2 2 2 2 2 # +.g.g.n f g f f f f f f f f g f b f.g.+.# 2 2 2 2 2 2 2 2 % 2.oXt.f g f f f f f f f f f f f f f f f f f f f f f f f f f f f f f f f f f f f f f f f f f f g f 2 2 f f f 2 2 2 2 2 $ 2 2 2 2 % 2 2 2 2 2 2 w 2 2 2 2 % 2 2 2 d g f f f f f f f A T.A 1 2 2 2 2 2 2 2 2 1 Z T.S j f f f f f f f f f f f f g f k ~.(.F 1 2 2 2 2 2 2 2 2 1 Q.(.Q.r g f f f g f 2 2 f f g i { |.O.d 3 2 2 cXzX$ 2 2 3 > ) ] < z f f f f f f ",
"g f f f f f f f f g f 7.s.:.% 2 2 2 2 2 2 2 2 2 % u y.r.x f g f f f f f g f M g.g.u % 2 2 2 2 2 2 2 2 2 % r.oX,.f g f f f f f f f f g d >.oXu.2 2 2 2 2 2 2 2 2 2 % u g.g.n f g f f f f f f f f f f f f f f f f f f f f f f f f f f f f f f f f f f f f f f f f f g f 2 2 f f f 2 $ @ @ 2 v 2 2 2 2 x w 2 2 % 2 2 w 2 2 2 2 m % 2 2 d g f f f f f f k R.S 7 1 2 2 2 2 2 2 2 2 2 2 A T.F t g f f f f f f f f f f g t W.(.Q.1 2 2 2 2 2 2 2 2 5 1 k /./.D r g f f g f 2 2 f g f g O.|.[ 4 2 2 @ gXcX2 2 2 2 3 : ' ( f f f f f f g ",
"g f f f f f f f f f g 0.y.u % 2 2 2 2 2 2 2 2 2 2 2 1.y.%.f g f f f f f g f $.OXu.2 2 2 2 2 2 2 2 2 2 2 # +.oXd.g f f f f f f f f f g f t.oX+.# 2 2 2 2 2 2 2 2 2 2 2 u.oX3.f g f f f f f f f f f f f f f f f f f f f f f f f f f f f f f f f f f f f f f f f f f g f 2 2 f f g @ 5.:XZ.f c 2 @ @ O P.d O 2 v $ 2 w 2 2 $ M.xXm $ 2 d g f f f f g f D T.A 1 2 2 2 2 2 2 2 2 2 2 1 Z T.A f f f f f f f f f f f f f f Q.(.G 1 2 2 2 2 2 2 @ O O O 1 Q.(.G t g f f g f 2 2 f g z V  X^.d 2 2 2 O -XbX2 2 2 2 3 > ] ) h f f f f f g ",
"f f f f f f f f g f b t.r.r 2 2 2 @ $ 2 2 2 2 2 2 % :.s.@.f g f f f f f g d >.oX>.# 2 2 2 2 2 2 2 2 2 2 % u g.f.x f g f f f f f f f f x f.g.u % 2 2 2 2 2 2 2 2 2 2 # <.oX,.d g f f f f f f g g g g g g g g g g g g g g g g g f f g g g g g g g g g g g g g g g g g f 2 2 f f x O A.=.N.V.-.d Z.H.N H.P.v.*.zX-.$ d w % z 5X4XG.2 2 d g f f f f g t F E.Z 1 2 2 2 @ 2 2 2 2 2 2 1 0 T.S f f f f f f f f f f f g f j ~./.k 1 2 2 2 2 2 2 B.J.;X*X1 S (.W.t g f f g f 2 2 f g i [ |.o.2 2 2 2 % v &.2 2 2 2 2 2 ) ] h z f f f f x ",
"f f f f f f f f g f b t.r.w % O 2 Z.w.@ 2 2 2 2 2 # +.s.3.f g f f f f f g d ,.oX:.# 2 2 2 2 @ 2 2 2 2 2 2 r g.g.b f g f f f f f f f f x f.g.t % 2 2 % % $ 2 2 2 2 2 # :.oX1.d g f f f f f f f f f f f f f f f f f f f f f f f g f f f f f f f f f f f f f f f f f f f 2 2 f f x O N.3XP.v L.v.v.C.V.H.-.H.5.L.2 2 w 2 2 w z w x 2 2 d g f f f f g t A E.H 1 2 % 2 -.2 2 2 2 2 2 1 7 R.S g f f f f f f f f f f g f j ~./.k 1 2 2 2 2 2 d xXnXnXbXr Z !.A i g f f g f 2 2 f g i [ |.| 3 2 2 2 2 % $ 2 2 2 2 2 2 ( ] h z f f f f x ",
"f f f f f f f f g f b t.t.r d B.cXmX3X@ 2 2 2 2 2 % :.s.$.f g f f f f f g d >.oX>.% 2 2 O C.J.2 2 2 2 2 % u g.f.x f g f f f f f f f f x f.g.p % 2 $ m zX-.$ 2 2 2 2 # <.oX1.d g f f f f f g m N N N N N N N N N N N N N N N c f x N N N N N N N N N N N N N N N N x f 2 2 f f x O V.N.L.c F.Z.&.&.N.F.2 C.z.F.O 2 w w % f 1XxXG.2 2 d g f f f f g t F T.Z 1 $ d 1XmX5.@ 2 2 2 2 1 0 T.S f f f f f f f f f f f g f j ~./.D 1 2 2 2 2 2 2 v v x d 1 Z T.F i g f f g f 2 2 f g i [ |.O.2 2 2 2 2 2 2 2 2 2 2 2 2 ( ] h z f f f f x ",
"g f f f f f f f f f g 0.y.u g nXbXN.d 2 2 2 2 2 2 2 ,.y.n f g f f f f f g f 3.OXs.2 2 $ v nXxX2 2 2 2 2 # +.OXt.f g f f f f f f f f f f t.oX:.# 2 2 xXnX-.$ 2 2 2 2 2 u.OX$.f g f f f f f x *.N m m m m m m m m m m m N m &.N d v *.m N m m m m m m m m m m N m *.c d 2 2 f f x O V.&.5.A.Z.N J.>XM.Z.d C.*.*Xw.@ d 2 2 @ w.6Xx % 2 d g f f f f g f D T.A @ 5.bXmX;Xw 2 2 2 2 2 1 Z T.F f f f f f f f f f f f f f f Q.(.G 1 2 2 2 2 2 2 $ $ % % 2 A T.D f f f f g f 2 2 f g z V  X X> 3 2 2 2 2 2 2 2 2 2 3 > ] ( g f f f f f x ",
"g f f f f f f f f g f 3.j.a.# *.f O 2 2 2 2 2 2 % a y.p.x f f f f f f f g f x f.g.a # w zXnXN @ 2 2 2 2 2 u.oX>.d g f f f f f f f f g d 3.oXd.2 $ 3XmXv.O 2 2 2 2 % p g.g.b f g f f f f f x &.f f f f f f f f f f f f f d v N d v N d f f f f f f f f f f f f d N c d 2 2 f f f 2 2 2 2 d w w N H.v.$ 2 w 2 d x % w 2 2 2 2 x % 2 2 d g f f f f f f j R.R.* &.xXw.@ 2 2 2 2 2 2 5 S T.D i g f f f f f f f f f f g t G (.Q.2 2 2 2 2 2 2 2 2 2 1 0 R.S j f f f f g f 2 2 f f f f O.|.[ 4 2 2 2 2 2 2 2 2 2 2 : ' [ z f f f f f f ",
"f f f f f f f f f g f M wXyX0.X 2 2 2 2 2 2 2 % w 1.y.3.f g f f f f f f f g f 1.oXs.1 f xXJ.O 2 2 2 2 # :.OXf.b f g f f f f f f f f g f b f.OX<.+ F.;XO 2 2 2 2 % 2 d.oX1.f g f f f f f f x &.x f g g g g g g g g g g g f m N d v N f g g g g g g g g g g g g f &.c d 2 2 f f f 2 2 2 2 2 $ x F.V.d % 2 2 2 2 % 2 w 2 2 2 2 % 2 2 2 d g f f f f f f f A E.W.% 1 $ 2 2 2 2 2 2 1 Z T.S j f f f f f f f f f f f f g f k ~.(.G 1 2 2 2 2 2 2 2 1 2 A T.F f f f f f g f 2 2 f f g i { |.^.> 4 2 2 2 2 2 2 2 3 > ] ] V z f f f f f f ",
"f f f f f f f f f f g d a.aXrXq.2 2 2 2 2 2 2 t ,.y.0.x f f f f f f f f f g f x f.oXt.t 2 w 2 2 2 2 2 :.g.g.3.f g f f f f f f f f f f g f 3.g.g.>.1 $ 2 2 2 2 2 r u.OXf.b f g f f f f f f x &.g f f f f g g f f f f f g f m N d v N f g f f g g g g g g f f g f &.c d 2 2 f f f 2 2 2 2 2 2 2 O O 2 2 2 2 2 2 2 2 w 2 2 2 2 2 2 2 2 d g f f f f f g f j Q.(.W.7 2 2 2 2 2 2 2 Z R.R.D f g f f f f f f f f f f f f g t G (./.G 2 2 2 2 2 2 2 7 A T.S j f f f f f g f 2 2 f f f f f O.|.O.< 2 2 2 2 2 2 2 > ) ] : z f f f f f f f ",
"f f f f f f f f f f g f f j.aXyX%.2 2 2 2 2 5 8.s.p.b f g f f f f f f f f f g f n s.sX0X2 2 2 2 2 2 n g.g.1.f g f f f f f f f f f f f f g f >.0XkXe.# 2 2 2 2 5 1.oXf.@.f g f f f f f f f x &.g f f f f d d x g f f f g f m N d v N f g f g f d d d d f g f g f &.c d 2 2 f f f f f f f f f f g g f f f f f f f f f f f f f f f f f f f f f f f f f g t F ~.).W.1 2 2 2 2 2 k T.R.F f f f f f f f f f f f f f f f f g r G (.(.F 1 2 2 2 2 r F E.S k f f f f f f g f 2 2 f f f g f h O.|.O.d 2 2 2 2 2 d ) ' ( g f f f f f f f f ",
"f f f f f f f f f f f g f d k.j.f g f f f f f n 0.b f g f f f f f f f f f f f g f n uX9.d g f f f g f 1.,.f f g f f f f f f f f f f f f f g 5 j.0Xg f f f f f f n d.@.f g f f f f f f f f x &.g f g f m &X;.w f g f f g f m N d v N f g x d C.6X1X1X6XN.w x g f &.c d 2 2 f f f g g g g g g g g g g g g g g g g g g g g g g g g g g g f f f f f f f f g r D Q.D t f f f f g g A F f f f f f f f f f f f f f f f f f f g t G Q.g f f f f f f k A k f f f f f f f g f 2 2 f f f f g f h O.[ z f f f f f z < [ g f f f f f f f f f ",
"f f f f f f f f f f f f g f f f f f g g g f f f f f g f f f f f f f f f f f f f g f f f f f g g g f f f f f g f f f f f f f f f f f f f f f g f f f g g g g f f f f f g f f f f f f f f f x &.g f g d &.hXxXG.m d g f g f m N d v N f g x 2 &XbXxXxXbXG.2 x g f &.c d 2 2 f f f f f f f f f f f f f f f f f f f f f f f f f f f f f f f f f f f f f f f g r f f f f g g g f f f f f f f f f f f f f f f f f f f f f f f f r f f f g g g f f f f f f f f f f f f g f 2 2 f f f f f g f f f f f g g g f f f f f f f f f f f f f f ",
"f f f f f f f f f f f f f g g f g f f f f f f f f g f f f f f f f f f f f f f f f g f g f f f f f f f f g f f f f f f f f f f f f f f f f f f g f g f f f f f f f f g f f f f f f f f f f x &.g f g f &.gXxXxXxXx.d g g f m N d v N f g x w J.xXhXhXxXG.2 x g f &.c d 2 2 f f f f f f f f f f f f f f f f f f f f f f f f f f f f f f f f f f f f f f f f g f f f f f f f f f f f f f f f f f f f f f f f f f f f f f f f g f f f f f f f f f f f f f f f f f f g f 2 2 f f f f f f g g f f f f f f f f f f f f f f f f f f f f ",
"f f f f f f f f f f f f f f f g f f f f f f f f f f f f f f f f f f f f f f f f f f g f f f f f f f f f f f f f f f f f f f f f f f f f f f f f g f f f f f f f f f f f f f f f f f f f f x &.g f g f &.gXxXhXJ.N f g g f m N d v N f g x w J.xXhXhXxXG.2 x g f &.c d 2 2 f f f f f f f f f f f f f f f f f f f f f f f f f f f f f f f f f f f f f f f f f f f f f f f f f f f f f f f f f f f f f f f f f f f f f f f f f f f f f f f f f f f f f f f f f f f g f 2 2 f f f f f f f f f f f f f f f f f f f f f f f f f f f f ",
"f f f f f f f f f f f f f f g x f g x f g x f f g g f f f f f f f f f f f f f f f f f g x f g x g f g g f f f f f f f f f f f f f f f f f f f f g x x g x x g x x g f f f f f f f f f f f x &.g f g d &.gX-X*.w f g f g f m N d v N f g x 2 ;XbXxXxXbXJ.2 x g f &.c d 2 2 f f f f f f f f f f f f f f f f f f f f f f f f f f f f f f f f f f f f f f f f f g x g f f x x g g x g f f f f f f f f f f f f f f f f f f f f x g f g x f f g x g g x x g f f f f f g f 2 2 f f f f f f f g x g g x g f f x x g f x g f f f f f f f ",
"f f f f f f f f f f f f f g w w x d w g d 2 f g d d g f f f f f f f f f f f f f f f g d w g w 2 f x d d g f f f f f f f f f f f f f f f f f f g f 2 d f w w f w w f f f f f f f f f f f f x &.g f g f c -.f d x g f f g f m N d v N f g g f ;.M.c.c.M.*.f g g f &.c d 2 2 f f f f f f f f f f f f f f f f f f f f f f f f f f f f f f f f f f f f f f f f g d w d g f w 2 f d 2 f g f f f f f f f f f f f f f f f f f g f 2 f g f 2 f g d 2 d d w 2 f g f f f f g f 2 2 f f f f f f f w 2 f d 2 d g f w w f x w d g f f f f f f ",
"f f f f f f f f f f f f g d c.C.2 z.A.w =.H.g w x.v.w g f f f f f f f f f f f f f g d z.Z.w V.*X&.2 c.v.w g f f f f f f f f f f f f f f f f g d *.*XN.c H.A.c A.H.x f g f f f f f f f f f x &.g f f g f d g g f f f f g f m N d v N f g f g d w w w w d g f g f &.c d 2 2 f f f f f f f f f f f f f f f f f f f f f f f f f f f f f f f f f f f f f f f g d -.P.c.d x A.P.m z.=X*.d g f f f f f f f f f f f f f f f g f x H.*.w v F.g d 5.=X-.N.P.*Xm f g f f f g f 2 2 f f f f g g f C.*X&.x.=X-.d c F.L.v 2 V.-.d g f f f f f ",
"f f f f f f f f f f f g f g L.>X2 A.3X2 N.dXf f 4XL.2 x f f f f f f f f f f f f f f f F.2Xd -.v.L.d dXH.2 x f f f f f f f f f f f f f f f f g f *.*.L.P.C.C.:Xv.N.V.2 x f f f f f f f f f x &.x f f f g g f f f f f f g f m N d v N f g f f g x x x x g f f g f &.c d 2 2 f f f f f f f f f f f f f f f f f f f f f f f f f f f f f f f f f f f f f f f x w *Xx.*Xc c N v.P.L.x.L.f g f f f f f f f f f f f f f f f g f &.dXz.% A.zXf c *X-.*Xm &.,Xc f g f f f g f 2 2 f f f f f d x N z.P.&.z.=Xf v *.Z.V.c zXv.2 x f f f f f ",
"f f f f f f f f f f f f g d m L.w x P.f d *Xf v.V.V.2 x f f f f f f f f f f f f f f f c P.f % C.N.x.C.V.2 x f f f f f f f f f f f f f f f f f g d c *X*.dX=XN.A.V.L.2 x f f f f f f f f f x &.g f f f f f f f f f f f f f m N d v N f f f f f f f f f f f f f f &.c d 2 2 f f f f f f f f f f f f f f f f f f f f f f f f f f f f f f f f f f f f f f f x w v.zXA.d f -.3XZ.A.d =Xc f f f f f f f f f f f f f f f f f x 2 C.z.&.V.H.f c =X5.2Xf x.Z.2 x f f f f g f 2 2 f f f f x *.x &.3Xv.O x.H.w g % L.x.v.Z.z.w x f f f f f ",
"f f f f f f f f f f f f g d &.P.2 v =Xf g *X&.3X:X4Xd g f f f f f f f f f f f f f f f m =X2 5.A.v 4X:X3Xd g f f f f f f f f f f f f f f f f g f f H.N v.v.V.N.z.,XN.w x f f f f f f f f f x &.x g g g g g g g g g g g g f m N d v N f g g g g g g g g g g g g f &.c d 2 2 f f f f f f f f f f f f f x g f f f g g f f f f f f f f f f f f f f f f f f g f f L.*.P.N f f z.,XH.g =Xx f f f f f f f f f f f f f f f f f x 2 F.z.P.=XzXl.w =.H.>Xf *X*.d g f f f f g f 2 2 f f g f N H.*.w z.L.N L.d f w v.v.-.3X3XP.2 x f f f f f ",
"f f f f f f f f f f f f g d N P.2 v *Xf f *Xv N C.*Xw x f f f f f f f f f f f f f f f v P.x zXP.v.N Z.P.w x f f f f f f f f f f f f f f f f x w F.dXN.Z.L.L.z.v.L.v f g f f f f f f f f f x *.*.&.&.&.&.&.&.&.&.&.&.&.&.&.*.N f c =.&.&.&.&.&.&.&.&.&.&.&.&.&.&.=.c f 2 2 f f f f g g g g g g f f g w f g g x f f c c f g g g x g f f f f f f f f f f f g f H.L.H.A.v.V.P.N.A.>XV.d g f f f f f f f f f f f f f f f f x 2 A.x.v 5.>XV.v.*.L.x.*.P.d g f f f f f g f 2 2 f f f g f 2 c C.L.Z.3X>Xv.A.v.zXF.v.N P.Z.2 x f f f f f ",
"f f f f f f f f f f f f f f x v f g v f f v f d f x f g f f f f f f f f f f f f f f f g c x &.-.*.w f x f g f f f f f f f f f f f f f f f f f f m =.5.x *.&.f 5.v f g f f f f f f f f f f f x x x x x x x x x x x x x x x x g f g x x x x x x x x x x x x x x x x g f 2 2 f f x 7 2.iXqXqXqX+Xd x d z.N f d 2 x d N m w f d f 2 f g f f f f f f f f f f g f x 5.c c v =.=.d x -.f f f f f f f f f f f f f f f f f f f g f c c d d x c c N -.d c c f g f f f f f g f 2 2 f f f f g x x =.-.f N -.=.v m &.5.N 2 g x f f f f f f f ",
"f f f f f f f f f f f f f f f f g f f f f f f g f f g f f f f f f f f f f f f f f f f f f f d w d x f f g f f f f f f f f f f f f f f f f f f g f d w f d d g w f g f f f f f f f f f f f f f f f f f f f f f f f f f f f f f f f f f f f f f f f f f f f f f f f g f 2 2 f f x 7 u.iXqXqXiX7Xd f x zXC.% z.N.P.P.&.5.&.x -.m Z.N d g f f f f f f f f f f g f w f f f d d g f d f f f f f f f f f f f f f f f f f f f f g f f g g f f f f d g f f g f f f f f f g f 2 2 f f f f f f f d d f d d d f f d w d x f f g f f f f f f ",
"f f f f f f f f f f f f f f f g g x g x g g x g f g f f f f f f f f f f f f f f f f f g x g x x g g x g f f f f f f f f f f f f f f f f f f f f g x x g x g f x x f f f f f f f f f f f f f f f f f f f f f f f f f f f f f f f f f f f f f f f f f f f f f f f f g f 2 2 f f x 7 u.iX7X7XqX7Xj w z.J.Z.*.>X-.=XZ.C.P.Z.5.L.H.H.=Xg f f f f f f f f f f f f f x x x x x g g x g f f f f f f f f f f f f f f f f f f f f f g g f x f f d 2 d g f g f f f f f f f g f 2 2 f f f f f f f g g g x f f 2 2 f x g f g g f f f f f f f ",
"f f f f f f f f f f f f f f f f d w d 2 f f 2 d g f f f f f f f f f f f f f f f f f g f w d d w g d 2 f g f f f f f f f f f f f f f f f f f f f f d 2 d 2 f g w w g f f f f f f f f f f f f f f f f f f f f f f f f f f f f f f f f f f f f f f f f f f f f f f f g f 2 2 f f x 7 u.iX7X7XqX7Xj w P.3X3XA.Z.& F.&.v.v.Z.P.z.3XH.L.x f g f f f f f f f f f f g f 2 d w d x d 2 f g f f f f f f f f f f f f f f f f f f f f f f x $ z.c.&.Z.5.d g f f f f f f f f g f 2 2 f f f f f f f f g f 2 F.m v.V.m f g f f f f f f f f f f ",
"f f f f f f f f f f f f f f f x -.x.&.v.c g c.5.f g f f f f f f f f f f f f f f f g f m x.-.5.5.d &.v.v f g f f f f f f f f f f f f f f f f f f f =.c.&.c.m f z.z.f f f f f f f f f f f f f f f f f f f f f f f f f f f f f f f f f f f f f f f f f f f f f f f f g f 2 2 f f x 7 u.iXiXiXiX7X5 &.=Xw c.=X=Xx.A.F.F.x.c.zXw L.Z.-.f g f f f f f f f f f f g f N x.-.z.-.d =.v.c f g f f f f f f f f f f f f f f f f f f f f f g -.P.v.*Xv.=X5.d g f f f f f f f g f 2 2 f f f f f f f g f m x.:Xz.>Xc.=Xf f g f f f f f f f f f ",
"f f f f f f f f f f f f f g f N 4XH.3XH.C.N.>X-.f g f f f f f f f f f f f f f f f x 2 J.*X,XL.=X-.>XV.m f g f f f f f f f f f f f f f f f f f f x 4XF.4XF.F.x.,X5.g f f f f f f f f f f f f f f f f f f f f f f f f f f f f f f f f f f f f f f f f f f f f f f f g f 2 2 f f g f n >.<.<.>.:.f v &.d c &.*.v.v z.=.c c -.d c N.5.f g f f f f f f f f f f x 2 =XL.3XH.=X-.2Xv.c f g f f f f f f f f f f f f f f f f f f f x w v.L.,Xv.L.N.*X*.d g f f f f f f f g f 2 2 f f f f f f f g f *XA.3X-.=Xv.L.d g f f f f f f f f f f ",
"f f f f f f f f f f f f f g d &.L.c L.c L.m H.x.f g f f f f f f f f f f f f f f f x 2 H.&.C.=.N.z.z.F.m f g f f f f f f f f f f f f f f f f f f c *Xf P.g L.m F.v.f f f f f f f f f f f f f f f f f f f f f f f f f f f f f f f f f f f f f f f f f f f f f f f f g f 2 2 f f f g f 7 d d 7 d g f d g f d d 2 f w d f f d g f 2 d g f f f f f f f f f f f x 2 P.v F.N Z.-.v.A.c f g f f f f f f f f f f f f f f f f f f f g w P.v z.N.L.Z.P.5.d g f f f f f f f g f 2 2 f f f f f f g f N =XO P.5.>XN.L.x f g f f f f f f f f f ",
"f f f f f f f f f f f f f g d &.*XN *XN P.v N.2Xf f f f f f f f f f f f f f f f f x 2 L.-.F.5.Z.c.N :XN.2 x f f f f f f f f f f f f f f f f f f c >Xv =Xm *XN x.3Xv f g f f f f f f f f f f f f f f f f f f f f f f f f f f f f f f f f f f f f f f f f f f f f f g f 2 2 f f f f g x x x x g f g g f g g g x g x g g g g f g x g f f f f f f f f f f f f x 2 =X&.L.=.H.z.&.,Xx.w x f f f f f f f f f f f f f f f f f f f x w C.A.:XN.*Xz.P.v.w x f f f f f f f g f 2 2 f f f f f f g f g =Xv.4Xl.>X=.,Xc f g f f f f f f f f f ",
"f f f f f f f f f f f f f f f c -.c -.c -.*.A.*.f g f f f f f f f f f f f f f f f g d -.v =.m *.N v.N.x f g f f f f f f f f f f f f f f f f f f x 5.x 5.c -.N A.-.f g f f f f f f f f f f f f f f f f f f f f f f f f f f f f f f f f f f f f f f f f f f f f f f g f 2 2 f f f f f f f f f f f f f f f f f f f f f f f f f f f f f f f f f f f f f f f f g d 5.c -.v =.N N.v.g f f f f f f f f f f f f f f f f f f f f f g f x N.N.m z.H.v.f g f f f f f f f f g f 2 2 f f f f f f f g d *.C.z.c C.F.*.d g f f f f f f f f f f ",
"f f f f f f f f f f f f f f g f d f d f d d 2 d g f f f f f f f f f f f f f f f f f g d f d f d f w 2 f f f f f f f f f f f f f f f f f f f f f f d f d f d f 2 d g f f f f f f f f f f f f f f f f f f f f f f f f f f f f f f f f f f f f f f f f f f f f f f f g f 2 2 f f f f f f f f f f f f f f f f f f f f f f f f f f f f f f f f f f f f f f f f f g d f d f d f 2 2 f f f f f f f f f f f f f f f f f f f f f f f f f 2 2 f d 2 w g f f f f f f f f f g f 2 2 f f f f f f f f g d 2 w f 2 2 d g f f f f f f f f f f f ",
"f f f f f f f f f f f f f f f f g f g f g g x g f f f f f f f f f f f f f f f f f f f g f g g g g x x f f f f f f f f f f f f f f f f f f f f f f g f g f g g x g f f f f f f f f f f f f f f f f f f f f f f f f f f f f f f f f f f f f f f f f f f f f f f f f g f 2 2 f f f f f f f f f f f f f f f f f f f f f f f f f f f f f f f f f f f f f f f f f f g f g f g g x x f f f f f f f f f f f f f f f f f f f f f f f f f x x g g x x f f f f f f f f f f f f 2 2 f f f f f f f f f g x g f x x g f f f f f f f f f f f f ",
"g g g g g g g g g g g g g g g g g g g g g g g g g g g g g g g g g g g g g g g g g g g g g g g g g g g g g g g g g g g g g g g g g g g g g g g g g g g g g g g g g g g g g g g g g g g g g g g g g g g g g g g g g g g g g g g g g g g g g g g g g g g g g g g g g x f 2 2 g g g g g g g g g g g g g g g g g g g g g g g g g g g g g g g g g g g g g g g g g g g g g g g g g g g g g g g g g g g g g g g g g g g g g g g g g g g g g g g g g g g g g g g g g g g g f 2 2 g g g g g g g g g g g g g g g g g g g g g g g g g g g g ",
"d d d d d d d d d d d d d d d d d d d d d d d d d d d d d d d d d d d d d d d d d d d d d d d d d d d d d d d d d d d d d d d d d d d d d d d d d d d d d d d d d d d d d d d d d d d d d d d d d d d d d d d d d d d d d d d d d d d d d d d d d d d d d d d d d d d 2 2 d d d d d d d d d d d d d d d d d d d d d d d d d d d d d d d d d d d d d d d d d d d d d d d d d d d d d d d d d d d d d d d d d d d d d d d d d d d d d d d d d d d d d d d d d d d d d 2 2 d d d d d d d d d d d d d d d d d d d d d d d d d d d d ",
"2 2 2 2 2 2 2 2 2 2 2 2 2 2 2 2 2 2 2 2 2 2 2 2 2 2 2 2 2 2 2 2 2 2 2 2 2 2 2 2 2 2 2 2 2 2 2 2 2 2 2 2 2 2 2 2 2 2 2 2 2 2 2 2 2 2 2 2 2 2 2 2 2 2 2 2 2 2 2 2 2 2 2 2 2 2 2 2 2 2 2 2 2 2 2 2 2 2 2 2 2 2 2 2 2 2 2 2 2 2 2 2 2 2 2 2 2 2 2 2 2 2 2 2 2 2 2 2 2 2 2 2 2 2 2 2 2 2 2 2 2 2 2 2 2 2 2 2 2 2 2 2 2 2 2 2 2 2 2 2 2 2 2 2 2 2 2 2 2 2 2 2 2 2 2 2 2 2 2 2 2 2 2 2 2 2 2 2 2 2 2 2 2 2 2 2 2 2 2 2 2 2 2 2 2 2 2 2 2 2 2 2 2 2 2 2 2 2 2 2 2 2 2 2 2 2 2 2 2 2 2 2 2 2 2 2 2 2 2 2 2 2 2 2 2 2 2 2 2 2 2 2 2 2 2 2 ",
"w w w w w w w w w w w w w w w w w w w w w w w w w w w w w w w w w w w w w w w w w w w w w w w w w w w w w w w w w w w w w w w w w w w w w w w w w w w w w w w w w w w w w w w w w w w w w w w w w w w w w w w w w w w w w w w w w w w w w w w w w w w w w w w w w w w w w w w w w w w w w w w w w w w w w w w w w w w w w w w w w w w w w w w w w w w w w w w w w w w w w w w w w w w w w w w w w w w w w w w w w w w w w w w w w w w w w w w w w w w w w w w w w w w w w w w w w w w w w w w w w w w w w w w w w w w w w w w w ",
"g g g g g g g g g g g g g g g g g g g g g g g g g g g g g g g g g g g g g g g g g g g g g g g g g g g g g g g g g g g g g g g g g g g g g g g g g g g g g g g g g g g g g g g g g g g g g g g g g g g g g g g g g g g g g g g g g g g g g g g g g g g g g g g g g g g g g g g g g g g g g g g g g g g g g g g g g g g g g g g g g g g g g g g g g g g g g g g g g g g g g g g g g g g g g g g g g g g g g g g g g g g g g g g g g g g g g g g g g g g g g g g g g g g g g g g g g g g g g g g g g g g g g g g g g g g g g g g g ",
"f f f f f f f f f f f f f f f f f f f f f f f f f f f f f f f f f f f f f f f f f f f f f f f f f f f f f f f f f f f f f f f f f f f f f f f f f f f f f f f f f f f f f f f f f f f f f f f f f f f f f f f f f f f f f f f f f f f f f f f f f f f f f f f f f f f f f f f f f f f f f f f f f f f f f f f f f f f f f f f f f f f f f f f f f f f f f f f f f f f f f f f f f f f f f f f f f f f f f f f f f f f f f f f f f f f f f f f f f f f f f f f f f f f f f f f f f f f f f f f f f f f f f f f f f f f f f f f f ",
"g f f f f g g g g f f f f f f f f f f f f f f f f f f f f f f f f f f f f f f f f f f f f f f f f f f f f f f f f f f f f f f f f f f f f f f f f f f f f f f f f f f f f f f f f f f f f f f f f f f f f f f f f f f f f f f f f f f f f f f f f f f f f f f f f f f f f f f f f f f f f f f f f f f f f f f f f f f f f f f f f f f f f f f f f f f f f f f f f f f f f f f f f f f f f f f f f f f f f f f f f f f f f f f f f f f f f f f f f f f f f f f f f f f f f f f f f f f f f f f f f f f f f f f f f f f f f f f f ",
"f f f f f f f f f f f f f f f f f f f f f f f f f f f f f f f f f f f f f f f f f f f f f f f f f f f f f f f f f f f f f f f f f f f f f f f f f f f f f f f f f f f f f f f f f f f f f f f f f f f f f f f f f f f f f f f f f f f f f f f f f f f f f f f f f f f f f f f f f f f f f f f f f f f f f f f f f f f f f f f f f f f f f f f f f f f f f f f f f f f f f f f f f f f f f f f f f f f f f f f f f f f f f f f f f f f f f f f f f f f f f f f f f f f f f f f f f f f f f f f f f f f f f f f f f f f f f f f f ",
"$.M f f b #.@.#.n f f f f f f f f f f f f f f f f f f f f f f f f f f f f f f f f f f f f f f f f f f f f f f f f f f f f f f f f f f f f f f f f f f f f f f f f f f f f f f f f f f f f f f f f f f f f f f f f f f f f f f f f f f f f f f f f f f f f f f f f f f f f f f f f f f f f f f f f f f f f f f f f f f f f f f f f f f f f f f f f f f f f f f f f f f f f f f f f f f f f f f f f f f f f f f f f f f f f f f f f f f f f f f f f f f f f f f f f f f f f f f f f f f f f f f f f f f f f f f f f f f f f f f f ",
"n x f f x M M M b f f f f f f f f f f f f f f f f f f f f f f f f f f f f f f f f f f f f f f f f f f f f f f f f f f f f f f f f f f f f f f f f f f f f f f f f f f f f f f f f f f f f f f f f f f f f f f f f f f f f f f f f f f f f f f f f f f f f f f f f f f f f f f f f f f f f f f f f f f f f f f f f f f f f f f f f f f f f f f f f f f f f f f f f f f f f f f f f f f f f f f f f f f f f f f f f f f f f f f f f f f f f f f f f f f f f f f f f f f f f f f f f f f f f f f f f f f f f f f f f f f f f f f f ",
"f f f f f f f f f f f f f f f f f f f f f f f f f f f f f f f f f f f f f f f f f f f f f f f f f f f f f f f f f f f f f f f f f f f f f f f f f f f f f f f f f f f f f f f f f f f f f f f f f f f f f f f f f f f f f f f f f f f f f f f f f f f f f f f f f f f f f f f f f f f f f f f f f f f f f f f f f f f f f f f f f f f f f f f f f f f f f f f f f f f f f f f f f f f f f f f f f f f f f f f f f f f f f f f f f f f f f f f f f f f f f f f f f f f f f f f f f f f f f f f f f f f f f f f f f f f f f f f f ",
"g f f f f g g g g f f f f f f f f f f f f f f f f f f f f f f f f f f f f f f f f f f f f f f f f f f f f f f f f f f f f f f f f f f f f f f f f f f f f f f f f f f f f f f f f f f f f f f f f f f f f f f f f f f f f f f f f f f f f f f f f f f f f f f f f f f f f f f f f f f f f f f f f f f f f f f f f f f f f f f f f f f f f f f f f f f f f f f f f f f f f f f f f f f f f f f f f f f f f f f f f f f f f f f f f f f f f f f f f f f f f f f f f f f f f f f f f f f f f f f f f f f f f f f f f f f f f f f f ",
"f f f f f f f f f f f f f f f f f f f f f f f f f f f f f f f f f f f f f f f f f f f f f f f f f f f f f f f f f f f f f f f f f f f f f f f f f f f f f f f f f f f f f f f f f f f f f f f f f f f f f f f f f f f f f f f f f f f f f f f f f f f f f f f f f f f f f f f f f f f f f f f f f f f f f f f f f f f f f f f f f f f f f f f f f f f f f f f f f f f f f f f f f f f f f f f f f f f f f f f f f f f f f f f f f f f f f f f f f f f f f f f f f f f f f f f f f f f f f f f f f f f f f f f f f f f f f f f f ",
"f f f f f f f f f f f f f f f f f f f f f f f f f f f f f f f f f f f f f f f f f f f f f f f f f f f f f f f f f f f f f f f f f f f f f f f f f f f f f f f f f f f f f f f f f f f f f f f f f f f f f f f f f f f f f f f f f f f f f f f f f f f f f f f f f f f f f f f f f f f f f f f f f f f f f f f f f f f f f f f f f f f f f f f f f f f f f f f f f f f f f f f f f f f f f f f f f f f f f f f f f f f f f f f f f f f f f f f f f f f f f f f f f f f f f f f f f f f f f f f f f f f f f f f f f f f f f f f f "
};
