/* XPM */
static char *impulse_responses_stereo[] = {
/* columns rows colors chars-per-pixel */
"256 256 249 2 ",
"   c #0B0E1A",
".  c #0B0D12",
"X  c #150D1A",
"o  c #0D1219",
"O  c #121215",
"+  c #15161A",
"@  c #1A161B",
"#  c #17181D",
"$  c #19191E",
"%  c #191516",
"&  c #0D0C0B",
"*  c #201B1B",
"=  c #3D1D1E",
"-  c #0A3B0D",
";  c #3E3601",
":  c #2E2D19",
">  c #141D22",
",  c #1C1D23",
"<  c #181B28",
"1  c #0F1A24",
"2  c #231E24",
"3  c #231E2C",
"4  c #281C27",
"5  c #281C32",
"6  c #361E20",
"7  c #162125",
"8  c #1F2025",
"9  c #162428",
"0  c #1C242B",
"q  c #1A282E",
"w  c #1C2D23",
"e  c #1D2332",
"r  c #1C2D33",
"t  c #19273A",
"y  c #1E3239",
"u  c #1E3238",
"i  c #1B3622",
"p  c #222226",
"a  c #25262D",
"s  c #2A262C",
"d  c #26282F",
"f  c #2A292A",
"g  c #38272B",
"h  c #242630",
"j  c #282132",
"k  c #262931",
"l  c #2A2C34",
"z  c #2D2F39",
"x  c #23293B",
"c  c #22353B",
"v  c #2E303A",
"b  c #243238",
"n  c #31333D",
"m  c #363A3F",
"M  c #343626",
"N  c #443B0C",
"B  c #49211E",
"V  c #5B221C",
"C  c #79261A",
"Z  c #67251D",
"A  c #482729",
"S  c #552829",
"D  c #423E26",
"F  c #572D32",
"G  c #5A3136",
"H  c #6A3337",
"J  c #702D2E",
"K  c #441E21",
"L  c #054507",
"P  c #005C00",
"I  c #005400",
"U  c #154D1B",
"Y  c #006400",
"T  c #006B00",
"R  c #0B6C0E",
"E  c #007300",
"W  c #007C00",
"Q  c #08780A",
"!  c #146719",
"~  c #146919",
"^  c #1E4525",
"/  c #185120",
"(  c #394622",
")  c #4C4202",
"_  c #5A4D00",
"`  c #544800",
"'  c #5B5202",
"]  c #4B4B18",
"[  c #645500",
"{  c #6C5B00",
"}  c #685804",
"|  c #705F00",
" . c #766503",
".. c #6C6B0C",
"X. c #495B1F",
"o. c #192B45",
"O. c #1C3747",
"+. c #1B2757",
"@. c #1A3556",
"#. c #0D2B4F",
"$. c #263640",
"%. c #233C45",
"&. c #223E48",
"*. c #2C3247",
"=. c #343641",
"-. c #373944",
";. c #393B46",
":. c #3B3D4A",
">. c #373A48",
",. c #27304C",
"<. c #172768",
"1. c #173C69",
"2. c #123074",
"3. c #253B69",
"4. c #0D1F64",
"5. c #1C434C",
"6. c #1C4B55",
"7. c #1E525C",
"8. c #175159",
"9. c #22434C",
"0. c #3E414E",
"q. c #3C4045",
"w. c #214B56",
"e. c #214E59",
"r. c #244555",
"t. c #3E4152",
"y. c #28525F",
"u. c #1F5561",
"i. c #1F5A66",
"p. c #1F5D6A",
"a. c #19467A",
"s. c #17496F",
"d. c #2B5662",
"f. c #275966",
"g. c #295578",
"h. c #294772",
"j. c #1D616D",
"k. c #1A6B75",
"l. c #19727A",
"z. c #0A6C77",
"x. c #2A6B7A",
"c. c #296875",
"v. c #41444D",
"b. c #424553",
"n. c #454857",
"m. c #434659",
"M. c #46495A",
"N. c #4A4D5D",
"B. c #484A55",
"V. c #51545C",
"C. c #4A4E62",
"Z. c #454A62",
"A. c #4E5163",
"S. c #4E5269",
"D. c #515465",
"F. c #535669",
"G. c #56596C",
"H. c #585C6E",
"J. c #5A5D62",
"K. c #5A5E72",
"L. c #565B73",
"P. c #4C5374",
"I. c #5D6175",
"U. c #5E627A",
"Y. c #5E6266",
"T. c #61657B",
"R. c #65697E",
"E. c #656876",
"W. c #6D7074",
"Q. c #413F4D",
"!. c #8E2616",
"~. c #862718",
"^. c #902716",
"/. c #97323B",
"(. c #893034",
"). c #A9382D",
"_. c #CB3F2A",
"`. c #8B7806",
"'. c #EA442A",
"]. c #D7412A",
"[. c #008D00",
"{. c #038804",
"}. c #009A00",
"|. c #039403",
" X c #00AB00",
".X c #6D9313",
"XX c #9B8200",
"oX c #928D00",
"OX c #989300",
"+X c #8C8701",
"@X c #A38A01",
"#X c #122B8F",
"$X c #0E2EAB",
"%X c #0C30B8",
"&X c #213EAF",
"*X c #184988",
"=X c #164E94",
"-X c #15529A",
";X c #1F5983",
":X c #305489",
">X c #187B83",
",X c #097884",
"<X c #2D7383",
"1X c #307788",
"2X c #307B8C",
"3X c #307687",
"4X c #317F91",
"5X c #29708E",
"6X c #1457A5",
"7X c #337DB4",
"8X c #666A82",
"9X c #696D84",
"0X c #666B86",
"qX c #6D718A",
"wX c #6C7086",
"eX c #72758D",
"rX c #757784",
"tX c #767A95",
"yX c #6C7294",
"uX c #767DA2",
"iX c #4F5E9D",
"pX c #0A31C8",
"aX c #0A2FC1",
"sX c #5376F8",
"dX c #4560C6",
"fX c #2748C7",
"gX c #0B8693",
"hX c #2C8598",
"jX c #009BA9",
"kX c #3495AA",
"lX c #3499AF",
"zX c #3392A7",
"xX c #359DB2",
"cX c #3189AE",
"vX c #36A5BB",
"bX c #38A5BC",
"nX c #00AAB9",
"mX c #7D829D",
"MX c #7D8083",
"NX c #7C83A4",
"BX c #7E86B0",
"VX c #3792D5",
"CX c #399AE1",
"ZX c #37A9C1",
"AX c #878A8D",
"SX c #868DB1",
"DX c #8E96C3",
"FX c #A5ADD9",
"GX c #A1A9D5",
/* pixels */
"a a a a a a a a a a a a a a a a a a a a a a a a a a a a a a a a a a a a a a a a a a a a a a a a a a a a a a a a a a a a a a a a a a a a a a a a a a a a a a a a a a a a a a a a a a a a a a a a a a a a a a a a a a a a a a a a a a a a a a a a a a a a a a a a a a a a a a a a a a a a a a a a a a a a a a a a a a a a a a a a a a a a a a a a a a a a a a a a a a a d d d d d a d d a d d d a d a d d d d a a d k d d d d d a a d d d a d d d d k k d d d d a d k k d a d d d d d d k d d d d d d k d a a d k d d d d d d d d ",
"a a a a a a a a a a a a a a a a a a a a a a a a a a a a a a a a a a a a a a a a a a a a a a a a a a a a a a a a a a a a a a a a a a a a a a a a a a a a a a a a a a a a a a a a a a a a a a a a a a a a a a a a a a a a a a a a a a a a a a a a a a a a a a a a a a a a a a a a a a a a a a a a a a a a a a a a a a a a a a a a a a a a a a a a a a a a a a a a a a d a p a a p d a p a p p p a p d a a a p a d a p p a p p a d d p p p a p p p a p 8 a p p p d a 8 8 a d p a a p a p 8 a a p p a p 8 a d a p p p p p p a p p p ",
"a d a a a a a a a a a a a a a a a a a a a a a a a a a a a a a a a a a a a a a a a a a a a a a a a a a a a a a a a a a a a a a a a a a a a a a a a a a a a a a a a a a a a a a a a a a a a a a a a a a a a a a a a a a a a a a a a a a a a a a a a a a a a a a a a a a a a a a a a a a a a a a a a a a a a a a a a a a a a a a a a a a a a a a a a a a a a a a a a d p :.K.z t.M.8 v D.k N.K.t.d N.a n b.l M.a a n G.A.l S.K.b.a a M.K.m.a N.K.C.l A.G.z n.I.n.p l D.G.n a A.l l n.a N.L.n 0.K.F.l M.L.=.a a :.K.t.M.L.K.b.n.K.N.",
"a a d a a a a a a a a a a a a a a a a a a a a a a a a a a a a a a a a a a a a a a a a a a a a a a a a a a a a a a a a a a a a a a a a a a a a a a a a a a a a a a a a a a a a a a a a a a a a a a a a a a a a a a a a a a a a a a a a a a a a a a a a a a a a a a a a a a a a a a a a a a a a a a a a a a a a a a a a a a a a a a a a a a a a a a a a a a a a a a d p -.wXp L.tX, N.uXz 8X;.0X;.8Xa 0.K.z 8Xa p T.A.=.=.0X;.n a p 8X:.8X:.U.M.l A.U.=.z 8X:.8X;.K.A.b.8Xz tXF.v I.t.0X-.z K.S.z b.0X=.=.p l qX:.-.l U.G.k 8Xn.z ",
"e.a d a a a a a a a a a a a a a a a a a a a a a a a a a a a a a a a a a a a a a a a a a a a a a a a a a a a a a a a a a a a a a a a a a a a a a a a a a a a a a a a a a a a a a a a a a a a a a a a a a a a a a a a a a a a a a a a a a a a a a a a a a a a a a a a a a a a a a a a a a a a a a a a a a a a a a a a a a a a a a a a a a a a a a a a a a a a a a a d a v U.p A.0X-.G.8Xv T.A.T.=.T.a :.G.z U.a p m.8X;.l qXK.0.p a U.A.U.n U.T.m.n 8XN.p U.S.U.:.T.a , U.b.L.K.M.G.z U.D.p L.0XC.z U.F.k a a F.I.n $ S.n.$ 8XT.b.",
"f.9.p d a a a a a a a a a a a a a a a a a a a a a a a a a a a a a a a a a a a a a a a a a a a a a a a a a a a a a a a a a a a a a a a a a a a a a a a a a a a a a a a a a a a a a a a a a a a a a a a a a a a a a a a a a a a a a a a a a a a a a a a a a a a a a a a a a a a a a a a a a a a a a a a a a a a a a a a a a a a a a a a a a a a a a a a a a a a a a d a v U.8 F.A.T.A.K.n 8XA.v d 0Xa b.L.z T.p a p v qX0.U.k k d a U.U.T.p T.=.a a a 8XM.K.F.n a 0Xn a 0X:.K.n qXU.a p I.A.F.b.a d p L.L.8 k 8 b.qX, F.N., 8X=.8 ",
"2Xd.l a d a a a a a a a a a a a a a a a a a a a a a a a a a a a a a a a a a a a a a a a a a a a a a a a a a a a a a a a a a a a a a a a a a a a a a a a a a a a a a a a a a a a a a a a a a a a a a a a a a a a a a a a a a a a a a a a a a a a a a a a a a a a a a a a a a a a a a a a a a a a a a a a a a a a a a a a a a a a a a a a a a a a a a a a a a a a a d p t.yXl D.:.T.:.L.n I.d p a C.T.T.>.l qXT.M.A.I.L.n 0XI.m.a a U.l G.m.K.8XN.b.I.U.=.K.z p p b.8XU.A.l U., F.T.-.U.U.;.F.0XA.0.K.U.b.8 z L.K.S., D.M., T.T.M.",
"hXe.9.p d a a a a a a a a a a a a a a a a a a a a a a a a a a a a a a a a a a a a a a a a a a a a a a a a a a a a a a a a a a a a a a a a a a a a a a a a a a a a a a a a d d d d d d d d d d d d d d d d d d d d d d d d d d d d d d d d d d d d d d d d d d d d d d d d d d d d d d d d d d d d d d d d d d d d d d d d d d d d d d d d d d d d d d d d d d d d d a l v l l k k d l k l k d d a v l a k z n z l n k a z =.z a d l k d l l n v k n l a l k d d p z v p d l d a l k n z p l n n k n z a d d v n a a l k a l n v ",
"hXf.w.p d a a a a a a a a a a a a a a a a a a a a a a a a a a a a a a a a a a a a a a a a a a a a a a a a a a a a a a a a a a a a a a a a a a a a a a a a a a a a a a a d a a a a a a a a a a a a a a a a a a a a a a a a a a a a a a a a a a a a a a a a a a a a a a a a a a a a a a a a a a a a a a a a a a a a a a a a a a a a a a a a a a a a a a a a a a a a a a p p p p a a a p a p a a a a p p a a p p p p p a a p p p a a a a a a a p p a p a a a a a a a p p a a a a a a a p p a a p p a p p a a a p p a a p p a p p p ",
"hX<Xw.a d a a a a a a a a a a a a a a a a a a a a a a a a a a a a a a a a a a a a a a a a a a a a a a a a a a a a a a a a a a a a a a a a a a a a a a a a a a a a a a d a , , , , , , , , , , , , , , , , , , , , , , , , , , , , , , , , , , , , , , , , , , , , , , , , , , , , , , , , , , , , , , , , , , , , , , , , , , , , , , , , , , , , , , , , , , , , , , , , , , , , , , , , , , , , , , , , , , , , , , , , , , , 8 8 8 8 8 8 8 8 8 8 8 8 8 8 8 8 8 8 8 8 8 8 8 8 8 8 8 8 8 8 8 8 8 8 8 8 8 8 8 , , , , , , , , , ",
"hXc.w.p d a a a a a a a a a a a a a a a a a a a a a a a a a a a a a a a a a a a a a a a a a a a a a a a a a a a a a a a a a a a a a a a a a a a a a a a a a a a a a d a , , , , , , , , , , , , , , , , , , , , , , , , , , , , , , , , , , , , , , , , , , , , , , , $ , , , , , , , , , , , , , , , , , , , , , , , , , , , , , , , , , , , , , , , , , , , , , , , , , , , , , , , , , , , , , , , , , , , , , , , , , , , 8 8 8 8 2 3 8 8 8 8 8 8 8 8 8 8 8 8 8 8 8 8 8 2 * 2 8 8 8 8 8 8 8 8 8 8 8 8 8 , , , , , , , , , , ",
"hXr.r.p d a a a a a a a a a a a a a a a a a a a a a a a a a a a a a a a a a a a a a a a a a a a a a a a a a a a a a a a a a a a a a a a a a a a a a a a a a a a a d a , , , , , , , @ , , , , , , , , , , , , , , , , , , , , , , , , , , , , , , , , , , # $ $ , , , d , , , , , , # $ , , , , , , , , , , , , , , , , # $ , , , , , , , , , , , , , , , , , , , , , , , , , , , , , , , , , @ , , , , , , , , , , , , , , 8 8 8 8 2 w i 2 8 8 8 8 8 8 8 8 8 8 8 8 8 8 , 0 5.8.r 2 8 8 8 8 8 8 8 8 8 8 8 , , , , @ @ @ @ , , + ",
"hXf.b a d a a a a a a a a a a a a a a a a a a a a a a a a a a a a a a a a a a a a a a a a a a a a a a a a a a a a a a a a a a a a a a a a a a a a a a a a a a a d a , , , , , , , $ y , , , , , , , , , , , , , , , , , , , , , , , , , , , , , , , , , $ M.T.:.+ p O U.l $ , # , , 0.v $ , $ , # $ , , , , + 8 , # p + :.n $ , , , , , , , , , , , , , , , , , , , , , , , , , , , , , , , , y , , , , , , , , , , , , , 8 8 8 8 8 3 R Q 3 8 8 8 8 8 2 2 2 2 2 , 8 8 8 2 y ,X5.,X0 , 8 8 8 8 8 8 8 8 8 , , , $ r u.7.7.u.e O H.",
"f.w.p d a a a a a a a a a a a a a a a a a a a a a a a a a a a a a a a a a a a a a a a a a a a a a a a a a a a a a a a a a a a a a a a a a a a a a a a a a a a d a , , , , , , , $ 6.7., , , , , , , , , , , , , , , , , , , , , , , , , , , , , , , , , p tXz # 0.T.b.H.;.G.G.z T.A.tXT.# l R.R.;.N.T.:.K.D.b.T.:.;.T.n.eXR., , , , , , , , , , , , , , , , , , , , , , , , , , , , , , , , $ 6.6.$ , , , , , , , , , , 8 8 8 8 8 2 w R R i 3 8 8 8 8 y O.y 5.8.0 8 8 8 2 r ,Xj.z.8 8 8 8 8 8 8 8 8 8 , , , , $ u x.x.x.c.r O 8X",
"f.k a d a a a a a a a a a a a a a a a a a a a a a a a a a a a a a a a a a a a a a a a a a a a a a a a a a a a a a a a a a a a a a a a a a a a a a a a a a a d a , , , , , , , $ r x.% , , , , , , , , , , , , , , , , , , , , , , , , , , , , , , , , , # :.8X-.eXU.9XG.8X8X8XeXb.& H.v O =.T.p T.T.=.F.9X9XU.I.a eXT.9XK.v + , , , , , , , , , , , , , , , , , , , , , , , , , , , , , , , , % c.y @ , , , , , , , , 8 8 8 8 8 8 3 U {.Q U 3 8 8 , 0 z.z.z.z.gXr 2 8 8 2 y z.r z.y 2 8 8 8 8 8 8 8 , , , , , $ r j.j.j.p.q + D.",
"l a d a a a a a a a a a a a a a a a a a a a a a a a a a a a a a a a a a a a a a a a a a a a a a a a a a a a a a a a a a a a a a a a a a a a a a a a a a a d a , , , , , , , , , $ 5.7., , , , , , , , , , , , , , , , , , , , , , , , , , , , , , , , , , , ;.qX9Xb.k K.R.K.a F.D.O T.:.O n R.v I.K.l F.K.l p b.8X9Xn.a I.:.+ , , , , , , , , , , , , , , , , , , , , , , , , , , , , , , , $ 7.6.$ , , , , , , , , 8 8 8 8 8 8 8 , Q i i Q 8 , 8 8 8 2 , 2 0 y 2 8 8 8 2 u ,X8.z.r 2 8 8 8 8 8 8 , , , , , , $ u x.x.x.c.r + H.",
"a d a a a a a a a a a a a a a a a a a a a a a a a a a a a a a a a a a a a a a a a a a a a a a a a a a a a a a a a a a a a a a a a a a a a a a a a a a a d a , , , , , , , , , , , $ y , , , , , , , , , , , , , , , , , , , , , , , , , , , , , , , , , , F.U.v =.T.:.n.v G.F.k K.C.:.K.$ z eXT.n b.l p K.A.:.I.0.n T.0.-.K., , , , , , , , , , , , , , , , , , , , , , , , , , , , , , , , , y $ , , , , , , , , 8 8 8 8 8 8 8 , 8 i 2 3 i 8 , 8 8 8 8 8 8 , 2 8 8 8 8 , 0 O.5.r 2 8 8 8 8 8 8 , , , , , , , $ r u.7.7.u.q + n.",
"d a a a a a a a a a a a a a a a a a a a a a a a a a a a a a a a a a a a a a a a a a a a a a a a a a a a a a a a a a a a a a a a a a a a a a a a a a a d a , , , , , , , , , , , , , @ , , , , , , , , , , , , , , , , , , , , , , , , , , , , , , , , , , $ # # # # , # $ + , $ + , # $ + =.I.. , # , , + , $ $ # # # , # # , , , , , , , , , , , , , , , , , , , , , , , , , , , , , , , , , @ , , , , , , , , 8 8 8 8 8 8 8 8 8 , 3 8 8 3 , 8 8 8 8 8 8 8 8 8 8 8 8 8 8 , 2 * 2 8 8 8 8 8 8 , , , , , , , , , , @ @ @ @ , , # ",
"d d d d d d d d d d d d d d d d d d d d d d d d d d d d d d d d d d d d d d d d d d d d d d d d d d d d d d d d d d d d d d d d d d d d d d d d d d d a , , , , , , , , , , , , , , , , , , , , , , , , , , , , , , , , , , , , , , , , , , , , , , , , , , , , , , , , , , , , , , , , $ d -., , , , , , , , , , , , , , , , , , , , , , , , , , , , , , , , , , , , , , , , , , , , , , , , , , , , , , , 8 p 8 8 8 8 8 8 8 8 8 8 8 8 8 8 8 8 8 8 8 8 8 8 8 8 8 8 8 8 8 8 8 8 8 8 8 8 8 8 , , , , , , , , , , , , , , , , , , ",
", , , , , , , , , , , , , , , , , , , , , , , , , , , , , , , , , , , , , , , , , , , , , , , , , , , , , , , , , , , , , , , , , , , , , , , , , , 8 , , , , , , , , , , , , , , , , , , , , , , , , , , , , , , , , , , , , , , , , , , , , , , , , , , , , , , , , , , , , , , , , , , , # , , , , , , , , , , , , , , , , , , , , , , , , , , , , , , , , , , , , , , , , , , , , , , , , , , , , , , , , , , , , , , , , , , , , , , , , , , , , , , , , , , , , , , , , , , , , , , , , , , , , , , , , , , , , , , , , , ",
", , , , , , , , , , , , , , , , , , , , , , , , , , , , , , , , , , , , , , , , , , , , , , , , , , , , , , , , , , , , , , , , , , , , , , , , , , , , , , , , , , , , , , , , , , , , , , , , , , , , , , , , , , , , , , , , , , , , , , , , , , , , , , , , , , , , , , , , , , , , , , , , , , , , , , , , , , , , , , , , , , , , , , , , , , , , , , , , , , , , , , , , , , , , , , , , , , , , , , , , , , , , , , , , , , , , , , , , , , , , , , , , , , , , , , , , , , , , , , , , , , , , , , , , , , , , , , , , ",
"a a a a a a a a a a a a a a a a a a a a a a a a a a a a a a a a a a a a a a 0 0 0 0 0 0 0 0 0 0 0 0 0 0 0 0 0 0 0 0 0 0 0 0 0 0 0 0 0 0 0 a a a 3 3 3 3 3 3 3 3 3 3 3 3 3 3 3 3 3 3 a a a a a a a a a a a a a a a a a a a a a a a a a a a a a a a a a a a a a a a a a a a a a a a a a a a a a a a a a a a a a a a a a a a a a a a a a a a a a a a a a a a a a a a a a a a a a a a a a a a a a a a a a a a a a a a a a a a a a a a a a a a a a a a a a a a a a a a a a a a a a a a a a a a a a a a a a a a a a a a a a a a a a a ",
"a a a a d d d d d a a a a a a a a a a a a a a a a a a a a a a a d d d d a M D D D D D D D D D D D D D D D D D D D D D D D D D D D D D D M d d ^ ^ ^ ^ ^ ^ ^ ^ ^ ^ ^ ^ ^ ^ ^ ^ ^ ^ ^ i d d d d d d d d d d d d d d d d d d d d d d d d d d d d d d d d d d d d d d d d d d d d d d d d d d d d d d d d d d d d d d d d d d d d d d d d d d d d d d d d d d d d d d d d d d d d d d d d d d d d d d d d d d d d d d d d d d d d d d d d d d d d d d d d d d d d d d d d d d d d d d d d d d d d d d d d d d d d d d d d d d d d d ",
", , , p d a a a d p , , , , , , , , , , , , , , , , , , , , , a d a a d e `.@X`.XXXXXXXXXXXXXXXXXXXXXXXXXXXXXXXXXXXXXXXXXXXXXXXXXXXXXXXX@Xj /  X}.}.}.}.}.}.}.}.}.}.}.}.}.}.}.}.}.}.}.d a a a a a a a a a a a a a a a a a a a a a a a a a a a a a a a a a a a a a a a a a a a a a a a a a a a a a a a a a a a a a a a a a a a a a a a a a a a a a a a a a a a a a a a a a a a a a a a a a a a a a a a a a a a a a a a a a a a a a a a a a a a a a a a a a a a a a a a a a a a a a a a a a a a a a a a a a a a a a a a a a a a a ",
"$ , , p d a a a d p , + + , $ # , , , , # # , 8 , , , # , , , a a a a a < `.| ` _ _ _ _ _ _ _ _ _ _ _ _ _ _ _ _ _ _ _ _ _ _ _ _ _ _ _ [ `.s / [.I P P P P P P P P P P P P P P P P Y |.a a a a a a a a a a a a a a a a a a a a a a a a a a a a a a a a a a a a a a a a a a a a a a a a a a a a a a a a a a a a a a a a a a a a a a a a a a a a a a a a a a a a a a a a a a a a a a a a a a a a a a a a a a a a a a a a a a a a a a a a a a a a a a a a a a a a a a a a a a a a a a a a a a a a a a a a a a a a a a a a a a a a a ",
"=.+ , p d a a a d p , =.n k n n + # , , z l # 8 , , $ Z.p # , p a p a a <  .{ _ [ [ [ ' _ [ [ _ [ ' ' ' ' _ ' _ ' _ [ [ [ [ [ [ [ [ _ [ `.3 U [.I Y Y Y P P P P P Y T Y Y P Y T P Y {.a p a a a a a a a a a a a a a a a a a a a a a a a a a a a a a a a a a a a a a a a a a a a a a a a a a a a a a a a a a a a a a a a a a a a a a a a a a a a a a a a a a a a a a a a a a a a a a a a a a a a a a a a a a a a a a a a a a a a a a a a a a a a a a a a a a a a a a a a a a a a a a a a a a a a a a a a a a a a a a a a a a a a ",
"uXp $ p d a a a k , n 8X=.k n.M.8 -.# 8 M.I.z , 8 + m.DXL.+ $ p p p p p <  .{ `  .|  .{ _  .[ { | { { _ { _  ._ { `  .[  . . .[  .| _ _ `.4 U {.I T E Y W Y Y E T Y W T T I E T P P {.p p p p p p p p p p p p p p p p p p p p p p p p p p p p p p p p p p p p p p p p p p p p p p p p p p p p p p p p p p p p p p p p p p p p p p p p p p p p p p p p p p p p p p p p p p p p p p p p p p p p p p p p p p p p p p p p p p p p p p p p p p p p p p p p p p p p p p p p p p p p p p p p p p p p p p p p p p p p p p p p p p p p p ",
"=.h $ p d a a a k , v 8Xl A.N.M.G.9X:.# O F.n , , $ v z v , # 8 8 8 8 p <  .[ ) [ [ { [ ` | [ { ) } | ` [ [  .[ [ ) } ` [ ' { _ { { ` `  .4 U W I Y T P E E Y E T Y E Y T I T T I P W 8 8 8 8 8 8 8 8 8 8 8 8 8 8 8 8 8 8 8 8 8 8 8 8 8 8 8 8 8 8 8 8 8 8 8 8 8 8 8 8 8 8 8 8 8 8 8 8 8 8 8 8 8 8 8 8 8 8 8 8 8 8 8 8 8 8 8 8 8 8 8 8 8 8 8 8 8 8 8 8 8 8 8 8 8 8 8 8 8 8 8 8 8 8 8 8 8 8 8 8 8 8 8 8 8 8 8 8 8 8 8 8 8 8 8 8 8 8 8 8 8 8 8 8 8 8 8 8 8 8 8 8 8 8 8 8 8 8 8 8 8 8 8 8 8 8 8 8 8 8 8 8 8 8 8 8 8 8 8 8 8 8 8 8 8 ",
"0Xh $ p d a a a k , n R.a D.N.F.8XA.-.O b.n.O p , + m.tXS.# # , 8 , , 8 < } ' ) [ [ { _ ) { ` [ _ [ [ _ [ } { { [ ` [ [ [ _ [ ` { [ ) `  .2 U E L Y P P P T T T T T Y Y T I Y P I I E 8 , , , , , , , , , , , , , , , , , , , , , , , , , , , , , , , , , , , , , , , , , , , , , , , , , , , , , , , , , , , , , , , , , , , , , , , , , , , , , , , , , , , , , , , , , , , , , , , , , , , , , , , , , , , , , , , , , , , , , , , , , , , , , , , , , , , , , , , , , , , , , , , , , , , , , , , , , , , , , , , , , , , , ",
"S.+ , p d a a a k , v n.& M.n.:.M.D.p a eXG.l , , $ a yX=.+ # , , , , , > } _ N _ ` ) ` ) _ ` ) [ ' ) _ ` ` N ` _ _ _ _ _ ` _ ` ) ` ) )  .2 - E L I P I I I P I I P P I P P I P I I E , , , , , , , , , , , , , , , , , , , , , , , , , , , , , , , , , , , , , , , , , , , , , , , , , , , , , , , , , , , , , , , , , , , , , , , , , , , , , , , , , , , , , , , , , , , , , , , , , , , , , , , , , , , , , , , , , , , , , , , , , , , , , , , , , , , , , , , , , , , , , , , , , , , , , , , , , , , , , , , , , , , , , ",
", , , p d a a a d p , , , , , , , a , , , a , , , , , , $ $ # , , , , , 1 ' ) ; ; ; N ; N ; ; ; ; N ; ; ; ; N ; ; ; ; ; ; ; ; ; ; ; ; N } , - Y - L - L L L - L L L - L L L L - L L T , , , , , , , , , , , , , , , , , , , , , , , , , , , , , , , , , , , , , , , , , , , , , , , , , , , , , , , , , , , , , , , , , , , , , , , , , , , , , , , , , , , , , , , , , , , , , , , , , , , , , , , , , , , , , , , , , , , , , , , , , , , , , , , , , , , , , , , , , , , , , , , , , , , , , , , , , , , , , , , , , , , , , ",
", , , p d a a a d p , , , , , , , $ , , , $ $ , , , , $ $ # + , , , $ $ 1 _ [ ` _ _ _ _ _ _ _ _ _ _ _ _ _ _ _ _ _ _ _ _ _ _ _ _ _ _ _ _ { @ - E I P P P P P P P P P P P P P P P P P T $ $ $ $ $ $ $ $ $ $ $ $ $ $ $ $ $ $ $ $ $ $ $ $ $ $ $ $ $ $ $ $ $ $ $ $ $ $ $ $ $ $ $ $ $ $ $ $ $ $ $ $ $ $ $ $ $ $ $ $ $ $ $ $ $ $ $ $ $ $ $ $ $ $ $ $ $ $ $ $ $ $ $ $ $ $ $ $ $ $ $ $ $ $ $ $ $ $ $ $ $ $ $ $ $ $ $ $ $ $ $ $ $ $ $ $ $ $ $ $ $ $ $ $ $ $ $ $ $ $ $ $ $ $ $ $ $ $ $ $ $ $ $ $ $ $ $ $ $ $ $ $ $ $ $ $ $ $ $ $ $ $ $ $ $ ",
"p p p a d a a a d a p p p p p p p p p p p p p p p p p 8 , , , , , , $ # + : N N N N N N N N N N N N N N N N N N N N N N N N N N N N N N ; # > L L L L L L L L L L L L L L L L L L L - # # # # # # # # # # # # # # # # # # # # # # # # # # # # # # # # # # # # # # # # # # # # # # # # # # # # # # # # # # # # # # # # # # # # # # # # # # # # # # # # # # # # # # # # # # # # # # # # # # # # # # # # # # # # # # # # # # # # # # # # # # # # # # # # # # # # # # # # # # # # # # # # # # # # # # # # # # # # # # # # # # # # # ",
"k k k d d d d d d d k k k k k k k k k k k k k d k k k d a p p , , , $ # + o                                                               + + X X X X X X X X X X X X X X X X X X X X + + + + + + + + + + + + + + + + + + + + + + + + + + + + + + + + + + + + + + + + + + + + + + + + + + + + + + + + + + + + + + + + + + + + + + + + + + + + + + + + + + + + + + + + + + + + + + + + + + + + + + + + + + + + + + + + + + + + + + + + + + + + + + + + + + + + + + + + + + + + + + + + + + + + + + + + + + + + + + + + + + + + + ",
", , , , , , , , , , , , , , , , , , , , , , , , , , , , , , $ # + + + O . d n v n n n n n n n n n n n n n n n n n n n n n n n n n n n n n v v v v v v v v v v v v v v v v v v v v v v v v v v v v v v v v v v v v v v v v v v v v v v v v v v v v v v v v v v v v v v v v v v v v v v v v v v v v v v v v v v v v v v v v v v v v v v v v v v v v v v v v v v v v v v v v v v v v v v v v v v v v v v v v v v v v v v v v v v v v v v v v v v v v v v v v v v v v v v v v v v v v v v v v v v v v v v v v v v v v v v v v v v v ",
", , , , , , , , , , , , , , , , , , , , , , , , , , , , , $ # # + + O O . z :.-.-.;.-.;.-.;.;.;.;.;.;.=.=.;.;.;.;.;.;.;.;.;.:.-.-.;.-.n -.;.;.;.;.;.;.;.:.-.-.;.;.;.;.;.;.;.;.-.;.;.;.;.;.;.;.;.;.;.;.;.;.;.;.;.;.;.;.;.;.;.;.;.;.;.;.;.;.;.;.;.;.;.;.;.;.;.;.;.;.;.;.;.;.;.;.;.;.;.;.;.;.;.;.;.;.;.;.;.;.;.;.;.;.;.;.;.;.;.;.;.;.;.;.;.;.;.;.;.;.;.;.;.;.;.;.;.;.;.;.;.;.;.;.;.;.;.;.;.;.;.;.;.;.;.;.;.;.;.;.;.;.;.;.;.;.;.;.;.;.;.;.;.;.;.;.;.;.;.;.;.;.;.;.;.;.;.;.;.;.;.;.;.;.;.;.;.;.;.;.;.;.;.;.;.;.;.;.;.;.;.;.;.;.;.;.;.",
"=.=.=.=.=.=.=.=.=.=.=.=.=.=.=.=.=.=.=.=.=.=.=.=.=.=.=.=.n v z l k a a p , v -.;.:.;.:.-.0.n n =.n -.=.n.n.b.:.n n -.n n -.n v C.b.n b.A.0.n n =.=.=.=.n v N.M.0.n n =.n =.n ;.b.n n -.=.n =.-.-.-.-.-.-.-.-.-.-.-.-.-.-.-.-.-.-.-.-.-.-.-.-.-.-.-.-.-.-.-.-.-.-.-.-.-.-.-.-.-.-.-.-.-.-.-.-.-.-.-.-.-.-.-.-.-.-.-.-.-.-.-.-.-.-.-.-.-.-.-.-.-.-.-.-.-.-.-.-.-.-.-.-.-.-.-.-.-.-.-.-.-.-.-.-.-.-.-.-.-.-.-.-.-.-.-.-.-.-.-.-.-.-.-.-.-.-.-.-.-.-.-.-.-.-.-.-.-.-.-.-.-.-.-.-.-.-.-.-.-.-.-.-.-.-.-.-.-.-.-.-.-.-.-.-.-.-.-.-.-.-.",
"-.-.-.-.-.-.-.-.-.-.-.-.-.-.-.-.-.-.-.-.-.-.-.-.-.-.-.=.n n v l l k a p , n -.b.U.F.qXN.K.:.M.A.8Xn N.0XN.n.;.N.N.:.N.C.-.C.b.I.A.v qXH.:.M.C.0.0.:.0.N.b.L.G.0.N.A.b.A.b.8XN.0.0.D.-.b.D.0.=.-.-.-.-.-.-.-.-.-.-.-.-.-.-.-.-.-.-.-.-.-.-.-.-.-.-.-.-.-.-.-.-.-.-.-.-.-.-.-.-.-.-.-.-.-.-.-.-.-.-.-.-.-.-.-.-.-.-.-.-.-.-.-.-.-.-.-.-.-.-.-.-.-.-.-.-.-.-.-.-.-.-.-.-.-.-.-.-.-.-.-.-.-.-.-.-.-.-.-.-.-.-.-.-.-.-.-.-.-.-.-.-.-.-.-.-.-.-.-.-.-.-.-.-.-.-.-.-.-.-.-.-.-.-.-.-.-.-.-.-.-.-.-.-.-.-.-.-.-.-.-.-.-.-.-.-.-.-.-.-.-.",
"-.-.-.-.-.-.-.-.-.-.-.-.-.-.-.-.-.-.-.-.-.-.-.-.-.-.-.=.n n v l l d a p , n ;.-.T.U.0XU.A.8XwXqX0Xn n.qX:.I.K.U.qXK.wX8XN.A.wXR.N.n qXG.A.T.wXU.G.A.G.M.qXU.K.I.M.tXb.8X8XqXG.U.I.T.G.0XT.T.n ;.-.-.-.-.-.-.-.-.-.-.-.-.-.-.-.-.-.-.-.-.-.-.-.-.-.-.-.-.-.-.-.-.-.-.-.-.-.-.-.-.-.-.-.-.-.-.-.-.-.-.-.-.-.-.-.-.-.-.-.-.-.-.-.-.-.-.-.-.-.-.-.-.-.-.-.-.-.-.-.-.-.-.-.-.-.-.-.-.-.-.-.-.-.-.-.-.-.-.-.-.-.-.-.-.-.-.-.-.-.-.-.-.-.-.-.-.-.-.-.-.-.-.-.-.-.-.-.-.-.-.-.-.-.-.-.-.-.-.-.-.-.-.-.-.-.-.-.-.-.-.-.-.-.-.-.-.-.-.-.-.",
"-.-.-.-.-.-.-.-.-.-.-.-.-.-.-.-.-.-.-.-.-.-.-.-.-.-.-.=.n n v l l d a p , n ;.n U.eXD.tXn.tXG.T.F.n -.b.qX8X8XN.F.U.D.C.8XU.qXqXN.n qXM.K.A.S.T.G.D.T.K.qX0XK.K.A.N.D.wXwXK.n.0XI.0.8XT.:.8X=.-.-.-.-.-.-.-.-.-.-.-.-.-.-.-.-.-.-.-.-.-.-.-.-.-.-.-.-.-.-.-.-.-.-.-.-.-.-.-.-.-.-.-.-.-.-.-.-.-.-.-.-.-.-.-.-.-.-.-.-.-.-.-.-.-.-.-.-.-.-.-.-.-.-.-.-.-.-.-.-.-.-.-.-.-.-.-.-.-.-.-.-.-.-.-.-.-.-.-.-.-.-.-.-.-.-.-.-.-.-.-.-.-.-.-.-.-.-.-.-.-.-.-.-.-.-.-.-.-.-.-.-.-.-.-.-.-.-.-.-.-.-.-.-.-.-.-.-.-.-.-.-.-.-.-.-.-.-.-.-.-.",
"-.-.-.-.-.-.-.-.-.-.-.-.-.-.-.-.-.-.-.-.-.-.-.-.-.-.-.=.n n v l l d a p , n ;.n A.T.0.wXn K.K.M.0X;.b.8XH.K.N.K.eXL.A.N.K.8XU.U.M.n 8XT.N.T.tXA.U.qXH.8XU.I.F.H.qXU.T.0XG.U.U.D.F.qXM.K.b.I.=.-.-.-.-.-.-.-.-.-.-.-.-.-.-.-.-.-.-.-.-.-.-.-.-.-.-.-.-.-.-.-.-.-.-.-.-.-.-.-.-.-.-.-.-.-.-.-.-.-.-.-.-.-.-.-.-.-.-.-.-.-.-.-.-.-.-.-.-.-.-.-.-.-.-.-.-.-.-.-.-.-.-.-.-.-.-.-.-.-.-.-.-.-.-.-.-.-.-.-.-.-.-.-.-.-.-.-.-.-.-.-.-.-.-.-.-.-.-.-.-.-.-.-.-.-.-.-.-.-.-.-.-.-.-.-.-.-.-.-.-.-.-.-.-.-.-.-.-.-.-.-.-.-.-.-.-.-.-.-.-.-.",
"-.-.-.-.-.-.-.-.-.-.-.-.-.-.-.-.-.-.-.-.-.-.-.-.-.-.-.=.n n v l l d a p , n ;.-.-.=.-.=.-.-.0.-.;.;.-.:.-.=.:.G.wX0.=.-.=.;.-.=.-.-.-.:.;.n I.A.n ;.=.;.;.=.-.-.-.:.-.:.=.-.;.=.-.;.=.-.-.-.-.-.-.-.-.-.-.-.-.-.-.-.-.-.-.-.-.-.-.-.-.-.-.-.-.-.-.-.-.-.-.-.-.-.-.-.-.-.-.-.-.-.-.-.-.-.-.-.-.-.-.-.-.-.-.-.-.-.-.-.-.-.-.-.-.-.-.-.-.-.-.-.-.-.-.-.-.-.-.-.-.-.-.-.-.-.-.-.-.-.-.-.-.-.-.-.-.-.-.-.-.-.-.-.-.-.-.-.-.-.-.-.-.-.-.-.-.-.-.-.-.-.-.-.-.-.-.-.-.-.-.-.-.-.-.-.-.-.-.-.-.-.-.-.-.-.-.-.-.-.-.-.-.-.-.-.-.-.-.-.-.-.",
"-.-.-.-.-.-.-.-.-.-.-.-.-.-.-.-.-.-.-.-.-.-.-.-.-.-.-.=.n n z l l d a p , v ;.-.-.-.-.-.-.-.=.-.-.-.-.=.-.-.;.C.b.=.-.-.-.-.-.-.-.-.-.=.-.=.:.:.=.-.-.-.-.-.-.-.-.=.-.-.-.-.-.-.-.-.-.-.-.-.-.-.-.-.-.-.-.-.-.-.-.-.-.-.-.-.-.-.-.-.-.-.-.-.-.-.-.-.-.-.-.-.-.-.-.-.-.-.-.-.-.-.-.-.-.-.-.-.-.-.-.-.-.-.-.-.-.-.-.-.-.-.-.-.-.-.-.-.-.-.-.-.-.-.-.-.-.-.-.-.-.-.-.-.-.-.-.-.-.-.-.-.-.-.-.-.-.-.-.-.-.-.-.-.-.-.-.-.-.-.-.-.-.-.-.-.-.-.-.-.-.-.-.-.-.-.-.-.-.-.-.-.-.-.-.-.-.-.-.-.-.-.-.-.-.-.-.-.-.-.-.-.-.-.-.-.-.-.-.-.-.-.",
";.;.;.;.;.;.;.;.;.;.;.;.;.;.;.;.;.;.;.;.;.;.;.;.;.;.;.-.=.n v z l k a p 8 a k k k k k k k k k k k k k k k k d p a k k k k k k k k k k k k k a d k k k k k k k k k k k k k k k k k k k k k k k k k k k k k k k k k k k k k k k k k k k k k k k k k k k k k k k k k k k k k k k k k k k k k k k k k k k k k k k k k k k k k k k k k k k k k k k k k k k k k k k k k k k k k k k k k k k k k k k k k k k k k k k k k k k k k k k k k k k k k h j j j j j j j j j j j j j j j j j j j j k d d d d d d d d d d d d d d d d d d d d d ",
"n n n n n n n n n n n n n n n n n n n n n n n n n n n n z l l k a a p , , p d a a a a a a a a a a a a a a a a d d a a a a a a a a a a a a a a a a a a a a a a a a a a a a a a a a a a a a a a a a a a a a a a a a a a a a a a a a a a a a a a a a a a a a a a a a a a a a a a a a a a a a a a a a a a a a a a a a a a a a a a a a a a a a a a a a a a a a a a a a a a a a a a a a a a a a a a a a a a a a a a a a a a a a a a a a a a a a i ^ ^ ^ ^ ^ ^ ^ ^ ^ ^ ^ ^ ^ ^ ^ ^ ^ ^ ^ i a k l l l l l l l l l l l l l l l l l l l l ",
", , , , , , , , , , , , , , , , , , , , , , , , , , , , , $ $ # + + + O O 8 k a a a a a a a a a a a a a a a a a a a a a a a a a a a a a a a a a a a a a a a a a a a a a a a a a a a a a a a a a a a a a a a a a a a a a a a a a a a a a a a a a a a a a a a a a a a a a a a a a a a a a a a a a a a a a a a a a a a a a a a a a a a a a a a a a a a a a a a a a a a a a a a a a a a a a a a a a a a a a a a a a a a a a a a a a a a a d 5 !  X|.}.}.}.}.}.}.}.}.}.}.}.}.}.}.}.}. X|.a v -.n n n n n n n n n n n n n n n n n n n ",
"8 8 8 8 8 8 8 8 8 8 8 8 8 8 8 8 8 8 8 8 8 8 8 8 8 8 8 , , , $ $ # + + O O 8 k a a a a a a a a a a a a a a a a a a a a a a a a a a a a a a a a a a a a a a a a a a a a a a a a a a a a a a a a a a a a a a a a a a a a a a a a a a a a a a a a a a a a a a a a a a a a a a a a a a a a a a a a a a a a a a a a a a a a a a a a a a a a a a a a a a a a a a a a a a a a a a a a a a a a a a a a a a a a a a a a a a a a a a a a a a a a d 5 ! [.I P P P P P P P P P P P P P P P P T {.a v z a a p p p p p p p p a p a p p a a p p ",
"8 8 8 8 8 8 8 8 8 8 8 8 8 8 8 8 8 8 8 8 8 8 8 8 8 8 8 , , , $ $ # + + O O 8 k a a a a a a a a a a a a a a a a a a a a a a a a a a a a a a a a a a a a a a a a a a a a a a a a a a a a a a a a a a a a a a a a a a a a a a a a a a a a a a a a a a a a a a a a a a a a a a a a a a a a a a a a a a a a a a a a a a a a a a a a a a a a a a a a a a a a a a a a a a a a a a a a a a a a a a a a a a a a a a a a a a a a a a a a a a a a d 5 ! [.P T E T T T T T Y T E T T Y T E Y E {.a v v a k =.=.>.v =.v =.n k >.l z -.a a =.v ",
"8 8 8 8 8 8 8 8 8 8 8 8 8 8 8 8 8 8 8 8 8 8 8 8 8 8 8 , , , $ $ # + + O O 8 k a a a a a a a a a a a a a a a a a a a a a a a a a a a a a a a a a a a a a a a a a a a a a a a a a a a a a a a a a a a a a a a a a a a a a a a a a a a a a a a a a a a a a a a a a a a a a a a a a a a a a a a a a a a a a a a a a a a a a a a a a a a a a a a a a a a a a a a a a a a a a a a a a a a a a a a a a a a a a a a a a a a a a a a a a a a a d 5 ! [.P W W W [.E E {.E W {.W W Y {.W Y E {.a v v p N.b.-.L.t.G.>.S.M.m.S.=.C.Z.:.=.S.=.",
"8 8 8 8 8 8 8 8 8 8 8 8 8 8 8 8 8 8 8 8 8 8 8 8 8 8 8 , , , $ $ # + + O O 8 k a a a a a a a a a a a a a a a a a a a a a a a a a a a a a a a a a a a a a a a a a a a a a a a a a a a a a a a a a a a a a a a a a a a a a a a a a a a a a a a a a a a a a a a a a a a a a a a a a a a a a a a a a a a a a a a a a a a a a a a a a a a a a a a a a a a a a a a a a a a a a a a a a a a a a a a a a a a a a a a a a a a a a a a a a a a a d 5 ! [.P W W E [.{.E [.W W {.W W P {.W Y E {.a v v p :.N.d b.v G.=.S.N.t.C.t.:.8 C.l C.>.",
"8 8 8 8 8 8 8 8 8 8 8 8 8 8 8 8 8 8 8 8 8 8 8 8 8 8 8 , , , $ $ # + + O O 8 k a a a a a a a a a a a a a a a a a a a a a a a a a a a a a a a a a a a a a a a a a a a a a a a a a a a a a a a a a a a a a a a a a a a a a a a a a a a a a a a a a a a a a a a a a a a a a a a a a a a a a a a a a a a a a a a a a a a a a a a a a a a a a a a a a a a a a a a a a a a a a a a a a a a a a a a a a a a a a a a a a a a a a a a a a a a a d 5 ! [.P W E E E [.[.{.{.{.W {.{.T {.E Y E {.a v v a l C.t.m.=.A.z F.Z.m.m.n C.t.m.a :.F.",
"8 8 8 8 8 8 8 8 8 8 8 8 8 8 8 8 8 8 8 8 8 8 8 8 8 8 8 , , , $ $ # + + O O 8 k a a a a a a a a a a a a a a a a a a a a a a a a a a a a a a a a a a a a a a a a a a a a a a a a a a a a a a a a a a a a a a a a a a a a a a a a a a a a a a a a a a a a a a a a a a a a a a a a a a a a a a a a a a a a a a a a a a a a a a a a a a a a a a a a a a a a a a a a a a a a a a a a a a a a a a a a a a a a a a a a a a a a a a a a a a a a d 5 ! [.P E W E T T W Y T E W T W E E W Y E {.a v v p >.t.k n l m.>.v z -.m.v =.m.k z b.n ",
"8 8 8 8 8 8 8 8 8 8 8 8 8 8 8 8 8 8 8 8 8 8 8 8 8 8 8 , , , $ $ # + + O O 8 k a a a a a a a a a a a a a a a a a a a a a a a a a a a a a a a a a a a a a a a a a a a a a a a a a a a a a a a a a a a a a a a a a a a a a a a a a a a a a a a a a a a a a a a a a a a a a a a a a a a a a a a a a a a a a a a a a a a a a a a a a a a a a a a a a a a a a a a a a a a a a a a a a a a a a a a a a a a a a a a a a a a a a a a a a a a a d 5 ! {.I P P P P P P P P P P P P P P P P T {.a v z p p 8 a p a 8 p p p p 8 p p 8 a a 8 p ",
"8 8 8 8 8 8 8 8 8 8 8 8 8 8 8 8 8 8 8 8 8 8 8 8 8 8 8 , , , $ $ # + + O O 8 k a a a a a a a a a a a a a a a a a a a a a a a a a a a a a a a a a a a a a a a a a a a a a a a a a a a a a a a a a a a a a a a a a a a a a a a a a a a a a a a a a a a a a a a a a a a a a a a a a a a a a a a a a a a a a a a a a a a a a a a a a a a a a a a a a a a a a a a a a a a a a a a a a a a a a a a a a a a a a a a a a a a a a a a a a a a a d 5 ~  X{.[.[.[.[.[.[.[.[.[.[.[.[.[.[.[.[.}.|.3 v =.z v v v v v v v v v v v v v v v v v v ",
"8 8 8 8 8 8 8 8 8 8 8 8 8 8 8 8 8 8 8 8 8 8 8 8 8 8 8 , , , $ $ # + + O O 8 d a a a a a a a a a a a a a a a a a a a a a a a a a a a a a a a a a a a a a a a a a a a a a a a a a a a a a a a a a a a a a a a a a a a a a a a a a a a a a a a a a a a a a a a a a a a a a a a a a a a a a a a a a a a a a a a a a a a a a a a a a a a a a a a a a a a a a a a a a a a a a a a a a a a a a a a a a a a a a a a a a a a a a a a a a a a a a a ^ ~ ! ! ! ! ! ! ! ! ! ! ! ! ! ! ! ! ! ~ / a l v v v v v v v v v v v v v v v v v v v v ",
"8 8 8 8 8 8 8 8 8 8 8 8 8 8 8 8 8 8 8 8 8 8 8 8 8 8 8 , , , $ $ # + + O O p k d d d d d d d d d d d d d d d d d d d d d d d d d d d d d d d d d d d d d d d d d d d d d d d d d d d d d d d d d d d d d d d d d d d d d d d d d d d d d d d d d d d d d d d d d d d d d d d d d d d d d d d d d d d d d d d d d d d d d d d d d d d d d d d d d d d d d d d d d d d d d d d d d d d d d d d d d d d d d d d d d d d d d d d d d d d d d d j 5 5 5 5 5 5 5 5 5 5 5 5 5 5 5 5 5 5 5 j d a a a a a a a a a a a a a a a a a a a a a ",
"8 8 8 8 8 8 8 8 8 8 8 8 8 8 8 8 8 8 8 8 8 8 8 8 8 8 8 , , , $ $ # + + O O , a p p p p p p p p p p p p p p p p p p p p p p p p p p p p p p p p p p p p p p p p p p p p p p p p p p p p p p p p p p p p p p p p p p p p p p p p p p p p p p p p p p p p p p p p p p p p p p p p p p p p p p p p p p p p p p p p p p p p p p p p p p p p p p p p p p p p p p p p p p p p p p p p p p p p p p p p p p p p p p p p p p p p p p p p p p p p p p p p p p p p p p p p p p p p p p p p p p p p p p p p p p p p p p p p p p p p p p p p p ",
"8 8 8 8 8 8 8 8 8 8 8 8 8 8 8 8 8 8 8 8 8 8 8 8 8 8 8 , , , $ $ # + + O O # , , , , , , , , , , , , , , , , , , , , , , , , , , , , , , , , , , , , , , , , , , , , , , , , , , , , , , , , , , , , , , , , , , , , , , , , , , , , , , , , , , , , , , , , , , , , , , , , , , , , , , , , , , , , , , , , , , , , , , , , , , , , , , , , , , , , , , , , , , , , , , , , , , , , , , , , , , , , , , , , , , , , , , , , , , , , , , , , , , , , , , , , , , , , , , , , , , , , , , , , , , , , , , , , , , , , , , , , , , ",
"8 8 8 8 8 8 8 8 8 8 8 8 8 8 8 8 8 8 8 8 8 8 8 8 8 8 8 , , , $ $ # + + O O , , , , , , , , , , , , , , , , , , , , , , , , , , , , , , , , , , , , , , , p p p p p p p p p p p p p p p p p p p p p p p p p p p p p p p p p p p p p p p p p p p p p p p p p p p p p p p p p p p p p p p p p p p p p p p p p p p p p p p p p p p p p p p p p p p p p p p p p p p p p p p p p p p p p p p p p p p p p p p p p p p p p p p p p p p p p p p p p p p p p p p p p p p p p p p p p p 8 , , , , , , , , , , , , , , , , , , , , , , , , , ",
"8 8 8 8 8 8 8 8 8 8 8 8 8 8 8 8 8 8 8 8 8 8 8 8 8 8 8 , , , $ $ # + + O O , 8 , , , , , , , , 8 , , , , , , , , , , , , , , , 8 , , , , , , , , , , , , d d d d d d d k k d k k d d d d d d d d d d d d d d k d k k k k k d d d d d d d d d d d d k k k k k k k k d d d d d d d d d d d d k k k k d k k d d d d d d d d d d d d d k k a d d d d d d d d d d d d d d k k d d k k d d d d d d d d d d d d d d k d d k k k d d d d d d d d d d d d d d k d k k d d d d d d d k a , , , , , , , , , , 8 , 8 , , , , , , , , , , , , ",
"8 8 8 8 8 8 8 8 8 8 8 8 8 8 8 8 8 8 8 8 8 8 8 8 8 8 8 , , , $ $ # + + O O , 8 , , , , , , , , , , , 8 8 , 8 8 , , , 8 , 8 , 8 , , , , , , , , , , , , , a a a a a a d p 8 a 8 8 a a a a a a a a a a a a d a , d 8 8 p 8 , a a a a a a a a a a d a , p p , p p , p d a a a a a a a a a a d 8 a 8 p d 8 p d a a a a a a a a a a a a , a k d d a a a a a a a a a a a a 8 8 d a 8 8 k d d a a a a a a a a a a d 8 a a p , p k d a a a a a a a a a a d a , d p 8 d k d a a a a d p , , , , , , , , , , , , , 8 p , 8 8 8 8 , , , 8 8 ",
"8 8 8 8 8 8 8 8 8 8 8 8 8 8 8 8 8 8 8 8 8 8 8 8 8 8 8 , , , $ $ # + + O O , 8 , , , , , , , a n , , , , , , , , , , , , , , , k , , , , , , , , , , , , a d a a a d p b.H.n N.D.a d a a a a a a a a a d a n F.p N.A.:.K.H.k a d a a a a a a d a v K.0.0.K.;.D.I.-.p d a a a a a a a a d a A.n F.n., n.;.p d a a a a a a a a d a a D.v G.l p d a a a a a a a a d a l G.N.p l K.b.F.n 8 d a a a a a a a a d p N.n d D.H.K.M., k a a a a a a a a d a v F.a N.A.M.n., k a a a d a , , , , , , , , , , =., v z a , $ p m.# , 8 , , , ",
"8 8 8 8 8 8 8 8 8 8 8 8 8 8 8 8 8 8 8 8 8 8 8 8 8 8 8 , , , $ $ # + + O O , 8 , , , , , 8 , z M.# l C.=.=.=.>.v k , b.t.=.k :.L.n , 8 , , , , , , , , , a d a a a k , 9XF.:.H.G.0.p d a a a a a a a a d p :.qX;.K.F.n.=.8Xa a d a a a a a a d a v ;.R.=.N.K.a R.;.p d a a a a a a a k p :.tXA.U.K.l tXn.8 k a a a a a a a a d a k qX0.F.M.0.p d a a a a a a a d a z =.R.n l -.I.T.n.b.p d a a a a a a d p v mX;.a l G.R.N.n.l a d a a a a a a d a ;.eX;.K.N.8XN.n.d a a a d a , , , , , , , , , , C., b.t.l :.C.=.S.M.z $ z m.:.",
"8 8 8 8 8 8 8 8 8 8 8 8 8 8 8 8 8 8 8 8 8 8 8 8 8 8 8 , , , $ $ # + + O O , 8 , , , , , , , l t.O M.l m.m.C.A.M.8 =.:.a m.l m.b.8 , , , , , , , , , , , a d a a a d a n A.eX0.0.N., k a a a a a a a a a k p F.n.b.0.n.t.N., k a a a a a a a a k , -.F.+ D.;.l I.p d a a a a a a a d a v K.K.n.wXH.F.I.n.8 k a a a a a a a a a k , N.:.I.tXa a d a a a a a a a a k 8 z H.p , n A.H.mXl a d a a a a a d a k H.I.:., d K.:.SXb.8 k a a a a a a a a k 8 F.n.N.n qXmX:.p d a a d a , , , , , , , , , , S.M.S.m.m.:.>.m.b.=.b.+ C.a :.",
"8 8 8 8 8 8 8 8 8 8 8 8 8 8 8 8 8 8 8 8 8 8 8 8 8 8 8 , , , $ $ # + + O O , 8 , , , , , 8 , z A.a m.>.b.:.F.m.S.+ =.m.l M.t.m.M.k , , , , , , , , , , , a d a a a a d v b.8XG.K.0.p d a a a a a a a a a d a T.;.K.K.b.U.z a d a a a a a a a d p ;.eXn F.R.p G.M.8 k a a a a a a a d p -.U.tXqXM.R.T.tXI., k a a a a a a a a a k , F.0.K.wX:.p d a a a a a a a d a v eX0.;.:.eX-.K.qXb.p d a a a a a d a v K.tXT.v M.A.-.tXF.a d d a a a a a a a d p T.;.K.D.R.qXD.a d a a d a , , , , , , , , , , C., t.N.b.t.t.b.t.l m.+ M.=.:.",
"8 8 8 8 8 8 8 8 8 8 8 8 8 8 8 8 8 8 8 8 8 8 8 8 8 8 8 , , , $ $ # + + O O , 8 , , , , , , , p b.:.h t.l a n k v , , :.=.v t.k =.v , 8 , , , , , , , , , a d a a a d a b.G.k n.N.a d a a a a a a a a a a d a 0.a n.N.l 0.a d a a a a a a a a d p :.H.N.D.G.0.:.l a a a a a a a a a a d a , ;.n F.b., n n p d a a a a a a a a a d p -.n -.n 0.p d a a a a a a a d p =.H.N.b.b.G.N.0.v b.a d a a a a a a d a , n :.;.;.z v n 0.z a d a a a a a a a d a 0.a b.N.=.n b.l a d a d a , , , , , , , , , , v , l v k v S.:.k a z , a t.l ",
"8 8 8 8 8 8 8 8 8 8 8 8 8 8 8 8 8 8 8 8 8 8 8 8 8 8 8 , , , $ $ # + + O O , 8 , , , , , , , , # $ , # , , , , , 8 , $ , , # , , , , , , , , , , , , , , a d a a a a d p , a p 8 d a a a a a a a a a a a a d p d 8 8 a p d a a a a a a a a a a d p , 8 , , p p a d a a a a a a a a a a d k p a , p k a a d a a a a a a a a a a a d p a p a p d a a a a a a a a a d a , 8 p p , 8 p a p d a a a a a a a a a k a p p p a a a p a d a a a a a a a a a d p a p 8 a a p a d a a d a , , , , , , , , , , , , , , , :.m.a , , , 8 , $ , ",
"8 8 8 8 8 8 8 8 8 8 8 8 8 8 8 8 8 8 8 8 8 8 8 8 8 8 8 , , , $ $ # + + O O , 8 , , , , , , , , 8 8 , 8 8 , 8 , 8 , , 8 8 8 8 , 8 8 , , , , , , , , , , , a d a a a a a d k d d k a a a a a a a a a a a a a a d a d k d d a a a a a a a a a a a a d k k k k d d d a a a a a a a a a a a a a d d k d a d d a a a a a a a a a a a a a d d d d d a a a a a a a a a a a d k k d d k k d d d a a a a a a a a a a a d d d d d d d d d a a a a a a a a a a a d a d k d d d d a a a d a , , , , , , , , , , 8 , 8 8 , 8 , , 8 , 8 , , 8 8 ",
"8 8 8 8 8 8 8 8 8 8 8 8 8 8 8 8 8 8 8 8 8 8 8 8 8 8 8 , , , $ $ # + + O O , 8 , , , , , , , , , , , , , , , , , , , , , , , , , , , , , , , , , , , , , a d a a a a a a a a a a a a a a a a a a a a a a a a a a a a a a a a a a a a a a a a a a a a a a a a a a a a a a a a a a a a a a a a a a a a a a a a a a a a a a a a a a a a a a a a a a a a a a a a a a a a a a a a a a a a a a a a a a a a a a a a a a a a a a a a a a a a a a a a a a a a a a a a a a a a a a a d a , , , , , , , , , , , , , , , , , , , , , , , , , ",
"8 8 8 8 8 8 8 8 8 8 8 8 8 8 8 8 8 8 8 8 8 8 8 8 8 8 8 , , , $ $ # + + O O , 8 , , , , , , , , , , , , , , , , , , , , , , , , , , , , , , , , , , , , , a d a a a a a a d d d a a a a a a a a a a a a a a a a d d d a a a a a a a a a a a a a a a a a d d d a a a a a a a a a a a a a a a a d d d a a a a a a a a a a a a a a a a a d d a a a a a a a a a a a a a a a a a d d d a a a a a a a a a a a a a a a a d d d a a a a a a a a a a a a a a a a a d d d a a a a a a d a , , , , , , , , , , , , , , , , , , , , , , , , , ",
"8 8 8 8 8 8 8 8 8 8 8 8 8 8 8 8 8 8 8 8 8 8 8 8 8 8 8 , , , $ $ # + + O O , 8 , , , , , , , , , , , , , , , , , , , , , , , , , , , , , , , , , , , , , a d a a a a a a a a a a a a a a a a a a a a a a a a a a a a a a a a a a a a a a a a a a a a a a a a a a a a a a a a a a a a a a a a a a a a a a a a a a a a a a a a a a a a a a a a a a a a a a a a a a a a a a a a a a a a a a a a a a a a a a a a a a a a a a a a a a a a a a a a a a a a a a a a a a a a a a a d a , , , , , , , , , , , , , , , , , , , , , , , , , ",
"8 8 8 8 8 8 8 8 8 8 8 8 8 8 8 8 8 8 8 8 8 8 8 8 8 8 8 , , , $ $ # + + O O , 8 , , , , , , , , , , , , , , , , , , , , , , , , , , , , , , , , , , , , , a d a a a a a d k k k d a a a a a a a a a a a a a a a k k k k a a a a a a a a a a a a a a a d k k k d a a a a a a a a a a a a a a d k k k d a a a a a a a a a a a a a a a k k k k a a a a a a a a a a a a a a a d k k k d a a a a a a a a a a a a a a d k k k d a a a a a a a a a a a a a a a k k k k a a a a a a d a , , , , , , , , , , , , , , , , , , , , , , , , , ",
"8 8 8 8 8 8 8 8 8 8 8 8 8 8 8 8 8 8 8 8 8 8 8 8 8 8 8 , , , $ $ # + + O O , 8 , # # # # # # $ # # # # # # # # # # # # # # # # # , # # # # # # , 8 , , , a d a a a d a l u.u.i.%.a d a a a a a a a a a a a d a w.i.i.w.a d a a a a a a a a a a a d a %.i.u.u.k a d a a a a a a a a a a d a k u.u.i.%.a d a a a a a a a a a a a d a w.i.i.w.a d a a a a a a a a a a a d a %.i.u.u.l a d a a a a a a a a a a d a k f.u.i.%.a d a a a a a a a a a a a d a w.i.i.e.a d a a a a d a , , , , # # # # # # $ # # # # # # # # # # # # # # ",
"8 8 8 8 8 8 8 8 8 8 8 8 8 8 8 8 8 8 8 8 8 8 8 8 8 8 8 , , , $ $ # + + O O , 8 , # # + + # # O + O # # # # # # # # # # # # # # # , # # + + # + , 8 , , , a d a a a d a l p.i.p.%.p d a a a a a a a a a a a d a e.p.p.e.a d a a a a a a a a a a a d p &.p.i.i.k a d a a a a a a a a a a d a l i.i.p.%.p d a a a a a a a a a a a d a e.p.p.e.a d a a a a a a a a a a a d p %.p.i.i.l a d a a a a a a a a a a d a k i.i.p.&.p d a a a a a a a a a a a d a e.p.p.e.a d a a a a d a , , , , # # # + # # O + O # # # # # # # # # # # # ",
"8 8 8 8 8 8 8 8 8 8 8 8 8 8 8 8 8 8 8 8 8 8 8 8 8 8 8 , , , $ $ # + + O O , 8 , # + > , + $ z a z + # # # # # # # # # # # # # # , # O a h O # , 8 , , , a d a a a d a l i.i.p.%.a d a a a a a a a a a a a d a e.p.p.e.a d a a a a a a a a a a a d p %.p.i.i.k a d a a a a a a a a a a d a k i.i.p.%.p d a a a a a a a a a a a d a e.p.p.e.a d a a a a a a a a a a a d a %.p.i.i.l a d a a a a a a a a a a d a k i.i.p.&.p d a a a a a a a a a a a d a w.p.p.e.a d a a a a d a , , , , # + # , + + z a z # # # # # # # # # # # # ",
"8 8 8 8 8 8 8 8 8 8 8 8 8 8 8 8 8 8 8 8 8 8 8 8 8 8 8 , , , $ $ # + + O O , 8 , + p m.m.l =.m.m.>.O # # # # # # # # # # # # # # , + > L.0X, + , 8 , , , a d a a a d a l i.i.p.%.a d a a a a a a a a a a a d a e.p.p.e.a d a a a a a a a a a a a d p &.p.i.i.k a d a a a a a a a a a a d a l i.i.p.%.p d a a a a a a a a a a a d a e.p.p.e.a d a a a a a a a a a a a d a %.p.i.i.l a d a a a a a a a a a a d a k i.i.p.&.p d a a a a a a a a a a a d a w.p.p.e.a d a a a a d a , , , , # , b.m.=.l C.t.m.+ # # # # # # # # # # # ",
"8 8 8 8 8 8 8 8 8 8 8 8 8 8 8 8 8 8 8 8 8 8 8 8 8 8 8 , , , $ $ # + + O O , 8 , O t.z + m.m.t.C.=.O # # # # # # # # # # # # # # , + , *.*.a + , 8 , , , a d a a a d a l i.i.p.%.a d a a a a a a a a a a a d a e.p.p.e.a d a a a a a a a a a a a d p &.p.i.i.k a d a a a a a a a a a a d a l i.i.p.%.p d a a a a a a a a a a a d a e.p.p.e.a d a a a a a a a a a a a d a %.p.i.i.l a d a a a a a a a a a a d a k i.i.p.&.p d a a a a a a a a a a a d a w.p.p.e.a d a a a a d a , , , 8 O =.:.. m.t.m.m.t.O # # # # # # # # # # # ",
"8 8 8 8 8 8 8 8 8 8 8 8 8 8 8 8 8 8 8 8 8 8 8 8 8 8 8 , , , $ $ # + + O O , 8 , O t.l O m.-.k >.p + # # # # # # # # # # # # # # , + , Z.Z.h + , 8 , , , a d a a a d a l i.i.p.%.a d a a a a a a a a a a a d a e.p.p.e.a d a a a a a a a a a a a d p &.p.i.i.k a d a a a a a a a a a a d a l i.i.p.%.p d a a a a a a a a a a a d a e.p.p.e.a d a a a a a a a a a a a d a %.p.i.i.l a d a a a a a a a a a a d a k i.i.p.&.p d a a a a a a a a a a a d a w.p.p.e.a d a a a a d a , , , 8 O =.>.& m.-.z v l O # # # # # # # # # # # ",
"8 8 8 8 8 8 8 8 8 8 8 8 8 8 8 8 8 8 8 8 8 8 8 8 8 8 8 , , , $ $ # + + O O , 8 , + h m.b.v =.z :.a + # # # # # # # # # # # # # # , # + Z.P.# # , 8 , , , a d a a a d a l i.i.p.%.a d a a a a a a a a a a a d a e.p.p.e.a d a a a a a a a a a a a d p &.p.i.i.k a d a a a a a a a a a a d a l i.i.p.%.p d a a a a a a a a a a a d a e.p.p.e.a d a a a a a a a a a a a d a %.p.i.i.l a d a a a a a a a a a a d a k i.i.p.&.p d a a a a a a a a a a a d a w.p.p.e.a d a a a a d a , , , , # , m.t.>.l =.=.z O # # # # # # # # # # # ",
"8 8 8 8 8 8 8 8 8 8 8 8 8 8 8 8 8 8 8 8 8 8 8 8 8 8 8 , , , $ $ # + + O O , 8 , # + , a + , $ , # # # # # # # # # # # # # # # # , # + > , + # , 8 , , , a d a a a d a l i.i.p.%.a d a a a a a a a a a a a d a e.p.p.e.a d a a a a a a a a a a a d p &.p.i.i.k a d a a a a a a a a a a d a l i.i.p.%.p d a a a a a a a a a a a d a e.p.p.e.a d a a a a a a a a a a a d a %.p.i.i.l a d a a a a a a a a a a d a k i.i.p.&.p d a a a a a a a a a a a d a w.p.p.e.a d a a a a d a , , , , $ + , h + # , > > # # # # # # # # # # # # ",
"8 8 8 8 8 8 8 8 8 8 8 8 8 8 8 8 8 8 8 8 8 8 8 8 8 8 8 , , , $ $ # + + O O , 8 , # # + O # + + + + # # # # # # # # # # # # # # # , + # + + # + , 8 , , , a d a a a d a l i.i.p.%.a d a a a a a a a a a a a d a e.p.p.e.a d a a a a a a a a a a a d p &.p.i.i.k a d a a a a a a a a a a d a l i.i.p.%.p d a a a a a a a a a a a d a e.p.p.e.a d a a a a a a a a a a a d a %.p.i.i.l a d a a a a a a a a a a d a k i.i.p.&.p d a a a a a a a a a a a d a w.p.p.e.a d a a a a d a , , , , # # + O # + + + + # # # # # # # # # # # # ",
"8 8 8 8 8 8 8 8 8 8 8 8 8 8 8 8 8 8 8 8 8 8 8 8 8 8 8 , , , $ $ # + + O O , 8 , > > , , > > > > > > > > > > > > > > > > > > > , , > > > , > $ , , , , , a d a a a d a l i.i.p.%.a d a a a a a a a a a a a d a e.p.p.e.a d a a a a a a a a a a a d p &.p.i.i.k a d a a a a a a a a a a d a l i.i.p.%.p d a a a a a a a a a a a d a e.p.p.e.a d a a a a a a a a a a a d a %.p.i.i.l a d a a a a a a a a a a d a k i.i.p.&.p d a a a a a a a a a a a d a w.p.p.e.a d a a a a d a , , , , , > > , > > > > > > > > > > > > > > > > > ",
"8 8 8 8 8 8 8 8 8 8 8 8 8 8 8 8 8 8 8 8 8 8 8 8 8 8 8 , , , $ $ # + + O O , 8 , 8 8 8 8 8 8 8 8 8 8 8 8 8 8 8 8 8 8 8 8 8 8 8 8 , 8 8 8 8 8 8 , , , , , a d a a a d a l i.i.p.%.a d a a a a a a a a a a a d a e.p.p.e.a d a a a a a a a a a a a d p &.p.i.i.k a d a a a a a a a a a a d a l i.i.p.%.p d a a a a a a a a a a a d a e.p.p.e.a d a a a a a a a a a a a d a %.p.i.i.l a d a a a a a a a a a a d a k i.i.p.&.p d a a a a a a a a a a a d a w.p.p.e.a d a a a a d a , , , , , 8 8 8 8 8 8 8 8 8 8 8 8 8 8 8 8 8 8 8 8 ",
"8 8 8 8 8 8 8 8 8 8 8 8 8 8 8 8 8 8 8 8 8 8 8 8 8 8 8 , , , $ $ # + + O O , 8 , , , , , , , , , , , , , , , , , , , , , , , , , , , , , , , , , , , , , a d a a a d a l i.i.p.%.a d a a a a a a a a a a a d a e.p.p.e.a d a a a a a a a a a a a d p &.p.i.i.k a d a a a a a a a a a a d a l i.i.p.%.p d a a a a a a a a a a a d a e.p.p.e.a d a a a a a a a a a a a d a %.p.i.i.l a d a a a a a a a a a a d a k i.i.p.&.p d a a a a a a a a a a a d a w.p.p.e.a d a a a a d a , , , , , , , , , , , , , , , , , , , , , , , , , ",
"8 8 8 8 8 8 8 8 8 8 8 8 8 8 8 8 8 8 8 8 8 8 8 8 8 8 8 , , , $ $ # + + O O , 8 , , , , , , , , , , , , , , , , , , , , , , , , , , , , , , , , , , , , , a d a a a d a l i.i.p.%.a d a a a a a a a a a a a d a e.p.p.e.a d a a a a a a a a a a a d p &.p.i.i.k a d a a a a a a a a a a d a l i.i.p.%.p d a a a a a a a a a a a d a e.p.p.e.a d a a a a a a a a a a a d a %.p.i.i.l a d a a a a a a a a a a d a k i.i.p.&.p d a a a a a a a a a a a d a w.p.p.e.a d a a a a d a , , , , , , , , , , , , , , , , , , , , , , , , , ",
"8 8 8 8 8 8 8 8 8 8 8 8 8 8 8 8 8 8 8 8 8 8 8 8 8 8 8 , , , $ $ # + + O O , 8 , , , , , , , , , , , , , , , , , , , , , , , , , , , , , , , , , , , , , a d a a a d a l i.i.p.%.a d a a a a a a a a a a a d a e.p.p.e.a d a a a a a a a a a a a d p &.p.i.i.k a d a a a a a a a a a a d a l i.i.p.%.p d a a a a a a a a a a a d a e.p.p.e.a d a a a a a a a a a a a d a %.p.i.i.l a d a a a a a a a a a a d a k i.i.p.&.p d a a a a a a a a a a a d a w.p.p.e.a d a a a a d a , , , , , , , , , , , , , , , , , , , , , , , , , ",
"8 8 8 8 8 8 8 8 8 8 8 8 8 8 8 8 8 8 8 8 8 8 8 8 8 8 8 , , , $ $ # + + O O , 8 , , , , , , , , , , , , , , , , , , , , , , , , , , , , , , , , , , , , , a d a a a d a l i.i.p.%.a d a a a a a a a a a a a d a e.p.p.e.a d a a a a a a a a a a a d p &.p.i.i.k a d a a a a a a a a a a d a l i.i.p.%.p d a a a a a a a a a a a d a e.p.p.e.a d a a a a a a a a a a a d a %.p.i.i.l a d a a a a a a a a a a d a k i.i.p.&.p d a a a a a a a a a a a d a w.p.p.e.a d a a a a d a , , , , , , , , , , , , , , , , , , , , , , , , , ",
"8 8 8 8 8 8 8 8 8 8 8 8 8 8 8 8 8 8 8 8 8 8 8 8 8 8 8 , , , $ $ # + + O O , 8 , , , , , , , , , , , , , , , , , , , , , , , , , , , , , , , , , , , , , a d a a a d a l i.i.p.%.a d a a a a a a a a a a a d a e.p.p.e.a d a a a a a a a a a a a d p &.p.i.i.k a d a a a a a a a a a a d a l i.i.p.%.p d a a a a a a a a a a a d a e.p.p.e.a d a a a a a a a a a a a d a %.p.i.i.l a d a a a a a a a a a a d a k i.i.p.&.p d a a a a a a a a a a a d a w.p.p.e.a d a a a a d a , , , , , , , , , , , , , , , , , , , , , , , , , ",
"8 8 8 8 8 8 8 8 8 8 8 8 8 8 8 8 8 8 8 8 8 8 8 8 8 8 8 , , , $ $ # + + O O , 8 , , , , , , , , , , , , , , , , , , , , , , , , , , , , , , , , , , , , , a d a a a d a l i.i.p.%.a d a a a a a a a a a a a d a e.p.p.e.a d a a a a a a a a a a a d p %.p.i.i.k a d a a a a a a a a a a d a k i.i.p.%.p d a a a a a a a a a a a d a e.p.p.e.a d a a a a a a a a a a a d a %.p.i.i.l a d a a a a a a a a a a d a k i.i.p.&.p d a a a a a a a a a a a d a w.p.p.e.a d a a a a d a , , , , , , , , , , , , , , , , , , , , , , , , , ",
"8 8 8 8 8 8 8 8 8 8 8 8 8 8 8 8 8 8 8 8 8 8 8 8 8 8 8 , , , $ $ # + + O O , 8 , , , , , , , , , , , , , , , , , , , , , , , , , , , , , , , , , , , , , a d a a a d a l p.i.j.%.p d a a a a a a a a a a a d a e.p.p.e.a d a a a a a a a a a a a d p &.j.p.p.k a d a a a a a a a a a a d a l p.p.j.&.p d a a a a a a a a a a a d a e.p.p.e.a d a a a a a a a a a a a d p %.j.i.p.l a d a a a a a a a a a a d a k i.p.j.&.p d a a a a a a a a a a a d a e.p.p.e.a d a a a a d a , , , , , , , , , , , , , , , , , , , , , , , , , ",
"8 8 8 8 8 8 8 8 8 8 8 8 8 8 8 8 8 8 8 8 8 8 8 8 8 8 8 , , , $ $ # + + O O , 8 , , , , , , , , , , , , , , , , , , , , , , , , , , , , , , , , , , , , , a d a a a d a k 7.7.u.$.a d a a a a a a a a a a a d a w.u.u.r.a d a a a a a a a a a a a d a %.u.7.7.k a d a a a a a a a a a a d a k 7.7.u.%.a d a a a a a a a a a a a d a w.u.u.w.a d a a a a a a a a a a a d a %.u.7.7.k a d a a a a a a a a a a d a k 7.7.u.%.a d a a a a a a a a a a a d a 9.u.u.w.a d a a a a d a , , , , , , , , , , , , , , , , , , , , , , , , , ",
"8 8 8 8 8 8 8 8 8 8 8 8 8 8 8 8 8 8 8 8 8 8 8 8 8 8 8 , , , $ $ # + + O O , 8 , , , , , , , , , , , , , , , , , , , , , , , , , , , , , , , , , , , , , a d a a a a d a , , , p d a a a a a a a a a a a a a d , , , , d a a a a a a a a a a a a a d p , , , a d a a a a a a a a a a a a d a , , , p d a a a a a a a a a a a a a d , , , , d a a a a a a a a a a a a a d p , , , a d a a a a a a a a a a a a d a , , , p d a a a a a a a a a a a a a d , , , , d a a a a a d a , , , , , , , , , , , , , , , , , , , , , , , , , ",
"p 8 8 8 8 8 8 8 8 8 8 8 8 8 8 8 8 8 8 8 8 8 8 8 8 8 8 , , , $ $ # + + O O , 8 , , , , , , , , , , , , , , , , , , , , , , , , , , , , , , , , , , , , , a d a a a a d a , , , p d a a a a a a a a a a a a a d , , , , d a a a a a a a a a a a a a d p , , , a d a a a a a a a a a a a a d a , , , p d a a a a a a a a a a a a a d , , , , d a a a a a a a a a a a a a d p , , , a d a a a a a a a a a a a a d a , , , p d a a a a a a a a a a a a a d , , , , d a a a a a d a , , , , , , , , , , , , , , , , , , , , , , , , , ",
"> p 8 8 8 8 8 8 8 8 8 8 8 8 8 8 8 8 8 8 8 8 p > A A , 2 , , $ $ # + + O O , 8 , , , , , , , , , , , , , , , , , , , , , , , , , , , , , , , , , , , , , a d a a a a d a , , , p d a a a a a a a a a a a a a d 8 , , 8 d a a a a a a a a a a a a a d p , , , a d a a a a a a a a a a a a d a , , , p d a a a a a a a a a a a a a d 8 , , 8 d a a a a a a a a a a a a a d p , , , a d a a a a a a a a a a a a d a , , , p d a a a a a a a a a a a a a d 8 , , 8 d a a a a a d a , , , , , , , , , , , , , , , , , , 8 8 8 , , , , ",
"p 8 8 8 8 8 8 8 8 8 8 8 8 8 8 8 8 8 8 8 p , g F F J > 2 , , $ $ # + + O O , 8 , , , , , , , , , , , , , , , , , , , 8 , , , , , , , , , , , , , , , , , a d a a a a d a @ @ % p d a a a a a a a a a a a a a d $ @ @ $ d a a a a a a a a a a a a a k 2 % @ @ a d a a a a a a a a a a a a d a @ @ % 2 k a a a a a a a a a a a a a d $ @ @ $ d a a a a a a a a a a a a a d p % @ @ a d a a a a a a a a a a a a d a @ @ % 2 k a a a a a a a a a a a a a d , @ @ $ d a a a a a d a , , , , , , , , , , , , , , , 8 8 , , , , , 8 8 , ",
"F 8 J s 8 8 8 8 8 8 8 8 8 8 8 8 8 8 8 8 p > A J H J , , , , $ $ # + + O O , 8 , , , , , , , , , , , 8 , , p d k a , , , , , , , , , , , , , , , , , , , a d a a a d a k &.&.&.b a d a a a a a a a a a a a d a %.&.&.$.a d a a a a a a a a a a a d a b &.&.&.k a d a a a a a a a a a a d a k &.&.&.b a d a a a a a a a a a a a d a $.&.&.$.a d a a a a a a a a a a a d a b &.&.&.k a d a a a a a a a a a a a a k &.&.&.b a d a a a a a a a a a a a d a $.&.&.%.a d a a a a d a , , , , , , , , , , , , , , 8 , , a v n v p > , 8 ",
"F p /.g 8 p p p 8 8 p 8 8 8 p p 8 p p p p , S (.J (.p , , , $ # # + + O O , 8 , , , , , , , , , , , , a -.b.n.B.b.:.n 8 , , , , , , , , , , , , , , , , a d a a a d p $.xXxXbXd.2 k a a a a a a a a a a a d p hXvXvX4Xp k a a a a a a a a a a a k 2 f.bXxXxXc a d a a a a a a a a a a d a c xXxXbXf.2 k a a a a a a a a a a a d p 4XvXvXhXp d a a a a a a a a a a a k 2 d.bXxXxX$.p d a a a a a a a a a a d a b xXxXbXf.2 k a a a a a a a a a a a k p 2XvXvXhXp d a a a a d a , , , , , , , , , , , , , 8 , k A.9XeXtXeXR.N.k > ",
"J s /.g > , , , p p , 8 p 8 , 8 p 8 > 8 , > F /.J (.s p , # $ 4 $ + + O O , 8 , , , , , , , , , , , z b.B.:.n v n v.B.:.a , , , , , , , , , , , , , , , a d a a a d p c kXzXxXy.2 k a a a a a a a a a a a d p 2XlXlX1Xp d a a a a a a a a a a a k 2 d.xXzXzXc a d a a a a a a a a a a d a c kXzXxXd.2 k a a a a a a a a a a a d p 1XlXlX2Xp d a a a a a a a a a a a k 2 d.xXzXkXc a d a a a a a a a a a a d a b zXzXxXd.2 k a a a a a a a a a a a k p 3XlXlX2Xp d a a a a d a , , , , , , , , , , , , 8 , ;.9XtXE.N.n.N.E.tX9X=.",
"(.J /.A A A A A > 8 s 8 > p S p > g F s F p F /.(.(.(.F s S , J * + + + O > 8 , , , , , , , , 8 , n.E.:.p , , $ $ , v n.v.a , , , , , , , , , , , , , , a d a a a d p $.kXkXxXy.2 k a a a a a a a a a a a d p 2XxXxX2Xp d a a a a a a a a a a a k 2 d.xXkXkXc a d a a a a a a a a a a d a c kXkXxXd.2 k a a a a a a a a a a a d p 2XxXxX2Xp d a a a a a a a a a a a k 2 d.xXkXkXc p d a a a a a a a a a a d a b kXkXxXf.2 k a a a a a a a a a a a k p 1XxXlX4Xp d a a a a d a , , , , , , , , , , , 8 , -.eX9X:., # + # , ;.wXwX",
"(.(.(./.(./././.J S /.g g S /.(.A (./.(./.A H /./.J (.(.(.(.A J = @ @ K = , 8 , , , , , , , 8 , l eXE.a z , , , , , # l B.;., , , , , , , , , , , , , , a d a a a d p $.kXkXxXy.2 k a a a a a a a a a a a d p 2XxXxX2Xp d a a a a a a a a a a a k 2 d.xXkXkXc a d a a a a a a a a a a d a c kXkXxXd.2 k a a a a a a a a a a a d p 2XxXxX2Xp d a a a a a a a a a a a k 2 d.xXkXkXc p d a a a a a a a a a a d a b kXkXxXf.2 k a a a a a a a a a a a k p 1XxXlX4Xp d a a a a d a , , , , , , , , , , , , p R.wXz + , , , , # O z D.",
"F F F H F G H H H H H H H H H H H H F H H H H H H F F H G F F F A A A K = 2 , , , , , , , , 8 , D.tXn a GX0XO , , , , $ =.n.k , , , , , , , , , , , , , a d a a a d p $.kXkXxXy.2 k a a a a a a a a a a a d p 2XxXxX2Xp d a a a a a a a a a a a k 2 d.xXkXkXc a d a a a a a a a a a a d a c kXkXxXd.2 k a a a a a a a a a a a d p 2XxXxX2Xp d a a a a a a a a a a a k 2 d.xXkXkXc p d a a a a a a a a a a d a b kXkXxXf.2 k a a a a a a a a a a a k p 1XxXlX4Xp d a a a a d a , , , , , , , , , , 8 > b.tXb.+ , , , , O M.SXa l ",
"3.3.3.3.3.3.s.3.3.3.a.h.a.a.a.a.a.a.a.a.a.a.a.*Xa.h.a.a.3.@.@.O.o.@.o.#.t < , , , , , , , , , p R.E., # F.FX0X# , , , $ d B.n , , , , , , , , , , , , , a d a a a d p $.kXkXxXy.2 k a a a a a a a a a a a d p 2XxXxX2Xp d a a a a a a a a a a a k 2 d.xXkXkXc a d a a a a a a a a a a d a c kXkXxXd.2 k a a a a a a a a a a a d p 2XxXxX2Xp d a a a a a a a a a a a k 2 d.xXkXkXc p d a a a a a a a a a a d a b kXkXxXf.2 k a a a a a a a a a a a k p 1XxXlX4Xp d a a a a d a , , , , , , , , , , , , H.wXa $ , , , $ K.FXtX, p ",
"3.3.3.*X=X*X6X*X-X*X6X-X=X-X-X-X6X*X-X*X-X-X=Xa.O.1.6X=X-X*Xa.a.1.2.1.#.#.< , , , , , , , 8 , l eXD.# , O F.T.# , , , , 8 b.-., , , , , , , , , , , , , a d a a a d p $.kXkXxXy.2 k a a a a a a a a a a a d p 2XxXxX2Xp d a a a a a a a a a a a k 2 d.xXkXkXc a d a a a a a a a a a a d a c kXkXxXd.2 k a a a a a a a a a a a d p 2XxXxX2Xp d a a a a a a a a a a a k 2 d.xXkXkXc p d a a a a a a a a a a d a b kXkXxXf.2 k a a a a a a a a a a a k p 1XxXlX4Xp d a a a a d a , , , , , , , , , , , 8 R.T., , , , , $ tXU.O , , ",
"*X*X=X=X-X*X6X=X6X-X*X6X@.s.a.*X1.o.-Xo.o.*X1.* * @.=Xa.-X=X*X*Xa.1.1.o.#.e , , , , , , , 8 , l eXA.+ , , + + , , , , , , v.;., , , , , , , , , , , , , a d a a a d p $.kXkXxXy.2 k a a a a a a a a a a a d p 2XxXxX2Xp d a a a a a a a a a a a k 2 d.xXkXkXc a d a a a a a a a a a a d a c kXkXxXd.2 k a a a a a a a a a a a d p 2XxXxX2Xp d a a a a a a a a a a a k 2 d.xXkXkXc p d a a a a a a a a a a d a b kXkXxXf.2 k a a a a a a a a a a a k p 1XxXlX4Xp d a a a a d a , , , , , , , , , , , 8 9XI.$ , , , , , # + , , , ",
"*X=X6X-X6X-X=X-X6X-Xa.6XO.o.O.1.t 8 1.8 * 1.@., , O.=X1.=X1.a.a.1.#.1.t #.e , , , , , , , 8 , k wXK., , , , , , , , , , p b.=., , , , , , , , , , , , , a d a a a d p $.kXkXxXy.2 k a a a a a a a a a a a d p 2XxXxX2Xp d a a a a a a a a a a a k 2 d.xXkXkXc a d a a a a a a a a a a d a c kXkXxXd.2 k a a a a a a a a a a a d p 2XxXxX2Xp d a a a a a a a a a a a k 2 d.xXkXkXc p d a a a a a a a a a a d a b kXkXxXf.2 k a a a a a a a a a a a k p 1XxXlX4Xp d a a a a d a , , , , , , , , , , , 8 E.R.p , , , , , , , , , , ",
"-X-X-X-X6X6X*X6X-X6X@.s.t * , , 8 8 * 8 8 , , 8 , 0 o.1.a.@ o.o.1.#.1.t #.t , , , , , , , , , , H.eXd $ , , , , , , , $ z B.l , 8 , , , , , , , , , , , a d a a a d p $.kXkXxXy.2 k a a a a a a a a a a a d p 2XxXxX2Xp d a a a a a a a a a a a k 2 d.xXkXkXc a d a a a a a a a a a a d a c kXkXxXd.2 k a a a a a a a a a a a d p 2XxXxX2Xp d a a a a a a a a a a a k 2 d.xXkXkXc p d a a a a a a a a a a d a b kXkXxXf.2 k a a a a a a a a a a a k p 1XxXlX4Xp d a a a a d a , , , , , , , , , , 8 > N.tXn + , , , , , , , , k ",
"6X-X-X=X@.-Xa.6X*X6XO.* 8 8 8 8 8 8 8 8 8 8 8 8 8 8 * 1.a.@ @ e 1.t 1.< #.t , , , , , , , , 8 > :.tXD.# , , , , , , $ p v.v.p , , , , , , , , , , , , , a d a a a d p $.kXkXxXy.2 k a a a a a a a a a a a d p 2XxXxX2Xp d a a a a a a a a a a a k 2 d.xXkXkXc a d a a a a a a a a a a d a c kXkXxXd.2 k a a a a a a a a a a a d p 2XxXxX2Xp d a a a a a a a a a a a k 2 d.xXkXkXc p d a a a a a a a a a a d a b kXkXxXf.2 k a a a a a a a a a a a k p 1XxXlX4Xp d a a a a d a , , , , , , , , , , 8 , v eXT., # , , , , , , , :.",
"-X-X=X-X0 =X1.6X1.6Xo., 8 8 8 8 8 8 8 8 8 8 8 8 8 8 * O.@.@ $ < 1.< 1.< #.t , , , , , , , , , , , G.tXN., , , , , , a :.n.l , , , , , , , , , , , , , , a d a a a d p $.kXkXxXy.2 k a a a a a a a a a a a d p 2XxXxX2Xp d a a a a a a a a a a a k 2 d.xXkXkXc a d a a a a a a a a a a d a c kXkXxXd.2 k a a a a a a a a a a a d p 2XxXxX2Xp d a a a a a a a a a a a k 2 d.xXkXkXc p d a a a a a a a a a a d a b kXkXxXf.2 k a a a a a a a a a a a k p 1XxXlX4Xp d a a a a d a , , , , , , , , , , , 8 , N.tXG.a , , , , , p ;.B.",
"1.-X*X-X8 @.@.6X1.6Xo.* 8 8 8 8 8 8 8 8 8 8 8 8 8 8 8 , , , $ $ < > 1.< #.t , , , , , , , , , 8 , p K.tXn $ , , , , n B.n , , , , , , , , , , , , , , , a d a a a d p $.kXkXxXy.2 k a a a a a a a a a a a d p 2XxXxX2Xp d a a a a a a a a a a a k 2 d.xXkXkXc a d a a a a a a a a a a d a c kXkXxXd.2 k a a a a a a a a a a a d p 2XxXxX2Xp d a a a a a a a a a a a k 2 d.xXkXkXc p d a a a a a a a a a a d a b kXkXxXf.2 k a a a a a a a a a a a k p 1XxXlX4Xp d a a a a d a , , , , , , , , , , , , , , D.tXv.# , , , , z B.=.",
"@.-X*X=X, * o.-X@.-Xo., 8 8 8 8 8 8 8 8 8 8 8 8 8 8 8 , , , $ $ + + @.> #.t , , , , , , , , , , 8 , a :., , , , , , a l , , , , , , , , , , , , , , , , a d a a a d p $.kXkXxXy.2 k a a a a a a a a a a a d p 2XxXxX2Xp d a a a a a a a a a a a k 2 d.xXkXkXc a d a a a a a a a a a a d a c kXkXxXd.2 k a a a a a a a a a a a d p 2XxXxX2Xp d a a a a a a a a a a a k 2 d.xXkXkXc p d a a a a a a a a a a d a b kXkXxXf.2 k a a a a a a a a a a a k p 1XxXlX4Xp d a a a a d a , , , , , , , , , , , , , , , :.a , , , , , 8 l 8 ",
"@.=X*X=X, , o.-Xo.-Xt , 8 8 8 8 8 8 8 8 8 8 8 8 8 8 8 , , , $ $ # + > O #.t , , , , , , , , , , , 8 , , , , , , , , , , , , , , , , , , , , , , , , , , a d a a a d p $.kXkXxXy.2 k a a a a a a a a a a a d p 2XxXxX2Xp d a a a a a a a a a a a k 2 d.xXkXkXc a d a a a a a a a a a a d a c kXkXxXd.2 k a a a a a a a a a a a d p 2XxXxX2Xp d a a a a a a a a a a a k 2 d.xXkXkXc p d a a a a a a a a a a d a b kXkXxXf.2 k a a a a a a a a a a a k p 1XxXlX4Xp d a a a a d a , , , , , , , , , , , , , , , > , , , , , , , , , ",
"@.=Xa.*X, , t -Xt =Xt , 8 8 8 8 8 8 8 8 8 8 8 8 8 8 8 , , , $ $ # + O O 1 < , , , , , , , , , , , , , 8 , , , , , , , , , , , , , , , , , , , , , , , , a d a a a d p $.kXkXxXy.2 k a a a a a a a a a a a d p 2XxXxX2Xp d a a a a a a a a a a a k 2 d.xXkXkXc a d a a a a a a a a a a d a c kXkXxXd.2 k a a a a a a a a a a a d p 2XxXxX2Xp d a a a a a a a a a a a k 2 d.xXkXkXc p d a a a a a a a a a a d a b kXkXxXf.2 k a a a a a a a a a a a k p 1XxXlX4Xp d a a a a d a , , , , , , , , , , , , , , , 8 , , , , , , , , , ",
"@.*Xa.*X, , t =X0 *Xe , 8 8 8 8 8 8 8 8 8 8 8 8 8 8 8 , , , $ $ # + + O O , 8 , , , , , , , , , , , , , , , , , , , , , , , , , , , , , , , , , , , , , a d a a a d p c kXzXxXy.2 k a a a a a a a a a a a d p 2XlXlX1Xp d a a a a a a a a a a a k 2 d.xXzXzXc a d a a a a a a a a a a d a c zXzXxXd.2 k a a a a a a a a a a a d p 1XlXlX2Xp d a a a a a a a a a a a k 2 d.xXzXkXc a d a a a a a a a a a a d a b zXzXxXd.2 k a a a a a a a a a a a k p 3XlXlX2Xp d a a a a d a , , , , , , , , , , , , , , , , , , , , , , , , , ",
"@.*Xa.a.* , e *X8 e 8 8 8 8 8 8 8 8 8 8 8 8 8 8 8 8 8 , , , $ $ # + + O O , 8 , , , , , , , , , , , , , , , , , , , , , , , , , , , , , , , , , , , , , a d a a a d p $.xXxXbXd.2 k a a a a a a a a a a a d p hXvXvX4Xp k a a a a a a a a a a a k 2 f.bXxXxXc a d a a a a a a a a a a d a c xXxXbXf.2 k a a a a a a a a a a a d p hXvXvXhXp d a a a a a a a a a a a k 2 d.bXxXxX$.p d a a a a a a a a a a d a b xXxXbXf.2 k a a a a a a a a a a a k p 2XvXvXhXp d a a a a d a , , , , , , , , , , , , , , , , , , , , , , , , , ",
"o.a.1.a.* 8 8 e 8 , 8 8 8 8 8 8 8 8 8 8 8 8 8 8 8 8 8 , , , $ $ # + + O O , 8 , , , , , , , , , , , , , , , , , , , , , , , , , , , , , , , , , , , , , a d a a a d a b x.x.<X9.p d a a a a a a a a a a a d a f.x.x.f.p d a a a a a a a a a a a d p 9.<Xx.x.l a d a a a a a a a a a a d a l x.x.<X9.p d a a a a a a a a a a a d a f.x.x.f.a d a a a a a a a a a a a d p 9.<Xx.x.b a d a a a a a a a a a a d a l x.x.<Xr.p d a a a a a a a a a a a d p d.x.x.f.a d a a a a d a , , , , , , , , , , , , , , , , , , , , , , , , , ",
"o.*X1.a.* 8 8 , 8 8 8 8 8 8 8 8 8 8 8 8 8 8 8 8 8 8 8 , , , $ $ # + + O O , 8 , , , , , , , , , , , , , , , , , , , , , , , , , , , , , , , , , , , , , a d a a a a d a 2 2 2 a d a a a a a a a a a a a a a d p 2 2 p d a a a a a a a a a a a a a d p 2 2 2 a d a a a a a a a a a a a a d a 2 2 2 a d a a a a a a a a a a a a a d p 2 2 p d a a a a a a a a a a a a a d a 2 2 2 a d a a a a a a a a a a a a d a 2 2 2 p d a a a a a a a a a a a a a d p 2 2 p d a a a a a d a , , , , , , , , , , , , , , , , , , , , , , , , , ",
"0 t 1.s.* 8 8 8 8 8 8 8 8 8 8 8 8 8 8 8 8 8 8 8 8 8 8 , , , $ $ # + + O O , 8 , , , , , , , , , , , , , , , , , , , , , , , , , , , , , , , , , , , , , a d a a a a a d k k k d a a a a a a a a a a a a a a a k k k k a a a a a a a a a a a a a a a d k k k d a a a a a a a a a a a a a a d k k k d a a a a a a a a a a a a a a a k k k k a a a a a a a a a a a a a a a d k k k d a a a a a a a a a a a a a a d k k k d a a a a a a a a a a a a a a a k k k k a a a a a a d a , , , , , , , , , , , , , , , , , , , , , , , , , ",
", * 1.1.* 8 8 8 8 8 8 8 8 8 8 8 8 8 8 8 8 8 8 8 8 8 8 , , , $ $ # + + O O , 8 , , , , , , , , , , , , , , , , , , , , , , , , , , , , , , , , , , , , , a d a a a a a a a a a a a a a a a a a a a a a a a a a a a a a a a a a a a a a a a a a a a a a a a a a a a a a a a a a a a a a a a a a a a a a a a a a a a a a a a a a a a a a a a a a a a a a a a a a a a a a a a a a a a a a a a a a a a a a a a a a a a a a a a a a a a a a a a a a a a a a a a a a a a a a a a d a , , , , , , , , , , , , , , , , , , , , , , , , , ",
", , t t , 8 8 8 8 8 8 8 8 8 8 8 8 8 8 8 8 8 8 8 8 8 8 , , , $ $ # + + O O , 8 , , , , , , , , , , , , 8 8 , 8 8 , , 8 8 , , , , , , , , , , , , , , , , a d a a a d k a a d d a d d a a a a a a a a a a d k d a d k d d d a a a a a a a a a a a d d a a d d d k d a a a a a a a a a a d k a a d d a d d a a a a a a a a a a d k d a d k d d d a a a a a a a a a a a d d a a d d d k d a a a a a a a a a a d k a a d k a d d a a a a a a a a a a d k d a d k d d k a a a a d a , , , , , , , , , , , , , , 8 , , 8 , 8 8 , 8 , , ",
", 8 , , 8 8 8 8 8 8 8 8 8 8 8 8 8 8 8 8 8 8 8 8 8 8 8 , , , $ $ # + + O O , 8 , , , , , , , , , , , , , $ , , , 8 , , , 8 , , , , , , , , , , , , , , , a d a a d p 8 d d p 8 d 8 p d a a a a a a a a d a 8 a d a , a p 8 d a a a a a a a a a d 8 p d d 8 p a , a d a a a a a a a a d p 8 d d p 8 d 8 p d a a a a a a a a d a 8 a d a , a p 8 d a a a a a a a a a d 8 p d d 8 p a , a d a a a a a a a a d a 8 d d p 8 d 8 p d a a a a a a a a d a 8 a d a , a a 8 d a a a d a , , , , , , , , , , , , , , , , , $ , , , , $ , , ",
", 8 8 8 8 8 8 8 8 8 8 8 8 8 8 8 8 8 8 8 8 8 8 8 8 8 8 , , , $ $ # + + O O , 8 , , , , , , , , , , , , l >.p v z , , v z , 8 , , , , , , , , , , , , , , a d a d p =.b.a p -.b.p b.=.p d a a a a a a d a k n.l p l M.k =.b.a d a a a a a a a d a 0.;.p a b.=.k M.l a d a a a a a a d a n b.a p =.b.p b.-.p d a a a a a a d a k n.z p l M.k =.b.a d a a a a a a a d a 0.;.p a b.-.d M.l a d a a a a a a d a n b.a p =.b.p b.-.p d a a a a a a d a k n.z p k M.k n b.a d a a d a , , , , , , , , , , , , , , z p a -., z v , -.a a ",
"8 8 8 8 8 8 8 8 8 8 8 8 8 8 8 8 8 8 8 8 8 8 8 8 8 8 8 , , , $ $ # + + O O , 8 , , , , , , , , , , 8 , S.:.z N.M.a l C.M.a , , , , , , , , , , , , , , , a d d a k I.T.v.d T.K.H.I.I.l a d a a a a a k 8 D.T.F., F.I.H.K.T.:.p d a a a a a d p :.T.I.l :.R.H.K.I.D.p d a a a a a d a k I.T.b.a T.K.H.I.I.l a d a a a a a k 8 A.T.G., D.U.H.K.T.0.p d a a a a a d p ;.T.I.l ;.R.H.K.I.D.p d a a a a a d a d I.T.b.a T.K.H.I.I.z a d a a a a a k 8 A.T.G., D.T.G.K.T.b.p d a d a , , , , , , , , , , , , , p L.z t.M.b.M.m.m.M.b.m.",
"8 8 8 8 8 8 8 8 8 8 8 8 8 8 8 8 8 8 8 8 8 8 8 8 8 8 8 , , , $ $ # + + O O , 8 , , , , , , , , , , 8 , >.b.Z.z >.z =.v >.=., 8 , , , , , , , , , , , , , a d d p -.D.=.D.v D.v SXl F.;.p d a a a a a d a K.l I.a K.a eXC.-.F., k a a a a a k 8 A.;.N.-.N.;.A.eXa I.a d a a a a a d p =.D.n F.v F.z SXz D.:.p d a a a a a d a K.l K.a K.d eXA.=.F., k a a a a a d 8 N.:.N.;.M.:.N.tXa I.d a a a a a a d p n F.n F.z F.l SXv A.:.p d a a a a a d p K.l K.d K.d qXF.n G., k a d a , , , , , , , , , , , , 8 > :.=.t., K.v v U., C.M.",
"8 8 8 8 8 8 8 8 8 8 8 8 8 8 8 8 8 8 8 8 8 8 8 8 8 8 8 , , , $ $ # + + O O , 8 , , , , , , , , , , , 8 , z L.-.t.=.=.>.t.z , 8 , , , , , , , , , , , , , a d d a v H.n.F.=.H.b.tXb.K.=.p d a a a a a d p H.b.U.v K.0.9XF.N.A., k a a a a a d 8 n.N.G.0.N.N.G.9X:.I.p d a a a a a d a v H.n.G.n H.b.tXb.K.=.p d a a a a a d p H.b.U.v K.0.9XG.N.A., k a a a a a d 8 b.A.F.b.M.N.F.wX:.I.a d a a a a a d a z K.n.H.n K.b.tXb.H.-.p d a a a a a d p G.b.I.v H.0.9XH.M.D., k a d a , , , , , , , , , , , , 8 # t.=.t.v G.:.>.G.z C.M.",
"8 8 8 8 8 8 8 8 8 8 8 8 8 8 8 8 8 8 8 8 8 8 8 8 8 8 8 , , , $ $ # + + O O , 8 , , , , , , , , , , , , :.M.k m.t.=.z m.t., , , , , , , , , , , , , , , , a d a d p A.I.b.b.N.T.n T.A.p d a a a a a a d p ;.8Xb.M.:.8X;.C.T.l a d a a a a a d a k I.A.n.;.I.A.;.8X:.p d a a a a a a d p N.I.b.b.N.T.n I.D.a d a a a a a a d p -.8Xn.M.:.8X:.N.T.l a d a a a a a d a k I.D.n.;.K.A.;.8X:.p d a a a a a a d p N.T.b.b.M.T.n I.D.a d a a a a a a d p =.R.n.M.:.8X:.N.T.z a d a d a , , , , , , , , , , , , 8 , =.l v C.l t.b.k C.=.=.",
"8 8 8 8 8 8 8 8 8 8 8 8 8 8 8 8 8 8 8 8 8 8 8 8 8 8 8 , , , $ $ # + + O O , 8 , , , , , , , , , , , , , , , , , , , , , , , , , , , , , , , , , , , , , a d a a a p p p a a a a p p a a a a a a a a a d a p p a a p a a p a d a a a a a a a d a p p p a p a a p a d a a a a a a a a d p p p a a a a p p a a a a a a a a a d a p p a a p a a p a d a a a a a a a d a p p p a p a a p a d a a a a a a a a d p p p a a a a p p a a a a a a a a a d a p p a a p a a p a d a a d a , , , , , , , , , , , , , , , , , , , , , , , , , ",
"8 8 8 8 8 8 8 8 8 8 8 8 8 8 8 8 8 8 8 8 8 8 8 8 8 8 8 , , , $ $ # + + O O , 8 , , , , , , , , , , , , , , , , , 8 8 8 8 , , , , , , , , , , , , , , , , a d a a a d d k a a p 8 d d a a a a a a a a a a d d k d a a , a k d a a a a a a a a a d d d k a a 8 p d d a a a a a a a a a a d d k a a p 8 a d a a a a a a a a a a d d k d a a , a k d a a a a a a a a a d d d k a a 8 p d d a a a a a a a a a a d d k a a p 8 a d a a a a a a a a a a d d k k a a , a k d a a a d a , , , , , , , , , , , , , , , , , , 8 , , 8 8 , 8 ",
"8 8 8 8 8 8 8 8 8 8 8 8 8 8 8 8 8 8 8 8 8 8 8 8 8 8 8 , , , $ $ # + + O O , 8 , , , , , , , , , , , , , a a p h # $ , , , , , , , , , , , , , , , , , , a d a a a a k , :.:.:.n.k a d a a a a a a a a a a d p k M.n N.n a d a a a a a a a a a a d d , M.n M.:.a d a a a a a a a a a a a k , ;.:.:.M.k a d a a a a a a a a a a d p d M.n N.n a d a a a a a a a a a a d d , M.n n.:.a d a a a a a a a a a a a k , -.0.;.M.k a d a a a a a a a a a a d p a M.n N.n a d a a a d a , , , , , , , , , , , , , , , , , k 8 k 8 # , , , ",
"8 8 8 8 8 8 8 8 8 8 8 8 8 8 8 8 8 8 8 8 8 8 8 8 8 8 8 , , , $ $ # + + O O , 8 , , , , , , , , , , , 8 # :.v a m.=.>.8 , , , , , , , , , , , , , , , , , a d a a a d a :.R.A.I.F.G.8 k a a a a a a a a a d p n H.K.K.D.T.k a d a a a a a a a a d a l M.8XD.K.I.0.p d a a a a a a a a a d a :.R.D.I.F.G.8 k a a a a a a a a a d a n G.K.H.D.T.l a d a a a a a a a a d a l n.8XA.K.K.b.p d a a a a a a a a a d a ;.R.D.I.D.H.8 d a a a a a a a a a d a n G.I.H.F.T.l a d a a d a , , , , , , , , , , , , , , , , , N.# :.:.>.v , 8 ",
"8 8 8 8 8 8 8 8 8 8 8 8 8 8 8 8 8 8 8 8 8 8 8 8 8 8 8 , , , $ $ # + + O O , 8 , , , , , , , , , , , 8 $ :.C.N.t.=.S., , , , , , , , , , , , , , , , , , a d a a d p :.K.I.A.T.T.N.8 d a a a a a a a a d a d I.F.H.G.T.I.a d d a a a a a a a a k 8 D.F.T.N.R.T.=.p d a a a a a a a a d p ;.K.I.A.T.T.N.8 d a a a a a a a a d d a I.F.K.G.T.I.a a d a a a a a a a a k 8 A.F.T.N.8XT.-.p d a a a a a a a a d p -.I.K.A.T.T.A.8 d a a a a a a a a d d a I.F.K.F.T.I.d a d a a d a , , , , , , , , , , , , , , , 8 , S.b.F.z C.:.$ 8 ",
"8 8 8 8 8 8 8 8 8 8 8 8 8 8 8 8 8 8 8 8 8 8 8 8 8 8 8 , , , $ $ # + + O O , 8 , , , , , , , , , , , 8 # :.:.=.b.t.l , 8 , , , , , , , , , , , , , , , , a d a a d 8 n.N.M.G.K.n.I.p d a a a a a a a a d a l I.-.K.K.n.R.v a d a a a a a a a a k 8 K.-.H.F.D.G.N.8 k a a a a a a a a d 8 b.A.n.G.I.n.U.p d a a a a a a a a d a l T.=.I.H.n.T.n a d a a a a a a a a k 8 K.;.H.F.F.F.N.8 k a a a a a a a a d 8 b.A.n.G.I.n.T.p d a a a a a a a a d a k T.=.I.H.M.T.n p d a a d a , , , , , , , , , , , , , , , , , A.l m.>.t., , , ",
"8 8 8 8 8 8 8 8 8 8 8 8 8 8 8 8 8 8 8 8 8 8 8 8 8 8 8 , , , $ $ # + + O O , 8 , , , , , , , , , , , 8 , =.l p t.A.t.8 , , , , , , , , , , , , , , , , , a d a a d a k H.R.0.I.I.b.p d a a a a a a a a a d p N.8XN.A.T.D.d a d a a a a a a a a d p -.T.K.0.R.K.n a d a a a a a a a a d a k H.R.0.I.I.b.p d a a a a a a a a a d p M.8XN.N.R.F.d a d a a a a a a a a d p -.T.K.0.R.K.=.a d a a a a a a a a d a k G.R.0.K.U.n.p d a a a a a a a a a d p M.8XN.N.R.F.k a d a a d a , , , , , , , , , , , , , , , , , :., v m.A.v , 8 ",
"8 8 8 8 8 8 8 8 8 8 8 8 8 8 8 8 8 8 8 8 8 8 8 8 8 8 8 , , , $ $ # + + O O , 8 , , , , , , , , , , , , , , , , , , 8 , , , , , , , , , , , , , , , , , , a d a a a d a a p a a a p d a a a a a a a a a a a d p a p a d p a d a a a a a a a a a a d a a p a a a a d a a a a a a a a a a d a p p a a a p d a a a a a a a a a a a d p a p a a p a d a a a a a a a a a a d a a p a a a a d a a a a a a a a a a d a p p a a a p d a a a a a a a a a a a d p a p a a p a d a a a d a , , , , , , , , , , , , , , , , , , , , , , 8 , , ",
"8 8 8 8 8 8 8 8 8 8 8 8 8 8 8 8 8 8 8 8 8 8 8 8 8 8 8 , , , $ $ # + + O O , 8 , , , , , , , , , , , , , , , , , , , , , , , , , , , , , , , , , , , , , a a a a a a a d d d d a d a a a a a a a a a a a a a d d d d a d a a a a a a a a a a a a a d d d d a d d a a a a a a a a a a a a a d d d d a d a a a a a a a a a a a a a d d d d a d a a a a a a a a a a a a a d d d d d d d a a a a a a a a a a a a d d d d d a d a a a a a a a a a a a a a d d d d d d d d d d d d a , , , , 8 8 , , , , , , , , , , , 8 , 8 8 , , , , ",
"8 8 8 8 8 8 8 8 8 8 8 8 8 8 8 8 8 8 8 8 8 8 8 8 8 8 8 , , , $ $ # + + O O , 8 , 8 8 8 8 8 8 8 8 8 8 8 8 8 8 8 8 8 8 8 8 8 8 8 8 8 8 8 8 8 8 8 8 8 8 , , d d d d d d d d d d d d d d d d d d d d d d d d d d d d d d d d d d d d d d d d d d d d d d d d d d d d d d d d d d d d d d d d d d d d d d d d d d d d d d d d d d d d d d d d d d d d d d d d d d d d d d d d d d d d d d d d d d d d d d d d d d d d d d d d d d d d d d d d d d d d d d d a a d a a a a a a a a p , , , , , , , , , , , , , , , , , , , , , , , , , ",
"8 8 8 8 8 8 8 8 8 8 8 8 8 8 8 8 8 8 8 8 8 8 8 8 8 8 8 , , , $ $ # + + O O O + + + + + + + + + + + + + + + + + + + + + + + + + + + + + + + + + + + + + + + + + + + + + + + + + + + + + + + + + + + + + + + + + + + + + + + + + + + + + + + + + + + + + + + + + + + + + + + + + + + + + + + + + + + + + + + + + + + + + + + + + + + + + + + + + + + + # > 7 7 7 7 7 7 7 7 7 7 7 7 7 7 7 7 7 7 7 7 7 7 7 7 7 7 7 7 7 7 7 7 7 7 7 7 7 7 7 7 7 7 7 > + $ , k ;.a n :.n v n n -.-.-.n =.a a :.;.v =.a n -.n z =.;.k v =.;.=.l k ;.=.v ",
"8 8 8 8 8 8 8 8 8 8 8 8 8 8 8 8 8 8 8 8 8 8 8 8 8 8 8 , , , $ $ # + + O O O O O O O O O O O O O O O O O O O O O O O O O O O O O O O O O O O O O O O O O O O O O O O O O O O O O O O O O O O O O O O O O O O O O O O O O O O O O O O O O O O O O O O O O O O O O O O O O O O O O O O O O O O O O O O O O O O O O O O O O O O O O O O O O O O O O O + > > > > > > > > > > > > > > > > > > > > > > > > > > > > > > > > > > > > > > > > > > > > > # O # $ l n.d b.n.n -.;.;.b.;.:.-.b.l l N.n z b.;.M.M.0.;.N.0.z =.N.b.N.;.n.N.0.N.",
"8 8 8 8 8 8 8 8 8 8 8 8 8 8 8 8 8 8 8 8 8 8 8 8 8 8 8 , , , $ $ # + + + + + + + + + + + + + + + + + + + + + + + + + + + + + + + + + + + + + + + + + + + + + + + + + + + + + + + + + + + + + + + + + + + + + + + + + + + + + + + + + + + + + + + + + + + + + + + + + + + + + + + + + + + + + + + + + + + + + + + + + + + + + + + + + + + + + + + > 9 7 7 7 7 7 7 7 7 7 7 7 7 7 7 7 7 7 7 7 7 7 7 7 7 7 7 7 7 7 7 7 7 7 7 7 7 7 7 7 7 7 7 7 7 9 > O $ , z N.N.:.:.=.n N.N.0.:.:.-.v.z v b.k n b.b.N.0.n.:.n.:.0.-.N.;.M.;.N.b.-.A.",
"8 8 8 8 8 8 8 8 8 8 8 8 8 8 8 8 8 8 8 8 8 8 8 8 8 8 8 , , , $ $ # + + + + + + + + + + + + + + + + + + + + + + + + + + + + + + + + + + + + + + + + + + + + + + + + + + + + + + + + + + + + + + + + + + + + + + + + + + + + + + + + + + + + + + + + + + + + + + + + + + + + + + + + + + + + + + + + + + + + + + + + + + + + + + + + + + + + + + 7 9 9 9 9 9 9 9 9 9 9 9 9 9 9 9 9 9 9 9 9 9 9 9 9 9 9 9 9 9 9 9 9 9 9 9 9 9 9 9 9 9 9 9 9 9 9 9 7 + , 8 v n n z v v z n n v v v v v v v v v v v v n z n n n n n v v v v z n v v v ",
"8 8 8 8 8 8 8 8 8 8 8 8 8 8 8 8 8 8 8 8 8 8 8 8 8 8 8 , , , $ $ # # + + + + + + + + + + + + + + + + + + + + + + + + + + + + + + + + + + + + + + + + + + + + + + + + + + + + + + + + + + + + + + + + + + + + + + + + + + + + + + + + + + + + + + + + + + + + + + + + + + + + + + + + + + + + + + + + + + + + + + + + + + + + + + + + # + + $ 9 q 9 9 9 9 9 9 9 9 9 9 9 9 9 9 9 9 9 9 9 9 9 9 9 9 9 9 9 9 9 9 9 9 9 9 9 9 9 9 9 9 9 9 9 9 9 9 q 9 + , p n n n n n n n n n n n n n n n n n n n n n n n n n n n n n n n n n n n n n ",
"8 8 8 8 8 8 8 8 8 8 8 8 8 8 8 8 8 8 8 8 8 8 8 8 8 8 8 , , , $ $ $ # # # # # # # # # # # # # # # # # # # # # # # # # # # # # # # # # # # # # # # # # # # # # # # # # # # # # # # # # # # # # # # # # # # # # # # # # # # # # # # # # # # # # # # # # # # # # # # # # # # # # # # # # # # # # # # # # # # # # # # # # # # # # # # # # # # 7 q q q q q q q q q q q q q q q q q q q q q q q q q q q q q q q q q q q q q q q q q q q q q q q q q q 9 + , p n n n n n n n n n n n n n n n n n n n n n n n n n n n n n n n n n n n n n ",
"8 8 8 8 8 8 8 8 8 8 8 8 8 8 8 8 8 8 8 8 8 8 8 8 8 8 8 , , , , $ $ $ $ $ $ $ $ $ $ $ $ $ $ $ $ $ $ $ $ $ $ $ $ $ $ $ $ $ $ $ $ $ $ $ $ $ $ $ $ $ $ $ $ $ $ $ $ $ $ $ $ $ $ $ $ $ $ $ $ $ $ $ $ $ $ $ $ $ $ $ $ $ $ $ $ $ $ $ $ $ $ $ $ $ $ $ $ $ $ $ $ $ $ $ $ $ $ $ $ $ $ $ $ $ $ $ $ $ $ $ $ $ $ $ $ $ $ $ $ $ $ $ $ $ $ $ $ $ $ $ $ 0 r r r r r r r r r r r r r r r r r r r r r r r r r r r r r r r r r r r r r r r r r r r r r r r r r r r q # p a a a a a a a a a a a a a a a a a a a a a a a a a a a a a a a a a a a a a a ",
"8 8 8 8 8 8 8 8 8 8 8 8 8 8 8 8 8 8 8 8 8 8 8 8 8 8 8 , , , , , , , , , , , , , , , , , , , , , , , , , , , , , , , , , , , , , , , , , , , , , , , , , , , , , , , , , , , , , , , , , , , , , , , , , , , , , , , , , , , , , , , , , , , , , , , , , , , , , , , , , , , , , , , , , , , , , , , , , , , , , , , , , , , , , $ 8 r r r r r r r r r r r r r r r r r r r r r r r r r r r r r r r r r r r r r r r r r r r r r r r r r r r r r q $ , p p p p p p p p p p p p p p p p p p p p p p p p p p p p p p p p p p p p p p ",
"8 8 8 8 8 8 8 8 8 8 8 8 8 8 8 8 8 8 8 8 8 8 8 8 8 8 8 8 , , , , , , , , , , , , , , , , , , , , , , , , , , , , , , , , , , , , , , , , , , , , , , , , , , , , , , , , , , , , , , , , , , , , , , , , , , , , , , , , , , , , , , , , , , , , , , , , , , , , , , , , , , , , , , , , , , , , , , , , , , , , , , , , , , , , 0 r u r r r r r r r r r r r r r r r r r r r r r r r r r r r r r r r r r r r r r r r r r r r r r r r r r r r u r , , , , , , , , , , , , , , , , , , , , , , , , , , , , , , , , , , , , , , , , ",
"8 8 8 8 8 8 8 8 8 8 8 8 8 8 8 8 8 8 8 8 8 8 8 8 8 8 8 8 , , , , , , , , , , , , , , , , , , , , , , , , , , , , , , , , , , , , , , , , , , , , , , , , , , , , , , , , , , , , , , , , , , , , , , , , , , , , , , , , , , , , , , , , , , , , , , , , , , , , , , , , , , , , , , , , , , , , , , , , , , , , , , , , , , , r y u u u u u u u u u u u u u u u u u u u u u u u u u u u u u u u u u u u u u u u u u u u u u u u u u u u u u y r , p a a p p p p p p p p p p a a p p p p p p p p p p a a a a a a a p p p p p p p ",
"8 8 8 8 8 8 8 8 8 8 8 8 8 8 8 8 8 8 8 8 8 8 8 8 8 8 8 8 8 8 8 8 8 8 8 8 8 8 8 8 8 8 8 8 8 8 8 8 8 8 8 8 8 8 8 8 8 8 8 8 8 8 8 8 8 8 8 8 8 8 8 8 8 8 8 8 8 8 8 8 8 8 8 8 8 8 8 8 8 8 8 8 8 8 8 8 8 8 8 8 8 8 8 8 8 8 8 8 8 8 8 8 8 8 8 8 8 8 8 8 8 8 8 8 8 8 8 8 8 8 8 8 8 8 8 8 8 8 8 8 8 8 8 8 8 8 8 8 8 8 8 8 8 8 8 8 , 0 b c c c c c c c c c c c c c c c c c c c c c c c c c c c c c c c c c c c c c c c c c c c c c c c c c c c c c c c c b , p d a k l l l l l l l l l d a l l l l l l l l l l d a a a a a d l l l l l l l ",
"8 8 8 8 8 8 8 8 8 8 8 8 8 8 8 8 8 8 8 8 8 8 8 8 8 8 8 8 8 8 8 8 8 8 8 8 8 8 8 8 8 8 8 8 8 8 8 8 8 8 8 8 8 8 8 8 8 8 8 8 8 8 8 8 8 8 8 8 8 8 8 8 8 8 8 8 8 8 8 8 8 8 8 8 8 8 8 8 8 8 8 8 8 8 8 8 8 8 8 8 8 8 8 8 8 8 8 8 8 8 8 8 8 8 8 8 8 8 8 8 8 8 8 8 8 8 8 8 8 8 8 8 8 8 8 8 8 8 8 8 8 8 8 8 8 8 8 8 8 8 8 8 8 8 8 , a c c c c c c c c c c c c c c c c c c c c c c c c c c c c c c c c c c c c c c c c c c c c c c c c c c c c c c c c c c b , p d a =.n n n n n n n n -.l a -.n n n n n n n n -.k a d a d a l -.n n n n n n ",
"8 8 8 8 8 8 8 8 8 8 8 8 8 8 8 8 8 8 8 8 8 8 8 8 8 8 8 8 8 8 8 8 8 8 8 8 8 8 8 8 8 8 8 8 8 8 8 8 8 8 8 8 8 8 8 8 8 8 8 8 8 8 8 8 8 8 8 8 8 8 8 8 8 8 8 8 8 8 8 8 8 8 8 8 8 8 8 8 8 8 8 8 8 8 8 8 8 8 8 8 8 8 8 8 8 8 8 8 8 8 8 8 8 8 8 8 8 8 8 8 8 8 8 8 8 8 8 8 8 8 8 8 8 8 8 8 8 8 8 8 8 8 8 8 8 8 8 8 8 8 8 8 8 , 8 k c c c c c c c c c c c c c c c c c c c c c c c c c c c c c c c c c c c c c c c c c c c c c c c c c c c c c c c c c c c b , p d a n d a 8 p p p a p n l a =.a a p p p p a a n l a d a d a l n p a a a a a ",
"8 8 8 8 8 8 8 8 8 8 8 8 8 8 8 8 8 8 8 8 8 8 8 8 8 8 8 8 8 8 8 8 8 8 8 8 8 8 8 8 8 8 8 8 8 8 8 8 8 8 8 8 8 8 8 8 8 8 8 8 8 8 8 8 8 8 8 8 8 8 8 8 8 8 8 8 8 8 8 8 8 8 8 8 8 8 8 8 8 8 8 8 8 8 8 8 8 8 8 8 8 8 8 8 8 8 8 8 8 8 8 8 8 8 8 8 8 8 8 8 8 8 8 8 8 8 8 8 8 8 8 8 8 8 8 8 8 8 8 8 8 8 8 8 8 8 8 8 8 8 8 8 , 8 b c c c c c c c c c c c c c c c c c c c c c c c c c c c c c c c c c r q q q q q q q q q q q q q q q q q q q q q q q q q r b , p d a =.k k >.-.>.>.d a n l a =.a l =.=.-.n a a n l a d a d a l n a d a l a d ",
"8 8 8 8 8 8 8 8 8 8 8 8 8 8 8 8 8 8 8 8 8 8 8 8 8 8 8 8 8 8 8 8 8 8 8 8 8 8 8 8 8 8 8 8 8 8 8 8 8 8 8 8 8 8 8 8 8 8 8 8 8 8 8 8 8 8 8 8 8 8 8 8 8 8 8 8 8 8 8 8 8 8 8 8 8 8 8 8 8 8 8 8 8 8 8 8 8 8 8 8 8 8 8 8 8 8 8 8 8 8 8 8 8 8 8 8 8 8 8 8 8 8 8 8 8 8 8 8 8 8 8 8 8 8 8 8 8 8 8 8 8 8 8 8 8 8 8 8 8 8 8 , a c c c c c c c c c c c c c c c c c c c c c c c c c c c c c c c c c c q > > > # > # # > > # > > > > # # , > > # > # > > > # > 0 8 p d a =.d l S.uXtXC.k a n l a =.a l uXSXSXL.p d n l a d a d a l n a a v yXv a ",
"8 8 8 8 8 8 8 8 8 8 8 8 8 8 8 8 8 8 8 8 8 8 8 8 8 8 8 8 8 8 8 8 8 8 8 8 8 8 8 8 8 8 8 8 8 8 8 8 8 8 8 8 8 8 8 8 8 8 8 8 8 8 8 8 8 8 8 8 8 8 8 8 8 8 8 8 8 8 8 8 8 8 8 8 8 8 8 8 8 8 8 8 8 8 8 8 8 8 8 8 8 8 8 8 8 8 8 8 8 8 8 8 8 8 8 8 8 8 8 8 8 8 8 8 8 8 8 8 8 8 8 8 8 8 8 8 8 8 8 8 8 8 8 8 8 8 8 8 8 8 , k c c c c c c c c c c c c c c c c c c c c c c c c c c c c c c c c c c c 0 > , , l , a a > > k , > , , a k + 8 , l > k 8 > , k > , 8 p d a n k p z BXuXd a a n l a =.k 8 b.SXtXk a a n l a d a d a l n a 8 L.DXL.8 ",
"8 8 8 8 8 8 8 8 8 8 8 8 8 8 8 8 8 8 8 8 8 8 8 8 8 8 8 8 8 8 8 8 8 8 8 8 8 8 8 8 8 8 8 8 8 8 8 8 8 8 8 8 8 8 8 8 8 8 8 8 8 8 8 8 8 8 8 8 8 8 8 8 8 8 8 8 8 8 8 8 8 8 8 8 8 8 8 8 8 8 8 8 8 8 8 8 8 8 8 8 8 8 8 8 8 8 8 8 8 8 8 8 8 8 8 8 8 8 8 8 8 8 8 8 8 8 8 8 8 8 8 8 8 8 8 8 8 8 8 8 8 8 8 8 8 8 8 8 , 8 k c c c c c c c c c c c c c c c c c c c c c c c c c c c c c c c c c c c c 7 0 AXm Y.W.J.W., ;.AXV.o Y.a v.W.B.AXv W.Y.Y.W.+ B.AXv.+ p p d a =.k p yXDXDX8Xp a n l a =.a l N.SXyX>.a a n l a d a d a l n p >.SXSXSX:.",
"8 8 8 8 8 8 8 8 8 8 8 8 8 8 8 8 8 8 8 8 8 8 8 8 8 8 8 8 8 8 8 8 8 8 8 8 8 8 8 8 8 8 8 8 8 8 8 8 8 8 8 8 8 8 8 8 8 8 8 8 8 8 8 8 8 8 8 8 8 8 8 8 8 8 8 8 8 8 8 8 8 8 8 8 8 8 8 8 8 8 8 8 8 8 8 8 8 8 8 8 8 8 8 8 8 8 8 8 8 8 8 8 8 8 8 8 8 8 8 8 8 8 8 8 8 8 8 8 8 8 8 8 8 8 8 8 8 8 8 8 8 8 8 8 8 8 8 , 0 b c c c c c c c c c c c c c c c c c c c c c c c c c c c c c c c c c c c c c 0 # E.n > W.o W.8 -.SXB.8 W.> . J.v.E.8 z Y.+ W.o V.SX;.+ p p d a =.k k M.Z.C.m.d a n l a =.a z C.M.C.t.a a n l a d a d a l n p =.C.M.C.-.",
"8 8 8 8 8 8 8 8 8 8 8 8 8 8 8 8 8 8 8 8 8 8 8 8 8 8 8 8 8 8 8 8 8 8 8 8 8 8 8 8 8 8 8 8 8 8 8 8 8 8 8 8 8 8 8 8 8 8 8 8 8 8 8 8 8 8 8 8 8 8 8 8 8 8 8 8 8 8 8 8 8 8 8 8 8 8 8 8 8 8 8 8 8 8 8 8 8 8 8 8 8 8 8 8 8 8 8 8 8 8 8 8 8 8 8 8 8 8 8 8 8 8 8 8 8 8 8 8 8 8 8 8 8 8 8 8 8 8 8 8 8 8 8 8 8 8 , a c c c c c c c c c c c c c c c c c c c c c c c c c c c c c c c c c c c c c c c 0 o Y.-.W.q.Y.Y.o V.rXY.v.J.. V.W.o W.n MXv W.B.# Y.rXJ.o p p d a n d a , , , , a p n l a n a p , , , 8 a a n l a d a d a l n a p , , , p ",
"8 8 8 8 8 8 8 8 8 8 8 8 8 8 8 8 8 8 8 8 8 8 8 8 8 8 8 8 8 8 8 8 8 8 8 8 8 8 8 8 8 8 8 8 8 8 8 8 8 8 8 8 8 8 8 8 8 8 8 8 8 8 8 8 8 8 8 8 8 8 8 8 8 8 8 8 8 8 8 8 8 8 8 8 8 8 8 8 8 8 8 8 8 8 8 8 8 8 8 8 8 8 8 8 8 8 8 8 8 8 8 8 8 8 8 8 8 8 8 8 8 8 8 8 8 8 8 8 8 8 8 8 8 8 8 8 8 8 8 8 8 8 8 8 , 8 k c c c c c c c c c c c c c c c c c c c c c c c c c c c c c c c c c c c c c c c c 0 # q.;.W.J.W.Y.v.m W.-.q.l o Y.W.z ;.v.rXJ.W.J.q.q.W.n # p p d a =.n v n n n v v z -.l a -.v v n n n v v v -.l a d a d a l -.z v n n n v ",
"8 8 8 8 8 8 8 8 8 8 8 8 8 8 8 8 8 8 8 8 8 8 8 8 8 8 8 8 8 8 8 8 8 8 8 8 8 8 8 8 8 8 8 8 8 8 8 8 8 8 8 8 8 8 8 8 8 8 8 8 8 8 8 8 8 8 8 8 8 8 8 8 8 8 8 8 8 8 8 8 8 8 8 8 8 8 8 8 8 8 8 8 8 8 8 8 8 8 8 8 8 8 8 8 8 8 8 8 8 8 8 8 8 8 8 8 8 8 8 8 8 8 8 8 8 8 8 8 8 8 8 8 8 8 8 8 8 8 8 8 8 8 8 , 8 b c c c c c c c c c c c c c c c c c c c c c c c c c c c c c c c c c c c c c c c c c 0 > # # o + o + # # o # # > , o o > # # o + o + # # o # , 8 p d a l v v v v v v v v v k a z v v v v v v v v z d a a a a a k v v v v v v v ",
"8 8 8 8 8 8 8 8 8 8 8 8 8 8 8 8 8 8 8 8 8 8 8 8 8 8 8 8 8 8 8 8 8 8 8 8 8 8 8 8 8 8 8 8 8 8 8 8 8 8 8 8 8 8 8 8 8 8 8 8 8 8 8 8 8 8 8 8 8 8 8 8 8 8 8 8 8 8 8 8 8 8 8 8 8 8 8 8 8 8 8 8 8 8 8 8 8 8 8 8 8 8 8 8 8 8 8 8 8 8 8 8 8 8 8 8 8 8 8 8 8 8 8 8 8 8 8 8 8 8 8 8 8 8 8 8 8 8 8 8 8 8 8 a c c c c c c c c c c c c c c c c c c c c c c c c c c c c c c c c c c c c c c c c c c c r , , , 8 , 8 , , , , , , , > , 8 , , , 8 , 8 , , , , 9 r 8 p d d a a a a a a a a a a d d a a a a a a a a a a d d d d d d a a a a a a a a ",
", , , , , , , , , , , , , , , , , , , , , , , , , , , , , , , , , , , , , , , , , , , , , , , , , , , , , , , , , , , , , , , , , , , , , , , , , , , , , , , , , , , , , , , , , , , , , , , , , , , , , , , , , , , , , , , , , , , , , , , , , , , , , , , , , , , , , , , , , , , , , , , 8 8 8 8 8 8 8 8 8 8 8 8 8 8 8 8 8 8 8 8 8 8 8 8 8 8 8 8 8 8 8 8 8 8 8 8 8 8 8 8 8 8 8 8 8 , , , , , , , , , , , , , , , , , , , , , , , , , , , 8 , , , , , , , , , , , , , , , , , , , , , , , , , , , , , , , , , , , , , , , , ",
", , , , , , , , , , , , , , , , , , , , , , , , , , , , , , , , , , , , , , , , , , , , , , , , , , , , , , , , , , , , , , , , , , , , , , , , , , , , , , , , , , , , , , , , , , , , , , , , , , , , , , , , , , , , , , , , , , , , , , , , , , , , , , , , , , , , , , , , , , , , , , , , , , , , , , , , , , , , , , , , , , , , , , , , , , , , , , , , , , , , , , , , , , , , , , , , , , , , , , , , , , , , , , , , , , , , , , , , , , , , , , , , , , , , , , , , , , , , , , , , , , , , , , , , , , , , , , , , ",
"a a a a a a a a a a a a a d a a a a d a a a a a a a a a a a a a a a a a a a a a a a a a a a a a a a a a a a a a a a a a a a a d a a a a a a a a a a a a a a a a a a a a a a a a a a a a a a a a a a a a a a a d a a a d d d a a a a a a a a a a a a a a a a a a a a a a a a a a a a a a a a a a a a a a a d d a a a a d d a a a a d a a a a a a a a a a a a a a a a a a a a a a a a a a a a a a a a a d a a a a a d a a a a a a a a a a a a a a a a a a a a a a a a a a a a a a a a a a a a a a a a a a a a a a a a a a a a a a ",
"d d d d d d d a a d a a d a d d d d p d d a d d d d d d d d d d d d d d d d d d d d d d d d d d d d a d a a a a d d d d d d d p d a d d d d d d d a d d d d d d d d d d d d d d d d d d d d d d d d d a d a p p a d d a a p d a d d d d d d d a d d d d d d d d d d d d d d d d d d d d d d d d d d a a d a p a d d d a p d d d a a d d d a d d d d d d d d d d d d d d d d d d d d d d d d d d a d a p a d d d d p d d d a d d d d d d d d d a d d d d d d d d d d d d d d d d d d d d d d d d d d d d d d d d d d d d d d d d ",
"a a a a a a a a d a n v a =.8 p a 8 :.a a d a a a a a a a a a a a a a a a a a a a a a a a a a a a a a a k k k k a p d p a a a :.a d p p a a a p a d a a a a a a a a a a a a a a a a a a a a a a a a a a a k n n v p p n =.-.p d p p a a p p a d a a a a a a a a a a a a a a a a a a a a a a a a a a a a a n =.a 8 d p l ;.p p d d =.a p a d a a a a a a a a a a a a a a a a a a a a a a a a a a d a z -.l 8 a a p :.a p a d a p a a a a p p a a a a a a a a a a a a a a a a a a a a a a a a a a a a a a a a a a a a a a a a a a ",
"a a a a a a a d a v 8XI.n.l D.;.l -.R.0.k a d a a a a a a a a a a a a a a a a a a a a a a a a a a a k , N.;.z D.k -.a :.l a 0.8Xp a =.-.l k n G.z a d a a a a a a a a a a a a a a a a a a a a a a a a d a k K.tX0.-.n k n.G., d ;.n k k 0.D.a a d a a a a a a a a a a a a a a a a a a a a a a a a a d p =.wXn.v :.d d A.H.p ;.p k n l ;.z a d a a a a a a a a a a a a a a a a a a a a a a a a a d a 8XD.n -.z a :.8Xp ;.k a a :.k l k k n.N.a d a a a a a a a a a a a a a a a a a a a a a a a a a a a a a a a a a a a a a a a a ",
"a a a a a a a d p n R.G.G.D.wXA.I.N.8XT.G.8 k a a a a a a a a a a a a a a a a a a a a a a a a a a a k , A.K.D.K.G.9X0.A.I.F.T.9X, :.T.A.A.:.K.eX=.a d a a a a a a a a a a a a a a a a a a a a a a a a a d p v G., A.T.F.D.A.$ A.H.K.0.N.U.wXd a d a a a a a a a a a a a a a a a a a a a a a a a a a d p -.9Xn v U.F.G.9XG.D.wXb.a G.G.R.I.a d a a a a a a a a a a a a a a a a a a a a a a a a a a a 9X0.l D.I.D.T.R.M.9XH., A.T.D.G.-.D.R.T.p d d a a a a a a a a a a a a a a a a a a a a a a a a a a a a a a a a a a a a a a a ",
"a a a a a a a d a n qX-.n H.D.:.K.O T.z T.p d a a a a a a a a a a a a a a a a a a a a a a a a a a a k , A.I.D.9XqXG.G.F.eXR.k R., F.0.l F.:.H.D., k a a a a a a a a a a a a a a a a a a a a a a a a a a d p -.K.n H.9XU.D.D.$ 8X8 N.0.A.G.n., k a a a a a a a a a a a a a a a a a a a a a a a a a a d p -.qX:.M.I.eXD.n T.9XK.M.a K.K.n K.z a d a a a a a a a a a a a a a a a a a a a a a a a a a a wXM.0.H.qX8Xk I.8XT.F.p R.d K.T.=.G.F.:., k a a a a a a a a a a a a a a a a a a a a a a a a a a a a a a a a a a a a a a a a ",
"a a a a a a a d p n G.# =.F.D.F.K.D.K.n K.p d a a a a a a a a a a a a a a a a a a a a a a a a a a a k , N.;.z F.G.A.D.9XK.F.R.R., -.8XM.I.9XM.T.:.p d a a a a a a a a a a a a a a a a a a a a a a a a a d p =.D.;.wXK.K.A.A.$ N.T.N.T.9Xb.R.l a d a a a a a a a a a a a a a a a a a a a a a a a a a d p ;.D.+ K.8XG.G.9XD.A.K.v k G.F.=.H.l a d a a a a a a a a a a a a a a a a a a a a a a a a a k K.$ n.9XK.F.R.U.b.T.:.8 N.8XN.n.R.R.n.T.a a d a a a a a a a a a a a a a a a a a a a a a a a a a a a a a a a a a a a a a a a ",
"a a a a a a a a a d k d d k k z k n k d k a a a a a a a a a a a a a a a a a a a a a a a a a a a a a a a k k k d k -.d n k a n k d a v z l v a l z a d a a a a a a a a a a a a a a a a a a a a a a a a a a a d k a v l k k k a a n k v z a v k a d a a a a a a a a a a a a a a a a a a a a a a a a a a a d k a d n a k n a d -.l a k k d k d a a a a a a a a a a a a a a a a a a a a a a a a a a a a k k a n l a n k a n v a a n a a n l a v k a a a a a a a a a a a a a a a a a a a a a a a a a a a a a a a a a a a a a a a a a ",
"a a a a a a a a a a a a a a a a a p a a a a a a a a a a a a a a a a a a a a a a a a a a a a a a a a a a a a a a a p a p a a p a a d a a a a a a a d a a a a a a a a a a a a a a a a a a a a a a a a a a a a a a d a a a a a a d p a a a d a a a a a a a a a a a a a a a a a a a a a a a a a a a a a a a a a d a p a a p a a p a a a a a a a a a a a a a a a a a a a a a a a a a a a a a a a a a a a a a a p a a p a d p a a d p a d p a a a a a a a a a a a a a a a a a a a a a a a a a a a a a a a a a a a a a a a a a a a a a ",
"d d d d d d d d d d d d d d d d d d d d d d d d d d d d d d d d d d d d d d d d d d d d d d d d d d d d d d d d d d d d d d d d d d d d d d d d d d d d d d d d d d d d d d d d d d d d d d d d d d d d d d d d d d d d d d d d d d d d d d d d d d d d d d d d d d d d d d d d d d d d d d d d d d d d d d d d d d d d d d k d d d d d d d d d d d d d d d d d d d d d d d d d d d d d d d d d d d d d d d d d d d d d d d d d d d d d d d d d d d d d d d d d d d d d d d d d d d d d d d d d d d d d d d d d d d d d d d d d ",
"p p p p p p p p p p p p p p p p p p p p p p p p p p p p p p p p p p p p p p p p p p p p p p p p p p p p p p p p p p p p p p p p p p p p p p p p p p p p p p p p p p p p p p p p p p p p p p p p p p p p p p p p p p p p p p p p p p p p p p p p p p p p p p p p p p p p p p p p p p p p p p p p p p p p p p p p p p p p p p p p p p p p p p p p p p p p p p p p p p p p p p p p p p p p p p p p p p p p p p p p p p p p p p p p p p p p p p p p p p p p p p p p p p p p p p p p p p p p p p p p p p p p p p p p p p p p p p p p ",
", , , , , , , , , , , , , , , , , , , , , , , , , , , , , , , , , , , , , , , , , , , , , , , , , , , , , , , , , , , , , , , , , , , , , , , , , , , , , , , , , , , , , , , , , , , , , , , , , , , , , , , , , , , , , , , , , , , , , , , , , , , , , , , , , , , , , , , , , , , , , , , , , , , , , , , , , , , , , , , , , , , , , , , , , , , , , , , , , , , , , , , , , , , , , , , , , , , , , , , , , , , , , , , , , , , , , , , , , , , , , , , , , , , , , , , , , , , , , , , , , , , , , , , , , , , , , , , , ",
"a a a a a a a a a a a a a a a p a a a a a a a a a a a a a a a a a a a a a a a a a a a a a a a a a a a a a a a a a a a a a a a a a a a a a a a a a a a a a a a a a a a a a a a a a a a a a a a a a a a a a a a a a a a a a a a a a a a a a a a a a a a a a a a a a a a a a a a a a a a a a a a a a a a a a a a a a a a a p p a a a a a a a a a a a a a a a a a a a a a a a a a a a a a a a a a a a a a a a a a a a a a p p a a a a a a a a a a a a a a a a a a a a a a a a a a a a a a a a a a a a a a a a a a a a a a a a a a a ",
"d d d d d d d d d d d k p p k k k a a d d d d d d d d d d d d d d d d d d d d d d d d d d d d d d d d d d d d d d d d a a d k k a a a d d d d d d d d d d d d d d d d d d d d d d d d d d d d d d d d d d d d d d d a a d k k a a a d d d d d d d d d d d d d d d d d d d d d d d d d d d d d d d d d d d d d d k a a d k k a p a k d d d d d d d d d d d d d d d d d d d d d d d d d d d d d d d d d d d d d k a a d k k a p a k d d d d d d d d d d d d d d d d d d d d d d d d d d d d d d d d d d d d d d d d d d d d d d d ",
"a a a a a a a a a d a p &.x.hXhXu.e.%.k a d a a a a a a a a a a a a a a a a a a a a a a a a a a a a a a a a a a d a a b r.e.f.f.e.%.k a d a a a a a a a a a a a a a a a a a a a a a a a a a a a a a a a a a a d a a b 9.e.f.f.e.%.k a d a a a a a a a a a a a a a a a a a a a a a a a a a a a a a a a a a a d a p c 7.j.k.k.j.9.k p d a a a a a a a a a a a a a a a a a a a a a a a a a a a a a a a a a a d a p b 7.j.k.k.j.5.k p d a a a a a a a a a a a a a a a a a a a a a a a a a a a a a a a a a a a a a a a a a a a a a a ",
"a a a a a a a a d a k x.xXvXzX<X6.i.j.f.c a d a a a a a a a a a a a a a a a a a a a a a a a a a a a a a a a a d a d 9.p.j.u.7.7.i.j.f.c a d a a a a a a a a a a a a a a a a a a a a a a a a a a a a a a a a d a d 9.p.j.u.7.7.i.j.f.c a d a a a a a a a a a a a a a a a a a a a a a a a a a a a a a a a a d a a 6.l.>Xk.j.j.l.>Xk.%.a d a a a a a a a a a a a a a a a a a a a a a a a a a a a a a a a a d a a 6.l.>Xk.j.j.k.>Xk.9.a d a a a a a a a a a a a a a a a a a a a a a a a a a a a a a a a a a a a a a a a a a a a a a ",
"a a a a a a a d a k 2XvX2X&.0 , , 0 O.p.p.c a d a a a a a a a a a a a a a a a a a a a a a a a a a a a a a a d a d w.j.7.r , , , 0 O.p.p.c a d a a a a a a a a a a a a a a a a a a a a a a a a a a a a a a a a a w.j.7.r , , , 0 O.i.p.$.a d a a a a a a a a a a a a a a a a a a a a a a a a a a a a a a a a a u.>Xj.y 8 , , 0 5.l.>X9.p d a a a a a a a a a a a a a a a a a a a a a a a a a a a a a a a d a 7.>Xj.O.0 , , 0 5.l.>X9.p d a a a a a a a a a a a a a a a a a a a a a a a a a a a a a a a a a a a a a a d d d d d d ",
"a a a a a a a k p c.vXx., % , SXA.O $ r i.i.k a d a a a a a a a a a a a a a a a a a a a a a a a a a a a a a d a 9.j.5., $ , , , , @ r i.i.l a d a a a a a a a a a a a a a a a a a a a a a a a a a a a a a d a &.j.6., $ , , , , @ r i.i.x a d a a a a a a a a a a a a a a a a a a a a a a a a a a a a a d p 5.>Xu.8 @ , , , , @ r k.l.c a d a a a a a a a a a a a a a a a a a a a a a a a a a a a a a d p 9.>Xi.0 @ , , , , @ r k.l.c a d a a a a a a a a a a a a a a a a a a a a a a a a a a a a a a a a a a a a a a a a a a a ",
"a a a a a a d a $.kXhX, $ , p DXL.O , @ y j.9.a d a a a a a a a a a a a a a a a a a a a a a a a a a a a a d a k i.7., , , , , , , , @ y j.r.a d a a a a a a a a a a a a a a a a a a a a a a a a a a a a d a k i.u.8 , , , , , , , @ y j.w.a d a a a a a a a a a a a a a a a a a a a a a a a a a a a a d a k k.k.0 $ , , , , , , @ y >Xi.a d a a a a a a a a a a a a a a a a a a a a a a a a a a a a d a k k.l.0 $ , , , , , , @ y >Xi.a d a a a a a a a a a a a a a a a a a a a a a a a a a a a a a a a a a a a a d l l l l l l ",
"a a a a a a k p d.vXe.% , , p DXL.O , , , u.f.k a d a a a a a a a a a a a a a a a a a a a a a a a a a a a d a %.j.O.$ , , , , , , , , , 7.f.k a d a a a a a a a a a a a a a a a a a a a a a a a a a a a d a %.j.O.% + + # , , , , , , 7.f.k a d a a a a a a a a a a a a a a a a a a a a a a a a a a a d p %.>X6.@ , , , , , , , , , j.l.x a d a a a a a a a a a a a a a a a a a a a a a a a a a a a d a %.>X6.@ , , , , , , , , , p.l.b a d a a a a a a a a a a a a a a a a a a a a a a a a a a a a a a a a a d a z -.n n n n n ",
"a a a a a a k p x.xXy $ , , , N.n # , , $ 5.p.l a d a a a a a a a a a a a a a a a a a a a a a a a a a a a d a 9.p.e $ , , , , , , , , $ 5.p.x a d a a a a a a a a a a a a a a a a a a a a a a a a a a a d a 9.i.q l :.:.n , , , , , $ 5.p.b a d a a a a a a a a a a a a a a a a a a a a a a a a a a a d p 6.>Xu $ , , , , , , , , @ 6.>Xc a d a a a a a a a a a a a a a a a a a a a a a a a a a a a d p 6.>Xy $ , , , , , , , , @ 6.>X%.a d a a a a a a a a a a a a a a a a a a a a a a a a a a a a a a a a a d a z v a a a a a ",
"a a a a a a k p 3XlX0 $ , , , + # , , , $ O.j.b a d a a a a a a a a a a a a a a a a a a a a a a a a a a a d a w.p.0 , , , # + , , , , $ O.j.b a d a a a a a a a a a a a a a a a a a a a a a a a a a a a d p f.hX> 8XFXGXtX# , , , , $ O.j.c a d a a a a a a a a a a a a a a a a a a a a a a a a a a a d p 7.>Xr $ , , $ + , , , , @ 5.>X%.p d a a a a a a a a a a a a a a a a a a a a a a a a a a a d p 7.>Xr $ , , $ + , , , , @ O.>X9.p d a a a a a a a a a a a a a a a a a a a a a a a a a a a a a a a a a d a z v a d d d d ",
"a a a a a a k p <XxXc $ , , , , , , , , $ 5.p.x a d a a a a a a a a a a a a a a a a a a a a a a a a a a a d a r.p.r $ , + U.G.+ , , , $ 5.p.b a d a a a a a a a a a a a a a a a a a a a a a a a a a a a k 2 x.bX%.a -.=.z , , , , , $ O.p.b a d a a a a a a a a a a a a a a a a a a a a a a a a a a a d p 7.>Xy $ , O L.U.# , , , @ 6.>X$.a d a a a a a a a a a a a a a a a a a a a a a a a a a a a d p 6.>Xy $ , + L.U.# , , , @ 5.>X%.p d a a a a a a a a a a a a a a a a a a a a a a a a a a a a a a a a a d a z v a d d a a ",
"a a a a a a k p d.bXy.% , , , , , , , , , u.e.a a a a a a a a a a a a a a a a a a a a a a a a a a a a a a d a %.j.O.$ # =.FXL.+ , , , , 7.f.d a a a a a a a a a a a a a a a a a a a a a a a a a a a a a k p y.vXf.O # + # , , , , , , 7.f.k a d a a a a a a a a a a a a a a a a a a a a a a a a a a a d p &.>X6.@ $ z GXU.+ , , , , j.k.k a d a a a a a a a a a a a a a a a a a a a a a a a a a a a d a %.>X8.@ # z GXU.+ , , , , p.l.k a d a a a a a a a a a a a a a a a a a a a a a a a a a a a a a a a a a d a z v a d a v n ",
"a a a a a a d a c kXhX8 $ , , , , , , @ O.j.9.a d a a a a a a a a a a a a a a a a a a a a a a a a a a a a d a k i.u.8 + SXSX+ , , , @ y j.9.a d a a a a a a a a a a a a a a a a a a a a a a a a a a a a d a l zXzX0 $ , , , , , , @ y j.r.a d a a a a a a a a a a a a a a a a a a a a a a a a a a a a d a k k.k.q O NXSX# , , , @ O.>Xu.a d a a a a a a a a a a a a a a a a a a a a a a a a a a a a d a k k.l.q O NXSX# , , , @ y >Xi.a d a a a a a a a a a a a a a a a a a a a a a a a a a a a a a a a a a a d a z v a k 8 N.BX",
"a a a a a a a k p f.bX<X8 , , , , , , u i.f.k a d a a a a a a a a a a a a a a a a a a a a a a a a a a a a a d a &.j.6., M.-.+ , , , r i.f.k a d a a a a a a a a a a a a a a a a a a a a a a a a a a a a a k p d.bX1X0 , , , , , , r i.i.l a d a a a a a a a a a a a a a a a a a a a a a a a a a a a a a d p 9.>Xi.> b.:.+ , , , u k.l.b a d a a a a a a a a a a a a a a a a a a a a a a a a a a a a a d p 9.>Xj.7 b.>.+ , , , r k.l.c a d a a a a a a a a a a a a a a a a a a a a a a a a a a a a a a a a a a d a z v a k p m.SX",
"a a a a a a a d a a x.ZX<X, , , , , x p.i.c a d a a a a a a a a a a a a a a a a a a a a a a a a a a a a a a a a a 9.<X<X+ $ , , , r p.p.c a d a a a a a a a a a a a a a a a a a a a a a a a a a a a a a a d d p x.ZX1X, , , , , r p.p.$.a d a a a a a a a a a a a a a a a a a a a a a a a a a a a a a a a d a 6.gXzX$ # , , , r l.l.9.a d a a a a a a a a a a a a a a a a a a a a a a a a a a a a a a a d a 6.gXzX, # , , , q l.>X9.a d a a a a a a a a a a a a a a a a a a a a a a a a a a a a a a a a a a a d a z v a k p M.SX",
"a a a a a a a a d a a x.y.p a a a a k r.c a d a a a a a a a a a a a a a a a a a a a a a a a a a a a a a a a a d d p c.y.a d a a a d 9.$.a d a a a a a a a a a a a a a a a a a a a a a a a a a a a a a a a a d a p c.y.p a a a a d 9.$.a d a a a a a a a a a a a a a a a a a a a a a a a a a a a a a a a a d d 2 x.c.p k a a a a 7.9.p d a a a a a a a a a a a a a a a a a a a a a a a a a a a a a a a a d d 2 c.c.p k a a a a 7.9.p d a a a a a a a a a a a a a a a a a a a a a a a a a a a a a a a a a a a a d a z v a k p m.yX",
"a a a a a a a a a d a p a a d d d d a a a d a a a a a a a a a a a a a a a a a a a a a a a a a a a a a a a a a a d a p a a d d d d a a a d a a a a a a a a a a a a a a a a a a a a a a a a a a a a a a a a a a d a p a a d d d d a a a d a a a a a a a a a a a a a a a a a a a a a a a a a a a a a a a a a a d a p p a d d d d a a a d a a a a a a a a a a a a a a a a a a a a a a a a a a a a a a a a a a d d p p a d d d d a a a d a a a a a a a a a a a a a a a a a a a a a a a a a a a a a a a a a a a a a d a z v a d a k a ",
"a a a a a a a d d a d d d a d d a d d d d a a a a a a a a a a a a a a a a a a a a a a a a a a a a a a a a a a d d d d d d a a a a a d d a a a a a a a a a a a a a a a a a a a a a a a a a a a a a a a a a d d a d d d d a d d a a d d a a a a a a a a a a a a a a a a a a a a a a a a a a a a a a a a a a d a a d d a d d a a a d d a a a a a a a a a a a a a a a a a a a a a a a a a a a a a a a a a d d a a d d a d d a a a d d a a a a a a a a a a a a a a a a a a a a a a a a a a a a a a a a a a a a a a d a z v a d d a d ",
"a a a a a a d a p d d a p d a a d p a d d d d d a a a a a a a a a a a a a a a a a a a a a a a a a a a a a a d a a d d a a d a d d d d a d d a a a a a a a a a a a a a a a a a a a a a a a a a a a a a a d p a d p d a p k a a d a d d d d d d d a a a a a a a a a a a a a a a a a a a a a a a a a a a a d a a d a a d a a d a d d d d a d d a a a a a a a a a a a a a a a a a a a a a a a a a a a a d a p d d a a d a a d a d d d d a d d a a a a a a a a a a a a a a a a a a a a a a a a a a a a a a a a a a d a z v a a a a a ",
"a a a a a d a d n a a k n p z l p n d a a p p p a d a a a a a a a a a a a a a a a a a a a a a a a a a a a d a k n a a k v a d a p p p d p p d a a a a a a a a a a a a a a a a a a a a a a a a a a a a a a n z p n a d n p v l a d p p p a a p a d a a a a a a a a a a a a a a a a a a a a a a a a a a d a k d a k k a l z a d p p p a d p a d a a a a a a a a a a a a a a a a a a a a a a a a a a d a l =.a a k k a l v a d p p p p d p p d a a a a a a a a a a a a a a a a a a a a a a a a a a a a a a a a a d a v n a k k k k ",
"a a a a a d p D.9X0., G.8Xn.T.K.M.9XA.p l -.n.A.a a d a a a a a a a a a a a a a a a a a a a a a a a a a a d a G.8X:.p K.8X-.p n -.n =.p =.-.a d a a a a a a a a a a a a a a a a a a a a a a a a a a d a l H.K.N.9XC.F.R.n.T.I.k d -.n -.z a :.v a d a a a a a a a a a a a a a a a a a a a a a a a a d p :.tXa l tXz k T.T.v a =.=.=.n p ;.n a d a a a a a a a a a a a a a a a a a a a a a a a a a d a 0.I.N.a tXv d U.R.n a =.=.=.n p ;.n a d a a a a a a a a a a a a a a a a a a a a a a a a a a a a a a a a d a l =.n =.=.=.=.",
"a a a a d a l K.=.H.k K.v mX0.M.tXz I.a I.G.H.9Xa a d a a a a a a a a a a a a a a a a a a a a a a a a a d a n H.-.F.l G.;.G.8 wXR.8XI.b.qX:.a d a a a a a a a a a a a a a a a a a a a a a a a a a a a a k , K.9Xz 8XI.v mX;.D.;.;.wX8XT.F.A.8Xv a d a a a a a a a a a a a a a a a a a a a a a a a a d a l T.l n.9Xd 0.N.b.M.l qXR.R.H.n.wX=.a d a a a a a a a a a a a a a a a a a a a a a a a a a d a k H.A.0.9Xl ;.A.b.N.k qXR.R.K.n.qX-.a d a a a a a a a a a a a a a a a a a a a a a a a a a a a a a a a a a a a d d d d d d ",
"a a a a d a l K.=.K.k K.n mX0.N.tXz U.d -.D.H.b., k a a a a a a a a a a a a a a a a a a a a a a a a a a d a v G.;.G.l G.;.G.a I.:.N.N.b.M.A.a d a a a a a a a a a a a a a a a a a a a a a a a a a a a d 8 M.b.D.=.8XI.n mX;.D.;.0.N.A.:.G.=.H.0.p d a a a a a a a a a a a a a a a a a a a a a a a a a k p K.b.9XeX:.;.N.n.M.n F.n.b.D.;.D.M.p d a a a a a a a a a a a a a a a a a a a a a a a a a d a d N.wX8XeXb.-.A.b.N.z G.b.n.D.:.A.N.p d a a a a a a a a a a a a a a a a a a a a a a a a a a a a a a a a a a a a a a a a a ",
"a a a a a d p A.8XA.n.A.9Xb.U.K.n.9XA.8 0.T.G.T.k a d a a a a a a a a a a a a a a a a a a a a a a a a a a d p F.R.A.n.D.9X-.k G.0.N.M.b.D.T.a d a a a a a a a a a a a a a a a a a a a a a a a a a a d p =.tXA.M.9XA.D.8Xb.T.U.a 0.M.N.0.D.;.T.N.8 k a a a a a a a a a a a a a a a a a a a a a a a a a d p H.n ;.R.G.b.H.R.l n D.b.b.A.:.K.G.p d a a a a a a a a a a a a a a a a a a a a a a a a a d a b.H.G.=.T.G.b.H.8Xv n D.b.n.A.:.H.H.p d a a a a a a a a a a a a a a a a a a a a a a a a a a a a a a a a a a a a a a a a a ",
"a a a a a a a d v a l d v p z l p v a a v v p v k a a a a a a a a a a a a a a a a a a a a a a a a a a a a d a k v a k k v a d k d k d k n d a d a a a a a a a a a a a a a a a a a a a a a a a a a a d a k v =.d v a d v p z l a k k k d d l n a d a a a a a a a a a a a a a a a a a a a a a a a a a a a a k a 8 a k k l z a d k k k d l n a a a a a a a a a a a a a a a a a a a a a a a a a a a a d a z =.p 8 a k k k z a d k d k d l n a a a a a a a a a a a a a a a a a a a a a a a a a a a a a a a a a a a a a a a a a a a a ",
"a a a a a a a a a a a a a d a a d a a d a a d a a a a a a a a a a a a a a a a a a a a a a a a a a a a a a a a a a a a a a d a a a a a a p a a a a a a a a a a a a a a a a a a a a a a a a a a a a a a a a a p a a a a a d a a d a a a a a a p d a a a a a a a a a a a a a a a a a a a a a a a a a a a a a a a d a a a a a d a a a a a a p a a a a a a a a a a a a a a a a a a a a a a a a a a a a a a a p d d a a a a a d a a a a a a p a a a a a a a a a a a a a a a a a a a a a a a a a a a a a a a a a a a a a a a a a a a a ",
"d d d d d d d d d d d d d d d d d d d d d d d d d d d d d d d d d d d d d d d d d d d d d d d d d d d d d d d d d d d d d d d d d d d d d d d d d d d d d d d d d d d d d d d d d d d d d d d d d d d d d d d d d d d d d d d d d d d d d d d d d d d d d d d d d d d d d d d d d d d d d d d d d d d d d d d d d d d d d d d d d d d d d d d d d d d d d d d d d d d d d d d d d d d d d d d d d d d d d d d d d d d d d d d d d d d d d d d d d d d d d d d d d d d d d d d d d d d d d d d d d d d d d d d d d d d d d d d d ",
"p p p p p p p p p p p p p p p p p p p p p p p p p p p p p p p p p p p p p p p p p p p p p p p p p p p p p p p p p p p p p p p p p p p p p p p p p p p p p p p p p p p p p p p p p p p p p p p p p p p p p p p p p p p p p p p p p p p p p p p p p p p p p p p p p p p p p p p p p p p p p p p p p p p p p p p p p p p p p p p p p p p p p p p p p p p p p p p p p p p p p p p p p p p p p p p p p p p p p p p p p p p p p p p p p p p p p p p p p p p p p p p p p p p p p p p p p p p p p p p p p p p p p p p p p p p p p p p p ",
", , , , , , , , , , , , , , , , , , , , , , , , , , , , , , , , , , , , , , , , , , , , , , , , , , , , , , , , , , , , , , , , , , , , , , , , , , , , , , , , , , , , , , , , , , , , , , , , , , , , , , , , , , , , , , , , , , , , , , , , , , , , , , , , , , , , , , , , , , , , , , , , , , , , , , , , , , , , , , , , , , , , , , , , , , , , , , , , , , , , , , , , , , , , , , , , , , , , , , , , , , , , , , , , , , , , , , , , , , , , , , , , , , , , , , , , , , , , , , , , , , , , , , , , , , , , , , , , ",
"a a a a a a a a a a a a a a a a a a a a a a a a a a a a a a a a a a a a a a a a a a a a a a a a a a a a a a a a a a a a a a a a a a a a a a , , a a a a a a a a a a a a a a a a a a a a a a a a a a a a a a a a a a a a a a a a a a a a a a a a a a a a a a a a a a a a a a a a a a a a a a a a a a a a a a a a a a a a a a a a a a a a a a a a a a a a a a a a a a a a a a a a a a a a a a , , a a a a a a a a a a a a a a a a a a a a a a a a a a a a a a a a a a a a a a a a a a a a a a a a a a a a a a a a a a a a a a a a ",
"d d d d d d d d d d d k d k d d d d d d d d a a d d a a d d d d d d d d d d d d d d d d d d k d d k d d d a d d d d d d d d d d d d d d d d , , a d d d d d d d d d d d d d d d d d d k d d d d d d d d d d d d d d d d d d d d d d d d d d d d d d d d d d d d d d d k d k d d d d d d d d a a d d a a d d d d d d d d d d d d d d d d d d k d d k d d d a d d d d d d d d d d d d d d d d , , a d d d d d d d d k d k d d d d d d d d d d d d d d d d d d d d d d d d d k d d d d d d d d d d d d d d d d d d d d d d k k d d ",
"a a a a a a a a a a d p a p d a d a d a d a l l a a z l a a d d d a a a a a a a a a a a a a 8 a a 8 a a k v a d a d d a d d a d a a a a a d , , a a a a a a a a a a a a a a a a a d a p a d a d d a d d a a a a d a d a a a a a a a a a a a a a a a a a a a a a a a d p a p d a d a d a d a l l a a l l a a d d d a a a a a a a a a a a a a 8 a a 8 a a k v a d a d d a d d a d a a a a a d , , a a a a a a a a a p a p d a a d d a a a a a a a a a a a a a a a a a d a a p a a a d d a a d a a a a a a a a a a a a d a p p p d ",
"a a a a a a a a a d p G.T.b.8 k a k a k d , A.M.8 8 C.n.p k p a a d a a a a a a a a a d a k 8Xa ;.I.a k v I., a k a a a a a k a a a a a a d , , a d a a a a a a a a a a a a a a d a v K.D.a k a a a a a a a a k a d a d a a a a a a a a a a a a a a a a a a a a a d p F.T.b.8 k a k a k d , N.M.8 8 N.n.p k p a a d a a a a a a a a a d a k 8Xd ;.U.a k v I., a k a a a a a k a a a a a a d , , a d a a a a a d a K.T.N.p a d a a a a a a a a a a a a a a a a a a d p b.;.N.:.b.-.a a ;.n a d a a a a a a a a a a d p -.8XK.n 8 ",
"a a a a a a a a a d p T.A.T.G.G.:.T.M., l K.eXn.A.G.G.b.b.I.G.n F.a a a a a a a a a a d a l SX;.D.tXv I.N.H.N.0.I.A.D.n A.D.9XA.p d a a a d , , a d a a a a a a a a a a a a a a d 8 n.9Xp 0.9Xn.N.-.N.N.T.-.T.N.D.I.v a d a a a a a a a a a a a a a a a a a a a a d p T.A.T.F.G.:.T.N., k K.eXM.A.G.G.b.b.I.G.n F.d a a a a a a a a a d a l SX;.D.tXv I.N.H.N.0.I.A.D.n A.D.9XA.p d a a a d , , a d a a a a a a a R.l I.F.I.G.;.A.n p d a a a a a a a a a a a a a d p 0.F.R.K.G.:.K.D.qXI.p d a a a a a a a a a a k , n.D.-.U.K.",
"a a a a a a a a a k 8 R.T.z R.l T.R.R.N.D.N.0.T.9XI.9Xb.b.wXI.I.D.8 k a a a a a a a a d a z R.G.K.I.;.T.I.SXA.D.9XT.R.z K.I.v T.l a d a a d , , a d a a a a a a a a a a a a a a a d p N.K.R.l K.T.n D.I.b.n.M.z tXT.b.8 d a a a a a a a a a a a a a a a a a a a a k 8 R.T.z R.z U.R.R.N.D.N.0.T.9XI.9Xb.b.wXI.I.D.8 k a a a a a a a a d a z T.G.K.I.;.T.I.NXA.D.9XT.8Xz K.I.v T.l a d a a d , , a d a a a a a a d I.$ N.qXn.n T.K.d a a a a a a a a a a a a a a a d a k 9XF.I.K.N.qXI.R.v p d a a a a a a a a a a d 8 b.M.8 R.9X",
"a a a a a a a a a d p T.k , T.d A.T.:.z :.I.T.F.R.n.D.I.8X9X:.tX=.p d a a a a a a a a d a n F.8XH.K.8X9XT.T.H.F.R.;.I.K.T.K.K.I.a d d a a d , , a d a a a a a a a a a a a a a a d a n b.U.I.G.F.D.K.R.H.:.-.T.v.9XN.l a d a a a a a a a a a a a a a a a a a a a a d p T.l , T.k A.T.:.z :.I.T.F.T.n.D.I.8XwX:.tX-.p d a a a a a a a a d a n G.8XH.H.8X9XT.T.H.F.R.;.I.K.T.K.K.I.a d d a a d , , a d a a a a a d a 9XA.I.D.M.+ qXD., k a a a a a a a a a a a a a a a k , qXA.G.T.n qX:.H.D.p d a a a a a a a a a a k 8 n.T.G.D.K.",
"a a a a a a a a a d a =.l a =.k a n.;.p p :.n.k =.b.n z 0.;.=.R.a a d a a a a a a a a a a k n n v n =.b.n v n v 0.:.v N.v T.D.z a d a a a d , , a d a a a a a a a a a a a a a a d a v C.=.a N.v k n.;.n z p b.;.n n.l a d a a a a a a a a a a a a a a a a a a a a d a =.l a =.k a n.;.p p :.n.k =.b.n z 0.;.=.R.d a d a a a a a a a a a a k n n v n =.b.n v n v 0.:.v N.v T.D.z a d a a a d , , a d a a a a a d a 0.N.l z v p T.-.p d a a a a a a a a a a a a a a a d a =.l v n p :.0.v b.a a a a a a a a a a a a d a l N.b.a =.",
"a a a a a a a a a a d p a d p a a 8 p d d p 8 a p 8 p a p , A.0.p d a a a a a a a a a a d a a a a a p 8 p a a a 8 p a 8 8 n.a p d a a a a d , , a d a a a a a a a a a a a a a a a d a , p a , a a 8 p a a d 8 p p 8 a d a a a a a a a a a a a a a a a a a a a a a a d p a d p a a 8 p d d p 8 a p 8 p a p , N.0.p d a a a a a a a a a a d a a a a a p 8 p a a a 8 p a 8 8 n.a p d a a a a d , , a d a a a a a a d p , a a 8 0.A.p d a a a a a a a a a a a a a a a a a d p a a a d p 8 a 8 d a a a a a a a a a a a a d a , 8 d p ",
"a a a a a a a a a a a d d a d a d k d a a d k d d k d d d k p p d a a a a a a a a a a a a d d d d d d k d d d d d d d k d p d d a a a a a d , , a d a a a a a a a a a a a a a a a a d k d d k d d k d d d a d d d k d a a a a a a a a a a a a a a a a a a a a a a a a d d a d a d k d a a d k d d k d d d k p p d a a a a a a a a a a a a d d d d d d k d d d d d d d k d p d d a a a a a d , , a d a a a a a a a d k d d d a p d a a a a a a a a a a a a a a a a a a a d d d d a d d d d a a a a a a a a a a a a a a d k d a d ",
"a a a a a a a a a a a a a a a a a a a d d d d d a a a a a a d d a a a a a a a a a a a a a a a a a a a a d d d d d d a a a d d a a a a a a d , , a d a a a a a a a a a a a a a a a a a a a a a a a a a a a a a a a a a a a a a a a a a a a a a a a a a a a a a a a a a a a a a a a a a d h h h h d a a a a a d d a a a a a a a a a a a a a a a a a a a a d h h h h d a a a d d a a a a a a d , , a d a a a a a a a a d d d d d d a a a a a a a a a a a a a a a a a a a a a d k k k k d a a a a a a a a a a a a a a a a a a a a a ",
"a a a a a a a a a a a a a a a a a d d a 0 e e a a d a a a a a a a a a a a a a a a a a a a a a a a a d d a q q q 0 a d d a a a a a a a a a d , , a d a a a a a a a a a a a a a a a a a a a a a a a a a a a a a a a a a a a a a a a a a a a a a a a a a a a a a a a a a a a a a a a d h a f p f f a h d a a a a a a a a a a a a a a a a a a a a a a a d k a f p f f a h d a a a a a a a a a d , , a d a a a a a a a d a h e e e a d d a a a a a a a a a a a a a a a a a d k a p p 2 p a k d a a a a a a a a a a a a a a a a a a a ",
"a a a a a a a a a a a a a a a a d a a s A A A g d q a d a a a a a a a a a a a a a a a a a a a a a d a q g F J J F s q a d a a a a a a a a d , , a d a a a a a a a a a a a a a a a a a a a a a a a a a a a a a a a a a a a a a a a a a a a a a a a a a a a a a a a a a a a a a a h a f x +.<.<.+.h f a d a a a a a a a a a a a a a a a a a a a a a k a p x +.<.<.+.h f a d a a a a a a a a d , , a d a a a a a d a e f D ] ] ] f e a d a a a a a a a a a a a a a a a k a p b r.g.g.r.l p a k a a a a a a a a a a a a a a a a a d ",
"a a a a a a a a a a a a a a a d a s S ~.!.^.!.!.C S a a d a a a a a a a a a a a a a a a a a a a d 0 g (.].'.'.'.'._.J a a d a a a a a a a d , , a d a a a a a a a a a a a a a a a a a a a a a a a a a a a a a a a a a a a a a a a a a a a a a a a a a a a a a a a a a a a a a h f x 2.%XpXpXpXpX$X2.d a d a a a a a a a a a a a a a a a a a a a k p *.:X%XpXpXpXaX$X<.a a d a a a a a a a d , , a d a a a a d a a ] `.OXOXOXOX+X..M h d a a a a a a a a a a a a a k p l g.VXCXCXCXCXVX:Xl p k a a a a a a a a a a a a a a a d a ",
"a a a a a a a a a a a a a a d a g C !.C B = = B C ^.Z s a d a a a a a a a a a a a a a a a a a d 0 S _.'.).J S S C _.'.).g a d a a a a a a d , , a d a a a a a a a d d d d d d d d d d d d d d d d d d d d d d d d d d d d d d d d d d d a a a a a a a a a a a a a a a a a a h f o.$XpX$X<.+.+.<.$XpX#Xx a d a a a a a a a a a a a a a a a a a k p 3.sXsX&X4.+.+.<.$XpX#Xh a d a a a a a a d , , a d a a a d a f ..OX+X' ] M ] ..OX+XM h d a a a a a a a a a a a k p $.7XCXcXg.r.r.g.7XCX7X$.p k a a a a a a a a a a a a a d a M ",
"a a a a a a a a a a a a a d a g C ~.B , > > > > , V !.Z a a a a a a a a a a a a a a a a a a d 0 g ].].J , 1 > > 1 * (.'.C a d a a a a a a d , , a d a a a a a d a , , , , , , , , , , , , , , , , , , , , , , , , , , , p , , , , , , , a d a a a a a a a a a a a a a a a d a x $X%X<., @ $ $ @ < 2.pX#Xd a d a a a a a a a a a a a a a a a k p *.sXsX:Xa f @ $ @ < 2.pX#Xa a d a a a a a d , , a d a a a a a ..OX..p 1 1 1 1 > ] +X+XM h d a a a a a a a a a d a l 7XVX;X, % % % % , g.CX7Xl a d a a a a a a a a a a a d a f ..",
"a a a a a a a a a a a a a d a Z !.B > , , , , , , > V ^.S q d a a a a a a a a a a a a a a a d 0 ).'.Z 1 , , , , @ k 0 Z !.S q d a a a a a d , , a d a a a a a d a , , , $ $ $ , , , , , , , , , , , , , , + , , , , , , 8 , , , # , , , a d a a a a a a a a a a a a a a a d f #XpX<.% , , , , , , @ 2.pX<.f h a a a a a a a a a a a a a a a k p dXsXh.& A.DXa > , $ $ 2.pX<.f h a a a a a d , , a d a a d e ] OX.., > , , , , , 1 ] oX..a a a a a a a a a a a k p :XCXg.% , , , , , , % g.CX5Xp k a a a a a a a a a a a d h X..X",
"a a a a a a a a a a a a d a g ~.Z > , , , , , , , , 2 C C s a a a a a a a a a a a a a a a d 0 A '.).> , , , , + :.GXF.% ~.C d a a a a a a d , , a d a a a a a d a , , , a d d , , , , # # , , $ , , , , , =., $ , , , , 8 , , $ z $ , , a d a a a a a a a a a a a a a a d a o.%X#X$ , , , , , , , $ < $X$Xh a d a a a a a a a a a a a a a k p ,.sXdX$ $ k GXU.O , , $ < $X$Xh a d a a a a d , , a d a a a a ..+X: > , , , , , , , < ..oXM h d a a a a a a a d a b VX7X, , , , , , , , , , 7XVX$.a d a a a a a a a a a d a f .X.X",
"a a a a a a a a a a a a d q A !.B > , , , , , , , , > V ~.g a d a a a a a a a a a a a a a d q J '.Z 1 , , , + M.FXtXp > Z ~.g a d a a a a d , , a d a a a a a d a , U.A.l n G.O a $ # ;.K.# , N.p # p # b.K.;.a , , , , 8 , + m.DX:.# , a d a a a a a a a a a a a a a a h f +.pX<.@ , , , , , , , , $ #XaXo.f d a a a a a a a a a a a a a k p h.sX3.% , O 0XSX$ , , , $ #X%Xo.f d a a a a d , , a d a d a M +X..> , , , , , # + + + ] OXX.e d a a a a a a a k p r.VXg.% , , , , , + + + O g.CXy.p k a a a a a a a a a d a ( .XX.",
"a a a a a a a a a a a a d e S !.6 > , , $ # , , , , > B !.A q d a a a a a a a a a a a a a d q (.'.A > , , , + m.K.+ $ > B !.g a d a a a a d , , a d a a a a a d p p R.p :.M.N.:.T.;.+ =.R., $ I.a a K.A.R.G.eXb.+ , , , 8 , , t.S.:., , a d a a a a a a a a a a a a a a h p 2.pXo.$ , , $ # , , , , @ <.pX+.f h a a a a a a a a a a a a a k 2 :XsX,.@ , , p h , , , , @ <.pX+.f h a a a a d , , a d a d h M OX' 1 , , , , # K.NXNXF.* oX..e d a a a a a a a k p h.CXr.% , , , , , 0XNXNXQ.O.CXg.p k a a a a a a a a a d h ( .X( ",
"a a a a a a a a a a a a d e S !.6 > , # l z , , , , > B ^.A q d a a a a a a a a a a a a a d q (.'.A > , , , , # + , , > B ^.A q d a a a a d , , a d a a a a a d p 8 qXb.N.A.A.8XI.A.+ , G., $ H.O :.wXF.K.n D., , , , , 8 , , t.S.:., , a d a a a a a a a a a a a a a a h p 2.pXo.$ , # l z , , , , @ +.pX+.f h a a a a a a a a a a a a a k 2 :XsX,.@ , , , $ , , , , @ <.pX+.f h a a a a d , , a d a d h M OX' 1 , , , , # K.NXNXF.% ' ] h d a a a a a a a k p h.CXr.% , , , , , 0XtXNXb.q ;X&.p d a a a a a a a a a d h ( .X( ",
"a a a a a a a a a a a a d q A !.B > , + NXNX+ , , , > V ~.g a d a a a a a a a a a a a a a d q J '.J 1 , , , , , , , , > V ~.g a d a a a a d , , a d a a a a a d p a K.& b.D.N.A.G.l $ 8 K., # R.N.:.T.-.A.-.G.:.# , , , 8 , + m.DX:.# , a d a a a a a a a a a a a a a a h f <.pX<.@ , + NXNX+ , , , $ 2.%Xo.f d a a a a a a a a a a a a a k p :XsXh.% , , , , , , , , $ 2.%Xo.a d a a a a d , , a d a d h M +X..> , , , , , + + + + : ' M h d a a a a a a a k p r.CX:X% , , , , , + + + % O.;X$.a d a a a a a a a a a d a ( .XX.",
"a a a a a a a a a a a a d a g ~.Z , + A.FX:.+ , , , 2 C C a a a a a a a a a a a a a a a a d 0 A '.).> , , , , , , , , 2 C C a a a a a a a d , , a d a a a a a d a , l , a d a , :.k , , k , $ v b.a z -.a 8 k n $ , , , 8 , , $ z $ , , a d a a a a a a a a a a a a a a d a x %X#X$ + C.FX:.+ , , $ < $X$Xd a d a a a a a a a a a a a a a k p ,.sXdX@ , , , , , , , $ e $X$Xa a a a a a a d , , a d a a d a ..+X: > , , , , , , , , ) ' M h a a a a a a a a d a l VXcX, , , , , , , , , , s.g.k a d a a a a a a a a a d a f .X.X",
"a a a a a a a a a a a a a d a Z !.B   yXyXO , , , > V !.S a d a a a a a a a a a a a a a a a d 0 ).'.Z 1 , , , , , , > V !.A a d a a a a a d , , a d a a a a a d a , $ , $ $ $ , + $ , , $ , , # O $ # + $ , $ + , , , , 8 , , , # , , , a d a a a a a a a a a a a a a a a d f #XpX<.& yXtXO , , , @ 2.pX<.f h a a a a a a a a a a a a a a d d p dXsXh.% , , , , , , $ #XpX<.f h a a a a a d , , a d a a d e ] OX..> > , , , , , < : ' ) a a a a a a a a a a a k p :XCX;X% , , , , , , @ O.;Xr.a d a a a a a a a a a a a d h X..X",
"a a a a a a a a a a a a a d a s C !.Z , , , , , 2 V !.Z d a a a a a a a a a a a a a a a a a d a g _.'.J , , , , , 2 V !.Z a a a a a a a a d , , a d a a a a a d a , , , , , , , , , , , , , , , 8 , , , , , , , , , , , p , , , , , , , a a a a a a a a a a a a a a a a a d a x $XaX3., , , , , < #XpX#Xh a d a a a a a a a a a a a a a a a k p *.sXsX:X, , , , , < #XpX#Xa a d a a a a a d , , a d a a a d h ..OX..p , , , , , : ' _ f h a a a a a a a a a a d a k 7XCX:X, , , , , , @.;Xs.k a d a a a a a a a a a a a d a d ..",
"a a a a a a a a a a a a a a d a s ).).a 8 8 8 8 s C C s a d a a a a a a a a a a a a a a a a a d 0 A ].).0 p 8 8 0 s C Z s a d a a a a a a d , , a d a a a a a a a d d d d d d d d d d d d d d d d d d d d d d d d d d d d d d d d d d d a a a a a a a a a a a a a a a a a a h f t fXdXp 8 8 8 p h $X$Xx a d a a a a a a a a a a a a a a a a a k p ,.sXdXp p 8 8 p h $X#Xx a d a a a a a a d , , a d a a a d a d ..oXM 0 8 8 p a ] ' M h d a a a a a a a a a a a k p b 7XcXk p 8 8 p a s.g.x a d a a a a a a a a a a a a a d a f ",
"a a a a a a a a a a a a a a a d 0 g g 0 d d d d a g s a d a a a a a a a a a a a a a a a a a a a d 0 g g a d d d d a g s a d a a a a a a a d , , a d a a a a a a a a a a a a a a a a a a a a a a a a a a a a a a a a a a a a a a a a a a a a a a a a a a a a a a a a a a a a a h p *.*.p k d d k a o.x a d a a a a a a a a a a a a a a a a a a a k p *.*.p k d d k a o.x a d a a a a a a a d , , a d a a a a d a f M h d d d d h f f h a a a a a a a a a a a a a a k p b $.p k d d d a x x a d a a a a a a a a a a a a a a a d a ",
"a a a a a a a a a a a a a a a a d a a d a a a a a a a d a a a a a a a a a a a a a a a a a a a a a d a a d a a a a a a a d a a a a a a a a d , , a d a a a a a a a a a a a a a a a a a a a a a a a a a a a a a a a a a a a a a a a a a a a a a a a a a a a a a a a a a a a a a a k p a d a a a a d a a d a a a a a a a a a a a a a a a a a a a a a k p a d a a a a d a a d a a a a a a a a d , , a d a a a a a d a h d a a a a a a h a a a a a a a a a a a a a a a a k a p d a a a a d a a d a a a a a a a a a a a a a a a a a d ",
"a a a a a a a a a a a a a a a a a d d a d d a d d d d d a a a a a a a a a a a a a a a a a a a a a a d d d a a d d a d d a a a a a a a a a d , , a d a a a a a a a a a a a a a a a a a a a a a a a a a a a a a a a a a a a a a a a a a a a a a a a a a a a a a a a a a a a a a a a k d a d d d d d d d d a a a a a a a a a a a a a a a a a a a a a a k k a d d a a d k d d d a a a a a a a d , , a d a a a a a a a d d a a d d a d d a a a a a a a a a a a a a a a a a d k d a a d d a d d a a a a a a a a a a a a a a a a a a a ",
"a a a a a a a a a a a a a a a a d p a d d p d a p k p a d a a a a a a a a a a a a a a a a a a a a a d a a d d p a d p d a a a a a a a a a d , , a d a a a a a a a a a a a a a a a a a a a a a a a a a a a a a a a a a a a a a a a a a a a a a a a a a a a a a a a a a a a a a a d p a d d p d a p k p a d a a a a a a a a a a a a a a a a a a a a d a p d a a d d a a a p a d a a a a a a d , , a d a a a a a a d a p d d a p k p a d a a a a a a a a a a a a a a a a d a a d d a a d p a d a a a a a a a a a a a a a a a a a a ",
"a a a a a a a a a a a a a a a a a =.d a a =.a l n p n l a d a a a a a a a a a a a a a a a a a a a d a n z a a n l a =.a a a a a a a a a a d , , a d a a a a a a a a a a a a a a a a a a a a a a a a a a a a a a a a a a a a a a a a a a a a a a a a a a a a a a a a a a a a a a a =.k a a =.a l n p n l a d a a a a a a a a a a a a a a a a a a d a l -.p z n a a v v d ;.k a d a a a a a d , , a d a a a a a d a l n a a l n p n l a d a a a a a a a a a a a a a a d a z v a a v v p =.k a d a a a a a a a a a a a a a a a a a ",
"a a a a a a a a a a a a a a k 8 n.9XA., N.9XN.H.T.M.R.K.d a d a a a a a a a a a a a a a a a a a d p =.8XI.a -.9XG.A.9XM.p d a a a a a a a d , , a d a a a a a a a a a a a a a a a a a a a a a a a a a a a a a a a a a a a a a a a a a a a a a a a a a a a a a a a a a a a a k 8 n.9XD., M.9XN.H.T.M.R.K.k a d a a a a a a a a a a a a a a a a d a p b.T.D.H.T.n z I.K.b.G.H.a d a a a a a d , , a d a a a a a d a K.8X;.p I.T.M.R.K.d a d a a a a a a a a a a a a d a l T.T.z l R.K.N.8XD.p d a a a a a a a a a a a a a a a a d ",
"a a a a a a a a a a a a a a d p K.n I.d K.z qXF.n mXn F.;.p d a a a a a a a a a a a a a a a a a k 8 A.0.D.=.N.:.D.eXl I.a d a a a a a a a d , , a d a a a a a a a a a a a a a a d d d d d a a a a a a a a d d a a a a a a a a a a a a a a a a a a a a a a a a a a a a a a a d p K.n I.d K.z qXG.n mX=.F.;.p d a a a a a a a a a a a a a a a a a k l , :.qXA.A.N.-.G.A.N.n.I.p d a a a a a d , , a d a a a a d p =.F.;.D.v G.n mXn F.;.p d a a a a a a a a a a a a d 8 b.N.n.b.0.M.b.tXl K.l a d a a a a a a a a a a a a a a a d ",
"a a a a a a a a a a a a a a d p H.=.I.k K.n qXF.-.mX-.G.-.p d a a a a a a a a a a a a a a a a a d 8 N.b.D.-.N.0.F.qXn I.a d a a a a a a a d , , a d a a a a a a a a a a a a a d a a a a a d a d d a a a d a a d a a a a a a a a a a a a a a a a a a a a a a a a a a a a a a d p H.=.I.k K.n wXG.-.mX-.G.;.p d a a a a a a a a a a a a a a a d p n.N.l K.k M.eXb.p N.eX0.:.R.d a d a a a a d , , a d a a a a d a n G.:.F.v G.-.mX-.G.-.p d a a a a a a a a a a a a d p 0.N.M.n.:.N.n.tXv I.l a d a a a a a a a a a a a a a a a a ",
"a a a a a a a a a a a a a a d p 0.9XA.N.n.9XM.F.R.b.T.H.a a d a a a a a a a a a a a a a a a a a d a v R.G.N.b.R.F.n.9Xn.p d a a a a a a a d , , a d a a a a a a a a a a a a d a b c c c b a d p p d d a p l z a d d d d d a a a a a a a a a a a a a a a a a a a a a a a a a d p 0.9XA.N.b.9XM.F.R.b.T.K.d a d a a a a a a a a a a a a a a a a d a , T.wX0.M.F.n.0.M.G.0.H.G.a a a a a a a d , , a d a a a a a d a G.T.N.b.F.R.b.R.H.a a d a a a a a a a a a a a a d a k U.I.N.b.I.I.b.9XA.p d a a a a a a a a a a a a a a a a a ",
"a a a a a a a a a a a a a a a d a z a k a z a d l p l k a d a a a a a a a a a a a a a a a a a a a d a l k k a l k a z a a a a a a a a a a d , , a d a a a a a a a a a a a a k p gXnXjXnX,Xp 0 n.N., a l -.l v p a p a a a d a a a a a a a a a a a a a a a a a a a a a a a a a d a z a k a z a d z p l k a d a a a a a a a a a a a a a a a a a a d d l v z v k d k n d k n a a d a a a a a d , , a d a a a a a d a d l a k d z p l k a d a a a a a a a a a a a a a a d a k l d d l l p z a a d a a a a a a a a a a a a a a a a a ",
"a a a a a a a a a a a a a a a a d a d d d a d a a k a a d a a a a a a a a a a a a a a a a a a a a a d a d a p a p d a d a a a a a a a a a d , , a d a a a a a a a a a a a a k p gXjXgXjX,X4 a I.I.d I.H.tXN.G.0.0.M.G.D.a a d a a a a a a a a a a a a a a a a a a a a a a a a a d a d d d a d a a k a a d a a a a a a a a a a a a a a a a a a a a a a a a p p a p a d a p d d a a a a a a d , , a d a a a a a a d a a d p a 8 a a a d a a a a a a a a a a a a a a a a d a a a p a 8 d a a d a a a a a a a a a a a a a a a a a a ",
"a a a a a a a a a a a a a a a a a d a p p p a a p a d a a a a a a a a a a a a a a a a a a a a a a a a d p l :.l ;.d a d a a a a a a a a a d , , a d a a a a a a a a a a a a k p gXjXgXjX,X2 n eX9XG.N.p H.;.I.F.G.I.8X8Xn a d a a a a a a a a a a a a a a a a a a a a a a a a a a d a p p p a a p a d a a a a a a a a a a a a a a a a a a a a a a a a d p l :.l ;.d a d d a a a a a a a a d , , a d a a a a a a a d a p 0.l -.z a d a a a a a a a a a a a a a a a a a a d a a 0.k ;.k a d a a a a a a a a a a a a a a a a a a a ",
"a a a a a a a a a a a a a a a a d a k ;.n ;.l d :.z a d a a a a a a a a a a a a a a a a a a a a a a d a l D.G.K.K.H.a d a a a a a a a a a d , , a d a a a a a a a a a a a a k 4 gXnXjXnXgX* S.A.n.9XK.;.T.A.N.G.9X;.wXb.k a d a a a a a a a a a a a a a a a a a a a a a a a a a d a k ;.n ;.l d :.z a d a a a a a a a a a a a a a a a a a a a a a a d a l A.G.K.K.H.a d a a a a a a a a a d , , a d a a a a a a d a d :.T.A.T.I.n a d a a a a a a a a a a a a a a a a d a k n.I.F.I.I.k a d a a a a a a a a a a a a a a a a a a ",
"a a a a a a a a a a a a a a a a k 8 n.9X9XT.D.F.R.l a d a a a a a a a a a a a a a a a a a a a a a d a k I.R.F.K.G.K.p d a a a a a a a a a d , , a d a a a a a a a a a a a a d a 5.8.8.8.5.p -.d a -.b.0.;.b.z n ;.p b.b.a a a a a a a a a a a a a a a a a a a a a a a a a a a a k 8 b.9X8XT.D.D.R.l a d a a a a a a a a a a a a a a a a a a a a a d a k I.R.G.K.G.I.p d a a a a a a a a a d , , a d a a a a a a k 8 A.T.T.A.K.T.n a d a a a a a a a a a a a a a a a a d p H.T.K.G.H.T.k a d a a a a a a a a a a a a a a a a a a ",
"a a a a a a a a a a a a a a a a k , N.b.D.:.G.n K.:.p d a a a a a a a a a a a a a a a a a a a a a d p =.H.n H.K.A.U.d a d a a a a a a a a d , , a d a a a a a a a a a a a a a d p 4 4 4 p d p a a p 8 p p 8 a a p d 8 8 d a a a a a a a a a a a a a a a a a a a a a a a a a a a k , N.n.A.:.G.n K.:.p d a a a a a a a a a a a a a a a a a a a a a d p =.H.n H.K.A.U.k a d a a a a a a a a d , , a d a a a a a a d p T.l H.F.G.I.:.p d a a a a a a a a a a a a a a a d a l T.l K.H.D.T.v a d a a a a a a a a a a a a a a a a a a ",
"a a a a a a a a a a a a a a a a d 8 n.b.N.:.D.;.R.n.8 k a a a a a a a a a a a a a a a a a a a a a a d a H.9XA.K.K.K.a a d a a a a a a a a d , , a d a a a a a a a a a a a a a a d k k k d a d d d d d d d d d d d a k k a a a a a a a a a a a a a a a a a a a a a a a a a a a a d 8 n.n.N.:.D.;.R.n.8 k a a a a a a a a a a a a a a a a a a a a a a d a H.9XA.K.K.K.a a d a a a a a a a a d , , a d a a a a a a d p M.R.I.N.T.I.=.p d a a a a a a a a a a a a a a a a d p D.8XG.F.I.I.l a d a a a a a a a a a a a a a a a a a a ",
"a a a a a a a a a a a a a a a a a a d d k d d z v a d a a a a a a a a a a a a a a a a a a a a a a a d a k v a l =.a a d a a a a a a a a a d , , a d a a a a a a a a a a a a a a a a a a a a a a a a a a a a a a a a a a a a a a a a a a a a a a a a a a a a a a a a a a a a a a a a d d k d d z n a d a a a a a a a a a a a a a a a a a a a a a a a d a k v a l =.a a d a a a a a a a a a d , , a d a a a a a a a a a v k d n l p d a a a a a a a a a a a a a a a a a d a a v d k =.k a d a a a a a a a a a a a a a a a a a a a ",
"a a a a a a a a a a a a a a a a a a a a a a a a a d a a a a a a a a a a a a a a a a a a a a a a a a a d a a a a p a a a a a a a a a a a a d , , a a a a a a a a a a a a a a a a a a a a a a a a a a a a a a a a a a a a a a a a a a a a a a a a a a a a a a a a a a a a a a a a a a a a a a a a a d a a a a a a a a a a a a a a a a a a a a a a a a a d a a a a p a a a a a a a a a a a a d , , a a a a a a a a a a d a a a p a d a a a a a a a a a a a a a a a a a a a a a a a a p a d a a a a a a a a a a a a a a a a a a a a ",
"d d d d d d d d d d d d d d d d d d d d d d d d d d d d d d d d d d d d d d d d d d d d d d d d d d d d d d d d d d d d d d d d d d d d d k , , d d d d d d d d d d d d d d d d d d d d d d d d d d d d d d d d d d d d d d d d d d d d d d d d d d d d d d d d d d d d d d d d d d d d d d d d d d d d d d d d d d d d d d d d d d d d d d d d d d d d d d d d d d d d d d d d d d d d d k , , d d d d d d d d d d d d d d d d d d d d d d d d d d d d d d d d d d d d d d d d d d d d d d d d d d d d d d d d d d d d d d d d ",
"p p p p p p p p p p p p p p p p p p p p p p p p p p p p p p p p p p p p p p p p p p p p p p p p p p p p p p p p p p p p p p p p p p p p p p , , 8 p p p p p p p p p p p p p p p p p p p p p p p p p p p p p p p p p p p p p p p p p p p p p p p p p p p p p p p p p p p p p p p p p p p p p p p p p p p p p p p p p p p p p p p p p p p p p p p p p p p p p p p p p p p p p p p p p p p p p , , 8 p p p p p p p p p p p p p p p p p p p p p p p p p p p p p p p p p p p p p p p p p p p p p p p p p p p p p p p p p p p p p p p ",
", , , , , , , , , , , , , , , , , , , , , , , , , , , , , , , , , , , , , , , , , , , , , , , , , , , , , , , , , , , , , , , , , , , , , , , , , , , , , , , , , , , , , , , , , , , , , , , , , , , , , , , , , , , , , , , , , , , , , , , , , , , , , , , , , , , , , , , , , , , , , , , , , , , , , , , , , , , , , , , , , , , , , , , , , , , , , , , , , , , , , , , , , , , , , , , , , , , , , , , , , , , , , , , , , , , , , , , , , , , , , , , , , , , , , , , , , , , , , , , , , , , , , , , , , , , , , , , , ",
"a a a a a a a a p p p p p a a a a a a a a a a a a a a a a a a a a a a a a a a a a a a a a a a a a a a a a a a a a a a a a a a a a a a a a a a a a a a a a a a a a a a a a a a a a a a a a a a a a a a a a a a a a a a a a a a a a a a a a a a a a a a a a a a a a a a a a a a a a a a a a a a a a a a a a a a a a a a a a a a a a a a a a a a a a a a a a a a a a a a a a a a a a a a a a a a a a a a a a a a a a a a a a a a a a a a a a a a a a a a a a a a a a a a a a a a a a a a a a a a a a a a a a a a a a a a a a a a a ",
"d d d d d d a k v z z z v k d d d d d a d d d d d d d d d d d d d d d d d d d d d d d d d d d d d d d d d d d d d d d d d d d d d d d d d d d d d d d d d d d d d d d d d d d d d d d d d d d d d d d d d d d d d d d d d d d d d d d d d d d d d d d d d d d d d d d d d d d d d d d d d d d d d d d d d d d d d d d d d d d d d d d d d d d d d d d d d d d d d d d d d d d d d d d d d d d d d d d d d d d d d d d d d d d d d d d d d d d d d d d d d d d d d d d d d d d d d d d d d d d d d d d d d d d d d d d d d d d d ",
"a a a a a d a l =.:.:.;.t.l a d a a d k a a a a a a a a a a a a a a a a a a a a a a a a a a a a a a a a a a a a a a a a a a a a a a a a a a a a a a a a a a a a a a a a a a a a a a a a a a a a a a a a a a a a a a a a a a a a a a a a a a a a a a a a a a a a a a a a a a a a a a a a a a a a a a a a a a a a a a a a a a a a a a a a a a a a a a a a a a a a a a a a a a a a a a a a a a a a a a a a a a a a a a a a a a a a a a a a a a a a a a a a a a a a a a a a a a a a a a a a a a a a a a a a a a a a a a a a a a a a ",
"a a a a a d a l ;.0.b.M.:.z a d d a l %.a d a a a a a a a a a a a a a a a a a a a a a a a a a a a a a a a a a a a a a a a a a a a a a a a a a a a a a a a a a a a a a a a a a a a a a a a a a a a a a a a a a a a a a a a a a a a a a a a a a a a a a a a a a a a a a a a a a a a a a a a a a a a a a a a a a a a a a a a a a a a a a a a a a a a a a a a a a a a a a a a a a a a a a a a a a a a a a a a a a a a a a a a a a a a a a a a a a a a a a a a a a a a a a a a a a a a a a a a a a a a a a a a a a a a a a a a a a a ",
"%.k a d a d a l v p :.0.l l a d a b &.9.%.k a l %.%.%.k a d a a a a a a a a a a a a a a a a a a a a a a a a a a a a a a a a a a a a a a a a a a a a a a a a a a a a a a a a a a a a a a a a a a a a a a a a a a a a a a a a a a a a a a a a a a a a a a a a a a a a a a a a a a a a a a a a a a a a a a a a a a a a a a a a a a a a a a a a a a a a a a a a a a a a a a a a a a a a a a a a a a a a a a a a a a a a a a a a a a a a a a a a a a a a a a a a a a a a a a a a a a a a a a a a a a a a a a a a a a a a a a a a a a ",
"k d a a a d a z z 8 :.b.l l a d a a b &.k d a d k k k d a a a a a a a a a a a a a a a a a a a a a a a a a a a a a a a a a a a a a a a a a a a a a a a a a a a a a a a a a a a a a a a a a a a a a a a a a a a a a a a a a a a a a a a a a a a a a a a a a a a a a a a a a a a a a a a a a a a a a a a a a a a a a a a a a a a a a a a a a a a a a a a a a a a a a a a a a a a a a a a a a a a a a a a a a a a a a a a a a a a a a a a a a a a a a a a a a a a a a a a a a a a a a a a a a a a a a a a a a a a a a a a a a a a a ",
"a a a a a d a l =.l 0.b.n l a d d a k l a a a a a a a a a a a a a a a a a a a a a a a a a a a a a a a a a a a a a a a a a a a a a a a a a a a a a a a a a a a a a a a a a a a a a a a a a a a a a a a a a a a a a a a a a a a a a a a a a a a a a a a a a a a a a a a a a a a a a a a a a a a a a a a a a a a a a a a a a a a a a a a a a a a a a a a a a a a a a a a a a a a a a a a a a a a a a a a a a a a a a a a a a a a a a a a a a a a a a a a a a a a a a a a a a a a a a a a a a a a a a a a a a a a a a a a a a a a a ",
"d a a a a a a d l l l l l d a a a d a a d a a a d d d a a a a a a a a a a a a a a a a a a a a a a a a a a a a a a a a a a a a a a a a a a a a a a a a a a a a a a a a a a a a a a a a a a a a a a a a a a a a a a a a a a a a a a a a a a a a a a a a a a a a a a a a a a a a a a a a a a a a a a a a a a a a a a a a a a a a a a a a a a a a a a a a a a a a a a a a a a a a a a a a a a a a a a a a a a a a a a a a a a a a a a a a a a a a a a a a a a a a a a a a a a a a a a a a a a a a a a a a a a a a a a a a a a a a a ",
"a a a a a a a a a a a a a a a a a a a d a a a a a a a a a a a a a a a a a a a a a a a a a a a a a a a a a a a a a a a a a a a a a a a a a a a a a a a a a a a a a a a a a a a a a a a a a a a a a a a a a a a a a a a a a a a a a a a a a a a a a a a a a a a a a a a a a a a a a a a a a a a a a a a a a a a a a a a a a a a a a a a a a a a a a a a a a a a a a a a a a a a a a a a a a a a a a a a a a a a a a a a a a a a a a a a a a a a a a a a a a a a a a a a a a a a a a a a a a a a a a a a a a a a a a a a a a a a a "
};
