/* XPM */
static char *impulse_responses_mono[] = {
/* columns rows colors chars-per-pixel */
"417 256 253 2 ",
"   c #08090B",
".  c #0B0E16",
"X  c #0E1217",
"o  c #121316",
"O  c #15161A",
"+  c #1A161B",
"@  c #17181C",
"#  c #19191E",
"$  c #191216",
"%  c #150E11",
"&  c #2B191D",
"*  c #3E3601",
"=  c #3D3C0D",
"-  c #3E3611",
";  c #37381A",
":  c #282B1D",
">  c #151D22",
",  c #1B1C22",
"<  c #171726",
"1  c #121C26",
"2  c #241E24",
"3  c #251C26",
"4  c #271C32",
"5  c #351E22",
"6  c #152226",
"7  c #1F2025",
"8  c #172529",
"9  c #1C242A",
"0  c #1B292F",
"q  c #1C2B23",
"w  c #1C2D32",
"e  c #1E2734",
"r  c #1E3136",
"t  c #1C333B",
"y  c #1D3B24",
"u  c #212127",
"i  c #25272D",
"p  c #26282F",
"a  c #2B292B",
"s  c #372429",
"d  c #24342A",
"f  c #242330",
"g  c #262931",
"h  c #2A2C34",
"j  c #2D2F38",
"k  c #242E39",
"l  c #21353B",
"z  c #2F313A",
"x  c #243137",
"c  c #31343D",
"v  c #36383D",
"b  c #353828",
"n  c #473D00",
"m  c #4D261B",
"M  c #70251B",
"N  c #511E22",
"B  c #47272A",
"V  c #56272A",
"C  c #5D2A30",
"Z  c #4A2F35",
"A  c #65282E",
"S  c #68272C",
"D  c #622B31",
"F  c #6C2C32",
"G  c #742C33",
"H  c #7B2E35",
"J  c #742E2E",
"K  c #441B1E",
"L  c #005D0A",
"P  c #185B1C",
"I  c #184B1D",
"U  c #006409",
"Y  c #016B08",
"T  c #0B6D0E",
"R  c #047908",
"E  c #106514",
"W  c #1B4422",
"Q  c #3B4928",
"!  c #3D4D1C",
"~  c #4B4405",
"^  c #5A4D00",
"/  c #544A01",
"(  c #5A5301",
")  c #4C4D19",
"_  c #645400",
"`  c #6B5B00",
"'  c #675800",
"]  c #6F5E03",
"[  c #556F1A",
"{  c #756301",
"}  c #777307",
"|  c #485F2B",
" . c #1C3B45",
".. c #1D3E57",
"X. c #233A44",
"o. c #283C45",
"O. c #233F49",
"+. c #253742",
"@. c #343641",
"#. c #373944",
"$. c #393B46",
"%. c #373A49",
"&. c #3A3D49",
"*. c #3A3742",
"=. c #323E52",
"-. c #453944",
";. c #1C434C",
":. c #1D4B56",
">. c #1D525C",
",. c #23424C",
"<. c #29414B",
"1. c #3E414D",
"2. c #3D4146",
"3. c #224752",
"4. c #224A55",
"5. c #224E5A",
"6. c #294A57",
"7. c #3E4252",
"8. c #26515D",
"9. c #3D5C42",
"0. c #1F5663",
"q. c #1F5966",
"w. c #1F5D6A",
"e. c #185767",
"r. c #1E5274",
"t. c #225562",
"y. c #275A69",
"u. c #264C6A",
"i. c #1E616E",
"p. c #1B6067",
"a. c #1C6772",
"s. c #19737B",
"d. c #0B6874",
"f. c #266777",
"g. c #29636E",
"h. c #386A5B",
"j. c #41444D",
"k. c #45484D",
"l. c #424553",
"z. c #464855",
"x. c #484A56",
"c. c #464959",
"v. c #4A4C5C",
"b. c #424659",
"n. c #4D5159",
"m. c #53575B",
"M. c #4A4E62",
"N. c #474B61",
"B. c #4E5162",
"V. c #4E536A",
"C. c #515466",
"Z. c #535669",
"A. c #56596C",
"S. c #585C6F",
"D. c #595D61",
"F. c #565B73",
"G. c #5A5E72",
"H. c #575D78",
"J. c #5D6175",
"K. c #5E627A",
"L. c #5E6166",
"P. c #64676B",
"I. c #62657B",
"U. c #65697E",
"Y. c #686B73",
"T. c #75787C",
"R. c #6E7175",
"E. c #892617",
"W. c #922716",
"Q. c #842F36",
"!. c #8B3139",
"~. c #853038",
"^. c #94333B",
"/. c #9B343C",
"(. c #903529",
"). c #A73733",
"_. c #A02B19",
"`. c #C83F2A",
"'. c #897502",
"]. c #D9412A",
"[. c #EA442A",
"{. c #923841",
"}. c #058706",
"|. c #059C03",
" X c #11910D",
".X c #0AA405",
"XX c #07B401",
"oX c #6D9313",
"OX c #729B12",
"+X c #648716",
"@X c #6C9B3B",
"#X c #639F4D",
"$X c #948C01",
"%X c #A48902",
"&X c #B09202",
"*X c #A1E63B",
"=X c #95E046",
"-X c #1F5983",
";X c #187A83",
":X c #197780",
">X c #087986",
",X c #287587",
"<X c #307B8D",
"1X c #287990",
"2X c #3279B0",
"3X c #285D85",
"4X c #5E6482",
"5X c #666A82",
"6X c #696D84",
"7X c #696E8A",
"8X c #636885",
"9X c #6C7087",
"0X c #6D728A",
"qX c #71758D",
"wX c #7B7E81",
"eX c #6D7394",
"rX c #727792",
"tX c #757A93",
"yX c #787D99",
"uX c #686E90",
"iX c #767DA3",
"pX c #068A97",
"aX c #24869B",
"sX c #328598",
"dX c #29909C",
"fX c #338EA2",
"gX c #2394AB",
"hX c #3392A7",
"jX c #3495AA",
"kX c #3499AE",
"lX c #239DB5",
"zX c #239FB8",
"xX c #359DB3",
"cX c #258CA5",
"vX c #23A2BB",
"bX c #21A8B3",
"nX c #36A3B9",
"mX c #019FAD",
"MX c #7D819D",
"NX c #7E8184",
"BX c #7C83A7",
"VX c #7F86B1",
"CX c #3792D5",
"ZX c #25A9C2",
"AX c #26A4D9",
"SX c #28C2D0",
"DX c #8C8E91",
"FX c #8489A6",
"GX c #848CB7",
"HX c #8F95B5",
"JX c #A2A4A7",
"KX c #8F98C4",
"LX c #A5ADDA",
/* pixels */
"i p i p p f p i p i p p p p i i p i i i p i i a i i i i p i i i p i i i i i p i i i p i i p p p g g g g a p i i i p p i i i p i i f p i i i i i i i g i i i p p i i i p i i p i i i p p i p i p i i p u g i i p i p i p i i p i i p i i p i p i i p i i i i p p i p i p i i p i i i p p i f g i i i g i i i p p i p i p i i p i i i i i i g i i g p i i i i p p i i i p i i p i p i i i p i p i p p i i i i p p i p i p i i p i g i i p i i i i i i g i i i p i i p i p i i p i i i p i i p p i i i p i p i i p i i i f p p i i i p i i p i p i i p i i i f i f p p p i p i i i f g i i g i i i p i p i i i g f g i i i i i i p g g i i g i g g g i p p i i i i i i i i g i i i i i i i i i g g i i g i g g i g g i i i g i i i i i i i i g i i i i i i i i i i i i i i i i i p p i i i g i i i i i i i p p i i i p p p p i i g i g i i i g i i i p p i i i p i i ",
"i i i i p p p p p i p u p p i p i p p i i p p p i i i i i i p i i p i i p i i p p i i p i i g g u u a u u a p p i i i p p i p i p i a i i i g i i i i i p i i i i p i p i p p i p i i i i i i p i p p p i i i i i i i p i p p i i p i p p i i i p i i p p i i i i i i p i p p i p i i i i a i i i i i i p i i i i i i p i p p i i g i p i i i i i i i p p i i i i p i p i p p i i i g i p i i i i i i p p i i i i i i p p i p i i i i i i p i i p i i i p i i p i i i p p i p i p i i p i i i p p i p i i i p i i p p i p i i p i p i p p i i i p i i p i i u i i i i p i i i i i 7 p i i i i i i i i i i i i 3 i i i i 7 i p i i 7 u g i i 7 i i f 7 i i i 9 i p p i i 7 g g i i g i i i g u i i i u u 7 i i 7 i i i i i i i i i i i g i u g i i i p i i i g i u i f i i p p i i i p i u i i g i i i p p i i p i i p p a u i i i i i i i i i i p i p p i i i p p ",
"i i p p p p i i i i i p p p i p p p i i p p p g g i i g i i p p p g p g i i g i p i i i p i 2 g ....:.:.3.l i 4 p p i i i p i i p i i i i g i i p i i p i p i p p p i i i p i i i p i p p p i i i i p p i i i i p p i i i i i i p i i i i i i p p i i p i p i p p p i i i i i i p i i p i i i i p i i p i p i p p p i i i i i i i i p i i p i i p i i p i p i p p p i i i p i i i i p i i i p p p i i p p i i p p p i i i i i i i p i g i i p g i i i i p i i p p i i i i i i p p i i p p i i i i i i p i p p i i p i i p i i p p i i i i i i p i i i p g @.$.h g c p i g z p h *.#.9 i z g i z g g z i g i g &.z i z %.1.h i i j &.@.9 i z &.&.h 9 #.@.i z %.@.i p u j $.i i g c u g j g u @.#.g h $.&.@.i j $.h i i g c h i i @.k i i @.@.u i z j i g z g i h &.g i i i i g h i i i g o.l g i k k i p u x g i g l p g g l g i i i i i i i i P W W P W P y f i i ",
"i i i i u i i i i p p i p p p u u u i i i u i u u i i i i u i u i u a u i a u g i i i i i a 4.r.u.h.#Xh.8.r.r.o.u p p i i i i p i i p p i i i i i p i i i p i i i i i p p i i p i p i i i i p i p p p p i g i i i i i p p p i p i i p p i p p i i i p i i p i i i i i p p p i p i p i i i i i i i i p i i p i i i i p i p p i p p i i i i i i g i p i i i p i i i i i p p i i p g i i i i p i i i i p i i p i i i i p i p p i p i i i i p i i i i i i g i p i i i p p i p p i i i i p i i p p i p p i i i p i i p i i p i i p i i i p p i p p i p p i p , V.yX@.#.BX#., l.BXh B.eX5XF.i 7X@., K.7.z 6Xi i h K.8XK.g 8XU.J.@.i 7 Z.0X8XV.i 7XK.G.z A.5X8Xz V.0X6XZ., c.0XK.7Xh @.iX&., 5X@.b.5X5X7.7.rXH.N.@.8X5XF.u i g rXZ., j yXc.7 F.8X5XH.u B.rXi z 8Xi &.7XK.7X#.i g i h h i p i h f.f.g 2 t.f.a i 4.1X+.u O.1Xl u 4.1Xg i g i i g i g p I W T R I d W f i i ",
"i i i 1XaXcXO.a p p p i f p u o.,XcXaXcXdXaXaXgX,Xi i g aXcXaXcXaXcXaXcXaX,XX.3 g g i i g g.f.@X@X=X*X*X=X#X#Xf.8.a p i p p i p i p i i i i i p i p p i i p i p p i i p i i i p i i p i f i i p i i i p i i i i p i i p i i i p i p i i i i i p i p p i i p i p p i i p i i i p i i p i i p p i i p p i i p p i p i i p i i p i i i i p i i i p i p p i i p i p p i i p i i i p i i g i i i i p i p p i i p p i p i i p i i p i i p i i p i i i g i p i i p p i p i i i i i p i i p i i i i i i i p i p i i i p i p p i i p i i i p i i i i i i i i i p 3 $.5X, &.BXC.6 K.yXh A.N.7 yXj 7X@., 5Xl.z 7Xi u *.tXg i i 6X1.g g g 7 K.7.i yXg 7X&.h g rX*.7 i K.7.g yXh eX#., F.F.c yX4Xu 5X@.K.C., u c.4Xg i v.7X7 i g i g eX7X7 l.BXl.&.qXi i 7X7.c.iXM.j 7Xi uXl.> c.7X7 p i g h i i p u y.4.3 g f.,X+.i 5.f.o.2 ,.;X5.2 f.,Xr i g i i i i i i P T P R I T W f i p ",
"i p i gXbXZX<.u i i i i p u <.gXvXzXzXzXzXvXvXvXaXu i g gXvXvXvXzXzXzXzXzXZXlXO.u g i g r.h.*X*X=X| Q | @X*X*X@X5.t.u g i i i i i p i p p p i i i i i p i i i p i p i i i p p i p i i p p p i i i p p i i p i i i i p i i p p i i p i p p p i i i i i p i i i p i i p i i p p i p i i p p i i i p i i p i i i p i i p i i p p i i i p i i g i i i i i p i i i p i p i i i p p i p i i i g p i i p i i i i i i p i i p i i p p i i p i p i i p p p i i i p i i i i i p p p i p i p i i p i g i i i i i p i p i p i i i p p i i p i p i p p p i i i p p p i &.7Xu 1.5XF.@.K.8Xz B.7XK.K.i 7X@., K.7.z 7Xi g i C.qXv.9 8X7X4Xz p 7 F.6XK.F.f 0X7X4Xh b.eXF.7 F.5X8XV.@.7Xi 7 7.K.&.G.F.M.K.$.@.0X8Xg 7.eX5XM.g K.0X&.i i h 5XK.$.Z.8Xl.v.F., 7 F.M.M.V.K.l.K.z 7Xj u @.7Xg i i h h i p p u y.t.2 3.f.t.t.3 u g.o.2 3.f.y.X.y.f.+.u i i i i i i i T P p W p }.W i p i ",
"p p i cXzXzX3.u i p i p p i 1XvXlXlXvXvXvXvXvXvX1Xa i g gXlXlXvXvXvXZXzXzXlXZX1Xi g u 0.h.@X=X9.e 4 9 f 4 k @X#Xu.y.,.u p i p i p i i i i i i p p i i i p p i i i p p i i p i i p i i p p i p i p p i i i f a i i p p i i p i i i i i i i p i p p i i i p i i i i p p i i p i i p i p p u p i p i i i i p i i i i p p i i p i i i g i g i i p i p i i i p p i i i p p i i p i i p i i i i i p i i i i p p i i i i p p i i i i i i i p i i p i i i i i p i i i p p i p i i i i i i i i i i i g i p p i i p p i i p i i i p i i p i i i i i p g i i p i p 7 @.5X, l.F.B.4Xv.K.@.M.5X$.g i eX@.O 5X7.z 7X6 7 g > c rX@.8Xc # i g 7 F.F.7Xb.7 0Xg , i , i uX7.V.K.%.f z qXj O B.K.#.K.g 7X0X$., , H.G.l.G.O u i # 7.eXg i h 4Xc.4XV.A.c.1.7X7 , 5Xb.B.c.$.eX5Xg eX$.O 7.0Xi p i h h i i i u t.4.& i.:Xf.,Xi f f.X.2 3.y.8.f.3.f.+.u g i g i i g p P T y g E P d g p p ",
"i i i cXzXvX,.u i i i p i h gXvXzXaX6.3.3.4.3.6.,.i i g gXlXlXt.3.4.3.6.;XzXzXgXg 2 o.g.=X*X9.< g g f f i 3 < t.vXy.y.g i i p i i i p p i p i p i p p i i i p i i i i i p i i p i p i i i p i p i i i p p i i i i i i i p i i p p i p p i i i p i p p i i p p i i i i i p i i p i p i p p p p i i p p i i p p i p i i i p i i p i i i i i p i i i p p i i i p i i i i i p i i p i i p p i i i i i p p i i p p i p i i i p p i p p i i p i i p i i p p i i p p i p i i i p p i p i g i i i g i i i i p i i i i p i p p i i p i i p i p p i i i i p i i p i M.yXk l.K.%.BXz 8Xz F.V.# g u M.7XG.7Xh @.yXH.Z.&.H.F.5Xj uXK.A.@.i 7 K.c.z rXz eXK.Z.#.G.Z.7X@.J.v.# g 9 V.7XF.eX@.&.7X> c.BX@.V.F.5Xb.l.yXF.c.l.H.G.K.g i j 7Xz yXl.Z.V.u 8XK.K.5Xi A.Z.# 8XyX, c.0XA.0Xl.u p i g h i i i f ,Xy.l ,Xk 3 f.3.u f.O.2 3.y.o.1Xk f.l i i i i i i i p I W R R P W W g i i ",
"i i i cXlXZX3.3 g i p i p k gXvXvX+.& 2 2 2 2 u u i g g gXzXzXl 3 2 u 3 o.zXzXgXg a u.9.*X| 9 g i i g u l f.g 3 aXaX5.3.2 g p p p i i i p i i i i p p i i i p i p i i p p i p p i i p i p i i i i p p i i p p i p i i i p i i p p i i i p i i i p i i p p i i p p p p i i i p p i i p i i p i i i p p i i i i i i i i p i i i p i i i i i i f i i i g g i i i g i p i i i i i i i i i i i i i i i i g g i i i i i i g i i i i i i i i i i i i i i i i i p i i i i i i p i i i i i i i i g i i i i i i g i i g i i i i i i i i i g i i i i i g i i i i g i &.b.z h #.g #.i $.g c @.i g i i %.b.h i h 7.c.7.j 7.c.j i $.b.c.z i i #.@., &.z $.b.c.z &.c.@.7 #.c i p i i &.c.z 7 j $.i g &.g @.c.&.9 j b.c.&.j b.l.g i i g &.g #.g @.z i h 7.l.g u @.@.3 j &.i u #.c.@.i f i i g g i i i g <.O.+.+.u p +.l i +.k i k +.g o.i o.g g i i i i i i i I W W W W I d f g i ",
"i i i cXzXzXO.a g i i i i g gXlXlXs.+.+.+.+.l i i g i g gXzXzXO.i g g i l lXzXgXk u s.aXg.,.k g p p i p ,X6.i a 8.;X3.u.u g i p i p p i p i p i p i i i p p i i i p i i p f i i i p p i i p p i i i i i p i i i i p p i i p i i i p p i i p p i i p i i i i p i i f i p p i i i p i p i p i i p p i i i p p i i i p i p i p p p g g i g g i g g i g i g p i g g p p p p g g g i g i p g g g g i i g i g i g i g p p g h g i i g g g g g g i g g g i g g p f g g p p p p g g g i g g g i g g g i i g i g p g i g p p g h g g g i g g g i i g g g g i g g g u u g i i g u g i g i u g i i g i u i f g 7 7 7 i i , i f i 7 7 f g i u i g i i i 7 7 i 7 7 9 g u i g p p p u 7 i g g 7 g g 7 i i 7 9 g i 7 , 7 i 7 7 i g g g u g u g i i f i 7 7 i g 7 i g g u g g i , i g i g g g i g i g g u u f a g g u i p u i g p i i i i u i g i g g g p i g g p p p i p f g g p ",
"i i i cXzXzXO.u g i i i g u s.vXlXvXvXlXvXvXgX1Xk i i g gXlXzXl & 2 2 2 3.vXlXgXg i +.f.cXvXgX,.u g i g k u i u +.lXg.t.p i i p i i p i i i p p i i i p i i i p i p p i p i i i i i i i i i p i p i i p i i i p i i p i i p p i i i i i i i p i i p p i i p p i p i i p i p i p i i i i p i i i i i i p i i i g i i p i g i 2 , , i , 2 , 3 , 7 3 7 2 , 3 7 2 , 7 3 2 7 3 7 7 3 7 3 2 7 3 7 7 3 3 7 2 , u 2 2 u 2 2 , , 7 3 3 7 3 7 u u , 3 7 3 , u 2 7 7 7 2 3 u , 2 , 3 7 , 2 u , 2 , 3 , 9 3 3 7 2 7 u , 3 7 2 2 , , 7 , 2 , , u , 2 3 2 7 , , u 2 , u 7 3 , , 2 , i 3 7 , 3 7 3 , u 2 7 u 2 7 7 3 7 u 7 3 9 7 7 7 7 9 u 7 i i 9 u i 7 f f i i 7 f i i 7 f 9 u i u i f 9 i f i i i i i u 9 i u i i i i i g f u i 7 9 g , 3 7 u 3 7 3 9 7 7 7 7 9 , 9 7 7 2 7 u 3 7 7 2 7 2 u 7 3 2 7 , i 7 3 3 u 2 7 u 7 2 3 2 3 7 7 7 3 , u 2 u 7 2 3 7 7 2 7 7 7 7 7 7 3 , 7 ",
"p i g cXzXvXO.a i i g i g i h aXvXlXlXvXlXlXlXvX1Xi f g gXzXlX,Xf.,Xf.f.gXzXlXgXg f 3 & t.vXvX4.u g i i i g i i k lXf.t.i p i i p i i p p i i i i p p i i p i p i i i p i i p p p p i p p i i i i p p i i p p i p i i p i i p i p i i i p i i p i i i p i i i i i i p i i p i i p p i p i i p p i p i p i p i i p i i p u , , , , , , , , , , , > , , > > , , + , > , , > > , + , , > , > > , + > , , > > , , # > , , , > , > > > , , , , > , > > , > > , , , > , , , , > , , , , , , , > , , , > , , > , , + > > , , , , , , , , , , # > , , > > , , , , > , @ , , > > , > , , , > , , , , > # , , , > , , , , , , > , , , 7 , 7 7 7 7 , , 7 7 7 , 3 9 , 7 3 , , 7 , 7 3 , , , , 9 , , 3 u < i , , 3 9 , , , , 3 7 7 7 , > , , > > , , , , , , > , , , , , , > , , > > , > , # > > , > > , , , , , , , > , , > > , , > , , > , > , > , , , > > , > , # , , , , # ",
"i i i cXzXvX,.u g i i i i g u z f.gXlXgXgXgXlXlXvX4.u g gXzXlXvXvXvXvXvXzXlXZXs.i i 3.aXlXlXvXy.3 g p p g i g u O.gXt.y.i p i i p i i i i p p i i p i i i p i i p i i i p i p i i i i p i i i p i i p i i p i i i i p i p p i p i i i g i i i p p i i p p i i p i p p i i p i p i i p i p i p i i p i i i i i i g i g 3 , , , , , , , , , , , , , , , , , , , < , , , , , , , , , , , , , , , , , , > , , , , , , , , , , , , , , , , , , , , , , , , , , , , , , , , , , , > , , , , , , , , , , , , , , , , , , , , > , , , , , < , , , , , , , , , , , , , , , , , , < , , , , , , , , , , , , , , > , , , , , , , , , u 3 9 f 9 3 u i , , i 9 9 , i u 7 9 9 7 i 9 , i , , i , 3 > , 9 , 9 , i 9 7 7 i , 3 i 7 7 3 , , , , , < , , , , , 3 , , , , , , , 2 , , , , , , 2 , , , , , , , , , , , , , , , , , , > 2 , , , , , , , , 3 , , , , , 6 , , 7 , , , , 7 ",
"p i i cXzXvX3.u g g g i p i p i u h g k k k ,XlXZXy.2 g gXzXlXvXvXvXvXvXvXvX1Xk i u aXZXlXlXvXcXz u i i i f g 2 i.,XO.t.3 g p i i p p i i i i p p i i p i p i p p i p i p i i i i p p i i p p i p i i p i p i p p p i i i i i i g i i i p p i i i p i i i i p i i i i p i i i p i p i i p i i i p i i p i i g i i g u , , , , , > , , , , , , , , , > , , , , , , , , , , , < , , , , , , , , , , , , , , , < # , , , , , o o > , , , , 2 , , , , , , 2 @ , , , , , , , , , 2 , , , , , , , , , , > , , , , , , , , , < , , , , , , , , , < , , , , , , , , , , , , , , , , , , , , + , , , , , , , , > , , , 1 , , , , i , i , , , 8 q , , i , 3 7 9 , u u 3 7 9 , 3 , , i , 3 t ;. .8 < i 3 , , 3 3 9 , 9 9 , 7 u , , , , , @ < $ + + , , o O , , o < @ o X # O > , + > O < , @ > , , , , , + @ + # + + , , , @ O , < o X O , , O . O , @ @ , # + O o o O , , , ",
"p i i aXzXvXX.& 2 2 3 2 p g i 2 2 3 2 2 2 + 5.vXZXy.2 g gXlXlX,Xa.f.f.g.f.5.g i p i ,.,X4.f.vXlXaX4.h h g g u g gXaXy.o.u p i i i i p i p i i i p i i p p i i i i i p p i i p p p p i i i p i i p i i p p i i i i i i p i p p i i i i i i f i p i p p i i p p i p i i i p i i i f i p p i i p p p i i p i g i i i u , , , , , , , , + > , , , , , , , , , , , , , , , > , , , , , , > , , , , , , , , , , , , , , , , , 2 C.G.h O o . @.K.O o o , < o o j # < , < o o , @ O O < o O , o o , O o O h i O 3 > , , , , , , , , , , , , , + , , , , , , , , , , , , , , , , , , > , , , , < , , , , , , , , , , , , , , , , 3 , , 9 u 3 E }.3 9 i , 3 9 3 9 u u , , 3 , i i , 3 9 , d.d.d.d.u 3 7 i i , 7 9 , 3 3 , 9 , , , > @ t  . . . . ., O z.1.@ , v.@.j J.K.@.b.j o #.h #.h O #.c @ , < , ,  ... .X.;.t < , + z z.O p G.G.&., < j.G.z.O @.@.O z @.l.J.G.C., , , ",
"i p p cXzXzXf.t.y.y.y.y.l u g t.y.y.t.y.y.y.gXlXvXy.u g gXlXlXl 3 2 2 2 2 3 f g i i u 3 i 1XvXvXvXzXgXaXg 3 a ,XlXt.y.p g i i g p i i p p f p i i p i i i i p p p i i i p i i i i i i p p i i p i p i i i i p p i p i p i i p i i i i i i a i p i i p i p i i i i p p i i p p i p p i i i p i i i i p i i i i g i , , , , , > < , + e f.9 < , , , , , , , , , , , , > , , , , , , > , , , , < , , , , , , , , , , < , o G.G.%.j u A.@.c 6XO C.b.O j A.l.FXG.2 @ #.c.C.> c l.1.p F.c , B.C., %.Z.3 5XtXh @ , < , , , , , , , , , , , , , , , , , , , , , , , , , , , , , , , , , , @ :.w.+ , , < , , , , , , , , , 3 i 7 9 9 7 3 , 7 Y R W 4 , 9 7 7 , 3 + 3 + O t , , , i , 9 3 d.:. .>Xi , 9 , , 9 3 , i , 9 i , , , , , + ..,X,X:X,Xt., o 7XFXO i HXv.c.U.g 3 FXyX  G.l.I.l.  J.B.$ , , , , :.7 a.:.r O.@ , o G.HXO l.qXg yXj c.9Xc 6Xc.M.S.  c.I.u F.tXj , , , ",
"i p a cXlXlXvXvXvXvXvXZX8.u h lXvXvXvXvXvXZXvXbXlXO.3 g gXzXlXX.i g g g g g p i i p g f ,XZXlX1XlXlXvXvX,.k 1XaXt g.+.u g i p i p i i i p i p i i i p i i p i i p p p i i i p i p i i i i p p i i p i p i p i p i i p p i p i p i i i p i i p i i p i i i p i p i i p i i i i p p i i p p i i p i i p i i i p u , , , , , , , , , e f.r @ , < , , , , , , > , , , , , , , , < , , , , , , , , , , , , , , , , , , , , O v.7Xi o 5XC.7XZ.A.A.G.6XM.6Xv.#.tXb., O tXG.I.B.F.tXz 0XC.0XI.5Xc *.6XA.5XU.K., , , , , , , , , , , , , , + , , , , , , , , , , , # , , , , , , , , , , , , + :.t., , , , , , , , , , , 3 9 9 , i , , 9 3 y R E T 3 , 3 f 9 3 ;.d.d.d.d.pX:., 3 i , , , d.>X>Xd., 3 3 , i i , 3 7 7 7 , , , , > , @ X.a.i.f.i.:.< < A.yXh &.yXl.z.qXb.h A.rX7.M.l.S.l.  F.v.O , , , ,  .$ f.;.,  .+ , u S.C.1.@.rXv.9X2 0Xc   h 6XB.C.  l.G.  *.G.. 3 > , ",
"p i p gXZXvXvXvXvXvXvXvX6.u p gXvXvXvXvXvXvXvXvXg.u g g lXZXZXo.u g i i i p i i p p p u :XzXy.p aXvXaXgXw.,XvXy.y.4.u g i p p i i i p i p i i p p i p i i p p i i f i i p p i i i i p p i i i i i i i p f p i i p i i i i i i p i p i p i p p i i p i p p i p p p p i i p p i i i p i i i p i i p i i p i p i , , , , , , , < , +  .a.< , , , , , , , , , , , , , # < , , , + , , , , , , , , , , , , , , , , , , , , , $ 1.rXv.MXG.5XA.G.qXU.I.U.I.  + U.i @ O 5Xg 3 5XS.1.u FXS.6X&.U.1.v.FXF.J.A.&.o , , , , , , , , , , , @ , , , , , , # , , , , , , , , , + , , , , , , , , , $  .f.< , , , , , , , , 2 < , , 3 9 i , 9 , < E R T }.q , 9 , 9 ,  .e.>.e.e.>X .2 9 , , i 3 d. ., >X ., 9 i , , , 9 3 u , , , , , , , <  .f.a.a.a.:.+ @ S.G.C.C.J.c.z.6X1.p J.@.6XP.%.G.&.  Z.M.o , , , , ;.@ i...,  ., O &.FXU.6X@.rXl.7Xz 6Xj o p 6XA.B.  l.I.  l.I.O , , , ",
"i i i s.1X,X1X1X1X,X1X1X,.u g ,XaX1X,X,X1X1X,X5.3 g i g ,X1X1Xl a i i i i i i i i i i i g +.2 O.vXvXl y.aXO.t.y.3.u g i i p i i i p p i i i i i i p i i i i i i p i i p i i i p i p i i p i i p p p i i i p p i i p i p p p i i p p i i i p i i p i i i i i i f i i i p i i i p i p p i i p p i p i i i p i , , , , , , , , # , , +  .a., , , , , # , < , , , , , , , , , , , , , , , , , < , , , , , # , , , , , , , , h @ M.U.7X#., &.I.U.v., z tXh 3 qX*.> o qXz.c.G.S.z., yXh i i i qXG.5Xi , F.Z.@ , , , , , , , , , , , , , , , , < , , , , , , < , , , , , , , , , , , , , <  .f.8 < , , > , , , , , , 2 , i 3 , , , i f q }.q 4 T P 4 , , 3 i , o 2 + 3 w , f 7 3 9 , 3 d.>Xd.d.9 , 9 , , i i , 2 , , , , , , , , +  .,X:X3X,Xt., O I.*.yXJ.v.B.b.A.% , 6Xf l.KX*.C.G.@ qX%.O , , , , 3.@ 0. .,  .@ O 5XI.b.rXZ.J.  qX&.A.I.o S.G.&.9X$ I.C.  l.U.o , , , ",
"i p i u u 2 u u u 2 u 2 i i p u 2 2 u u u 2 2 2 g i i p 2 2 , i g i i g i i i g i p i i g 3 a l gX1Xi X.cXy.y.+.3 g i i i i i p p i i i i p p i i i i p p i p p p i i p i p i p i i p i i p i p i i p i i i p i i p i i i i p i i i i p p i i p i i p p i p p i i p i p i p i p i i i p i i i i i i p p u + < , , , < , , , , , , , + k 9 , , , , , , , , , + , , , , , , , , , # < , , , + , , , , < , < , , , , , , @ l.7XU.u *.qXF.*.B.p 6X5Xh l.rX1.l.5Xu O 5X6X5Xi c.&.o l.qXC.1.6XF.3 C.qXz.j 0X@.@ , , , , , < , , , , , , , , , , , , , , , , # , # < , , , , , # < , , , @ r 9 + , , , , , , , , , u , i , 9 9 3 9 , 3 q q 7 , 8 q 3 9 i , , 3 6 , i , 7 < , , i , 9 3 t  . .9 , i 7 7 3 , f , , < , , , , , , , +  .e.:.>.:.5., + M.p Z.&.#.1.#.tX5X&.B.g $ 6X%., J.7XB.> , , , , @ 4.,.0.:.:.O.+ i G.,   l.Z.9X9XG.2 , F.5XJ.3 @ A.7XG.< O *.C.O , , , ",
"i i i i i p p p g p g g i i i i i g g g i i g g i i i i g g p p i i i g i i i i i i i p p p p f l k i i x l a 3 i i p i p i i p i i i i i i i i p i p p p p i i i i i i p p p i p i p i i i i i i i i g p i i i p p i i i i i i i i a p i u p p i i i i i i i i i i i p p i i i p i i i i g i i i p p i , > , , , , , , , , # , , , > + < , , , , , , , , , , , , , , , , , , , , , , , , , , , , , , , + , , , , , , + @ > O > @ + < @ + @ + # < $ @ > @ > , O 6Xc % > + < , + O < @ # + < O @ > + + > , , , , , , , , , , , , < # , , > , , , , , , , , , , , , , , , , , , , , , + , , , , , , , , < 3 9 3 7 , f 7 7 , 9 9 7 3 , 7 7 , , i , 3 9 , 9 , 9 9 7 9 9 3 7 9 3 9 , , 3 , 3 9 , i 3 9 , i , , , , , , , , , , , < @ + # + , , , @ > + @ < + # O , , + , , o @ , O @ $ , , , , , , < , + , + < , , O , , + + @ > O , # O < O > , O @ O + , > @ , , , , ",
"p p p i p p p p p p i i p p p i p p p p i p i i p p p p i p p p i i i i i i i i p p p p p p p p i i i i a f p p p p p p p i i p i i i p p p p i p p p g p p p i p p p p p p p p p i i g i i i i i g i p p p p p p g p p p p p i i i i p p p p p p p p p g i i i p p f p p p p p p p p p p p i p p p u , , , , , , , , , , , , , , , , , , , , , , , # < , # , , , , , + , , , , , , , , > , , , , , , , , , , , , , , < , , , , , , , , , , , > , , , , , , , O F.c # , , , , , , , , , , , , , , , , , , , , , , , , , , , + < , , , , , , , , , , , , , , , , , , , , , , < + , , , , > , , , , , , , 9 7 , 9 , i 9 3 i 7 3 7 9 3 9 9 7 7 9 u , i i , i 7 3 7 u 7 , 9 , i , i , , , 9 3 9 , 9 , i 7 < , , , , , , , , , , , , , , , , , > 3 , 3 , , , , , , , , , , , , , , , , , , , , , , , , , , , , , , , , , , , , , , , , , , , , , , , , , , , , , , , # ",
"i i i i i i i i u i i i i i i i i i i u i i i i u i i u i i i u u i i i i i i u i u u i i u i i i i i i u i i u i i u i p u i i i i i i i i i i i u p u u i u i i u u i i u i i u i i i i i i i i i i u i u u i i u i i i u i i i i u i i i i u u i i i i u i i i u u p u i p u f u i i i u i i i 3 , , , , , , , , , , , , , , , , , , , , , , , , , , , , , , , , , , , , , , , , , , , , , , , , , , , # , , , , , , , , , , , , , , , , , , , , , , , , , , @ , , , , , , , , , , , , , , , , , , , , , , + , , # , , , , , , , , , , , , , , , , , , , , , , , < , , , , , , , , , , , , , , , , i , , 3 9 , , 9 3 , , , 7 , i , 3 9 , 3 , , , 9 3 , , 7 , , , 3 9 , , 3 9 , , 3 9 7 , 3 , , , , , , , , , , , , , , , , , , , , , , , , , > , , , , , , , , , , , , , , , , , , , , , , , , , , , , , , , , , , , , , , , , , , , , , , , , , , , , , , , , ",
"> , # , # , > # , > # > , # , , , # > > # , , > , , , , , > , , , , # < , , , , , , , , # < , , # , # > , , > , , > , , , , , > , , # , # # , , > , , , , , , , , , , , # , > , , , , # , , # , < , , , , , , , , # < , , , , > , > < , , , , , , , > , , , , > , , , , , , , , , , , > , , > , , , > , , , , , < , @ , , , , , , , , , # , , , , , , , , , , , < , , , , , > , + , , , , , , , , , , # , < , , , , , , , , , , , , , , , , , , , , , , , , , , , , , > , , , , > , , , , , , , , , , , , , , < + , < , , , , , , , , , , , , , # , , , < + , , , , # , , , , , , > , , , , , , , , , , , , , , , , , , , , , , , , , , , , , , , , , , , , , , , , , , , , , , , , , , , , , , , , , , , , < > + , # < , , , , , # < , , , , , , , , , , , , > , , , , , , , , < , , , , , , , , , , , , , > , , , , , , , , , , , , , , , , , , , < , , , , , , ",
", , , , 7 , , , , , , , , , , , , , , , , , , , , , , 2 , , , , , , , , , , , , , , , , , 2 , , , , , , , , , , , 2 , , , , , , , 7 , , , , 6 , , , , , , , , 7 , 2 7 , 7 , , , , , 7 , , 6 6 , , , , , 7 , 6 , , , , , , , , , , , , 3 , , , , , , , , , , , , , , , , , , , 2 , , , , , , , , , , , , , , , , , , , , , , , , , , , , , , , , , , , , , , , , , , , , , , , 2 , , , , , , , , , , , , , , , , , , , , , , , , , , , , , , , , , , , , , , , , , 3 , , , , , , , , , , , , , , , , , , , , 6 , , , , , , , , 3 , , , , , , , , , , , , , , , , , , , , , , , 3 , , , , , , , , , , , , , , , , , , , , , , , , , , , , , , , , , , , , , , , , , , , , , , , , > , , , , 3 , , , , , , , , , , , , , , , , , , , , 2 , , , , , , , , , , , , , , , , , , , , 2 , , , , , , , , , , , , , , , , , 3 , , , , , , , , , 2 , , , , , , , 2 , , , , , ",
"p p p p i i p i p p p p i i p p i i p p i p p p p p i g p i p p p p i g p p p p p i p p i g p p i g i g p p p p i i i i g i g p p i i p i p i p g 9 g i f i i p i i p p i i i i g g i f i i i h i i i i i h i i i i i g g i g i i i i i g i g i g i i g i i g g p p i p p p i i p i g i i g i i g i g i g i g i a f i i p p p p i i g i i g i i g i g i g i g i i p i i p p i i p i g i i g i i i i p p i f g i g i i g i i g p i i i g i i g p p p i g i i g i i i i i g i g p i g g i i g i i p p p i p i p i g p i p p p i i p i p p i g i i p p p i g i i i i p i i p p i i i i g i g g i i g g i g p i g i g i i g i i g p f f g g i i g g i g i g i p g i g g i i g i p p g i p p i i i i g i g i g i g i i g p i p p p p i i i i g g i i p p p p p p p i f i i p p p i i i i g i p p i i i i p f p i p p p f i i i p g p f p i i i p p p p p i g p i p p p ",
"i i i p i p i i i p p p i p p i p i p p i i i g i i i g p i i p p i i i i p p i p i i i i i i i i i i i f p p i i i i i i p i g i i i i a g a a a a b h a a a a g a a a a a g a a a a s a a a a a a a a a a a a a a i i i i i i i i i i i i i i i i i i i i i i i p i i g i i g i f i i i p i i i i p i i i p i i i i i i p p p g i i g g i i i i i i i i i g i p i i p i g i i p i i i g i i i i i p f i i i i i i i g i p i i i p i i g i i f p i i p i i i i i i i i i i i i i i g i i i i g p p p i p p f i i p i i g i g i p i i i i i p p p i i p i f i i p i p p i i i i i i i i i i g i i i i i i i i i i g g i i i i i i i i i i i i i i p i i i f i i g i i i p i g i i i i i i i i g i i i i i i i i i i i i i p p p p i i p i i g i p i i i p p p i p p i i i g i i i i i a g i p p i p p i p i i i i p i i i i p i i i i i i i p i i i i i p i i p p ",
"p p i i p i i i p i p i p i i p i i p i p i i i g i i i i i p i p 2 > , , , , , , , , , > , , , , , , , 2 , , , , , , , 2 f i i p i p g %X%X%X%X%X%X%X%X%X%X%X%X%X%X%X%X%X%X%X%X%X%X%X%X%X%X%X%X%X%X%X%X%X%X%X%X&X) f g i i g i p p i i i i i i i i i g f i i i p i p i i i i i i i i i p i i p g i i i p i i i i i i i p i i p i i i i i i i g p i g i i i i i i p p i i i i i i i i i i i i g i i a p i i i i g i i i i f i i p i p i i i i i i p i i i i i i i i i g p i g i i i i i g i i i p i i i p i i i i i p i i i i i i i i i i p i i i p p i p p i i i p i i i g i i g i i g i i i i i i i g i f i i i i i i g i i f i i i g i i g i p i i p i i i i g g i f i p i i i i g i g i i i i g i i g i i i i g i p f i p i i p i i i i i i i p p i p i i i p i p i i i i i i i i f i i i i i i p i i i p p p i i p p i i i i i i i p i i p i i i g i i p i p ",
"i i i i i i i i i i i i i i p i i i i i i i i i i i i i i g i i g , > , , , , , , , , , , , , , , , , , u , , , , , , , , g i i i i f a %X{ ' ` ` ' ` ` ' ` ` ' ` ' ' ' ] ' ` ` ` ' ` ` ` ` ` ` ] ` ` ' ` ` ` _ %X) 9 g f f i i i i i i i i i i i i i i i i i i i i i i i g i i i i i i i i i i i g i i i i i i i i i f i i i i i i i i i i i i i i i i i i i i i i i f i i i i i i i i i i i i i i i i i i i i i i i i i i i i i i i g i i i i i i f i i i i i i f i i i i i i i i i i i i i i i i i i i i i f i i i i i g i i i i i i f i i i i i i i i i i i p f i g i i i i i i i i i i i i i i i i i i i i i i i i i i i i i i i i i i g i i i g i i i i i i i i i i i i i i i i i i i i i i g i i i i i i i i i i p i i p i i p i i p i i i i p i i i p p i p i i i g i i i p i i i i i p p i i i p i p i i i p i i g i p g i i i p i i i g i i i i i p i i ",
"i p p p j g p j h h h h i i p j g p i i i p i g i i i g i i i i g 3 , O o , @ o < O o o , O O , O O , , u > , > , , , > , i u i u i i i '._ ^ ^ ( ^ / ( ^ ^ ^ ^ ^ ^ ^ / ( ( ^ ( ^ ^ ^ ^ ^ ^ / ^ ^ ( ^ ^ / ( ^ / '.] , i i i i i i i u i i i i i i i i i i 7 i i i 9 i i i u u i i i i i 9 i i i i u u i i i i u 9 i i u i i i u i i u i i i 7 i i i i u i i i 9 9 i i i i i i u i i u i u i 9 i u i i i 7 i i i u i i i i u i i u i u i u i i i i i 7 i i i i 9 i 7 i i i i i u i i 9 i 9 i i i u i i i i i 7 i u i i i i u i i i i u i i 7 i i i i 7 i i 7 i i i u i i i i i u i i i u u i i i i i 9 i i i i i i i i i i 9 i i i i 9 i i i u i i i u i u i i i i i 7 i i i i u i i 9 i i i i i i u u i i i 9 i i i u i u i i i i i i p i i p p p i i p p i i i i i p p i i i i i p i p p p i i p i p i p i i i i p i i i i i i i i i g p i p i i i g i g i i i i ",
"p i p qX5X1.5X5XC.I.MXI.g h tXU.j., g i h p u u g u g u i g i i i , @ &.C.i j C.h &.C.v.3 &.v., b.l.> 2 u , < < uX@.O , , u u i u i 2 a '.] ^ ` ' ` ] ( ^ ' ] ( _ { _ _ ( _ ( ^ _ / ' ^ _ ` ` ] ' ` ` _ { _ ^ / '.J 0 i 7 i i 9 u i u i u i 7 i u i u i 9 i u i u u 7 i i i i u i u u i u i i 7 u i i u i u 7 i i u i i 9 i u i i 9 i i 7 9 i i 9 i u i i 7 i i u i i 7 u i u i i 9 i i i u 7 i i i u i i i 7 i i u i i 7 i u i i i u i i i u i u i i i 9 i i i 9 i 7 i u i u i i 7 u i u i i u i i u u 7 i u i i 7 i u i i 7 u i 9 i i 9 i 7 i u 9 i 7 i i 9 i u i i u u i u i i u i 7 i 7 i u 3 i i i 7 i i i u i u i u i u 7 u i i i 7 i u i 3 i u i i i i i 7 i i i 9 i u i i 7 i i , i i u i 7 i 3 7 i 9 i 7 i u i u i u i i i p f p i i i p i i p i p i p p i i i i i i g p i i i i p i p i i p p i i p p i i g i i p i i i i i i i i p p i g i i i i i i p ",
"i i h 9Xi i 9Xh u g U.i u v 5X7 p qXS.@.G.G.l.qX5XI.qX@.#.5XA.i p , 3 %.c.J.$.M.I.@.&.qXc.H.p c.A.G.&.@ 3 , @ 4XKXuX, @ > i u 7 i u , a '._ ~ ] ] { ] ` / { ' _ { ' ] ] _ ' ' _ './ { / ' { ^ { { { _ ` ` { ^ ~ '.) 6 i 7 7 7 7 7 u 7 9 7 u 9 u u u u u u u 7 u u u i 7 , 7 u u u 9 7 u 7 7 7 i 7 u u u 9 7 7 7 i 7 u u u 7 7 3 7 7 7 u u u u u u 7 7 3 7 7 7 u 7 7 7 i 7 7 u 7 7 7 7 u u 7 i u , u u u 7 7 9 u u u 7 7 7 9 u u 3 7 7 9 7 7 7 7 7 7 7 7 7 u 7 7 7 7 i 7 7 u u u 7 i 7 u 7 7 u 7 7 u u u i u u 9 7 7 9 7 7 7 u u 7 7 7 7 u 7 i u u i 7 7 u u u 7 7 7 u 9 7 u 7 7 9 7 7 i 7 7 9 7 7 7 7 7 7 u , 7 u 7 7 u u 7 7 i 7 7 7 7 7 u 7 9 7 u 7 9 , u , u 7 7 u u u 7 7 3 7 i , 7 7 7 9 7 7 i u 7 i 7 u 7 7 7 i u u u u u u i p i p i p i i p i i i p i i p i i i g i i i i i p p i i i p p i i i i p i i p i i i i i i g i g i i p i i i i i i i i i g i i ",
"i i p MX9X&.qX0Xl.h 5Xj u j FXU.j.tXi g x.9XJ.A.z.G.j.Z.U.G.yX$.i , > u G.Z.% u U.. j C.C.7XB.*.7XU.i , u , , h f g , < # u 7 7 7 7 7 : '.^ n ' _ ] ` _ ~ { ` ` ' n ` ] ^ _ _ _ ] _ ' / ^ ' ~ ] ^ { _ ' ` ` / n '.) 1 u 7 u u u 7 u u u 7 7 7 7 7 7 7 7 u u 7 7 7 9 u 7 7 7 7 7 7 7 7 7 7 7 7 9 7 7 7 7 7 7 u u 7 7 7 7 7 7 7 u u u u 7 7 7 7 u u u u u u u u 7 7 7 7 u u , 7 7 7 7 7 7 u u u u 7 7 u u 7 7 u u 7 u u u 7 7 u u 7 7 7 7 u u 7 7 7 u u u 7 7 7 7 7 7 u u 7 7 7 7 7 7 7 7 7 7 u 7 7 7 7 7 u u u 7 7 7 u 7 7 7 7 7 u u 7 7 7 7 u u 7 7 7 7 7 7 7 7 7 7 u u 7 7 7 7 u u u 7 7 7 7 7 7 7 7 u 7 7 7 7 7 7 7 u 7 7 7 u 7 7 7 u u u 7 7 7 7 7 7 u u 7 7 7 u u 7 7 7 7 u u , 7 7 7 2 7 7 7 7 7 7 7 7 7 7 7 7 7 9 7 7 9 u i i i i i p i i p i i p i i i p i p i i i p p i i i p i i p i i p i i i p i i i i p i i i p p i i i f i i p p i i p p i i i p i i ",
"i i h 9Xi i 0Xh u j 6Xg u c 5X, c 6X# I.I.6XI.C.l.A.j.A.I.I.j.h g 3 > 7 v.G.O G.j % G.@.G.z c.5Xc.S.#.@ u , , F.4XF.i O # , 7 7 7 u 6 u './ n _ ^ ` ` ^ n ` n ^ ` n ' ] ^ ^ _ ] { ' ' ~ / _ _ ^ n ` n _ { ' ~ n { ) < 2 7 , 7 , 7 , 7 , 8 7 7 2 7 , 7 7 , 6 7 7 , 7 7 , 7 , 7 7 , 8 7 u 7 , , 7 2 6 7 , 8 7 , 7 7 7 8 7 7 2 7 6 , , 7 7 7 7 6 , 7 , 6 7 , , 7 7 7 2 7 6 , 7 7 7 7 7 , 8 , 6 7 , 7 7 , 6 7 , 7 , 7 , 7 , 7 7 7 , 7 7 7 7 7 , 6 7 7 , 7 , 7 2 6 7 , 7 6 7 , 7 7 7 7 u 7 7 2 6 , 2 7 7 , 8 , u 7 7 , 6 , 7 7 7 8 7 , u 7 7 6 7 , u 7 7 , 6 7 u 7 , 7 7 , u 7 , 7 7 , u 7 , 7 7 7 2 7 , 7 u 6 7 7 2 7 7 , u 6 7 7 7 7 7 7 7 , 6 7 7 6 7 7 7 , , 6 7 8 , , , 7 2 7 6 , 7 7 7 7 8 7 , 7 2 7 7 , 8 7 u 7 , , 7 7 7 u i u i i f i p i p p i i p i p p i p i i p i i i p p i i p i p p i i i p p i i p p i i p p i i i p i i a p i i i i p i i i p p i i p ",
"p i g G.i i J.h i j S.g i c G.u j G., c.U.S.C.b.*.v.&.c.c U.Z.p f , 7 &.b.G.U.6Xc j 6XO c.G.A.U.M.G.l.$ u , + =.KXV.o O > 7 , , 7 , # 7 { ^ n _ _ ^ / ^ n ' ' n _ ` ^ n _ ^ ^ ^ ~ ^ _ _ _ ' ' _ ^ ` _ ^ ~ ^ ~ n { m 1 # , 7 , , , 7 , , , , , , , 6 , 7 , , , , 7 , , , , 2 , , , , , , , , , 7 , 7 , , , , , , , , , , , , , , 6 , , , 7 , 7 , , , 7 , 6 , , , 6 , , , 7 , , , , , , , , , , , , , , , , 7 , 6 , , , 6 , , , , , 6 , , , , , , , 7 , 6 , , , , , 7 , , 6 , , , , , , , , , , 6 7 , , , , , , , , , u , , , , , , , , , , , , , 6 , , 2 , , , , , 6 , , , , , 8 , , , , , , 6 , 6 , , , , , , , , 7 , , , , , , , , , , , , , , , , , , , 7 , 7 , , 7 , , , , , , 7 , , , 6 , , , , , , , , , , 7 , , 7 7 7 u 9 9 i i i i i p i i i i i i p i i p i i p p i i i i i i p i i p i i p p i p i p i p i i i p i i i i i i i p i i p i i i p i i i p i ",
"i i i i i i u i i i u i i i u p i u g u g u u i i i i i u p g i g 7 , 7.M.g &.v.l.f c @ , l.#.@ z.1.> , u , , > %.< < O > 7 , , , , # 7 ] n n n n n n n n n n n n / ^ n n n n n n n n ~ n n n n n n n n n n ~ * { ~ 1 , , , , , , , , , , , , , , , , , , , , > , , , , , , , , , , , , , , , , , , , > , , , , , , , , , , , , , , , , , # , , , , , , # , , , , , , > , , , , , , , , , , , , , , , , , , , , , , , , , , > , , , , , , , , , , , , , , , , , , , , , , , , , # , , , , , , , , , , , , , , , , , , , , , , , , , , , , , , , , , , , , , , , , , , , , , , , , , , , , , , , , , , , , , > , , , , , , , , , , , , , , , , , , , , , , , , , , , , , , , , , , , , , , , , , , , , , , , , , , , , , , 7 7 7 i i p i p i i i i p p i i i i p i i p i i p p i p p i i p i i p f i i i p i i i p i p i p i p i i i p i i p p i i p i p i p i p p ",
"i i p p i i g i i i p i i p p i i g i p g i p p i g i i p i i p i 3 > O o # O o O @ @ , , o + , $ O , , u , , , O # # # @ , , , > # > 2 ` n * * n * * * * * n * * * * * n n * * * * * * * * * * n n * * * * * * ' m 1 > > # # > > # # > , # > # > # # # # # # # > > > # , + , @ > # # > , > # # # # # # # # # # > # > # # , , # , # > # # # # # # # # > # # # , # # # # # # # # , # # # > # # # # # , # # # # # , # # , > # # # # # > # # > # # # # # > # # , # , # , # , # # # > # # > > # # # > # > # , # > + # , # > > # # # # , # # # # # > # , > # # , > + # > # > # # > # , # , # # # # > # # > # # # > # # # # > # > # # > # # , > # # # # # , # # # # # , > > # , + , # # , , > , # > # > # , # # # , # > > , , , u 7 i u i p i i p i p i p p i g i i i i p i i g i i i i p p p i p i i p p i i i i p p i i p i i i p i i i i i p p p i i p i i i p i i i ",
"p i i i i i a i i p i p i p i p i i p i i i i i i i g i i g i i g , , , , , , , , , , , > , , , , , > , 3 > , , > > # O @ 2 , , # # @ + ] _ _ _ _ ^ _ _ _ _ _ _ _ _ _ _ _ _ _ ^ ' ( _ _ _ _ _ _ _ _ _ ^ _ ( _ _ { n 1 # # # # # # # # # @ @ + # # # # # # # # # # @ # @ # # @ > @ > O # # # # # # # # # # # # @ # # # # # @ @ @ # # # # # # @ # # # # # # # # # # # # # # # # # # # # # # # # # # # # # # # # # # # # # # # # # # # # # # # # # # # # # # # # # @ @ @ > # # # # # # # # # # # # # # # # # @ # @ # # + @ # # # # > O @ # # # # # # # # # # @ # @ + # @ # # # # # @ @ @ @ # # # # # # # # # # # # # # # # # # # # # # # # # # # # # # # # # # # # # # # @ # # @ @ # + @ @ # # # # # # @ @ # # @ > # # # , , 7 7 7 u i i i i i i p p i i i i i i p p i i p i i i g i i f i i i p i p i i p p i i i p i p i p i i p i g i i p p p p p i i p i p i p i ",
"i p i i i i i i i p i i p i p p p i i i i i i i i i i i i i g i i u u i i u u u u i u u u u u u 3 u i 7 i 3 7 u 3 7 , , , , , > + O O O - - n ; m - - - - - - ; - - - - - - m - ; m - - - - - - - - m - ; m - - - : O O # O # # @ @ @ @ > @ @ O @ # # @ # # # # @ @ @ @ @ O @ O @ @ # # # O # # # # # # # # @ # @ # @ @ @ @ @ @ @ @ @ # @ @ @ < # # # O # # # @ # # # # # # + # # # # # O # O # # # # # # @ # # # # @ # O # # O @ @ # @ # O O # # # # @ # O @ @ @ @ > O # O # O # O O # # O # # # @ @ O @ @ @ @ @ @ > @ # O # # O > O # # O O # @ @ @ @ @ @ @ @ # @ O # @ @ # @ O > > O # O O # @ # # @ # # # O # # # # # O # O # # # @ # O # O O # # # O < > O # O > O @ O @ > @ @ @ @ @ @ @ @ O @ @ @ @ @ @ O @ # # , , 7 7 7 i u i i i i i i i i i i i i i i p i i i i i i i i p i p i p i p i p i i i p p i i p i i p i i i i i i g p u i p i p i i p i i i i ",
"p p p p g p g p p p p p p p p p p p p g i g i g g i i g p p i g g g p p p p g g g g g g g g g g g g g g g g g g g i i i 7 2 , , < + < < . . . . . . . . . . . . . . . . . . . . . . . . . X . . . . . . . . . . . X O X o o o o o o o o o o o o O o o o o o X o O o o o O o O o O o o o o o o o o o X o o o o O o o o o o o O o o o o o o o o o o o o o o o o o o o X o o X O o o o o o O X O o X o o X o o X o X o o X O o o O o o o o O o o o X o o o o o o O o o o o o o O o o o O o X O o o o o O o o o O o o o o o o o o o O o o o o O o o o o o o o o O o o O o o O o o o o o o o o O O o o o o o o X o o o o X o o o o O X o o X O o X O o o o o o o o o o o o O O o o o o o o o O o o o o o O o o O O O # # , , 7 u u i i i p p g p p p p g g i g i g g p p p p p p g g p p p p p p p p p p p p p p p p p p p p p p g p p p p p p p p p p p p p p p g g p ",
"u u u u u 3 u u u u i 7 u i u u u u 3 u u 3 u u u u u u u u 3 u 3 u u u u u u u u 3 u u 3 u u u u u u u 7 3 i u 7 , , , , > > @ O o o o p g g g p p i i a g g p f p p p p p p a p p p p p p p p i g i p p g p a p i i p i i p p i g i i i g g i i i i i i i p p i p i p p i p i p f i p i i i i p p p p p p g i p p p p p p p p p p p p p p p p i i g i i i i i p p p p p p g i p i p p p p p p p p p p p p p i p i p i p i p i g i i i g g g i p p p p p p p i p p p p i i i i i g i g i f p p i i i g i p i g g i i g i g g i p p p p p p i a p i p p p p p p i g g i i i i i i g g i p i i p i p i i i i i i p p p p p i i p i i p p p i p p i i g g i g g i i i i i i i i g i g i i g g i g i i i i i g @ o O O O O + > , , , 2 u u u u u u u u u u u u u u 3 u i 7 7 7 u u u u u u 7 7 i u u u 3 u i u u i u 7 u u u i u u u u u u u u u u u u i 7 7 7 u u 7 ",
"# # # # > > > > # # # # > O @ < > # , + > > > > < > # # > > @ , > @ < > > O > @ > , @ > , + > < > # # < > > O O > # O O O o o o % o . . #.&.&.&.$.&.&.&.$.&.$.$.%.%.&.&.&.&.$.$.&.&.-.$.&.&.$.&.&.$.&.&.$.&.&.&.&.&.$.&.$.&.$.&.*.&.&.&.&.*.*.&.&.&.&.&.&.&.$.&.&.$.&.$.&.&.$.$.$.$.&.&.&.&.$.&.$.$.$.$.&.$.$.$.$.&.$.$.$.&.$.$.&.&.$.$.$.$.$.$.&.&.&.*.&.&.&.&.$.$.$.&.&.$.$.$.&.&.$.$.$.$.&.$.$.$.$.$.$.&.&.$.%.&.$.&.$.&.$.&.*.&.&.&.&.*.*.&.$.$.$.$.&.$.&.$.&.$.&.$.&.&.&.&.&.*.*.&.&.&.&.$.&.&.&.*.&.$.&.%.*.&.&.&.&.*.*.&.$.$.$.&.&.$.&.$.&.&.$.$.$.&.$.$.&.*.*.&.&.&.&.&.&.*.*.&.%.&.&.$.$.&.&.&.&.&.&.&.$.$.$.&.&.$.&.$.&.$.$.$.$.&.$.&.&.&.&.*.*.&.$.&.&.&.&.&.&.&.&.&.*.&.&.&.&.*.*.&.&.&.&.&.*.&.O . . o o o O O O O > @ , # # < > O + > > + , < # # @ > # < # > @ @ > # > # # # @ # # @ > + # @ O < # < > # > O @ < + > # < # # , > # # # # > > < + # ",
"g g g i g g p p g g g p g p p p p p p g g g p p g g g g p p p p p g p p g g g g p p p p g g p p p p g g g p g g i i i 3 3 2 , , > @ O O v *.#.c #.v @.@.v #.#.#.@.#.#.#.@.j @.&.#.#.#.#.@.#.$.@.#.#.#.#.@.#.c j c #.#.#.*.#.#.#.#.*.#.#.#.&.#.$.@.*.#.#.@.#.&.*.#.*.#.#.*.#.#.#.#.#.#.#.#.#.#.#.#.#.#.#.#.#.#.#.#.#.#.#.#.#.#.#.#.#.#.#.#.#.#.#.@.#.#.#.#.#.@.#.#.#.v #.#.#.#.#.#.#.#.#.#.#.#.#.#.#.#.#.#.#.#.#.#.#.#.#.#.#.#.#.#.#.#.#.#.#.#.#.#.#.#.#.#.#.#.#.@.#.*.#.#.#.#.#.#.#.#.#.#.@.#.#.#.#.#.#.#.#.#.#.#.#.#.#.#.#.#.#.#.#.#.#.#.#.#.#.#.#.#.#.#.#.v #.#.#.#.#.#.#.#.#.#.#.#.#.#.#.#.#.#.#.#.#.@.#.@.#.#.#.#.v #.#.#.#.#.#.#.#.#.#.#.#.#.#.#.#.#.#.#.#.@.*.#.@.@.#.#.#.#.#.#.#.#.#.#.#.#.#.#.#.#.#., O # > > 2 , 3 u i i i p g g g g g g p g p p p g p g g g g g g g g p p g g g g p h p p p p g g g g g g g g p h g p g p p p p p p p h g p p p p p p g ",
"$.$.&.&.&.$.$.&.$.$.$.$.&.#.&.&.$.&.&.$.&.$.$.&.*.&.*.&.&.&.&.$.$.&.$.$.&.&.*.&.%.&.&.&.$.$.&.%.*.&.&.*.&.&.&.$.#.@.c c z z h p f i i i *.@.#.M.#.v.l.&.v.@.c @.&.@.#.*.v.I.z.c.#.c c #.@.z @.$.c z &.5X@.@.C.U.Z.@.z @.#.@.#.c #.c j Z.F.l.$.z c @.c c *.@.7.l.@.z @.#.c c @.#.*.*.#.*.#.#.#.#.#.#.#.$.#.#.#.#.#.#.#.#.#.#.#.#.#.#.#.#.#.#.#.$.#.#.#.#.#.#.#.#.#.#.#.#.#.#.#.#.#.#.#.#.#.#.#.#.#.#.#.#.#.#.#.#.#.#.#.#.*.#.#.#.*.#.#.#.#.#.#.#.#.#.#.#.#.#.#.#.#.#.#.#.#.#.#.$.#.#.#.#.#.#.#.$.#.#.#.#.#.#.#.#.*.#.#.#.#.#.#.#.#.#.#.#.#.#.#.#.#.#.#.#.#.#.$.#.#.#.#.#.#.#.#.#.#.#.#.#.#.#.#.#.*.*.#.#.*.#.#.#.#.#.#.$.#.#.#.#.#.#.#.#.#.#.#.#.#.#.#.#.#.#.#.#.#.#.#.#.#.#.#.#.*.#.#.#.#.#.#.#.#.#.#.#.#.&.i u u p g h j z c c @.#.$.&.$.$.&.&.&.$.&.$.&.&.$.&.$.&.*.&.&.*.&.&.$.&.%.&.*.&.$.$.&.$.&.&.*.&.&.*.$.*.&.&.&.*.&.#.&.&.&.$.&.&.$.&.$.$.$.$.&.$.&.&.&.",
"*.#.#.c c #.#.#.*.#.#.#.#.#.#.*.#.#.@.#.*.#.*.#.#.#.#.@.z z #.#.$.*.#.*.#.#.#.#.*.#.#.#.#.#.#.#.*.#.#.#.#.#.#.#.*.c c j j h g g i u , u #.*.@.rXl.BXF.A.K.#.K.&.7X5X@.l.rXv.b.c.#.C.A.7.l.G.B.@.B.F.1.0X@.@.rXC.1.1.F.B.7.c.#.v.&.G.c.A.J.1.b.G.A.l.K.l.U.7Xb.&.1.J.7.$.V.F.1.v $.#.#.#.#.#.#.#.#.$.v #.#.#.#.#.#.#.#.#.%.%.#.#.#.#.#.#.#.#.#.#.#.%.#.#.#.#.#.#.#.#.#.$.#.#.#.%.#.#.#.#.#.#.#.%.#.#.*.*.#.#.#.#.$.#.#.#.#.#.#.#.#.#.#.#.#.#.#.#.#.#.$.#.#.#.#.#.#.#.#.#.#.$.#.#.#.#.#.#.#.#.#.#.#.#.#.#.#.#.$.#.#.#.#.#.#.#.#.#.#.#.#.#.#.#.#.#.#.#.#.#.#.#.#.#.#.#.#.#.#.#.#.#.#.#.#.#.#.#.#.#.#.#.#.#.#.#.#.#.#.#.#.#.#.#.#.#.#.$.#.#.#.#.#.#.#.#.#.#.#.#.&.#.#.*.#.#.#.#.#.#.#.#.#.#.#.#.#.#.#.#.#.#.#.$.i u i p p p s j z z c @.*.#.#.#.#.#.#.#.#.#.*.#.#.#.#.#.#.#.#.#.#.#.#.#.#.*.#.#.#.#.#.#.#.#.#.#.#.#.#.#.#.#.#.#.#.#.#.#.#.#.*.#.#.*.#.#.#.#.v #.#.#.#.",
"#.#.*.M.C.*.c @.c c %.#.c @.#.@.#.j S.C.z c #.c c #.@.z.K.B.#.#.c *.c c @.@.c #.#.c @.#.@.c @.#.c @.#.c #.*.#.#.@.c c z j h g g i i i , @.*.c G.G.5XI.I.v.8X8X6XrXH.@.&.tXZ.@.eXZ.5X0XK.7XK.qXl.l.7XK.7X*.@.qXK.7.7XJ.yXZ.7X#.eX#.Z.0XK.A.7Xl.K.yX&.G.7X7XK.I.F.8XJ.6XB.yXK.8Xc $.#.#.#.#.#.#.#.#.#.#.#.#.$.#.%.#.#.#.#.*.#.#.#.#.#.#.#.#.#.#.#.#.*.#.#.#.#.#.#.#.#.#.#.#.#.#.#.#.#.#.#.#.#.#.*.#.#.%.#.#.#.#.#.#.#.#.#.#.#.#.#.#.#.#.#.#.#.#.#.#.#.#.#.#.#.#.#.#.#.#.#.#.#.#.#.#.#.#.#.#.#.#.$.#.#.#.#.#.#.#.#.#.#.#.#.#.#.#.#.#.#.#.#.#.#.#.#.#.#.#.#.#.#.#.#.#.#.#.#.#.#.#.#.#.#.#.#.$.*.#.#.#.$.#.#.#.#.#.#.#.#.#.#.#.#.#.#.#.*.*.#.#.#.#.#.#.*.#.#.#.#.#.#.#.#.#.#.#.#.#.#.#.#.#.#.#.#.#.#.#.$.#.#.#.*.i , u f p h h h z c c @.#.#.#.#.#.#.#.#.#.*.#.*.#.#.#.#.#.#.#.#.#.$.#.#.#.#.#.v #.#.#.#.#.#.#.#.#.#.*.*.#.#.#.#.#.#.#.#.#.#.#.#.#.#.#.#.#.#.#.#.#.#.#.",
"#.*.c H.7X$.C.M.c.V.@.l.Z.c.#.b.*.&.H.A.1.F.&.v.B.#.c 5XK.7XB.&.F.@.z.F.7.v.Z.#.#.Z.c.@.c.Z.7.#.Z.v.&.A.&.#.*.#.@.c c z z h g p i , 7 7 #.#.v c.BXA.I.rX1.yX8XK.5X7.c *.@.7X5XI.5Xc.l.K.8X*.K.A.F.rX8X5X#.@.eXA.z.qXh 4XA.K.c 0Xv.8XeX8XA.6X#.K.7.M.5XeXU.l.C.U.5Xp 7XG.G.$.0Xc $.#.#.#.#.#.#.#.#.#.#.$.#.#.#.#.#.#.#.#.#.#.#.#.#.#.#.#.$.#.#.#.%.#.#.#.#.#.*.#.#.#.#.#.%.#.#.*.#.#.#.#.#.#.#.#.#.$.#.#.#.#.#.#.#.#.#.#.$.#.#.#.#.#.#.#.#.#.#.#.$.v #.#.#.#.#.#.#.*.*.#.#.#.#.#.#.#.#.#.#.#.#.*.*.#.#.#.#.#.#.#.#.#.#.#.#.#.#.#.#.$.#.#.#.*.#.#.#.#.#.#.#.#.#.#.#.#.#.$.#.#.#.#.#.#.#.#.#.#.#.#.#.#.#.#.#.#.#.#.$.#.#.#.$.#.#.#.#.#.#.#.#.#.#.#.#.#.#.#.#.#.#.#.#.#.#.#.#.#.#.#.#.#.#.#.#.#.#.#.#.#.#.#.#.$.i , i u p p h j j c c @.#.#.#.#.#.#.#.#.#.#.#.#.#.#.#.#.#.#.#.#.#.*.#.#.#.*.#.$.#.#.#.#.#.#.#.#.#.#.#.#.#.#.#.#.#.#.#.#.#.#.#.#.#.#.#.$.#.#.#.#.#.#.#.",
"#.$.@.C.A.A.rXqX7X0Xc.0X8X0XZ.7X*.eXG.G.rXZ.C.7X6XC.h 8XJ.8XB.5X5X5XrXZ.A.yX8XG.G.5X7Xv.yXI.7XG.eXl.5X8X7X#.#.#.*.c c z j h h p i i i 7 #.#.v #.GXb.G.iXz 6XK.l.5X5Xc 1.C.H.K.7XB.7X0XH.7X&.8XI.eX5X5X0X#.c rXF.7.6XK.yXM.qXU.rX4X6X7X7XF.8XG.yXN.qX5X7XK.5XI.F.8XK.5XV.K.7.0Xc &.#.#.#.#.#.*.#.#.#.#.#.#.#.#.#.#.%.*.*.#.#.#.#.#.#.#.#.#.#.#.#.#.#.#.#.#.#.#.#.#.#.$.#.#.#.#.*.#.#.#.#.#.#.#.#.#.#.#.#.#.#.#.#.#.#.#.#.#.#.$.$.*.#.#.#.#.#.#.#.#.#.#.#.$.%.#.#.#.#.$.#.#.#.#.#.#.#.#.#.#.#.#.#.#.#.#.#.#.#.#.$.$.*.#.#.#.#.#.#.#.#.#.%.$.*.#.#.#.#.#.#.$.#.#.#.#.*.#.#.#.#.$.#.#.#.#.#.#.#.#.$.#.#.#.#.#.#.$.*.#.#.#.#.#.#.%.#.%.*.#.#.#.#.#.#.#.#.#.#.#.#.#.#.#.#.#.#.#.#.$.#.$.*.#.#.#.#.#.#.#.#.#.#.#.$.g , 3 a p h h h j c c @.#.#.#.#.#.#.#.#.#.#.#.#.#.#.#.#.#.#.#.#.#.#.#.#.#.#.#.#.#.#.#.#.*.#.#.#.#.#.#.#.#.#.#.#.#.#.#.#.#.#.#.#.#.#.#.#.#.#.#.$.#.#.#.",
"#.$.@.B.A.F.B.C.B.C.Z.6Xc F.5XK.c 6XG.Z.Z.G.8XrX6XF.h U.rX0Xl.BXU.8XZ.G.F.F.z qX0Xj F.J.8Xz 0Xz.U.Z.yX5X0X%.#.#.#.c c z j h g g i u u 7 #.#.#.#.v.#.1.c.@.&.F.n.&.Z.*.&.A.Z.*.c.#.c.7XK.&.&.z.&.B.C.7.z.#.#.v.J.B.&.B.yXl.z.A.l.&.A.v.l.l.l.b.S.Z.l.A.z.&.Z.v.&.&.G.1.&.l.*.c.#.%.#.#.#.#.#.#.#.#.#.#.#.#.#.#.#.#.#.#.#.#.#.#.#.#.#.%.#.#.#.#.#.#.#.#.#.#.#.#.#.#.#.#.#.#.#.#.#.#.#.#.#.#.#.#.#.#.#.#.#.#.#.#.#.#.#.#.#.#.#.#.#.#.#.#.#.#.#.#.#.#.%.#.#.#.#.#.%.#.#.#.#.#.#.#.#.#.#.#.#.#.#.#.#.#.#.#.#.#.#.#.#.#.#.#.#.#.#.#.#.#.#.#.%.#.#.#.#.#.#.#.#.#.#.#.#.#.#.#.#.#.#.#.#.#.%.#.#.#.#.#.*.#.#.#.#.#.#.#.#.#.#.#.#.#.#.#.#.%.#.#.#.#.#.#.#.#.#.#.#.#.#.#.#.#.#.#.#.#.#.#.#.#.#.#.#.#.#.#.#.#.#.#.#.#.%.i 7 i i p h h h z c c @.#.#.#.#.#.*.#.#.#.%.%.#.#.#.#.#.#.#.#.#.#.#.#.#.#.#.#.#.$.#.#.#.#.#.$.#.#.#.#.#.$.#.#.#.#.#.#.#.*.#.#.%.#.#.#.#.#.$.#.#.#.#.#.",
"#.$.z K.8XG.Z.F.A.F.Z.7XK.0XB.eXK.eXH.G.l.eX7X7XB.7.j 5Xl.U.K.7XZ.c.c.0X0XeXU.K.K.K.9XB.0X@.rX7.F.rX7XG.c.#.#.#.#.c c z j h h g i i 7 7 #.*.#.#.@.#.#.@.#.#.c c #.c #.#.c c &.c l.5X7Xl.@.*.@.#.c c #.@.#.*.@.z @.#.h K.b.c c @.@.c @.@.@.@.@.c c @.c @.#.c @.@.#.c #.#.@.#.@.#.*.*.%.$.#.#.#.#.$.#.#.#.#.$.$.#.*.*.&.#.#.#.#.*.#.#.*.*.$.%.$.#.$.*.#.$.*.#.#.#.*.%.#.%.#.$.$.#.%.*.%.#.#.$.#.#.$.#.$.#.#.#.#.#.#.$.#.$.*.%.$.%.*.*.&.#.#.#.#.#.*.%.$.#.#.#.#.*.#.#.%.#.%.*.#.#.%.%.#.#.*.#.$.*.#.#.%.*.#.#.#.#.$.%.#.#.#.#.%.*.*.*.*.%.$.%.#.#.#.%.#.$.*.#.%.%.#.%.#.#.*.#.#.#.%.*.#.#.#.#.&.*.%.%.#.$.*.#.%.#.#.$.#.#.#.%.#.$.*.*.%.#.#.$.#.#.%.#.#.$.*.#.#.#.#.&.*.#.#.$.$.#.#.*.#.#.%.*.#.#.#.#.*.#.#.*.i 7 u i p p h z j j @.@.#.#.#.#.#.#.#.#.#.*.#.#.$.#.#.#.#.#.#.$.#.#.#.#.#.#.%.#.#.#.#.#.#.#.#.#.#.#.$.#.#.#.#.#.$.#.#.#.%.#.#.#.#.#.#.#.#.#.#.#.#.$.#.",
"#.#.#.M.Z.z.1.l.l.l.&.7XU.B.c B.G.c.l.b.A.A.@.B.K.1.c c.1.1.c.l.K.v.F.C.B.rXZ.&.%.J.v.%.B.@.v.c.K.l.&.K.B.#.#.#.@.c c z j h g g i u u 7 @.@.@.@.#.@.@.#.@.@.#.#.#.#.@.@.#.#.@.@.@.&.#.c #.@.*.@.@.#.@.#.@.@.#.#.#.@.#.@.@.#.#.@.@.#.*.@.@.@.#.#.@.#.@.@.@.#.*.@.@.#.@.@.#.@.#.@.@.@.@.@.#.v @.@.#.@.@.@.@.v #.c @.@.@.@.@.@.@.@.#.v @.@.#.c v #.@.@.@.@.@.@.@.@.@.@.@.@.@.@.v #.@.@.@.@.v @.@.v @.@.#.v @.@.#.@.#.@.@.c @.@.v v @.@.@.@.#.@.@.@.@.@.v #.c #.@.@.#.v @.@.#.v @.@.v #.@.@.#.@.@.@.@.@.#.@.@.#.@.@.v c #.v @.@.#.@.@.@.@.@.v v @.@.@.@.#.v @.@.@.@.v #.@.#.@.@.@.@.v @.@.@.#.@.@.@.@.@.v #.@.@.@.@.#.v @.@.@.@.v #.@.@.@.@.#.v @.@.@.@.v #.*.v @.c #.@.@.@.@.@.@.@.v *.@.@.#.@.@.@.@.@.@.*.@.#.i , u p g g h j j c c @.#.#.#.#.#.*.#.#.#.#.#.#.#.#.#.#.#.#.#.#.#.#.#.#.#.#.$.#.#.#.#.#.#.#.#.#.#.#.#.#.#.#.#.#.#.#.#.#.#.#.#.#.#.#.#.#.#.#.#.#.#.#.#.",
"*.#.#.@.c @.#.#.@.#.c 5X$.c *.c z @.#.@.c z *.@.z #.*.@.#.#.c #.z @.c h B.G.h %.#.z c %.v %.v #.z @.#.z @.*.#.#.#.c c z j h h p i i u u i i i i i i i i i i i i i g i i i i i i i i i i i g i i i i i i i i i i i i i i i i i i i g i i i i i i i i i i i i i i i i i i i p i i p i i i i p i i i i p i i p p p i p i p g i i i i i i i p i i i i i p i g g i i p i p i i i i i i i p i p p p i i i i i i i i i p i p i p i i i i i p i i p i i i i i i p i p i i i i i i i i i i i i i i g i i p i i i i i p i p i p i p i i i i p i i p i i i p i i i i i p i i i i i i g p i i p i i i i i i p i i i i i p i i p i i p i i i i i p i i p i i i i i i f f i i i i f i i i f g f f p f i g i i f f f p i g u 7 u i g g h j c c c @.#.#.$.#.$.$.#.#.#.#.#.$.#.#.$.#.$.#.#.$.#.$.#.#.#.#.#.$.#.#.&.#.#.$.#.#.#.#.#.$.#.#.#.#.$.#.#.#.#.#.#.$.#.$.$.#.$.#.#.$.#.%.#.",
"#.#.#.%.@.@.@.@.@.#.#.#.#.#.@.@.#.@.#.#.#.#.@.#.#.%.#.#.#.#.#.#.#.#.#.%.#.#.#.#.#.#.#.#.v v #.v #.#.#.#.#.@.v @.v c z z h h a p u u u , i i i p i i p i i p p i i i g i i i i i i i i i i i p i i p i p i i i i i g p i i i i p i i i i i i p i g i i p i i i p p i i i i i p i g i i p i i i p i p p i i i i p p i i i p i i p p i i i p p i i i p i i p i i i i i p i p p i i i p i i i p i i p i i i p i i i i i p i p p i i i i p p i p i i p i i i p i i i p p i i p i i p p p i i i i g i p i p i i p p i i p p i p p i i p i i p i i i i i p i i p i p i i p i p i p i i p i i p i i p i i p i i p i p i p i i p i i p i i i p i i i i p i p i p d d d d d p d d p d d d i d d d d d d d d d d d i i , 3 u u i g h h j c c c #.#.@.#.@.@.v #.#.v @.@.#.@.v #.#.v v #.#.c #.v #.#.@.#.v #.#.@.#.#.c #.v #.v #.#.v #.v #.#.v #.#.v @.@.#.@.v #.v #.#.c #.v #.",
"w 8 , , 1 , , > 1 , > , > , , 1 , , > , , 6 , > 6 r l l l l l l l l l l l d 7 7 7 7 7 7 7 7 u u u 7 u u u 7 u 7 u u # u + # # @ O O O o i p i i i i i i p i i i i i i i i g i g i i i g p i i p i i i p i p p i i i i i i p i i i i g i p p i i i i p i i p p i i i p p i i p i i i i i g p i i i i i i i p i i i i p i i i p i i i p p i i i p i p i p i i p p p p i i i i i p i p p i i i p p i p p i i p p i p p i i i i i p p i i i i i p p p i p i p i p i i i i p i i p i i i i p i i i i p i i i p i i i p i i i i i i p i i p i i i g i i i p i i p i i i i i i i p p i i p i i p i i p i i p i i p i i i p i i p i i p p i i p p p i i p p 4  X.X.X.X.X.X.X.X.X.X.X|..X.X.X.X.X.X|..X.X.X.X.Xd i g O o O O O # @ @ , , , , 7 7 7 7 7 7 u u 7 7 u 7 7 2 7 7 7 u 7 7 u 7 7 u 7 7 7 7 7 7 7 7 7 7 7 7 u u 7 7 7 u 7 7 7 7 u u 7 7 u 7 7 7 7 7 7 u 7 7 7 u 7 ",
"8 , > > , , > < , , 1 , > , , > > > > , > > , # , 8 l l l t l l l l t l t u 7 7 7 7 7 7 2 , 7 7 7 7 7 , 7 7 7 7 , # # # # @ + O o o o o i i i p i i p p i i i p i i i i i i g i i i i i i p i p p p i i i i p p i i i p i p g i i i i a i i i p i i g i i p i i p i p i i i i i i i i p i i p i p i i p p i p i i p p i i p p i i p i i i i i p i i p i p i i i i i i p p i p i i i p i p i i i i i p i i i p i i i i p p i p i i p i p p i i i i i p p i i p p p i p i i p i p p i i p g i i i i i p p i i i p i i i p p i p i i p p i g i i i p p i i i i p p i p p i i i i i i p p i p i i p p p i i i i p p i p p i i i i p p i i i i p p i i i i  X}.U Y Y Y Y U Y Y U Y Y Y Y Y Y U Y Y Y Y Y .Xd i p # X O O # # # # , , 7 u u u u u u u u u u u u u u u 7 u u u u u u u u u u u 7 u 7 u u 7 u u u u u u u u u u u u 7 u u u u u u u 2 u 7 u u u u u u u 7 ",
", > , 9 > > 8 i < 8 > , > > 6 7 g > > > , > 6 q # 6 l l l l l l l l l l p # 7 7 7 7 7 7 7 7 7 7 7 7 7 7 7 7 7 7 u u , # # @ @ + O o o o i i i i i p i i i p p i i i i g i i i i i g i i i p i i i i p i p i i i g i i p i i i i i i i f i p i p i p i i p i i p p i i i p p i p i g i i i i i p p i p i i i p i p i i i p i i i i i p i p p i i p i i i p i p i i p i p i i p i p i i i p i p i p i i p p i i p i p p i i i p i i p i i p i i g p i i i p i i i i i p i i p i i i i p i i i p p i p i i i p p i i p p i i i p i p i i i p i g i i i i p p i i i i i p i p i p p i i p i i p i i i i i p p i i i i i i i p p i i i i p p i i i i i p 4  XR U U L L U U U U U U U U L L U U U U U U U .Xd f p , # , 2 u u u p g g h h h z z j j z j j j j j z j j j z z j j j j j j j j j j z j j z j z j j j j j j z j j j j j j j j j j j z j c h z j j z j j j c ",
"< 5 DXwX8 > T.DXh . 5X*.< DXx.l.DXx.d JX7 O T.DXj 6 l l l l l l l l l x 7 7 7 7 7 7 7 u 7 7 7 7 , u , : 7 7 7 7 # u , # # # # O O o o o i i i p p i i i p i i i g i i i i g i i i i p i i p p i i i i p i i i p i i i i p p i i i p i i p i p i i p p i i p p i i i p i i p i i p p i i p i i i i i i p i i i p i i i i p i i p p p i p i i p p i i i p i p i i i p i i i i p p i i i p i p i i i p p i i i i p i p p i i i p i i p i i i i i i i p p i p i i i p i p i i p i i i i p p i i i i p i i i i p p i i p p i i i p i i i i p i i p i p i i i i p p i p i p i p p i i p i i i i p p i p i i p i p p i p i i p i i p i i p i i i p i p i i i  XR L Y }.R R Y Y Y Y Y U R R Y Y U Y R R U U .Xd 4 p # O # # > > , , i 7 i u i i i i i i i i i i i i i i i i i i i i i i i i i i i i i i i i i i i i i i i i i i i i i i i u p i i i u h z g i i u i i i z ",
"X n.n.L.2.v L.n.D.X #X8 < R.m.. k.R.m.DX> z Y.2.P.X l l l l l t l l l 9 7 7 7 7 7 u , u 7 7 7 7 u u , , 7 7 7 7 u # 7 # # + O # O o o o i i i p i i p p i i p p i i i g i i i i p i i p i i i p p p i i p p i i i i p i i i i p i p p i p i i i p i i i p i i i i p p i i p i p i i i p i i p i i p i i g i i i i g i i i i p i i i i i p i i i i p i i i p i p p i i p p i i i i p p i i p i p i i i i p p i i p i i i p i i p i p i g i i p i p i i i i i p p p i i i p i i p p i i i i p p i i i p p p i i i p i i i p i i p i i p i i p i i i i p p i i i i p i i i i i i p i i g i p i i p i p i i i i i p p i i p p i p i i p i p i i i p i i 4  XR L R }.U }.}.R Y R |.U }.}.R }.Y Y }.Y U U .Xd i i # O O # # , , 9 , i i i i i i i i i i i i i p p i i p p i i p p i i i i i i p p i i i i i i i i i i p i p p i i i i i p p p p i i h j g i i @.h i i z ",
"X m.l.A.2.v m.k.D.c Y.X O n.m.. R.m.DXDXz j L.c R.X l l l l l l l l t 7 7 7 7 7 7 , 7 7 7 7 7 7 7 7 7 7 7 7 7 7 u 7 # , # # # $ O o o X u i i i i p p i p i p i i i i i p i i p p i i p p i i i i p i p i p p i i i g i i i i g i i i i i i p p i i i p i i i p i p i i i i p i i i i p i p i p i p g i p i i i i i g i i p p i p i p i p i i p i p p i i i i i p i i p i p i p i p i i i i p i p i i p i i p i i i i p i i i p i i p i p g i i i i i p i p p i i i p p p i i p p i i i i i i i i p i i i i i p i i i p p i i p i g i i i i g i i p i i p i i p i i p p p i p i i p g i i i i i i p p i p i i i i i i i i p i i i i p i p i i i p i 4  X}.L R }.R R }.}.R }.}.Y }.}.R }.U Y }.R U Y .XW i g O O O # # # , , , , 7 i i i i g i i i i i i i i p i i i i i i i p i i p i i p i i i i i i p i i i p i i i i i p i i i p i p i p i h j g f 9 uXV., g j ",
"O z MX#Xn.z T.DXv L.k.O o D.x.T.DX2.n.JXm.j T.DXk.O X.l l l l l l l i 7 7 7 7 7 7 7 7 7 7 7 7 7 7 7 7 7 7 7 7 7 , , , # # # # O O o o % i p p i p i i i p i i i i g i i i p i i i i p i i p p i i i i p i i i p p i i i p i i i p i p p p i i i i p p i i p i p i i i p p i i i p p i i i p i i i i i i i i p p p p i i i p i i i i p i i i p i i i i p p i p p i i p i i p i i i i i p p i i p p i p i i p i i i p p i p p i i p i i i i i i i i p i p i i i i i p i i i i p i i i p p g i i p i i p i i p i p i p p i i p i i i p i i p i i i i i p i i p i p i p i i i i p i i i i i i p p i i i i i p i p i i p p i i i i p p i i i i p p i i i u  XR L R }.L R R |.R }.|.}.R Y }.}.U R }.U U Y .Xd f g u < , 2 u p 3 f @.$.j h g z i i i i i i g i p i i p p p i p p i i p i i i i i i p p i p p i i p i p i p p i i i i i i p i i i p i h j h 7 7.GXiXg i j ",
", > j.$.j i c k.O c , > < g i 2.m.#.. i z p z x.> 6 l l l l l l l d , 7 7 7 7 7 , 7 7 7 7 7 7 7 7 7 7 7 7 7 7 7 7 7 , # # O # O O o o o i p i p i i i p i i p p i p i i i i p i i p i i i i p i p p i i p i i i i g p i i i i i p i i i p i i p i i p i i p i i p i p i i p i p i i i i p i p i p i i p i i i i i p i p i i i p i p i p i i p i p i i p i p i i i p p i i p p i p i p i i p i i i i i i p i p p i i i p i i p i i i i i i i i p i i p i i i p p i i i p i i p i i p i i i p i i p i i p p i i i i p i i i i p i i i i i p i i i p p i p p i i i i p p i i p i i i i i p p i i i p p i i i p i i p i i i p p i i p i i p i i p i i i i  X}.L Y }.R R U }.}.Y U R }.}.Y }.}.R }.R U U .Xd f p g O 7 @.%.=.%.$.k N.V.7.&.V.7 g i g i g g i i i i i i i i p i i i i p i i i p i p i i p i i i p i i i i i p p i i p i i p i p i p h j h u U.BXVXb.7 c ",
", 1 X O > > O X 6 < , > , # > O X O 6 # @ > @ X > 6 l l l l l l l u 7 7 7 7 u , : 7 7 7 7 2 7 7 7 7 7 7 7 7 7 7 7 , , # # # O O O O o o i p i i i p p i p i i i i i p p p i i p p i i p p p i i i i i p i p p i i i i i i g i i i p p i i i p i p i i p i p i p i p i i i i i p i p p i p i i i p i i i i g p i i i i p i p i p i i i p i p i i p i i p i i p i p i i p i i i p p i i p i i p i i g i i i i i i p p i i p i p i i i g i p p i i p i p i p i i i p p i i p i p i i p i p i i p p i p i i i i p i i i p p p i i p i g i g i i p p i i i i i p p i i i i i p i i p g i i i i i p p i i i p i p i p i i p p i i i p i i p i p p i i p i p  XR L U U U U U U U U Y U U Y U U U U U U U Y .Xy p p < o O %.%.%.b.j %.V.b.N.V.#.7 g i i i i i i i i p i i p p i i p p i p i p i p i i i p i i p i p i p p p i i i p i i p i i p i p i h j h i z z z j i j ",
"w > 6 , , > , > # > > > > , > > 6 , # > 6 # , , , w l l l l l t 0 u 7 7 7 7 7 7 7 7 7 7 7 7 7 7 7 7 7 7 7 2 7 7 , , # # # # # O O o o o i i i p i p i i i p i p p i i i p i i p p i i p i i i p p i p i i i p i i p i p i p g i i i p i i p p i f i i p p i i i i i p p p p i i p p i i i i i p i i i i i i g i p p i i p p i i p p i i i i p p i i i i p p i i i i i i p i i i i i i i p p i i p i g i i p i p i i i p i p i i i g i i i i p i i p i i p i i i i p p i i i i p i i p i p i i i p i p i i p p i p i i i i i i p i i p i p i i i p i p i i i p i p i i p p i i p p i i i i p i i i i i p i i p i i p i i p i p i i p i p i i i p i p f  XR L U L L L L L L L L L L L L L L U L L L U .Xd g i j g 9 %.=.@.N.@.M.N.7.N.8X9 g i i i i g i i p p i i i p i i i p i i i i p p i i p p p i i p p i i i i p i p i p p i p i i p i p i g j g u i u i i i j ",
"l x w w w w w g w w w k w w w w w w w w w r w w r l l l l l l d 7 u 7 7 7 7 7 7 7 7 7 , 7 7 7 7 7 7 7 7 7 7 7 7 7 7 : # # # # O o o % o i i i i p i i p i p i i p i p i i p i i i i p i i p i p i i p i p i i p i i i p i i i i p i i p i i i p p p i i i i p p p i i i i i p i i i i p i p p i i p g i i i i i i i p i i i i p i i i p p i i i i p p i i i i p i p p i i p p i i p p i i i i p i i i i i p i i i p i p i i i p i p i i i g i p i i i p i i p p i i i i p p i i p i i i p i p i i i p i i p i i p i p i p p i i p i i i p i p i i i p i p i i i p i p i i i p i i i i g i i i i g p i i p i i i p i p i i i p i i p i i i p i i i a f  X.X|.|..X|.|.|..X|.|.|.|.|.|.|..X|.|.|.|.|.|.XXd i i i , , i 3 9 h < %.%.g z %.7 g i g i i i i i i i g i p i i p p i i p p i i i p i i i i i p i i i p p i i i p i i p i i p i i i p i h z u # > , # # # g ",
"l l l l l l X.l X.l l l l X.l l l l l l l l l X.l t l l l t l i , u u 7 7 7 7 7 7 7 7 7 7 7 7 7 7 7 7 7 7 7 , u 7 , # , # # O O O $ o o d i i i p p p p i i i p i i p i i i p i i p p i i p i i i i i i i i i i i i p i i g i i i g i i i i i i i p i i p i i i i i i i p i p i p i i i i i i i p i i i p i i i p i i i i p i i i i p i i i p i p i i p p i i i i i i i g i i i p i i i i i i i i i i i i i i i i i i i i i i p i i i p i i i i p i p i i i i i i p i i i i i p p i p i i p p i i i i i i i i i i p i p i i p i i p i p i i i i p i p i i i i i i i i i f i p i i p i i p i i p i i p i i i i p i i i i p i i p i i i i p i i p i p i W P P P P P P P P P P P P P P P P P P P P P P P p i p + o O + # , > 7 , , u u u p i p i i i i i g i g i i p i i i p i i i i i i p p i i p i p p i i i p i i i p p i i i i p p i p i p i h j u 7 7 7 7 7 , f ",
"l l l l l l l l l l l l t l l l l l l l l l l l l l l l l l r 7 7 7 , u 7 7 7 7 7 7 7 7 7 , 7 7 7 7 7 7 7 7 , u 7 , 2 # # # # O O O o o u a i i p p p p p p p p p i i p i i i p p i i i p i p p i i i g i i i g p i i p i i i i i i g i i g p i i p p i i p p i p p i g i i p p i i p i p p i i i i p i p i i i p i p i p i i i p p i i p p i p i i p i i i p i i i g i i i i i i i p i p p p i g i i g i i i g p i g i i p p i i i p i i p p i p i i p i i g i p i g i i p p i p f i p i p p p p p p p i i i p p i p f p i i p i p p i i p p i i p i p i i i g g i i i p p i p i i p i p i i i p i i p i i p i i p i g i p p i i i p i i p i i p i i g 4 4 f 4 4 4 f 4 4 4 f 4 a 4 f 4 f 4 4 4 4 4 f i i g # O # # > , , 7 7 7 i i g i i i p p i i i i i i i i i i p p i i p p p p i i i p i i i i i p p i i p p i i i i p i i i i i i i p i h j h #.#.#.#.$.@.h ",
"l l l l l l t l l l l l l l l l l l l l l l l l l l l l l t 9 u 7 7 , : 7 7 7 7 , 7 : , 7 2 7 7 7 7 : 7 7 7 u u 7 , > # # O # O o o o o i i i i i u i p u p p i i i i i i i i i i i i i i i i i i i i i i i i i i i i i i i i i i i i i i i i i i i i i i i i i i i i i i i i i i i i i i i i i i i i i i i i i i i i i i i i i i i i i i i i i i i i i i i i i i i i i i i i i i i i i i i i i i i i i i i i i i i i i i i i i i i i i i i i i i i i i i i i i i i i i i i i i i i i a i u p p i p u p i i i i i i i i i i i i i i i i i i i i i p i u i i i i i i i i i i i i i i i i i i i i i i i i i i i i i i i i i i i i i i i i i i i i i i i p p i i i a h p i a h i i g g p i a h i i g p p i i i < O # # > , , u 9 i i u i p p i i i g i i i i i i g p i p i p i p i i p i p i p p i p i i i i i i p i i i p i i i g i p p i i i i h h g #.*.#.#.$.@.h ",
"l l l l l l l l l t l l l l l l l l l l l l l l l l l l l p 7 7 u , 7 , 7 7 7 7 u 7 7 7 7 7 7 7 7 7 , 7 7 7 u , 7 7 , @ # # O O O o o o # 7 , # , , , , , , , , , , , , , , , , , , , , , , , , , , , , , , , , , , , , , , , , , , , , , , , , , , , , , , , , , , , , , , , , , , , , , , , , , , , , , , , , , , , , , , , , , , , , , , , , , , , , , , , , , , , , , , , , , , , , , , , , , , , , , , , , , , , , , , , , , , , , , , , , , , , , , , , , , , , , , , , , , , > , , , , , , , , , , , , , , , , , , , , , , , , , , , , , , , > 2 , , , , , , , , , , , , , , , , , , , , , , , , , , , , , , , , , , , , , , , , , , , , , , , , , , , , 7 7 , , , , , , , 2 , , , , , , , , , , , , O O O # , , , 7 7 7 i i i i p i p i i i i i g i i i p i i i p i p f i i i p i i i p i p p i p p i i i g i i g i i i i i p i i i i j h h *.*.#.#.@.@.h ",
"l l l l l l l l l l l l l l l l l l W O.+.+.l l l l l l l u 7 7 7 7 7 7 7 7 7 2 u 7 7 7 7 7 7 7 7 , 7 7 7 7 7 7 7 # , @ # # + O o o o X # , , , , , > > , , , # , , , , , , , , , , , , , , , , , , , , , , , , , , , , , , , , , > , , , , , , , > > , , , , , , , , , , , , , , , > , # , , , , , , , > , , , , , , , , > , , , , , , , , , , , , , , , , , > , , , , , , , , , > , , , , , # , , , , , , > , , , , , , , , , , , , # , , , , , , , , , , , , , , , , , > , > , , , > > , , , , , > , , , , , , , , , , , , , , , > > , # , , , , , , , , , , , , , , , , , , # , , , # , , # , , > , , , , , , , , > , , , , # , , , , , , , , > , , , , , , # , , , , , , , , > , , , > , , , , , , , , O O # # > , , 9 i 3 u u g i i i p p p p i p i i i i i i i p i p i i p p i p p i i i p i i i i i p i i g i i i p p i p i p i p i i h h h #.#.#.#.$.@.h ",
"l l l l l l l l l l l l l l l l t l l l l t l l l l l t 0 u 7 7 7 7 7 7 7 7 7 7 7 7 7 7 7 7 7 7 7 2 7 7 7 7 7 7 7 7 # : # # O # O o o % i i i i i i i i i i i i u i i i i i i i i u i i i i i i i i i i i i i i i i i i i i g u < 2 i i i i i i i i i i i i i f i i i i i i i u i i i i i i i i i i i i i i i i i i i i i i i i i i i i i i u i i i u i i i i i i i i i i i i i i i i i i i i i i i i i i i i i i i i i i i i i i i i i i i i i i i i i i i i i u i i i i i i i i i i i i i i i i i i i i i i i i i i i i i i i i i i i i i i p i i i i i i i i i i i i i i i i i i i i p i p i i i i i i i i p 3 > 2 g i i i i i i i i i i i i i i i p p u i p i i i i u i p i i i i i i i i i p i i i i i @ O O # # , , , , i i i i i p i i i i i i i i i g i i p p i i p i p i i i i i p p i i i p p p i p i i p i i i i i i p i i i i p i g j g #.#.#.#.@.@.h ",
"l l l l l t l l l l l l l l l l l l l l l l l l l l l x 7 7 7 7 7 7 7 7 7 7 7 7 7 u u 7 7 7 7 7 7 7 7 7 7 7 7 7 7 # # O # # + o O o o o i p i p i p p i i i i p p p p p i i f p p p p p p f i i p p i i i i p p i i p p i i p i # 2 p p f i i i i i p g g i g g i i i i p i i p i p i p p p p p g g i g g g g g p i i i i p p i g i i i p i g g p p g g p g g g i g i i i p p i i g i i p i p p i g g i i g i g i i i p i g i i p p i p i i p p i i i p i i i i p p p i i p p p i p g g i i p g p g i i i p p p i i i p i i i i p p p p p p g g p i i p i i i g i i p i i i i i i p p p p g i i i i i g i i i p 7 , 7 g i i i i p p p p i i i i p p p p p p p p p i i p p p p p i p p i i g g i p p i p i g > O i # # , , , , 4 u i i g g p i i i i p p i i g i i p i i p i i i p i p i i i p i p i i i i i i p i i g i p i i i i i p p p i i j h h #.#.#.#.#.@.h ",
"l l l l l l l l l l l l t l +.O.l l l l l l l t l l r d 7 7 7 7 7 7 7 7 7 7 7 7 7 , , u 7 7 7 7 7 7 7 7 7 7 7 7 7 7 , : # # # O o o o o i p i i p i i p i i i i i p i p i i p p p p p i p p i i i p i g i i i i i f i i i i i u , , p i i i i i i i i , 7 i 7 7 p i i i i p i p i p i i i i i p 7 3 g 2 2 i , , u i i i p i i p i i i i p p i , u p , u i , , u i i i i p i i i i i i i p p i 7 i , u g i 2 i i i i i i i i i i i p i i i p u i i i f p i i i i i p i p i p i i i p u , i i i , 2 i i i i i i i i i p i i i i i p p u i p 7 , 7 u i p p i i i i i i p i i i i i p i u p u 7 i i i g i i i i i p u > 3 p i i i i i i i p i 9 i i u g p g p p u p p p i i p p p f p i p p i i i p i i i i g i j , $.# , , 9 @.7 3 i u i i i u i i i g i i i i i i p i i p i i p p i i p i p i i i p i p i p p i i i i i i p i g i i p i i i p i h h g #.#.#.#.#.@.h ",
"l l l l l l l l l l l l l t l W l l l l l l l l l l x 7 7 7 7 7 7 7 7 7 7 7 7 7 7 7 7 7 7 7 , u 7 7 7 7 2 , 7 7 , 2 # , # # O O o O o o i i i i i p i p i p i #.j i i 7 7 i i i u i i p i 2 u i p u p u i p i i i i i g i i g 7 > , g i i p i i p i v C.z.i v.2.u p i i i i i g i p i i i p i 9 #.$.7 7.z.j B.C.1.i p i i i i i i i i p p i j C.&.p C.j.c C.C.*.u p g i i i g i p i i i p i h 1.i n.1.i i &.g i i i p p i i p i i p i i p i c $.j J., i i i i i i i p i p i p i p u l.B.h i p B.j.@.S., i i i p i i p i i p i i g u &.c u 1.C.c.B.v.# f p i i i i i g i i i p i u c &.2 1.v.h J.u i p i p i p p u , u g i i i i i p i i h $.9 v c &.i 7 u u J.i 7 p i i 6 u u i 2 i u i i i i i i p i p p u z j @.< @.%.@.H.@.%.V.z i M.c F.@.N.#.V.N.N.g V.h i i p i p i i p i p i i p i i i p i i p i i i p p i i p i i p i i i p p i p p i j j g #.#.#.#.*.@.h ",
"t l l l l l l t l l l l l l l l l t l l l l l l t l u , 7 7 7 7 7 7 7 7 7 7 7 7 7 7 7 7 7 7 u u 7 7 7 7 7 7 7 7 7 , , # # # # O o o o o i i i i i i i i p g , U.2.7 p v.$.j j c c z c u g v.&.c g c A.I.g i i i i i i i i i g i , 2 g i i p p i g , J.I.z n.I.5Xc i g i i i i i p i i p i p i p tXJ.j 0XI.B.1.I.5X7 g i i p p i i i i p p u &.C.U.x.v.5Xv.&.0XF.2 p i i i i i i i i p i g , J.qXB.S.U.c &.HXg i i g f i p i i p p i i p i i 0X5Xh 5Xg *.i g i i p i i p i i i p i p B.G.G.7 v B.U.S.G.g @.i p i i g i i p i p p i h FXc.7 $.z.0X6XC.j c i p p p i i i i p i p i p qX5Xg 5XI.A.I.h *.i p i p i p 3 > , g i g i i i p p u #.5X% C.C.z i l.l.h 6XM.#.i i i v.j.v g c C.6Xh i i p i i i i p i i h > @.< f b.%.%.j V.N.F.> N.N.H.N.N.h N.F.V.&.V.u g i i i p p i p i i i p i i p p i i p p i p i i i p i p i i p i p p i i i i p u h h h #.#.#.#.#.@.h ",
"l l l l l l l l l l l l l l l l l l l l l l l t l r , 7 7 7 7 7 7 7 7 7 2 7 7 7 7 7 7 7 7 7 7 , 7 7 7 : 7 7 7 7 7 # , # # # # O o o o o i i p i p i p i i p 7 J.1., Z.J.I.A.Z.I.I.S.l., J.G.M.I.g 5XI.6Xp p p i g i i i i i g u > u i i i i p i g 7 A.0Xv.I.z B.v.2 g i i i i i p i i i i p i i b.C.z.v.v K.% S.&.3 p i p p i i p p i i i i i > U.#.o U.1.O I.v i g i i i i i i i p i p u @.J.S.1.qXI.j A.5Xh i i i g i p i i p p i i p i i &.J.h 6XG.1.u g i g i i i p i p i p i h @ j.J.7 p O S.Z.U.J.&.u p p i i i p g i i p u v.5X&.u 7 p J.z.U.J.c i i i i p i p i i p i i i &.G.1.A.g 9XI.G.b.u p i p i p 9 , 3 g i i g i p i i i c tXj.5XA.I.c.I.qXn.6XG.9Xj 7 S.I.c.5Xi 5XS.qXg i i i i p p i i i p O O @.+.%.l.=.7.j H.%.@.g %.8Xl.8X=.F.V.H.&.uX%.i f p p i i i i i i i p i p i p i i i i i i p i i i i p i i i i p i i i i p i p i h h p *.#.#.#.#.@.h ",
"l l l l l l l l l l l l l l l l l l l l l l l l l i u 7 7 7 7 7 7 7 7 7 , 7 7 7 7 7 7 7 7 7 7 7 7 7 7 , 7 7 7 7 , : , , # # # + O o o o i p i p i i p i p p 7 I.@.# 9X7 v.S.J.I.I.5Xg p 9X# c J.u I.v.l.# g a i i i i i g i g u , , g i p i i i i p u , U.qXh B.M., g i i i g i i i p p p i p 7 7.A.z.v.c K.g 9Xi p p i i i i p i i p i i i 2 B.C.O b.Z.# 1.U., g i i i i i i g i p i p i 9XS.0XB.G.S.0XG.qX&.u p i i i i p i i i i p i i 7 @.K.i HX5X# g i i i p p i i i p i p p u p U.h 7 7 l.S.h HXJ.# g i i i i p i i i g 3 x.5XU.A., 7 B.C.$.HXv.> p i i i i i p i p p f p 7 *.J.&.C.h U.FXtX, p p i i i p u > 7 g g i i i i i p u c tXc.0XA.G.I.j l.Z.I.u I.#.7 9Xu i 5X, U.v.v.# g i i p i i p i i p > O @.g %.&.j b.@.%.N.#.N.@.H.h H.c N.V.M.h 4Xh i i i i p i p p i p i i g i p i i p p p i p i i p p i i i p p i i i i p i p i p i h j h *.&.#.#.#.@.h ",
"l l l l l l l l l l l l l l l l l l l l l l l l d 7 7 7 7 7 7 7 7 7 7 7 7 7 7 , 7 2 , 7 7 7 7 7 7 7 7 7 7 7 7 7 7 # , # # # O O O $ o o u i p p i p i p i p , U.J.@.S.S.5X#.0XJ.J.rX7 u U.Z.1.9XA.qXx.5Xi i i g i i i i i i g i , , p i i p i p p i 1.c.I.A.J.U.*.u p i p p i p i p i i i i i 7 l.J.j 5XK.z.Z.Z., p p p i i i p i p p i g u M.MX&.c.FXl.g U.l.2 p i p i g i i i i p i i p B.J.MXU.v.I.I.C.FXl.2 p p i i i i p i i p i i p 7 $.I.j 6XJ.v.3 g g i i p i p i p f p i p tXG.@.C.l.MXl.z.U.I.b.u g i i i g i i i g u &.C.yX5XM.g 0Xj c.U.U.#.i i i i p i p i i p p p i #.5Xg 5XJ.G.I.G.C.7 p i i g p 3 > 7 g i i i i p i p u #.5X  B.G.I.v.J.6XC.5Xi 5X#., J.G.&.9XC.rXz.7Xp i i g i i g i i p p @ + O @ , , , , u , i i i i 3 f i i i p u p u i i p i i i i i i f p i p i i i i i i i i i p i i i i p i p i i p i p i p i i i p i h j g #.#.#.#.#.@.h ",
"l l l l l l l l l t l l l l l l l l l l l l l l 7 7 7 7 7 7 7 7 7 u 7 7 7 7 7 : 7 7 7 7 7 7 7 7 7 7 7 7 7 7 7 7 7 7 2 # # # # O O $ o o p i d i i i p i p p i 1.J.B.h B.l.7 1.c @.2.i i j S.$.1.Z.&.g C.c i p i i g i i i p p u > 2 p i i i i p i i 1.S.#.i C.l.i p p i i i i i i p i p p i i i z $.7 z.C.u 2.x i p p i p p i i i i i i i u l.A.Z.c.m.A.#.&.h i p p i i i i i g i p i p i 7 u #.g A.z.7 , *.g i i i p p p i p i p i i p p i z &.g &.j l.u g i i i i i p i i i p i j Z.A.c.1.1.A.A.l.@.j j.u i i i i i i i i i g u # v c j.h l.u *.v @.#.u p i g p i i i p i i p i j &.7 1.C.h &.h l.i p p i i p u > 7 g i i i g i i p i h 1.i #.#.&.g l.6XM.@.p 1.h i h A.1.&.C.j.p C.c u p i i i i i i i p # O # # > , 7 7 u u 7 i i p g f i i p i g p g i p i i i g i i p i a p i i p i g i i i p p i i p p i p i i i i i i p p i i p i p u j h h #.#.#.#.#.c h ",
"l W O.l l l l l l l l l l t l l o.W l l l l l u # u 7 7 7 , 7 7 u , 7 7 7 7 7 7 7 7 7 7 7 7 7 7 7 7 , 7 7 7 7 7 , , , , # # O O O o o o u i i i p p i i p i p u # , i 6 7 g 7 i i 7 p p i , i 7 , u i , u i i i g i g i i i g 7 , , p i p p i i i i u , u p , u g i i p p i p i p i i i i i i p i u p 7 7 p u p p i i i i p i p p i i p i p 2 , , u , , i , i p i i i p i g i i i i p i i g p i i , 7 g p u i i p i i i i i i p p i i i i p i u i u i 7 i i i i p p i i p p i i i i , , 2 u u , , u u i u g i p p i i i i i i i g g u i u i , g i u u i p p i i i i p p i i i i i i 7 g u , p u i u i i p i i p u , 3 g i i i i i p i p i u p i i , #.J.U.c , g u p p i , u i , u i , i g p i i i i i g i i @ O @ # , , , 7 9 i i i p i i i i i i i p i p p p i i g i i i i i i p i i p i i i i i p i i i i p i i i p p p p i i p i i p i p i h j g #.#.#.#.#.@.f ",
"l t +.l l l l t l l l l l l l l l t l l l t x u u u 7 7 7 7 7 7 7 u , 7 7 7 7 7 7 7 7 7 , : 7 7 7 7 u 7 7 7 7 7 u , , # # # O O O o o o p i i i i i i p i i i p g g p g g i i p p i i i p g p p g p g g p i i i i i i i i i p i < 2 p i i i p i i i p g p p p p i i i p i i p i i i p p i p p p p p p p p p p p i i p p i i i p i p i p i i p g g g g g g g p i i p i i i i i i p i i i p i p p i g g i p p p i p i p i p p i i i i p p i i p p p p p p i g i i i i p i i i i p i i p g p p p g g i g i p i i i i p i i g i i g i i g i g i g i i g i g i i p p i p i i i p p i i i g i g g p p i p p i i i i g u > u p i p i i i p i p p g i p p p p c h i p i p p p p p p p p p p g p i i i i g i i i i g # O @ > > , , 7 7 7 7 i i i p p i p p i i p i i i i i i g i i i i i i i p i i p g i p i i p p i i p p i i i i i i p i i p i i p i h j g #.#.#.#.#.@.h ",
"l l l l l l l l l l l l l l l l l l l l l l i 7 7 7 7 7 7 7 , 7 7 7 7 , 7 7 : , 7 7 7 7 7 7 7 7 7 7 7 7 7 7 7 7 , , , # # # + O O o o o i g i g i i p p i p p p g i i p i i i g i i p p i p i p i i i g i i i i i g i i i i g 7 , , p i i i i i p i i p i i i g i i g i i p i i i p p i i p i i p i i i p i p i i p i i i p i i i i p i i p i i i p i i i i i i p i i i p i i i p p i p p i i i p i i p i i p i p i i i p i i i p i i i p p i i i g i i i i g i i p p i i i p i i p p i p i i i i g i i i i p p i f i i i g i i i i i g i i i p i i p i i p i i i g i i p i i i p i i p i i i i i p i p i i i p u > u g i i g i i i p g i g i i f p p u i p i i p p i p i i i g i i i i i g i i i i i f f p @ O @ # # , , 7 i 7 i i i i i i g i i i i i i i i p p i i i p i i i p i i p i g i i p i i p p i i i i p p i i p p i i i p i i p i h h h #.#.#.#.*.@.h ",
"l l l l l l l l l l l l l l l l l l l l t g 7 7 7 7 7 7 7 7 7 7 7 7 7 2 7 7 7 7 7 7 7 7 7 7 7 7 7 7 7 7 7 7 7 7 7 q , # # # O O o o o % u i i i i g i p i i i p a i i i g i i i i i i f i i i i g f i i i i g g i i i i p f p i > 2 p i i g i i i i p p g i i i i i i i i p i p p i i i p i i p i i p i p i i i p i i p i p p i p i p i p i i p p i i i g i g i i p p i i p p i i i i i i i p i p i i p p i p i i p p i i p p i p i p i i i i p i i i i i g i i p i i i p p i i i i i i i i p p i i i i p i i i i a g i i i i i g i i i i i i p i p p i i p i p i i i i i i p i i i p i i i g i i i i p i p i p 3 , u g i i i i i i p p i i i i p p i p i p i g i i i i i g i i i i g g i i i i i i i i p p @ O < # # , , 7 , i 7 i i i i i i i i g g i i p i i i i p i i p p i i p i i i i i i i i p i i i p p i i i p i i i p p i i p i p i h h g #.#.#.#.#.@.h ",
"l l l l l l l l l l l l l l t l l l l l l q 7 7 7 7 7 7 7 7 7 7 7 7 7 7 7 7 7 7 u , 7 7 7 7 7 7 7 7 7 7 2 7 7 7 2 , # , # # # + O o o o i g g , , , , , , , , , , , , , , , , , , , , , , , , , , , , 7 7 , , , , , , , 7 g g u , , p i i i g i p i p p i g g i i i i i p i i i i i i p p i i p i i p p i i i i p i i p i i p i i p i i p i i p i i i f i g i i i i p i i i p p i p p i i p i i p i g i i i i p i i p i i i p p i i p p i i p g g i g i i i g i i i i p i i i p p i i p p i f p i i i g i p i p i i i i p i i p i i i i i p i i i i i i i i i i i i i g i p g i i p i i g i g g p i i i i p p p u > 7 g i u , , , , , , , , , , , , , , , , , , , , , , , , , , , , u , , , , , , , , i p p # O # # , , 2 , u u 7 i g i g g p p p p p i p i p i i p p i i i p i i p p i i i i a i p p i p i p i p i i i p i i i p i i p i p i h j h #.#.#.#.*.@.h ",
"l l l l l t l l l l l t l l +.+.l l t +.p , 7 7 7 7 7 7 , 7 7 7 7 7 7 7 7 7 7 7 7 7 7 7 7 , 2 7 7 7 7 7 7 7 7 7 7 , @ : # # # $ O O o o i i g , , , , > , 2 , , , , , , , , 2 , , , , , , , , , , , , 7 , , , , , , , > 2 g g i > 3 p i i g i i p i p p u u 3 i i i i g i i i g i p p i i p i i i i i u a u i g i i p i p i i p i i i p i i p i i a u a u i i i p i i p p i i i i i p i i i i i u a u p p p i i p i i p p i i i p i i i i g i 3 a 3 i g i i i i i p i p i p i p p i p i i i i u a p i i i p i i i i i i i i p i i i g i p i p i p p i p p i p p i p i p i i i i p i i a f u u i i p p i i i i p u > 7 i p i , , , , , , , , , , , , , , 2 , , , , # , , , , , , , , u , , , , , , , , i p u h i o O # , > 2 > 2 i 7 i i u i i , u u i i u p i p p i i i p i i p i i p i i i i i p i i i p i i i p i p i i p p i i p i i i i i h j a #.#.#.#.#.@.h ",
"l l l l l l l l l l l t l l l O.l t l l 7 7 7 7 7 7 7 7 u 7 7 7 7 7 7 7 7 7 7 7 7 7 7 7 7 7 7 7 7 7 7 7 7 7 7 7 7 7 # # # # # O O O o o i i i , , > $ , O o > , , , , > # o O > , O , , , > , , , , , 7 3 > > < , , , , u i i u > , g i i i g i i i i l X.+.X.k i g i i i i i i p i i p i i p i i g  .X. .X.i i i p i i p i i i p i p i i p p i k X.X.X.+.i i i p i i i p i i p p i p i p i i h X.+.o.l i i i i p i i i p i i p i i p i i i k +.X.X.l i g i i g i p i i i p i i i i i p p l o.+.+.k p p p p p i i p p i i i p i i i i i 2 , 2 , i i i i i i i i i i p i i i i p i i i +.X.X.X.g i i i i p p i p u > 3 g i i > , @ @ > O O , , , 3 > , O o O , , # , , , , , , , , , u , , , , , > , , i g u k g , c < c.%.3 7.j 6 c j @.@.k j b.&.%.h h #.g g i p i i p i p p i p i i i p i i p i i i p p i p p i i p i i p i i i p i p i p i h j g #.#.#.#.#.@.h ",
"l t l l t l l l l l l l t l l W l l t i 7 7 7 7 2 7 7 7 u 7 7 7 7 7 7 7 7 7 7 7 , 7 7 7 7 7 7 7 7 7 7 7 7 7 7 7 , , 7 , # # O O o o o o i i i , < 2 &.> c M.i @ , O 2 Z.u C.z., > @., o @ 3 @ o , # @ 2 , , O @.uX3 # , u i g u , 2 i g i i i i i p g t.w.w.i.l u i i i i i i i i p i i p i i g i g w.w.w.w.h i i i p i i p p i p i i i i i i p l w.w.w.y.i i i i i p i i i p i p i i i i g i +.i.w.i.>.a i i i i i p i i i p i i g i i g a ;.i.w.i.4.u i i i i p i i p i p i p i p i p u 5.i.y.i.,.u g i p i p i i i p p i i p i g i g , , > , u i i g p i p i p i p i g i i i i p i y.w.w.w.l i p p p i i i p 3 > u g g u , # c h , b.7.< > 2   c.#.@.M.@.+ i z O O , , o O , O , u > , O F.V.o , , i g 4 k f > @.$.b.@.=.=.V.i &.N.F.V.N.%.%.F.H.%.N.l., g i i p p i p i i i p i p i p i i p i p p i i i i i p i p i p i i p i i i p i p i h h h #.#.#.#.#.c h ",
"l l l l l l l l l l l l l l l l l l x 7 7 7 7 7 7 7 7 7 7 7 7 7 7 7 , 7 7 7 7 7 u u 7 7 7 7 7 7 u 7 , : 7 7 , u u , # # # # # O O o o o i i g 2 # M.FX@ 7.C.G.< # c M.G.c.F.C.C.3 I.3 c.h O @.7.G.G., 7 3 > i eXKX4X< # u i g i , , g i g i i i i i g t.w.0.w.k p p p i g i i i i p p i i p i i i g q.q.0.q.k i p i i i i i p i i i p p p p p u x w.0.w.0.g i g i p p i i p p i i i p p i i u +.w.0.w.5.i g i g i p p i i p p i p i i p p u ,.w.0.w.3.a g i i i i i i p i i i i i p p i u 4.w.0.w. .i g p i i i p i i i p i i p i i i g , > , > i g i i i i p p i i i i i i i i i i g 0.0.q.w.k i i i i p i i p u , u p i i < 3 yXC.2 v.I.1.o 2 #.5X1.5X&.7Xp v.l.j c., , l.7.0X&.< i , + 7.GXGX%.+ > i i u h g g %.%.=.3 N.b.N.i f F.V.V.V.%.N.4Xb.V.Z.h i i i f p i p i i i p i i p p i i f i i p i i i p i p i i i p p i i p p i i i i i i h j g #.#.#.#.*.@.p ",
"l l l l l l l l l l l l l l l l l l 9 7 7 7 7 7 7 7 7 7 7 7 7 7 7 u u 7 7 7 7 7 u , 7 7 7 7 7 7 7 7 , , 7 u u u , # : # # # O O O o X % i i g , , , I.2 % h I.o h 5XG.I.l.G.S.1.&.c.C.A.I.c 5X&.5XH., , 2 > 9 j k j , < u g i u > 2 i i i i i i g i i t.w.q.w.l f p a i i i i g i i i p i i i p i k q.y.q.q.g i i g i p p i i p p i i i i i p i x w.q.q.0.i i i p i i i p i i i i p i i i g f o.w.w.w.5.3 i i i p i i i p i i i p i i i g i ,.w.0.w.3.u g i i i p p i i p i p p i i p i i 4.w.0.w.O.u g i p p i p i p i i p i i i i i g 2 , , , u g i i p i i i i i i g i i g i i i g 0.w.q.w.x i i p i i p i p u > u i g u , O 1.C.o   A.j.. Z.A.qX&.I.z.5Xu S.*.K.S.c.c.J.&.yX*.@ 3 < < h k j p , , i g i h h %.@.%.%.%.=.b.h &.@.H.N.V.F.b.F.F.%.H.F., g i i i p i i i p p i p i i i i p p p i i i p i p i i p p i i i i p i i p p i p p i h h h #.#.#.#.#.@.h ",
"l l l l l l l l l l l l l l l l l d 7 7 7 7 7 7 7 7 7 7 , 7 7 7 7 7 7 7 7 7 u 7 7 7 7 7 7 7 7 7 7 , 7 7 7 7 7 7 7 , , , + + # O O o o o u i i 7 , < U., > J.h % z.v.$ G.l.J.C.v.Z.#.U.  C.G.M.  C.c o , , , f H.4XV., > 3 g g u > 2 i i i g i i i i g t.w.0.w.l u g i i i p i i p i i i p p i g i g w.w.q.q.k i p i i p p i i p i p i i i p p f l y.q.w.t.i i i p i p p i i i p i i g i i g u X.w.0.w.>.p p p p p i i i p i p p i i p i p f ,.w.q.w.4.u i i i g i i i i p p i i p i i i u 4.w.w.y.O.u f p i i p i p i p i i p i i i i p , + < + u p i i p i i i p i p i i i g i i i g 0.w.q.w.k u p p p i i i p 3 , 3 g p i , o &.Z.  %.A.O @ 5XO v.7.I.b.G.l.M.b.l.O 5XJ.2 X K.. , u , # %.8X4X$.< , i i i , > u h 7 u z u %.@.z g @.h j j i l.%.g c z i i i i i p i i p i p i p i i p p i i p p i i i p p p i i p i i p i p i i g p i i i i h j g #.#.#.#.$.c h ",
"X.W l l l l l l l l l l l l l l l 7 7 7 7 7 7 7 7 7 7 7 : , 7 7 2 7 7 7 7 7 # 7 7 7 7 , 7 7 7 7 u u 7 7 7 7 7 7 7 , , # , # # O O o o % i i a 6 , , 5X, 5XI.c @ j U.Z.U.c.S.7.qXG.O I.v.I.*.5Xz A.G.@ 3 , , O H.KXb.O , 7 i g i , , g i i i i i i i i t.w.0.y.k f i p p i i p p p i p i i i i i i k q.q.w.q.g i i p i i i i p i i i p p i p p u l w.q.q.0.f i g i i i i i p i p i i i i i g u X.w.w.w.5.u g p f i a i i i i i i i p p i g u ,.y.q.w.3.i g i i i i p p i i i i g i i p g p 4.w.0.i.,.u g i p i i i i i p p i p i i i i i k l r r g p i i i i p p g i i i p i i i i i g q.q.q.w.x p p i a p i p p u > 7 p p u , O l.C.g MXl.g $ Z.C.7X1.5X%.I.9X&.j U.C.v.B.F.c 7X*.# i , > g VXiX3 , , i i i O O O O > , > , > , 7 i 3 i i i i u u f i u g i i g i p i p p i i i i p i i i i p i i p p i i f i p i p i p p i i i i i i i i i i h j g #.#.#.#.#.*.h ",
"+.l l l l l l r l l l t l l l l i 7 7 7 7 7 , u 7 7 7 7 7 7 7 7 7 7 7 7 7 7 , 7 7 7 7 2 7 7 2 , , 7 7 7 7 7 7 7 u , : # # # O O O o o o i p i , , , #., z.M.z., O &.c.z h C.c.j j O i B.z O *.M.g c.f , i , > 3 =., , , 7 g i u > , g i p i i g i i i 0.w.q.w.l a i i i p i i i i i p p i i i p i g 0.w.q.w.g i i p p i i p p i p i i i p i i i k w.q.w.t.i i i i p i p p p i i g i i i i g a +.w.q.w.5.u i i p i g i i i p p i i i i i i u ,.i.0.w.3.u g i i i i i i p i i i i i p i g a 4.w.q.w.,.3 g i p p i p p i i i i i i i i g f sXxXkXnX6.u g i p i p i i i i p i g i i i i g 0.w.q.w.g i i i i p i p p 3 > 7 g p i , @ p j j B.M.@.O u b.l.u 1.Z.$.j i + &.v., , B.$.@.7.O u , , $ @.+.O , , i i g # O > # , , , u u i i f g i g g i p g g i g i g i i p i i i i i i p i p p i i p p i i i p i p i i p p i i i i i i p i i i i i p i h h h #.#.#.#.*.@.h ",
" .l l l l l l l l l l l t l l l 7 7 7 7 7 7 u u 7 7 7 7 7 7 u , 7 7 7 7 7 7 7 : 7 7 7 7 7 7 7 7 u 7 7 7 7 7 7 7 , > @ 7 # # O O O o o o i p p , , , O , o o O , , O o + < o O @ < , > o @ , O o > o > 7 , , , , + < , , 7 g i i , 3 g i i i i i i i i 0.w.0.w.l f i p i p i p i p i i i p p i i i g q.q.q.q.g i i i i i p i i i p i p i p i i a l w.q.w.0.g i i i p i i i i i p i i i i i g u X.w.q.w.:.a p i i i i i i i p i i p p i p g i ,.w.q.w.3.a i g i i g i i i g p i i p i i i 3 4.w.q.w.O.a p i i i p i i p i p p i p a p p u <XxXjXxX6.3 g i p i i i i i p i i i i p i i g 0.q.q.w.l i i i i i p i p u > 7 g p u , , < + @ % o > , > O O , $ o O O , , O o , > o O O O , u , , , < + , , , i g i # O @ @ , , , , 7 7 7 i i i i i p i i i i i i i i i i i p p i p p i i i i i p i i i p i i p i p i i i i p p i p p i g i i g i i i h h h #.#.#.#.*.c h ",
"l t l l l l l t l l l l l l l 9 7 7 7 7 7 7 7 , 7 7 7 7 , , u 7 7 7 7 7 u u 7 7 7 7 : , 7 7 7 7 7 7 7 7 7 , 7 7 7 # 7 # # # # O o o % o i i i , > , , , , , , > , , , , , , , > > > , , , , , , , , , , 2 > , , , , , > , p p u , , p p i i p i i i g 0.w.q.y.l a g i i i i p p i p p i i i p i i k q.q.q.w.g i p p i i p i i p i i p i i g i f l w.0.w.0.i i i i i p p i p p i i i p i i i u o.w.w.w.5.i i p i i i i p i p i p i i i p g 3 ,.w.q.w.3.a i i g i i p p i i i i p i p i i u 4.w.q.w.,.u g p i i i p i i p i i p i i i g i sXxXjXxX6.u a g i i p p i p i i i g i i i i g 0.q.y.w.k u p i i p i i p u , u g g u > , , , , , 2 , , , , , , , , , , , > , , , , , , , , > 7 , < , , , , > , i i g # O @ @ , , , 3 7 i i i i i i i p i i i g i i g i i i p i i i i i p p i i p p i i p i p i i i i p i i p i i i i i p i i i p i g i h j h #.#.#.#.&.@.h ",
"l l l l l l l l l l l l l t x 7 7 7 7 7 7 7 u 7 7 7 7 7 u u 7 7 7 7 7 7 , , 7 u 7 7 7 7 7 7 7 7 7 7 7 7 7 : 7 7 7 7 # # # # O + o o o X i i p u u 3 u u i u u 3 3 9 , i u u u i 3 i u 3 u u , i 7 3 7 i i u u u u u u 3 i i p i > 2 p i p i i p i i i t.w.q.w.l u i i i p i i i i i i p p i i g g g q.w.w.w.g i i i i p i i p i i p p i i i g u l w.0.w.t.i i i p i i i i i i p p i i p i g p +.w.t.w.5.i f i i g i i i i i i p i p p i g a ,.i.w.w.3.f i i i i i i i i i i i i i p p i i 5.w.0.i.O.u g i i p i i i p i i p p i g i i u sXkXjXxX6.u g p p i i i i i p p i i i i i i g q.q.q.w.k f p p i p i p p u > , g g i u u u u u u i u u u 7 3 7 u 7 i u , 3 u u u u u i 3 u 7 i u u u 7 3 u u u i i i # O @ , # , , 8 7 9 9 i i i p i i p i i i i i i i i i p i p p p i i i p i i i i p i i i p p p i i p i p i p p p i i i p i i i i i h h g #.#.#.#.#.c h ",
"l l l l l l l l l l l l l l 7 7 7 7 7 7 , u 7 , 7 7 7 7 7 7 7 7 7 7 7 7 u 7 7 , 7 7 7 7 7 7 7 7 7 7 u 7 7 7 7 7 7 # # O # # # o o o o o i p i p g i g i g g g i g g g g g p i g g g i p g g g p g i g i i g i p g g g g g i g u , , p i i i i p g i f 0.q.q.w.k u g p i p i i p p i i i p i i i i g q.q.q.t.g i p i p i i p p i i i i i i i i i l y.q.w.t.i i i i p i p p i i i p i i p i g u X.w.q.w.>.u p p p i i i i p p i i i p i i i u ,.w.0.w.4.u g i g i p i i p g i g i i i i p u 4.w.q.w.O.u g i p p i i p p i i i i i i i i 2 <XxXjXxX6.2 p p i p i p p i i i g i p i i i i 0.w.q.w.l a p p p i i i p u , 3 g i i g g p p p p f i g i g g i g g i g g i g g g p p i g g p p p p g g g g i i g i g # O # # # , , 7 7 i u i i i p i i p g i i i i i i g i i i i i p i p i p p i i p p i p i i i i i i p i i i i i p i p i p p i i i i h j h $.#.#.#.#.@.h ",
"l l l l l l l l l l l l t d 7 7 7 7 7 7 7 7 7 : 7 7 7 7 7 7 7 7 7 7 7 7 7 7 7 7 7 7 7 7 7 7 7 7 7 7 , 7 7 7 7 7 7 , 7 : # @ + O o @ o o i p i i i i i i g g i i i i i g i i i i i i i i i i i g i i i i i i i i i i i i i i i i > 3 p i p p i i i i i 0.w.q.w.l f i i p i p i i i p p i i i i g i g q.w.q.w.g p i i p i i p i i p p i p i i g i k w.0.w.0.g i i i p i i p i p i i p i i i i i X.i.q.w.5.f p p i i i g i i i i p p i i p g 3 ,.w.0.w.4.u i i i i g i i i i i i i p i p p f 4.w.q.w.O.a p p i i i p i i i p p i p i i g a sXkXjXxX6.2 p p i p i i p i p i i i p i i i g 0.w.q.w.g u p i i i p i p u > 7 g i i i i p i p p g i i i g i i i i g i i i i i g i i i i i g i i i i i i i i i i i i # O @ # # , , 7 7 u u i i g i i p i i i i i g i i i p i p p i i i p i i i p i p i i p i p i p p i i p i p p i i i p i i i p i i i h j g *.#.#.#.#.c h ",
"l l l l l l l l l l l l l 7 7 7 7 7 7 7 7 7 7 7 7 , 7 7 7 7 7 7 7 , 7 7 7 7 7 u 7 7 7 7 7 7 7 7 7 7 , 7 7 7 7 7 , 2 # , # # O O @ O o o p p p i p i p i > , i p p p g p i p p p p p p p g g i g g i i g g i i g i p i p i p g u , 2 g i i i i g i i g t.w.t.w.k a i p i i p i i i p i i p i i p i g y.w.w.q.g i p i i i p p i i p i p p i i p f x w.q.w.t.i i i i i g i i i g i i p i i p i u o.w.w.w.5.f p p i i p i i i p i i g i i i i i ;.w.0.w.4.3 i g i i i i g i i i i p p i i i u 4.w.w.w. .i g i i g i i p i p i i p i i p i f sXkXjXxX6.u a p i p i i i p i p i i i g i i g 0.w.q.w.k p i i p p i i p u , , g i p p i i i 7 , 7 p p p p g p g g g i i i g i g p i i p p p p p p p i i i i i i i i @ O < @ < < 3 7 9 u i i f i i i p i i i p i p i p p i i i p i i i p i i p p i i i p i i p i g i i i i p i i p i i p i p i i i p i h j g *.*.#.#.$.c h ",
"l l l l l t l l l l l t w 2 7 7 7 7 7 7 7 7 7 7 7 2 7 7 7 7 7 7 7 2 7 7 7 u , u 7 7 7 7 7 7 7 7 7 u u u 7 7 7 7 7 , , # # # # O o O % o u p p i i p i j A.A.z 7 7 p , i i 7 7 i u p 7 i u , i u , i p , , i i 7 i i i p i i i i > , i i g i i i i i i t.q.q.w.+.f i i i p i i p i p i p p i i i f g q.q.q.q.g g p i p i i i i p i i i i i p i u l y.0.w.0.i i i i g i i i i i i i p i p p i u X.w.0.w.>.a i i i i i p p i i p p i i i g g 3 3.i.0.w.3.a g i i i i i i i i p p i i i p g f 4.w.0.w.O.u g i i i i i i i p i p p i i p p u sXkXjXxX6.u p p i p i p i i i p i p i i i i g 0.w.q.w.k a i p i i i i p u > u g i i i i i i 7.J.n.u 7 i i , i u , 7 i i i u p , i i 7 , p u , 7 i i i i i i i i i g , j h h h @.7.7.j @.7.7 g i i i i i p i i p i i i i i p p i i p p i p i i i i p i p p i p i i i i i g i p i i p i i i p i p i p i h h g $.#.#.#.$.c h ",
"t l l l l l X.W l l l x 7 7 7 7 7 7 u , 7 7 7 7 7 7 7 7 7 7 7 7 7 7 7 7 7 , # : 7 7 7 7 7 7 2 , 7 , 7 7 7 7 7 7 , # , # # # # O O o o o p p i i i i 7 z.0Xz c k.l.g C.*.i v.c.z &.i 2.g j.v.i l.B.c i v.B.@.g 2.p i i i i i i i > 3 i i i i i i i i i t.w.q.y.l a g i p p i i p i i i i i i p i i g q.w.q.q.g i i i p p p i p i i p p i i p i a l w.q.w.0.i i i i i g i i i i i i i i i i p u +.w.q.w.:.u g g i p i i i p i i i i i i i i u O.w.w.w.3.i i i g i i i g i i p i i i i i i a 4.y.q.w.,.a g g i i i p p i i i i i i i i p u sXkXjXxX6.u g p i i i i p p i i g i i i i i g 0.w.w.w.l u g p i i p i g u > 7 g i p i p h 6 9Xv.z @.v.c #.C.i @.B.&.c @.h *.g C.@.z v.v.i c A.x.i v @.i p i i p i g k @.@.%.3 h N.=.&.N.@.7 i i i i i g i i i p i p p i i p i i i p i i i p i p p p i i i i i i i i i i i i p i i p p i p i i i i p i h h h #.#.#.#.%.z h ",
"l l l l t +.+.l l l +.0 7 7 7 7 u , u 7 7 7 7 7 7 7 7 7 7 7 7 7 7 7 7 7 7 7 7 7 7 7 7 7 7 7 7 7 7 7 7 # 7 7 7 7 7 : , , # # # O o o o o u p p p p p 7 1.0X2.1.FXz J.J.U.J.A.qXC.5Xi 6Xc.U.I.G.tXZ.I.v.I.B.U.&.5X7 g p i i i g u , , g g i i g i i i i 0.w.q.w.l u i i i i p i i p i p p i p i g i k q.q.q.q.k i p i i i i i p i i p i i p i i f l w.0.w.t.g i i i i i i i i g i p i p p i p a o.w.0.y.5.i i i i p i p i p i p i i i i i g a 3.w.0.w.3.u g i i i p i i i p i i p g i i g u 4.w.q.w.O.3 i i i i g i i i p p p i p p i p a <XxXhXxX6.3 p p p i p p i i i p i i p i g i g 0.q.0.w.g u g i i p i i g 3 , 3 p i i p i p 7 I.J.z 6XI.c 5XJ.J.U.A.tXn.A.#.I.Z.I.K.6XI.U.z.U.v.5X1.J.l.7 g i p i g f %.j @.=.+.&.N.@.N.V.7 i i i g i i i p p i i i p i i p i i p i i i p i p i i i i i p p p i p i g i i i i i p i i i p i i p p i p i h h h #.#.#.#.$.@.h ",
"l l l l l l l l l l d u 7 7 7 7 7 7 7 7 7 7 7 7 7 7 7 7 7 7 7 7 7 7 7 7 7 7 7 7 7 7 7 7 7 7 7 7 7 7 7 : 7 7 7 7 , , , # # # # O o o o o u p i i p p 7 1.qX2.z.J.O tXI.J.qXu c.C.K.7 J.J.qXS.J.G.u U.I.v o G.U.j., g i g i g i u > 2 g i i i p i i i f 0.q.q.y.l u g i i i i p i i p i i p i i i i g q.q.q.q.k i g i i i p p i i p i p p i p p p k y.q.w.0.f i i i i p i p p i i i p i i p p u +.w.w.w.5.u g i i i i p i i i p i i i i i p a O.w.w.w.4.u g i i i p i i p i i i p i i p i u 5.w.0.w.O.a g i i i i p i i p i i i p i i g f sXxXjXxX6.u g i i i i i i p p i i i g i i i g 0.q.w.y.k f i i g i i i i u > 2 g i p i i p , U.J.c I.z #.MXA.9XJ.O I.C.v.z I.9XU.J.5Xc l.I.J.  #.5XI.p i i p i p i i j 9 g j i &.%.h %.7., i i i i p i i i p i p i p i p i p p i p i i p i i p p i p p i i i i p i i i i i i i p p p i p p i i i i p i h j g #.#.#.#.*.@.h ",
"l l l l l t l l l l 9 , 7 7 7 7 7 7 7 7 7 7 7 7 : 7 7 7 u , 7 7 2 7 7 7 7 7 7 7 7 u , 7 7 7 7 7 7 7 7 7 7 7 7 7 u , , 2 # # + O o o o o p p i p p p 7 z.J.. 7.I.O G.J.#.A.I.qXc.I.Z.MX1.9X1.l.U.g 5XC.6X*.z.FXi g i i i i i g i > 3 i i p p i i i i g t.w.w.i.l f i p p p i i p i p p i i p i i i k w.y.w.w.g i i i p i i i i p i i i i i i p u l w.q.w.0.i i g p p i i i i i p i p p i i g f o.i.w.w.5.a p i i i p p i p i i p g i g i g u ,.w.0.w.3.i g i i i i p i i i p i i p i i g i :.i.y.i.,.u i i i i i i i p i i p p i g i i u sXkXjXxX6.5 i i i i p i i i i p i i i i g i g 0.w.w.w.k a i i i i g i g i > 3 i i i i p g 7 5Xc o U.%.h 9Xv.#.5XA.rX1.5XU.I.B.J.c I.$.B.Z.I.S.h qXG., g i i i p i p O O O O < , , < , , i i i i i i p p i i i p i i i p i i i i i p i i p i i i i i i p i p i p i p i i p p i i i i i i i i p i i i i h j h $.#.#.#.#.@.h ",
"l l l l l l l l l k 7 7 7 7 7 7 7 7 7 7 7 7 2 , , 7 7 7 u 7 7 7 7 7 7 7 7 7 7 7 7 , 7 7 7 7 7 : 7 7 7 7 7 7 2 7 7 7 # # # # O O @ o o $ i p i i i p i j #.i z #.u g v.x.g l.6Xv.h B.1.i 2.C.@.@.g $.i v.&.7.I., g i i i i i i u , , p i i i i p g i i 4.>.5.:.x a i i i p i i p i i i i i p i g i g :.5.:.5.g i i i g i i i i p i p i p p i i i l w.q.q.0.i i i i i i p p i p i i i i i p i p l >.5.>.:.f p p i i i i i p i i p i g i i g u 3.w.0.w.3.u i i g i i p p i i p p i i i i i i O.5.:.0.X.i g f i i i i p p i i p i i i i i 2 <XxXjXxX6.u g a p p i i p i i i i g i i i i i 4.>.:.:.k i i i i i i i g 3 > 7 g i p i p p i $.j i #.h 7 #.Z.v c v.qXg l.c.c i B.l.#.h c j j A.g U.j.u p p p i i i p # O > @ , , , i i i 7 i i p p i i i p p i i p p i i p i i p p i p i i p i p p i i i p p i i i f p i i i i p i p p i i p i p i p i h j g *.#.#.#.$.c h ",
"l l l l l l l l t 7 7 7 7 7 7 7 7 , : 7 7 7 7 7 7 7 7 7 , u 7 7 7 7 7 7 7 7 7 7 u u 7 7 7 7 7 , 7 7 7 7 7 7 7 7 7 # , , # # O O o o o o i p i p i i i i u p i 9 g i 7 , p + c.c., 7 7 p 7 6 u i i u g # h 0X#.i g i i i g i i i > 2 p i i p i p i i i , # , > u p i p i i p i i p i p p i i p i i u , > , > i i i p i i p p i i i p i i p i g 3 l y.q.w.t.i i i i p i p i i p i p i p p i i g u @ , + , p i i i p p i p i p i i i i i i f i O.w.q.w.3.a g i i i i i i p i i i p i g i g p , , > O u i i i i i g i i i i p i i p i i g a sXkXjXxX6.u g i i i i p i p p i i i i p i i i , , > @ i i i g i i i i g u > 7 g i p i i i p u i i i i i i # i i , I.g 2 , i a 6 7 u i i i i + M.I.u p p i i i p i p # O @ # > , , , u , i i i i p i p i i i p i i i i p p i p i i i p i i p i i i p p i i i i p p i a i i p i p i i p i i p i i i p i h h g *.#.#.#.$.@.h ",
"l l l l l t l l g 7 7 7 7 7 7 7 7 7 7 7 7 7 7 7 7 7 7 7 u , 7 7 u u 7 u 7 7 , 7 , u 7 7 7 7 7 7 7 7 7 7 7 2 7 7 u # , , # # # O O o o % i p i p p i p p p i p p i p p p p p i i p p p p p p p p p p p p g p i p i i i i p i g u > 2 g i i i i i i p i , , , , i p i i p p i i i p i i p i p i i i i , , , , i g i i i i i i i i i p i i i p p a x w.q.q.t.p i p i p i i i i p p i i p i i i p u , , , , g g f p i p i i i p p i i p i i p 3 ,.w.q.w.3.a i i i i p p i p i p i i i p i i i , , , , u p i i p p i p i i i p i i p p i p f sXkXjXxX6.u g p i i p i i i p i p i p p i i i , , , , i p i i p i i i p i > , g i i i i p i p p i p p i i g i p g i i g p p p p p p i p p g g g u p p i i i g i i i # O @ , , , , 7 u u u i f p i p i p p i i i i i g i i i i p i i i p i i i i i i p i p i i i i p i i p i p i p p i i i p i i i p i h h h *.#.#.#.$.c g ",
"l l l l l l l r 7 7 7 7 7 7 7 7 7 7 7 7 7 7 7 7 7 7 7 7 u u 7 u 7 u # u 7 7 u 7 7 7 7 7 7 7 7 7 7 7 7 7 7 , 7 7 , # : # + # # O O o X o i p i i p i i i i i i p i p p i p p i p p i p i p p i p i i i p p i i i i i p i i i i i , , g i i i i i i i i , > , , u p i i i i i p i i p i i p i i p g g , , , > i i i p i i g i i p p i i p p i p p l w.q.w.0.p i i p i i p p i i i p i p i i p p u , , , 3 g f i p p i i p p i i p i i p i i a ,.w.q.w.:.u g i i i i i i i p i i p p i p i g 2 , , , 3 p i p i i i i p p i i p i i i i i u sXkXjXxX6.2 g i p p i i p i i p i i i i i p p , , , , i p i i p i p p p 3 > u g i i i g p i i i p i i p i i i i i i i p p i i p p i p i i i p i p p p i i i i i i i # O @ @ # # 2 , 7 u u i p i i i i p i i p p i i i i i p i i g i i i i g i i p i i p i i p p i i p p p i i i i i i p p i i p i p i h h h %.#.#.#.$.c h ",
"l l l l l l t p 7 7 7 7 7 7 7 7 u 7 u , 7 7 7 7 7 7 7 7 u 7 , u 7 7 a u , u 2 7 7 7 7 7 7 7 7 7 7 7 7 7 7 7 7 7 u , , # # # O + o o o o i i i p i i p p p i p i i i i i p p i i p i i i p i i i p i i i p i i p i i p i i i p u > 2 i i i i i g p i f 2 , , , i p i p i i p p i i p p i p i i p i i , , , , i p i i p g i i i p p i i p i i i u l y.q.w.0.i i p p i i p i p i p i i i p p i p i , , , , p p i p p i i i i i i i p p i p g u ,.w.q.w.3.f i i i g i p p i p i i i i p i i p u , , , 9 p p i i i p i i p i i p p i i p p u sXkXjXxX6.u i i i i i p i i i p i p p i i i i , , , , i p i i i p i i p u , 7 i i i i i i i p p p i i p a i p p p i i i p i i p p i i p i p p i i i i i g i i i i g # O @ @ , , , 7 7 i i i i p p i i i i p i i p i i i i p g i p i i i i p p i p i i p p i i i p i i i i i p p p i i p p i i i i p i h h h #.#.#.#.#.@.h ",
"W t l l l l x 7 7 7 7 7 7 7 7 7 , 7 7 u 7 7 7 7 u 7 2 u 6 , u 7 u , H V > u u u 7 7 7 7 2 7 7 7 7 7 7 7 7 7 7 7 7 , , , # # # O O O o X i i i i i p i i i i p i p i p p i i g i i p i g i p i i i p p i p i p i p i i p i i g i , , g i g i i i i p f + $ + + u p i i p p i i i i i i p i i p i i i $ $ $ + u i p i i i p p i i i i p i i p p p l w.q.q.t.i i i i i p i i p i i p p i i p f p 2 $ $ $ + p i i i i i p p i p p i i i f p g u 3.w.q.y.3.u g i i i i i p i i i p p i i p i g # $ & $ 2 p i i p p i p i i p i i p i p i p a <XxXhXxX6.3 g p i p i p p p i i i p i i p p i + $ $ + u p i i p i p i p u > 7 g i g i i p i i i i p i i f p p p g i i p i p p p i p i i i i i p p i p p i i i i i g < O @ , , , , 7 u 9 u i g g p p p p i i i i g i i g i i i i i i p p i i i p i i p i p i p i p i p i i p i i i i p i i i p p i p i h h h #.#.#.#.#.@.h ",
"o.l l l l l 9 7 u 7 7 7 7 7 7 u a 6 2 u u u 7 u , 7 u > a s > 2 , , Q.A 6 u u , > u u 2 7 7 7 : 7 7 7 7 7 7 7 7 7 # , # # # @ O o o $ o i i i i i p p i p p i i i p i i g i i g i i i u u i g i i i p i i p i i i i g i i i g u > 2 g i p i i i i i p 8.y.t.y.z i p i i g i i p p i i i p i i i i g y.t.t.t.j i i p p i i i i i i p i i i i i i l w.y.w.0.i i i i p p i i p p i i i i p i g a +.y.t.y.6.i p i i i i i i i i i i g i i i g a O.w.q.w.4.i g p p i p i p i p i p i p i i g u 6.y.8.y.%.u p i p i i i i p i p p i p i p i f sXkXjXxX6.a a u i p i i i p i p i p i p i p g 8.t.y.y.h i i i p i p i p u , 7 g i i i i p i i i i i p i i p i p 3 a g g p i 3 a i i i i p i i i p i i i i i i i i g O o O O @ , , , , 6 9 i u 7 3 i g 9 g i i i p i i i p i i p i i i i p i p i i p p i i i f p i i p p i p p i i p i i p i i i i a i h j g #.#.#.#.*.c h ",
"+.t l l t g u u 7 7 7 7 7 7 > C J > u , , , 7 u 7 7 u > C H B 4 u a !.F # u # a C u , u 7 7 7 , 7 7 7 7 7 7 7 7 , 7 , 2 # @ @ O o o o o i i i i p i i i i i i p i p p i u g O.:.t.t.5.3.+.i i i p i i p i p i p p i i i i i i i , , g i i i p p p i p jXnXxXnX<.2 p i i i i p i i p p i p i i i u z xXxXnXxXz i g i i i i g i i i p i p i i g u k w.0.w.0.p i i p i i p i i i p i p i p i g 3 8.nXxXnXsXu i p i g i i p i i g i i i i g g u 3.w.q.w.3.3 i i i i p i i i p i i i p i i g 3 <XnXxXZXg.2 g i p i p p p i i i i i i i p p u sXxXjXxX6.u g p i p i p i i i p i i i p i i g kXxXxXnXo.2 g p i p i i p 7 # 7 g p i p p i i p p p i i p p g i u <.f.<XsXsX<Xy.o.u i i i p i p i p i p i i g i i i f g g i @.f , i j g #.g @.%.N.@.@.g &.i i i g i i p i p i i i i g p i g i i i p i i i i p i p p i i i i i i p p i i p i i p i i g i h h h #.#.#.#.%.@.h ",
"l l l l l q u , 7 7 7 7 7 u > F H 6 7 7 u 7 u # C B , 6 D ~.!.B H B ~.H 6 u 7 s /.s , 6 7 7 7 7 7 7 7 u u u 7 7 : , , # # @ @ O $ o o o i i i p i i i p p i p i i i i p O.t.w.w.w.w.y.i.w.>.l i i i i p p i i i i i i i i i g u > 2 g i i p i i i i p sXjXhXxXo.u g i i i p i i i i p p i i p g i l kXhXhXhXz i i i i p i i p i p i i i i g i i l w.q.w.0.i i p i i i i p i i i p p i i i g 2 8.xXhXxX<Xu p i i i i i i i g i i i i i i g i O.w.q.w.3.a g i i p i i p p i i p p i i p g 2 f.xXhXxXy.2 g p i i i i i i p i p p i i i i a <XxXjXxX6.2 p p i i i i p p i i p p i i p i g fXkXhXkXo.u p p i i p i p i # u p i i p i p i p i i i i i g u @.,XxXnXxXxXxXnXnXjXg.a f i i i p i i i p p p i g i g g %.f %.j =., 3 b.&.F.7.b.j V.H.V.$.V.u g i i i p p i i i i i i i g i i i p p i i i p p i p i p i i p p i i i p i i p i p p i i i i h j g #.#.#.#.#.@.h ",
"l l l l p , u u u , 7 7 7 7 6 J Q.7 7 7 7 7 u 6 H F > u G ^.~.C !.C !.~.7 u , B /.s 6 C s , 7 7 u , 7 u 6 # 7 u # , , , @ @ @ @ O o o o i p i i i p p i i i p i i i g ,X,Xw.:. .w e w  .0.w.q.X.f p i i i i p p i p i g i i i i > 2 i p i i p i i i p fXxXjXxX<.a f i i p i i p p i i i p i i p i z hXkXkXjXl u g p p i i i g i i i p p i i f i k w.0.w.t.p i i i p p i i p p i i i i p i g 2 8.xXjXxX<Xu g i p i i g i i i i g i i i i i 3 3.w.0.w.3.u g i i i p i i i i p i i p i i p 2 ,XnXhXxXy.2 g i i p p i p i p i i p i i i i u sXxXjXxX6.2 g i p i p p i i p i i i i p i i g hXkXjXkXo.a p i i p i p p u # 7 p i p i i p i i i p p p p u <.fXnXhXf.3.r t ,.f.xXnXsXz i p i i p p i i i i i i i f g @.O @.> &., O =.N.b.V.%.b.H.N.N.F.&.u g i i i p i i i p g i i i i i i i i i i p p i i i p i i p i i i p p i i i p i i p i i i p i h h h #.#.#.#.#.c h ",
"l l l l 7 7 7 7 7 7 7 7 7 7 , H ~.u < f u , u u H ~.a , H /.^.F ^.F !.!.7 u 6 D /.F V ^.F 1 u u a s u 7 B B 7 7 3 , , , # # @ O O o X X u i i i i p i i p i p p i u ,XxXsXl O @ , , + + , 3.w.w.l a i i g i i i i i p i i i p i > 2 g i i i i g i i g fXkXhXxX<.3 g i i i p p i i i p i i i i i u l hXkXkXjXl i i i i i g i i i i i p i i p g u l w.q.w.0.i i i i i i p p i i p p i i i a p 3 8.nXjXxX<X3 g g i g i i i i g i i i p i i g u O.w.w.w.4.u i i i i i i i i i i g i i i i g & <XxXhXnXy.5 g p i p p i i p i i p i i i p i p sXkXhXxX6.2 g i i p i i p i i p i g p i g i g fXkXjXkXo.3 i i i i i i p u , u g i i i i i p i i p i f u o.hXxX<Xk $ + < + + @ X.sXnXf.i i i p i i i i p p p i i i g @.> %., %.h @.%.V.@.4X@.H.V.N.&.uXi g p i i i i p p i p i i i p p i i p i p p i i i p i p i p p i i i p i i p i p i i p p i i p i h h h #.#.#.#.*.@.h ",
"t l t p 7 7 7 7 7 7 7 7 , u 6 ~.!.u B !.B > F C H ).D , H /.^.!.^.H !.~.F s 6 F /.^.!.^.H F s 1 B Q.u , G ^.u 7 , , , , # # O + O o o o a u i i i p i p p i p p 3 6.xXhX,.u F.p @ , , , # <  .y.t.g i i i i i g p i i p i p p u > , i i i i i i i i g sXxXhXxXo.u p p p i i i p p p i i p p i g i j jXjXjXjXz i f i i i i i i g i i i p i i g 3 l y.0.w.0.i i i p p i i i p i i i i p p i p a 8.xXhXxX<X2 g i i i i g i i i p i i p i p g a 3.i.0.w.3.i g i g i p i g p i i i i i i i g 2 ,XxXhXxXg.3 g i i i i i p i i p i i p p i p u <XxXjXxX6.a g i i p p i i i p i i i i i g g g fXkXhXkXo.i g g i p i i p u < u i i i g i i p p i p i i a <XxX,X2 , , , , , , > % e f.i.O.f g i i p p i i i i i p i i , O , < 7 7 f 7 g 8 z u @.%.h h z i p i i p p i i i i i p p i i i p p p f i i i p p p i i i i i i p i p i p p i i i p i i i p f i h h h #.#.#.#.#.v g ",
"l l -.u 7 6 7 7 7 7 7 7 u > B ^.!.a ~.).V 3 !.G H /.G 4 {./.^.^.~./.Q.Q./.D > G ^.^.^.^.!./.V 1 V /.a , H /.s > , , @ < @ & & O o o o o i p i p i i i i i i p p g <XnXy.$ &.LXyXO , , , , , , 5.w.O.i g i i i i p i i p p i p i , , g i i i i i i i p sXkXhXxX<.a i i i p i i i i i i p i i i i i l jXkXkXjXl 3 g i i i i g i i g i i i p i g a k w.q.w.0.i i p i p i p i p p i i p i i i i 5 8.xXhXxX<Xa i i i i g i i i p i i i i p i i u ,.w.0.w.3.u g i p i i p i i p i i p i g i i 2 ,XxXhXnXy.2 p i p i p i i p p i i i p i i i u sXxXhXxX6.2 g i i i i p i p i i i i i i i i g hXkXhXkXo.3 g i i i p p p u # u g i g i i i i i i i g 2 6.xXhXk $ , , , , , O l.BXi w w.0.g i i i i p p i p i i p i g O O + # # , , , , i , i u u f i i i p i p i p i i i p i i i p i i i i i p i i p p i i i p p p i i p p i i i i i i p i i i p i i i h h h #.#.#.#.*.c h ",
"t c /.B 6 A a 7 2 8 , 3 u B H ~.!.V ~./.C a /.~.~.!.H A Q.~./.~.J ^.F Q./.D s !.Q.^./.Q.!./.C D !.^.G 4 !.!.F s 2 5 A 5 B S S 5 & 5 & o i p i i i g i i i p g u o.jXhXg , > 7XLXF.+ , , , , +  .w.5.i i i g i i i i p i i i p u , 3 g i i g i i g g p fXkXhXxXO.3 g p i i p p i i p i p i p i g i z jXjXjXjXz i i i i g i i i i i i i g i p i i l w.q.q.0.p i i i i i p i i i p p i i i i g 3 8.nXjXxX<Xu p f i i i i i p i i p p i i i g u ,.y.q.w.3.a p i i i i i i i g i i i i i a p & <XxXhXxXy.2 g i p i i p i i i p p i i i i g a sXkXhXxX6.2 g i i g i i i i i i g i i g i i g fXkXjXkXo.u g i i i p i p u , u i i i i i p i p i p g u g.nXf.$ , , , , , , M.LXKXh < >.i.+.a g p i i i p i i p i i g # O # # # , , , i , i i g g g f i i i i p i i i p p p i p i i p p i i p i i p i i i i p i i i i p i i i p p i p p i i p p i p p i h h h #.#.#.#.&.v h ",
"l v /.V u /.V @ 3 s B > s /.^.S Q./.!.G !.F !.!.!.S !.!.G S G S A G A G ^.Q.!.!.F G H G H ^.Q.^./.G !.G ~.Q.).H A ^.Q.N J J S S N M N K a i i p i i i i i i g 2 8.xX,X, , , < iXGX, , , , , > e q.0.g i i i i i i p i i i i g u , , p p i i i i i p g fXxXhXxX<.u g i i i i p i i p i i p i p i 3 l jXkXjXjXl i g i i p i g i i g i i i i i g 3 l w.w.w.t.g i p p p i p p i i i i i i p p p 2 8.xXhXxX<Xa i g i p i i p i i i p p i i p f 3 ,.i.q.w.4.u p p i p p p i p p i i i i i g g 2 ,XxXhXxXg.3 g g i p i i p p i i i i p i i g f sXkXhXxX6.2 g i i i p i g i i i i i i i i i g fXkXhXxXo.u g p i i p i p u , , g i i i g i i i i p p p <XxX3.+ , , , , O c.LXGXi # ,  .i.;.u p p p i i i i p p i i p # O @ # > , , 7 7 i u i g i g i i i i p i p i i i i i i p i i i p i i p i i p i p p i p p i i p i i i p i i i i i p i p p i i p i h h h #.#.#.#.$.c h ",
"w Z /.!.H /.!.s 8 H /.a V ^.Q.A S G S A ~./.G A F A Q.^.F A A S S S S A G /.Q.A S S S S S F !.Q.G S G ^.H F H ~.!.G G Q.J S S S N N N N i i i i i i g i g i g 2 y.nXg.+ , , + p h @ , , , , , , 0.q.k i g i g i p i i p i i g i > 2 p i i g i p p i i sXkXjXxX<.u g i p p i i p p i i p i i i g i z hXkXkXjXz u i i p i i i i i i i i i i i g a k t.5.5.:.f i i i i i i i p p i i p p i p g 2 8.xXjXxX<Xu g i i i p i i i p p i i i p i g i ,.w.q.w.4.u g i i i i i i i i i g i i i i g 5 <XxXhXxXy.2 g i g i i i i i i i p i i i g i u <XxXkXxX6.u p i i i i i i i i g i i p i i i g fXkXjXkXo.u p i i p i p p u > u g i i i i i i i g f p p sXxXl , , , , , @ h Z.u @ , + t g.3.i g i i p p i p i i i p p # O @ # > , 7 7 7 7 u i i i i i i g i i i p i p p i p i p i p i i p p i i p i i i i i i i p p i i p i p i p p p i i i i i i p i i h j g #.#.#.#.%.c h ",
"z G G F !.H H ~.F ~.H ~.H G C D A A D D D F D C A D D A A A D D A C A D C F A C D D D D A D D D C A D C A C C D A V A S N N N K K K 5 5 i p p i i g i g i i i 3 y.nXf.+ , , 2 > @ , , , , , , , 0.w.g g i g i i p i i i i i g u , , p i i i i p p i p sXkXhXxXo.u i p i p i i p p i i p i p i i i j jXjXjXjXl i g i p i i i i g i i i i i g p p i # , , , i g p p i p i i i p i i p i i p g 3 8.xXhXxX<Xu g i i i p p i i p i i i p i i g u ,.w.q.w.4.i g i i i i p p i i p p i i i i g a f.xXhXxXy.5 g i i i p p i i p i p p i i i i a sXxXhXxX6.3 g a i i i p i i i i i g i g i i g hXkXjXkXo.f i i p i i i p u > 7 g i i i i i g i i a i f sXxXl + , , , , , , O > 3 , , l i.4.f i i i i p i i i i p i p > O @ # , , 7 , 7 9 i i i i i i i i p i i i i i p p i i i f p i i p p i i p i p p i p i i i p i i p i i i i i p i p p i i p i p i h h h #.#.#.#.$.@.h ",
"-.-.#.#.#.*.@.2.-.*.&.-.-.&.*.*.*.#.*.*.#.*.*.*.*.*.#.*.#.#.*.*.*.*.*.*.#.*.*.#.*.*.*.*.*.#.*.*.*.*.*.*.#.*.-.#.*.v z z z 4 a 4 f 2 u u i i p i i i i i i i g a 6.nX<X, , , , , , , , , , , , 9 y.>.g i i i i i i i i g i i g u > 3 p i p p i i p p p fXxXhXxX<.a g p i i i p i i i p i i p i g u l jXkXkXhXj i g i i i p i i i i g i i i i p p i < , > 7 i i i i i p i p i i i p i i p g a 3 8.nXhXxX<Xa i i i i i i i p i i p i p i i p i ;.w.0.w.3.3 i i i g i i p i i p i i i i i g & <XxXhXnXy.3 g a i i i p i i p i i i p i i i f <XxXkXxX6.u g g i p p i p p i p i i i i i i g hXkXhXkXo.a i i i i p i p 3 , 2 g p i p i i i i i i i a <XxX8.+ , < , , , , , , > , ,  .i.O.u g i p i i p i p p i i p + O @ # , , , 7 , i u i i g i i i i i p p i p i i i i i a p i i p i i i p i i p i i i p p i i i p i p i p p i i i p i p p i i i i h h h $.#.#.#.$.c h ",
"j G H G ^.Q.~.!.D !.!.~.!.H A A A A A A A H F S A A S S S S D A A D S S D G A A A F A A D A S A A A A A A A A F S V S S N N N N K K K & i i i i p p i p i i p u @.fXjXx + > , , , , , , > , +  .w.3.i i i p i i i i g i i i p i > , g i p i i i p p g sXkXhXxX<.2 g i p i i i p i i p p i p i i i j hXkXkXjXz u i i p i i i p i p i i p i i p p i , , , , i p i p i p i p p i i i p i i p g a 6.xXjXxX<Xu p i p p i i i p p i p i g i i g u 3.g.y.i.4.u g i p i p i p i p p i i i i i g u ,XxXhXxXy.2 g i p p i i p i i g i i i i i i i sXxXjXxX6.2 g i i i i p i i i p i i i p i i g hXkXhXkXo.u i p i i i p p u , u i i i i g i p i i i p u g.nX,X@ , , , , , , , , , , , 5.w.l u g g i i i i i i i g f g f o @ # @ , , 7 7 7 i i i i i i g i i i i p p i i p i i i i i i i i i i p p i p i p i i p i p i p p i i p i p i i i i i p i i p i h h h *.*.#.#.*.c h ",
"t B /.~.F ^.~.s > F /.a B /.Q.A G G S A !./.G S G A Q./.F S S S S A S A F /.~.S S S A A S F !.Q.G S G /.H G G ^.^.G J Q.J J S S S N N N i i i i i i i i p i i p f <XnXf.$ 3 , , , , , , , , 9 t.w. .i i i i i g i i i i g i p u , 2 g i i p p i i i g fXkXjXxXo.3 g p i i p i i p i i i i i i g i l jXjXjXjXl i g i i p p i i p i i p i i p p p i , , , , p i i p i i i i i i p i p i p i g 3 8.xXjXxX<Xa p i i i p p i i i i i i i i i p p x  . .O.l i i p i i p i i i i i i p g i i g 3 ,XxXhXnXy.2 g i i i p i i p i i i i p i i i u <XkXhXxX6.2 g i p p i i i p p i i p p i i i g fXkXjXkXo.a p i i p p i p u > u p i i i i p i i p i p u o.jXjXO.$ , , > , , , , , +  .w.t.g a i i i i p i i i i i g g %.o @ , 2 < , 3 g g i g i f i i i i p p i i i p i i i i i g i g p i p i i i i i i p p i p f i i i i i p p i i p p i p i i p i p i h j g #.#.#.#.%.@.h ",
"l v /.V u /.V # 2 a s , s ^./.F ~.^.!.Q.~.A !.!.^.F ~.~.G S G A F G D G /.H ~.!.G G Q.G Q./.H !./.H ^.A !.~./.D V !.!.N J J S S N M N 5 a g i p i p p i i p p p a o.kXxXy.+ , > , , , , , , :.w.5.i i i i i p i i i i i i i g u , , i i i i p i i i g sXkXjXxXO.u g p i i p p i i i i i p p i p u z jXkXkXhXl i i i i i i i i p i p p i i p i p u $ $ $ + p i i i i p p p i i p i i p i i g 2 8.xXjXxX<X3 g p i i i p i i p p i i i i i p p 2 + > @ , g i i i p i i p p p i p i i i i g 3 <XxXhXxXg.2 g p i i i p p i i p i i g p a p f sXkXhXxX6.u g i i i i p p p i i i p i i g i g fXkXjXxXo.3 g i p i i i p u # u g i i i i p i i i g i p 3 f.nXsXr @ , , , , , , # w w.w.X.f p i p i p i i g i i i f g @.X u c j 7.@.#.@.N.N.%.@.V.7 g g i i p i p i p p i i i i i i i i i i p i p p p i i i i p i i p p i i p i i i i p i p i i p i p i h j g *.#.#.#.#.@.p ",
"l o.{.s 6 B a , , , 6 2 2 s G !.~.B !./.C a /.~.~.~.H C !.~./.~.G /.S !./.D s ~.~.^./.!.!./.C V ~./.D , !.^.F u , 5 V 3 5 S S & & & &   i p i i i i p i i p i f i a 8.xXxXg.# < , > , + 9 >.w.t.g i i i g i i i p p i p i i g i > 2 g i p i i i i i g fXkXjXxX<.u p i p i i i p g i i i i i p i i l jXjXkXjXz u i p p i p p i i p i i i p i i u k 5.8.5.6.p i i i p i i i i p i p i i i i g 2 8.xXjXxX<X2 g i p p i i p i i p i g i i i p p u > , , 3 p i i i p i p i i i i p i i i i g u f.xXhXxXy.2 g p i p i i i i p i i i i p p p u sXxXhXxX6.3 g p i p i p i i i p p i i p i i g hXkXhXkXo.3 g p i i p p p i < , g i i g i i i p p i i g i h <XnXfXo.+ , , < # , l w.w.3.i i i g i p i i p i i i i i g @.o > #.%.=.=.k j V.N.N.N.&.7 g i i i i i p i i i p i g i i p p i p i p i i i i p i i i i a i p i i p i i p p i i p i p i i i p i h h h #.#.#.#.#.c h ",
"l l Z i 6 6 6 u u u u 7 u > s /.!.5 ~./.C u ^.F H /.G u ^./.^.^.Q./.Q.Q./.D > H /.^.^.^.~./.Z > V /.a , H /.s > 3 , @ > @ 2 & o % . X o u p p i p i p i p i p i i f u y.xXf.2 i 3 , u i g 8.0.l i g p i i p i p i i i p i i i u > 2 i i i i i p i i p sXxXhXxX<.u p i p p i i p i i i g i i i g i l jXkXjXhXz i p i i i i i p i p i p p p p g u <.ZXxXnXhXp f i p i f i i p i i i i p p g g 3 8.xXhXxX<Xu g p i i i p i p p i p i i i g i g 2 , , > 3 g i p i i i p p i i p i i p i i g a f.xXjXxXy.5 p i i p i i p p i i i p i i i g i <XxXjXxX6.u a g i p i i p i i p i i i p i i g hXkXjXkXo.u g p i p i i p 3 , u i i i i p i p i i i i i g f g <XkXo.u u 7 3 u u +.w.3.g i i p i i i i p i i i i i i p #., < =.%.$.N.@.N.V.7.N.8Xg i p p i p p i p p i i i p i i p i i p i i i p i i p p i i i i i i g i p i i i p i i i i i p i p i p i h j g *.#.#.#.#.@.h ",
"l l t 0 2 u 7 7 u , u u 7 u 6 Q.!.3 s H s > D B H ).D , ~./.{.!.^.H ^.~.C s > G /.^.!.!.H C s > B H u 6 G ^.u 7 , , 2 # @ @ @ O O O % o i p i i p i i i p i i i p p p 3 <.j a p g g p i i k k i g i i i i i i p i p p i p i g u , , g i g i i i p i p fXxXkXxX<.a p i i i p i i g i i i i i i i 3 z kXkXkXkX+.u p i p p p i p i i i i i p p p 2 <.xXjXxXfXp a i i p p p p i i p p i i i a g 3 8.nXxXnX<X3 p p p p p i i i i i i i g i i i g 3 > , , , g i i p i i i i i p i i p i i p g 3 <XnXkXnXg.3 g p i i p p i i i p i p i g i i u sXxXkXnX6.u g p i p p i i p i i i p i i i i g hXxXkXxXo.u g i p i p i p u > u g i g p i i p i p p i i i p a g <.i g p p g g g i l g i i p i i p p p i i i g i i i g g i f h j p %.3 N.7.z $.N.9 p i i i i i i i i p p i i i p i i p p i p i i p i i i i i i i i i i i p i p p i i p p i i i i p i p i h j g #.#.#.#.#.@.h ",
"l l l l u 7 7 7 u 7 7 , 7 , 7 G ~.3 6 7 u 7 7 7 H H f 6 G /.!.F ^.A ^.!., 7 > D /.C B ^.D > , u , f 3 , s B 6 u 7 7 , , # @ @ @ o o o o i p i p i i p p i i p p i i p p u p p p g i i i i i i i i i p p g i i i i i i i i i g i > , g i i i i i i i p o.o.o.o.g i i i p i p p i i i i i i g i g i g o.o.o.o.g i g i i i i i i p i p p i p i p i h O.#.o.o.p p i i p i i p i i p i p i i i i p h O.o.O.+.i p i i i i i p p i p i i i g i i g 2 > , > u g i p i p p i i p p i i p i p i i a z o.o.o.k p p p i i p i i i p p i i i i i g i o.o.o.o.g i p p i i i i i p p i i p p i g i i o.o.o.o.h i i i p i i p p u > u i i p i i p i i i i i i g i g g u i i i i i i i i i i i i p i i p i i i p p i g i i p O o + + @ , > 8 , , u u 3 p p i i p p i p i i i p i i p p i i p i i p i i p p i i p i i i g i p i i i p i i i i p i p p i i i p i h j h #.#.#.#.&.c h ",
"l l l l g 7 7 7 7 7 7 u 7 u 6 J H 8 2 7 u u u > H F 1 3 F !.!.C !.C !.H 7 u 6 B /.5 1 C s 8 u , 9 , u u , , , u , , , , # @ @ O O o o o u g i i p i i i i p i i p i i i a p p p i i i g i i i i i i i i i i i p g i i p i p p u , 3 g i i i i g i p i u a 3 u g i i i p i i i p i i g i i i i i i i i 3 a u i i i i p i p p i i i p i i p i i p i u 3 a u i i i p i p i i i p i i p i i i i p p 2 3 a u i i p p i p i p i i p i i i i i i i i i u i i i i p i i i p p i i i p i i i f i i i u u 3 a p p i p i i i p p i i i i g i i i g 3 a u u i i a p p i p p i i i p i i i p i i i 3 a u u i p p i i p p p p u > u p i i i p i i p p i p i i i i g g p i p p f i g i i i i i i i p i i p i p i i i i i p > O # # > , 2 3 , 9 i i g i i p i p i i p i p i i i p i i i p i i p i p i i i p p i g i i i i i p i p i i p p i i p i i p i p i u j h g *.*.#.#.#.@.h ",
"l l l l t 7 7 u 7 7 7 7 2 u > D H 7 7 7 u u u # B B 6 , F H !.B F B !.G > 7 7 s ^.s 7 , , 7 7 7 7 7 7 7 7 7 7 7 7 2 , , # # # O o o o o i p i i p i i p p i i p i i i p p i i i p i i i p i i p p i i p p i i i g i i i i i g 7 , , g i i p i i p i i p g p g i i i i i i i p i i i p p i i i i i i p g p p i i p i i i p i i p p i i i p i p i p p p p g i i i g i i p i i i p i p i i p i i p i p i g p i i p i i i i p i i p i p i i i p p p i p p i p i i i p i i i p p i i i p i i i p p p p p i i i i p i i p i i p i i p i p i i g i g i i i p i p i p p i i i p i i i p i i p p p p p p i p i i i p i p u > 3 g i i i i i p i i p i p i i p i i i p i i i p i p i i p i i p i i i p i p i i i p i g @ O @ > # , , 7 u u i i i i i i p i i i p i i i p p i i i i p p i i i p i i i p p i i p p i i p p i i i i p i i i p i i i p i p i h j g %.#.#.#.#.@.h ",
"l l l t l d 7 7 7 7 7 7 7 u 6 V F > 7 7 , , u 7 7 , u , C G s u 7 u ~.D , u 7 u B 7 7 2 7 7 7 7 7 7 7 , 7 7 7 7 , , , # # # O O O o o o i p i p i p i i i i p i p p i i i i i i i i p p i i p i i i p i i i p p i i i g i i g i > 7 i i i i i i i i p p i i i i f i i g i p p i p i i i i p i i i p i i p p p i p i p i i p i i i p p i p i p p i p p i i i i i p i i p i p i i i p i p p i i p p i i i i i p i i p p i i p i i i p i p i i i i i i i p i i p i p i p i i i i p i p i p i p i i i i i p p i i p i i p i i p i i i i i p p i i i p i i p i i i i i p i p i p p i i i i p p i p i i i i p i p i g u , u p g i i p i p i p p i i i p i i p i i i p p i i p p i p i i p i p i i p i i p i i i i @ O @ + # , , u u u u i i i i i i i p i i p p i i i i p p i i i i p i p i p p i i i i i i i p i i i p p i i p p i i p p i i i i i h h h *.#.#.#.#.z h ",
"l l l l l X.9 u 7 7 7 7 7 7 7 : u 7 7 7 u 7 7 7 u u 7 6 a s @ 6 u 7 ~.C > u u , 6 7 7 7 7 7 7 7 7 7 7 : 7 2 7 7 7 , # # # # # O O o o % i i p i i p p i i p p i i i i p p p i i p p i i p p i i i p p i i p p i i i i i i i g u , 2 i i p i i i p p i i i p i i p i i i i i i i p i i p i i p i p i i p p p p p p i i i i p p i i i p i i i p p p i i p g i g g i i i i p i p i i i i i i p p i i p g i p p i i i p i i i p p i i i i p p i p p p p i p p p i i i p i i p i i p i i p p i p i i p p p p p i i p p p i i i p p i i i i p p i i g p p p p p i i p p p i i p i i i p p i i i p p i p i i p i i i p u , 2 g i i i p p i i i i i p p i i p i p p i p p p i p p i p i i i i p p p i i g i p i i g # O @ # # , , 8 7 i u i i p i i i p p i i p p i i i i p i i p i i p p i i i i i i p p i i p i i i p i p i p i p p i i p i p p p i h j h #.#.#.#.#.@.h ",
"l l l l l l t 7 , 7 7 7 7 7 7 7 7 7 7 7 7 7 7 7 7 u 7 7 , , : 7 7 7 H V > u 7 7 7 7 7 7 7 7 7 7 7 7 7 7 7 7 7 7 : , : # # # # O O o o o i i i i i i i p i i i i i p i p i 7 i i 7 7 i p p 7 i i i i i i p i i i i i i i i g g 3 > , g i p i i i i u p i g u i p u i p i p p i p i i p i p i p i i p p i u i p u i i i p i i i p p i i p p i g 9 i p i i 7 i i 7 i p i p i i p i p i p p p 7 i p i i 9 p p u i p p i i p i i i p p i p p i i 7 i p p p 7 i p u i p i i p i i p i p p i u p i p i i p i 7 p i i i i i i p i i i p i i i 7 i i i i 7 i g 7 i p i i i i i p i p i p 9 i p i p u i p 7 i p i p i i p u > , g i p i i i i p p i p i i i i i p i u p i u i p u i g 7 i p p i i i i i p i i p i i g # O @ , , , , 7 7 7 i i i p i i p i i p i i i i p p p i i p i p i i i i p p i p p i i p p i i p p i i i i p i i i p i i i p i i i g j g #.#.#.#.#.@.h ",
"l l l l l t l g u 7 7 7 7 7 7 7 7 7 7 7 7 7 , 7 7 , u u 7 7 7 7 7 7 u 7 , 7 7 7 7 7 7 7 7 7 7 7 7 u 7 7 7 7 7 7 # 7 # , # # O O O o o o u p p p p i i p p i i p p p i i h 2.%.g &.&.p p p $.h i p i i p i i p p g i i i g i i i , , p g i g i i z @.i i u *.z 7 v c u p i p i i i p i i p p i c z i p i #.h u $.h i p i p p i p p i i i i p i #.h i p p $.p h 2.g i g i i i i i p i i p i *.g i i g *.i g &.p i i p p i p i i p p p i p j i @.v 9 p i #.j 7 @.z i i i i i i p i i i g $.i i i c c 7 z #.i i i p p i i p p i p i j g g &.h i i g %.p i $.p p p i p i i i i i p i z v i p i #.j u #.z i i i i i p u , 7 i i i i i i p i i i i i p i i c i p *.i p %.h i *.g i #.h i i i i p i i p i i i i i g # O # # > , , u u i f f g p i i i i i p i p i i p i i i i p i i p i i p i i i i i p i i p i i p i i p p i i p i i i p p i p i g i j h g #.#.#.#.#.@.h ",
"l l l l l l l l 7 7 7 7 7 7 7 7 7 7 7 7 7 7 u u 7 7 7 7 7 2 7 7 7 7 7 7 7 7 7 7 7 7 7 7 7 7 7 7 7 , u 7 7 7 7 7 7 # 7 # # O # O O o o o i i i i i p i i i i p i i i g 6 B.9X2.c.0Xv.h 7 S.I.I.p i p p i i g i i i i i g i i g u > 2 g i i i i z 6X9X&., x.qXJ.l.7X5Xc i p i i p i p i p p u $.0X5Xc 7 C.0XA.z.qXI.g i p i i i i i i p i h 7 l.9XU.h 7 S.9XZ.x.5XJ.i i i g i i p i i p 7 B.0XJ.i p I.0Xx.A.0XC.u p i i p i p i i p p p rXS.p K.9Xj.> z.qXJ.j.0X5Xj i p i p i p i p i I.9Xv.6 v 9X5X1.U.9X2.7 p i i p i i i p u #.FX@.1.5XI.h 7 J.qXv.C.0XA.i p i i i p p p p u c 9X9X#., v.qXS.j.0XI.h i i g i p u > 7 g g i g i i p p i p p i p u S.yX, J.qXv.C.qXB.v.qXA.c.0XI.g i p i i p i i i i p i p p @ O O O < > , , , , , 7 i 9 g i i g i i i p i p i i p p i i p i p i i p i p p p i i p i i p i p i p i i i p i p p i i i i i i p i h j g #.#.#.#.*.@.h ",
"l l t l l l l l d , u , 7 , 7 7 7 7 7 7 7 7 7 7 , 7 7 7 7 7 7 7 7 7 7 7 7 7 7 7 7 7 7 2 7 7 7 7 7 7 , u 7 7 7 7 7 , , # # # O # o o o o i i i i i p p i i p p i p i g , Z.0X@.x.qXl.p i J.S.J.p i i i i p i i i i g i i i i i i , , i i i g 7 n.B.#.J.# U.c B.yXc v.B., p i i p i i p i p 7 S.1.z.C.7 5Xg J.tXg S.1.7 p i p p i i p i p 7 # U.z Z.v.p 9X7 9Xz 7 0Xh i i i i i p i p p i 5Xh I.#.#.I.i qXI.p 5Xh i i i i p p i p 7 7 p B.S.7 # C.A.# U.c B.MXc n.n., g i i i i p i #.I.i 6Xu Z.x.#.MXv.#.K.7 p p i p p i i p p h U.2.i , 9Xc z 5Xi 0X9Xi U.c i p p i i i p p 7 B.v.$.J.# U.j A.yXz C.v.7 g i i p u , 7 g i p i i i i i i i p i i i &.5Xc U.i 0X6Xi U.qXi J.tXh S.l., p i i p p i g i i i i p , o , i g j f j #.7.%.@.j &.i i i i p p i i i i p p i i i p i p i i p i i i i p i p f i i p p i i i p i p i i i p i p i p i i i a h h h #.#.#.#.*.c h ",
"l l l l l l l l l u 7 u 7 7 7 7 7 7 7 7 7 7 7 u u 7 7 u 7 7 7 7 7 7 7 7 7 7 7 , : 7 7 7 7 7 7 7 7 7 7 7 7 7 7 u , u , # # # # O O o o o i p p p i i p i p i i i i p p p h c 9X1.j 5Xl.O B.tXS.i p p i p i i p i i i i i i i g u > 2 p i p g 7 B.c.c I.@ I.h v.FXj v.A., p p i i p i i p g 7 S.*.l.Z., 5Xi J.tXi S.z.7 p i i p i i p i i v.v.x.I.qXz.# J.J.tXi B.C.7 g i p p i i p i i p I.i J.@.v G.7 yXK.u 5Xj i p p i p p p u l.A.7 1.J.# z 6Xg # U.h B.MXj v.A., g i p p i p u &.S.i 9X# Z.7.c FXl.z 5X7 g i i i i i p p g # J.1.o v.G.# @.K.7 0X5X7 U.c u p p i p p p p 7 Z.l.#.J.@ U.h A.MXh n.B., g i i g 3 > 7 g i i i i p i p p i i p i i i U.@.J.7 tXU.7 5XqXu J.tXi A.c.2 g p i i i p i i i g i p g O , #.%.7.%.@.g N.V.b.7.N.2 i i i i i p i p i i i i p i p i i i p i i p p i i i p a p i i i i p p i i p i p i i p i i p i i i i h h g &.&.&.*.&.*.g ",
"l l l l l l l l l t u 7 7 7 7 7 7 : 7 , u 7 7 , 7 7 7 7 7 7 7 7 7 7 7 7 7 7 7 7 7 : , 7 7 7 7 7 7 7 7 7 7 2 , 7 7 , # # # # # O O o o o u p i i p i p p i i i p i p p i c h U.z.p J.C.$.9Xz 0Xc u p p i p p i i i i p i i i p i , , i i i p 3 7.J.B.J.@.S.v.F.5Xv.G.z.u g p i i i p i i g , B.Z.A.A.v I.c.K.U.x.I.%.i i i i i i i p i i v @.i 7.5Xl.#.p Z.J.v.9Xg p i i i i p p i i g u I.z.I.z.2.I.z.I.I.l.U.i i i p i i p i i z $.7 l.J.u qXl.z &.S.n.J.5Xv.J.l.7 g i i p i p i j 5Xz.U.$.v.S.C.5XA.B.S.2 g g p i i p i i g , I.2.1.0Xj $.&.I.z.I.I.l.5Xh i i i i p i p p 7 z.G.B.G.c J.v.J.U.v.K.l.2 p i p p u , u g i i i i i i p i i p i p i g 0Xg 5Xz.5XI.z.I.I.c.K.U.c.U.&.u g i p i i i i i p i i f h O O %.%.%.N.j 7.V.b.N.F.@.i i g i i p p i i p p i i i p i i i i i i i i p i p i i i i i i g i i i p i i p i i i i p i p i p i i h j p h h j h h g h ",
"l l t l l l l l l l u 7 7 7 7 7 7 , 7 7 7 7 u u 7 7 7 7 7 7 7 7 7 7 7 7 7 7 7 7 7 7 7 7 7 7 u , 7 7 7 7 7 7 7 7 , 7 , , # # O O O o % o i i i p i i i i i p i p i i p u j.6Xc.#.5XB.$.v.2.9Xc.i p p i i i i i p p i i p i p p u > 3 g i g i i i A.J.@.B.j 5Xm.p I.S.i i i g i p p i i p p i g I.A.*.c.c 9Xz.h U.n.u p i i i i p p i i p i 7 @.I.1.2.z.7.J.j J.U.J.h i p p i i i i p i i #.5Xl.z.&.l.9Xz 1.9X$.i p i i i p i i i i u u %.7.2.0XJ.C.v.z U.v.p K.S.i i g i i p p i p u c.5Xv B.z S.J.i C.U.h i i i p i i p p i g 7 c.z B.9XJ.B.2.$.9X#.#.9Xj.9 p p i p p i i p i i S.J.#.B.j 5Xv.p U.Z.u p p p i p u > u i i i i i p i i p i i i p i g C.u l.6X@.#.9X2.c 9Xz.h 5Xn.u g i i i i p i p p i i i g h g f %.%.z N.h V.N.%.c.4X, g i i i i i i p i i i p p i g i i g i g i p p i i p p i i i i i i i i p i i p i i p p i p i i i i p i h z u @ + + > < @ g ",
"l l l l l l l l l l t 7 7 u 7 7 7 7 7 7 7 7 7 7 7 7 7 7 7 2 , 7 7 7 7 7 7 7 7 7 7 7 7 7 7 7 7 u 7 7 7 7 7 7 7 7 # , 2 # # # # O O o o o i p i p i p i p p p i i p p i p i , u i 7 u i 9 u 7 7 i g i p p p i i p p i i p i i p i > , g i p i p i 7 7 i 7 i 6 u i , u i i i i g i p i i p i i p , u i u i 6 u p 7 i p i i i i i p p i i p i i i 7 9 i 7 i 7 i 7 7 u i i i p i i p i p i i i , u u i 9 , i i , u p i i i p i p p i p p i i i i # 7 u 7 i 6 7 p 7 7 i g i i i i p i p p u , i u i u 7 i 7 7 i i p i i i i i i i p p i i 7 7 7 7 i i 7 i i , i p i i i i i i i i p i 7 7 i 7 i , 9 i , u p i i p i p u # , g i i g i p i i p p p i i p i u p 9 , i u , i i , u i , 7 g i i g i p p i i i i i i g > @ > , , 2 f , k j i g j i i i g i p i i i p i i i i p i i i i p i i p i i i i p i i i i i p i i p i p p i i p i i i i p p i i i h j u , , , , , , g ",
"l l l l l l l l l l l p , u 7 7 7 7 7 7 7 7 7 7 7 7 7 7 7 7 7 7 7 7 7 7 7 7 7 7 7 7 7 7 7 7 , u 7 7 7 7 7 7 7 7 : 7 # , # # # $ O o o o i p i i i p i i i i i p i i p i g p g i p p i p g g g i i i i i i i p i i p i i p i p u , 2 g i i i p i p g p p i p g p g g i i i i i i i p i i i i g g p p g u g g p p p i i p p p i i i i p i i i i p p i i h p p p p g i p i i i p i i i i i p g g p i i h p p p p p i p p i i i p i i i i p i p h i p g p h p p p p i i i i p i i p i g g g p p u g g i g g p i i i i p p i p p i i p p p p g i i p p i p p p i p i p p i p p i i i p p i i i g p p g p i i p i p p i < u g g i i i i p i i i i p i i p g p g g p i g p p p g g g g i i i i p i i i i p i i i g @ O O # > , , 3 , , u u i i i i i i p i p i i p p i p i i i p i i i p i i p p i i p i i g i i i p i p i i i p i i p i p i i i i i h z u # , , , , , j ",
"l l l t l l l l l t l l 6 : 7 7 7 7 7 7 7 7 7 7 7 7 , 7 7 , 7 7 7 7 7 7 7 7 7 7 2 , 7 7 7 7 7 7 u , 7 7 7 7 : , 7 , , # : @ @ O o o o X i p i p i i p p p i i i i p p i i i u g i i i g p p i i i p p i i p i i i p i i i i g u , 7 p p i i p i i p p g #.i i i i i i i i i i p i p p i i p i i p p h #.7 p i i p i i i i i p i i p i i p i i p i c c 7 p i i i i i i p i i p i p i p i i i p i c z 7 i 7 i p i i i p i p p i p i p i i i p i %.h u p u i i i i i i i i p i i i i p i i g i $.p u p u p i i i p i p p i i i i p p i p p p %.u i i i i i i p i i i i i i p i i p i p g g $.7 i i i i i i i i i p 3 , u p i i i i i i p i g i i i p p i i p u g i i i g p i i i p i i i p i i i p p p i i i p # O @ # > , 8 u u i u i g i p i i i i i p i i p i i i i p i i g i p i i i i p i i i i p p i i p i i p i p p p i i i i p i i i i i h j u , , , , , # g ",
"l l l l t l l l l l l l p , 7 7 7 7 7 7 7 7 7 7 7 7 u u 7 : 7 7 7 7 7 7 7 7 7 , 7 7 7 7 7 7 7 7 u 7 7 7 7 7 7 7 7 , , , O @ @ O o o o o u p i i p i i i i i p p i i i i i i G.i &.B.7 7 i p i p i i i p p i i p p i i p g i g i > , p i p i p i i p 7 z U.1.qX5X&.u g i i i i p i i i p i i i i i # 1.J.x.rXI.c i p p p p i p i p i i p i i p i @ v.C.C.qXI.h i i p p i i p i i p i i i i g i # G.z.J.0XJ.g i p p p i i i i i i i p p i p i # U.1.5X9XZ.i i i i g i i i i p p i p i i i i 2 5X%.qX5Xv.i g i i i i i i i i p i i p p i 7 p 6X2.tXU.l.7 i i p i p i p p i p i i p p i , @.I.7.tXI.*.i p i p i i p u > u p i i i g p i i p i i i g i i a g u G.h @.Z.7 7 i p i i p i i i i i p p i i i i p i i # O @ @ , , , , 7 7 i i i i i i p p p i p i p i i p i p i i i i p i i p p i i p p i i i i p p i i p i i i i i i p p i i p p p p i h z u , , , , , , h ",
"l l l l l +.l l l l l l t u 7 7 7 7 7 7 7 7 7 7 7 7 7 7 7 7 7 7 7 7 , 7 7 7 7 7 7 7 7 7 7 7 7 7 , u u 7 7 7 7 7 7 , @ : @ @ @ + o o o % i p p i i p i i i g i i p i i p i i 0Xu 1.I.B.tXz.7 p p p i i i p i i p p i g i i i p u , , p i p i i p p i S.0XI.n.v.7.U.7 g i p p i i p i i i p p p i h J.qXA.S.$.B.A., p i i i i i p p i i i i p i z J.tXv.I.j J.x.7 p p i i i i p p i i i p g u &.I.tXl.5Xp 9X$.u p i i i p p i p i i i i p u l.I.tX1.U.i qXj i p p i i i i i i p i i i p u v.U.qXl.J.h 0Xp i i p i p i i p i p p i p p 9 Z.9X6Xc.Z.@.6X7 h p i i i i i p i i i i i i i J.0XJ.B.z.z.K., g i i p p p u > u i i i i p p i i p i i i i g i i i u 0Xg v U.v.tXB.7 g i i i i i g i p i i p i i p i g # O @ # > , , 7 7 i u i i i f p i i i i i p p i i p i i g i i g i i i p i i i i p i p i i i p i i p i p p i p i i i p i i i i i i h j u < , , , , # g ",
"l l l l l O.W l l l l t X.d 2 7 7 7 , 2 7 7 7 7 7 7 7 u , 7 7 7 , 7 : 7 7 7 7 7 7 7 7 7 7 7 7 7 7 7 , 7 7 7 7 7 , , > # # @ @ O @ o o o i p i p i i g i i i p i p i i i p i tXU.qXJ.i 0Xv u p i i p p i i i p i i i i i i i g u > 2 p i i i i p 7 1.I.$.5Xc.MXqXz.u g i i i p i i p p i i i p 2 v.Z.z.J.Z.yXrX#.i p p i p p i i i i p p p p 7 G.c.A.B.I.tXqXz i p i i p p i i i i p p i p u U.&.I.l.0XqX9Xp i p i p i p i i p i p i p i i 9Xc 9X1.tXqXI.i p i i i i i g p i i p i p i j 9Xz 0X1.MX0XG.u g p i i p i i p i i p i p u #.5Xv 9X7.MXqXB.7 p i i p p p i i p i p p p 7 z.J.2.I.B.MXrXl.u g i i p p p u > u g i p i i i i p i i p i i i i i i u qX5XqXU.7 0X2.7 g p i g i i i p i i p i i p i i g # O @ # , , 7 , 7 7 u i i p i p p i p p i i i i p i p i i i i i i i p i i p p i i p i p p i i i p i i p i i p i p i p i p i i i i h j u # , , , , # h ",
"l l l l l l l l l l l l l W k , 7 7 7 7 7 7 7 7 7 7 : , 7 7 7 7 u u 7 7 7 7 7 7 , u 7 7 7 7 7 7 7 7 7 7 7 7 7 7 # u # # # + O O o o o o i i i i i i i i p p i p i i p p i p 9Xp x.S.v.v.# p p p i i p i i i g i i p i p i i g u , 2 p i i p i p 7 z.G.h U.n.v.#.9Xu p i i i p i p i i i i p i 7 Z.v.$.J.A.1.z.I.7 i p i i i p i i p i i i p 7 J.2.v.Z.J.c A.A.7 p i i i i p p i i p p i p u U.x G.v.U.i I.z.7 p i p i i i p p i i p p i p 9Xi U.l.U.u 9X2.7 p i i i i p i p p i i p i z 9X7 9Xl.K.i qXj i i i i p i p i i i p i p u 1.I.i U.x.Z.j 0Xi i p i i i i i i p p i i p u x.A.z I.B.x.2.5X7 p p p i i p u # 7 g i p i i p i i p i i i p i p i p u 0Xc &.G.c.C.@ p i i p i i i g i i i i i p i i i p @ O @ > , , , 7 7 u u i g i i g i i i p i p i p i i i p p i i p p i i i p i i i i p i i p i p i p p i i i p i i i p p i i p i p i g j u , , , , , < h ",
"l l l l l l l l l l l l l l t i 7 7 7 7 7 7 7 7 7 7 7 7 7 , 7 7 u , 7 7 7 7 7 7 7 7 7 7 7 7 7 7 7 7 7 7 7 7 7 7 u # , , # # # O O o o $ i i i i i p p i i i i i p i i i i p I.i 2.J.qX6X1.u p p p i i p i i i i i i i p i p i i # 6 p i i i i p i g I.9XJ.l.tX5Xn.u p i p p i i i i p p i i i i z 5X0XC.B.qX5Xl.u p i p p i p i p i i p p p u #.5XqXz.J.9XU.v u p i p p i i i p i i i p p u x.6XqX&.5X5XU.c i p i p i p p i i p i i p p 7 B.U.qX#.qXU.I.h i p p p p i i i i i i i p p 7 S.U.9X@.tXU.J.i p p i i p i i i p i i p i p i K.9XU.1.tXU.Z.u p i i p i p p i i i p i p i x U.9XG.c.tXU.v.u p i i p p p 9 , 7 g i i p i p i i p i p p i i p i g u I.h @.G.qX6Xl.u p p i p i i i i g i i p i i p i i @ O @ + > , , 2 , i u i i i i i g i i i i i p i i p i i i p i i i p p p i i p p i i p i i p i i i i i p p i i p p i i i p i i p i h j u , , , , , + g ",
"l l l l l l t l l t l l l l +.9 , u u u 7 7 7 7 7 7 7 7 7 2 7 7 7 7 7 7 7 7 , : 7 u 7 7 7 7 7 7 7 7 7 7 7 7 7 7 7 7 7 # # # # O o o o o i i i i i i p p p i p i i p i i i i p p p p h z g i i i i i i p g i i i p p i i i i p u , 7 g i p p i i i i g h i i j j 9 p i p i i i p p i p i p i i p i p j i i j x u p i i i i i i p p i i i p p p i h h i i c x u i p p p i p i i i p i i i p p u j g i p z i i p p p i i i i i i i p p i i i i j p i h c i i i i i i i p i p i i p p i i i i j i i h j u i p i i i i i i p i i i p i i i i x i i h j i p p i p i i i i i p i p i p p i p h i p j x i i i i i p i p 7 # 7 p i i p p i i i i i p i i p i i i i p i i p g c h g p i i i i i i i i g i i i i p f g > < , , f , 7 , i u i i i p i g i i i p p i p i i i p i i i p i i i i i i p i i i p i i i p i p p i i p i i i p i i i p p i i p i h z u # , , , , > h ",
"l l l t l l l l l l l l l l l l u u , , 7 7 7 7 7 7 7 7 7 7 7 7 7 7 7 7 7 7 7 7 , u 7 7 7 7 7 7 , 2 7 7 : , 7 7 7 , 7 # # # + O O o o o i i i i p i i i i i p i i p i i i p i i p i i 9 i p i i p p i i i i i i i i i p g i i i # 7 a i i i i p i p i i p p u i p p p i i p i p p i i i p i p i i i i i i i a p i p p i p p i i i i i i i i i p i i i i u i p i p i i i p i p i p i p i p i i i p p i i i p i p i i p p i p p i i i i p i i i p i i u i i i i i i p i i p i p i i i i i i i i i i i p p i i i i i p p i p p i i i i i i a i i i u p i i p i i i i p i p i i i p i i i i p i p u i i i p i i i p i > 7 p p i i i i p p i i i i p i i p i p i i p p p u i p i i g i p i i g i i i p i g i i i @., j i %.%.&.9 N.i u i i i i i i i i i p i i i p p p i p i i p p i i p i p i p i p p p i i i p i i p i i p i i i p i p i i i p i h j u , , , , , , h ",
"l l t l l l l l l l l l l l l l r 7 7 u 7 7 7 u 7 7 7 7 7 7 7 7 7 7 7 7 2 , 7 7 , 7 7 7 2 7 7 7 7 7 7 7 7 7 u u , , 2 # # # # O o o o o u i i i i i i i p i p i i i i i p i u a i p i p i p i i i p i i i i i i i p i p i i p u # u i i i p a a p i i p i p i i p i p i i i i i i p i p a i i i i i i i i i i i i p i i i p i p i i i i i i u d i i i i p i i i i p i p i i i p i p p i a u i i i i i i i i p i i i p i i i i a i i i i i i p i i i i i d p p p p i p i p i p i p p i p a i i i i i i i i i i i i i i i i p p i i i i i i i i i p p i i i i i i p i p i p p p p i p i p p p u p i i i 0 p p i p 7 # 7 p p p p p i p p 0 p p i i i i i p i i i i p p i p i i i i i i i g i i i i i i i i i i h @.k 3 &.7.=.%.=.2 i i i i i i p i p i p i p i p i i i p i i p i i p p i i i p i i i p i p i p i p i i i p p i i p p i p p i i i h j u + , , , > + a ",
"l l l l l l l l l l l l l l l l x q , u , 7 7 u u # 7 7 7 7 7 7 7 7 7 7 7 7 7 7 u 7 7 7 , 7 7 7 7 7 7 7 7 u , , , 2 , # # O # O # o o o d i i i i i i i i i i i i i i i i i a d i i i i i i i i i i i i i i i i i i i i i i i i # > i i i i u d i i i i i i i i p p i i i i i i i i i i u d i i i i i i i i i i i i i i i i i i i i i i i i a d i i i i i i i i i i i i u a i i i i i i a d i i i i i i i i i i u a i i i i i d i i i i i i i i i i i i i p p p i i i i i u i i i i i i a d i i i i i i i i i i i i i i i i i i i i i i i i i d i i i i i i i q i i i i p q q i i i i i p q p p i i i q i i i p q O 7 p i 9 p 0 i i i q i i p i i i i i i h h g p p h f f h p p p h p i g g h g p p i g i i i =.f %.$.=.c H.j 3 u i i p p p i p p i i i p i i i p i p i p i i p i i i p i p p i i i i p i i i p p p i i i p i i i i i i i i i h z u , , , , 2 > h ",
"l l l l l l l l l l l l l t l l l x 7 7 u 7 7 , u 7 u 7 7 7 7 7 7 7 7 7 7 7 7 7 7 7 , 7 7 7 7 7 7 7 7 7 7 7 7 7 7 , , , # # # O o O o o o o o o o o o o o o o O o o o o o O o o o o o o o o o o O o o o o o o o o O o o o o O o o o o o O o o o o o o o o o o o o o o o o o o o o o o o o o o o o o o o o o o o O o o o o o o o o o o o o O o o o o o o O o o o o o o o o o o o o o O o o o o o o o o o o o o o o o o o O o o o o O o o o o o o o o o o o o o o o o o O o o o o o o O o o o o o o o o o o o o o $ o o o o o o o o o o o O o o o O o o o o O > > > > 6 @ 6 6 > > > 6 # 6 6 6 1 1 6 @ > > > > > 6 6 6 > > > 6 6 X 6 @ > > 6 @ > @ o O < O > @.j , o g j + > j k > f j 3 , 7 > j i 4 , # i > g O j > j %.j 7 7.7 7 u i i i i i p p i i p p i i p p i i i p p i i p p i i p i i i i p p i i p p i i i p p i i p p i i p p i i g i g z u , , , , , + h ",
"l l l l l l l l l l l l l l l l l l u 7 7 7 7 7 u 7 , u 7 7 7 7 7 7 7 7 7 7 7 7 7 7 : 7 7 7 7 7 7 7 7 7 7 7 7 7 , 7 , + # # # o O $ o o o o o % o o o o o o o o o o o % o o o o o o o o o o o o o % o o o o o o o o X % o o o o o o o o o o o o o o o o o o o o o o o o o % o o o o o o o o o o o o o o o o o o o o % o o o o o o o o o % o o o X o o o o o o o o o o o o o o o o o o o o o o o o o o o o o o o o o o o o o o o o o o o o o o o o X o % o X o $ o o o o o o o o o o o o % o o o o o o o o o o o o o o o o o o o o o o o % o o o o o o o O > 6 > 1 > > 6 X 6 6 1 > > > > X 6 6 6 > 6 > 6 6 > 6 @ X 6 6 > 6 > 6 6 > 6 > 6 1 6 6 @ o O # o o o o O O O o O O o O O O o O O O O X O o O O O O O O o O + @ > , > 7 i i u i p i p p p p i i i i p i i p p i i i i p i i i p i i i i i i i p i i i i p i i i p i i i p i p i i i p i j j u > , , , , < f ",
"l l l l l l l l l t l l l l l l l l t 7 7 7 7 7 7 7 7 7 , , 7 7 7 7 2 7 7 7 7 7 7 7 7 7 7 7 7 7 7 7 7 7 7 7 7 7 7 , , # # # # O O o o $ o o O o o o o o O o O o $ o O o o O o o O o o o o o O $ o o o o $ o o O o o o o o o O o o $ o o o O o O o o o o O o $ $ o o o o O O o o $ o o o o O o O o o O o O o o o o o o o o o o o o o O o o o o O o o o o o o $ O o o o o O O o o o O o o O o o o o o o o o o # o O o o $ O o $ o o O o o $ O o o o O o o o O $ o o o $ o o o o O o O o o O o o O o o o O O o O $ o o $ O o o o o o O o o O o $ o o o o > 6 6 6 6 6 6 6 6 6 6 6 6 6 6 6 6 6 6 6 6 6 6 6 6 6 6 6 6 6 6 6 6 6 6 6 6 6 6 6 6 6 6 6 @ X # , # # # # # O > # @ @ # # @ # # # # # # # # # @ + > @ # @ # < # , 2 , u u u p f p i i i p p p p p p i i i i p p i i i p p i i i i i i i i i i i i i p p p f p p p p p p p p g i g p p p i g z u # , , , , , h ",
"l l t l l l l l l l l l l l l t l l l p 7 7 7 7 7 7 7 7 u : , 7 7 7 , 7 7 7 7 7 7 7 7 7 7 7 7 7 7 7 7 7 7 7 7 7 7 7 , , # # O O O O O O O O O o o o O $ O o O o O O O o o O O O O o O O O O O $ + O O o o O O O O O o $ @ o o @ O O o O o O o O O O O o o O O O O O O o O O O O O O O O O O O O O o O O O O O O O O O o # o o # O O $ o O + o O O O O O + o o O o o O o O o o # O o O O O O O o O O O O o o o o # $ O O O O o o o $ O O O O O O O o O O O o o O o o O O O O O O O O O o O O O O O O O O O o O O O o O O O O O O O o O O O O $ o o @ 6 6 6 6 6 8 6 6 8 8 6 6 6 6 6 6 6 6 6 6 6 6 6 6 6 6 6 6 6 6 6 6 6 6 8 8 6 6 6 6 6 6 6 8 8 > o # , @ @ @ @ @ @ @ @ @ # @ @ # # # # O O # # # @ # @ + # @ @ @ # # # > , , 7 7 u u a i i i u i i i u i i i i i i i a f i u i i i a i i i i a f i i i a i p u i i i p u u p p u u i i u i i i j j u , , , , , # h ",
"l l l l l l t l l l l l l l l l l l l l 7 7 7 7 7 7 7 7 7 7 7 7 7 7 7 7 7 7 7 7 7 u , 7 7 7 7 7 7 7 7 7 : 7 7 7 2 , # # # # # O + + O O O O O O @ o # # O O O O O O O O O O O O # o O O O O O O O O o + O O O O O O O O O O @ O O O O O # O O o # O O O O O O O O @ o O O O O O $ O O O O O O O + O O O O O O O O O O O O $ # o O O O o O O O O O + O O O # O O @ # o o O $ # O O O O O O # + O O O o O o # o # O O O O O O O O O O o O O O O $ O o O O O O o # O O O O O O O O O O O $ O O O O O O O O O O $ O O O O O # O O O O O O O O O O o > 8 8 8 8 8 8 8 8 8 8 8 8 8 8 8 8 8 8 8 8 8 8 8 8 8 8 8 8 8 8 8 8 6 8 8 8 8 8 8 8 8 8 8 8 8 8 6 O , , p j h j j j j h h h h j h h h h h h h h h j h h h j h h j j h j j c v @.#.*.&.&.1.&.1.1.1.1.1.1.1.&.j.1.-.&.1.1.1.1.1.1.1.1.1.1.-.&.1.1.1.&.1.1.1.1.1.-.1.1.1.1.1.1.1.1.1.j.1.&.j.&.j.*.g j u < , , , , > g ",
"l l l l l l l l l l l l l l l l l l l l w 7 7 7 7 7 7 7 7 7 7 7 7 7 7 7 7 7 7 7 , u u 7 7 7 7 7 7 7 7 7 , 7 7 7 , , # : # # O # O O O # O # # O @ @ # o # # O # O # O O # # O # # # O @ # O # O O # # O # # # O O @ @ O # O @ @ # O # O # O # + O # @ @ @ @ O O @ o # @ # # + O O # # O O O # @ # O + O + + # O o @ @ @ O # # # O # # # # O # + @ O + O # O # O # o # # O # O # # O # O O $ O # # O @ @ O # # o @ O # O O # # O # # O @ O # O # # # # O O # # o O # # O # O # O @ @ O # O # # O O # # O @ O O # @ @ # O O O # O # O # # O + # q 8 0 8 w 8 8 8 8 8 q 8 8 w 8 8 8 w 8 8 8 8 8 w 8 8 0 8 8 w 8 8 8 8 w 8 8 8 8 w 8 8 0 8 8 8 8 0 > O 7 7 z *.c v v *.c v @.@.@.v *.@.v #.v @.@.#.v v *.@.v @.v v v v @.v @.#.&.&.1.l.z.x.x.x.c.x.z.z.x.z.x.x.c.x.x.c.z.x.x.z.x.x.x.x.x.c.x.c.z.z.x.c.z.x.x.x.z.x.x.z.z.z.v.x.x.x.x.x.x.x.x.c.v.*.g z u + , , , , + h ",
"l l l l l l l l l l l l l l l l l l l l t 7 7 7 7 7 7 7 7 7 7 7 7 7 7 7 u 7 7 7 7 7 7 7 7 7 7 7 , 7 7 7 7 7 7 7 7 , , # # # # # # # @ @ # # # # # # # # # # # # + # # # # # # O # # + # # # # O # # # @ # O # # # # # # # # + # # O # # # # # # # # # # + # # # # # # O # # # # O # # # # # # # # @ @ @ # + # # # # # @ # # # O # O # # # # @ @ # @ @ @ # # # # # # O # # # # # # # # # # # # # # # # # # # # # # # # @ # # # O # # # # # O # # # # # # # # # # # # # # # # # # # # # # # # O # # # # # # # # # # # # # # # # # + # # + O > 8 8 0 8 0 q w 8 w w 8 w 0 8 8 8 w 8 0 q w 8 0 0 0 0 0 8 8 0 8 w q w w 8 8 q w 8 8 8 0 0 8 w 8 w w 6 O 7 u z $.v #.#.#.v #.#.*.@.@.@.#.@.#.#.@.*.#.#.@.#.@.@.v @.#.#.*.v v #.#.$.&.1.-.l.z.z.z.z.z.z.z.z.z.z.z.z.l.z.z.z.z.z.z.z.z.z.z.z.z.z.x.l.x.l.z.z.z.z.z.z.z.z.l.x.x.l.z.z.z.l.z.z.l.z.z.x.*.h z u , , , , , < g ",
"l l l l l l l l l l l l l l l l l l l l X.d 7 7 7 7 7 7 7 7 7 7 7 7 2 7 , u 7 7 7 , : 7 7 7 , 2 7 7 7 7 7 7 7 7 7 , 2 , , + # # # # O : # + # # # # # # # # # # # # , # # # # # # # # # # # # # # # # # # # # # # # # # # # # # , # # # # # # # # # # # # # # , # # # # # # # # # # # # # # # # # # O : # # # # # # # o # # # # # # # # # # # @ # # O : # # # # # # # # # # # # # + # # # # # # # # # # # # # # # # # @ # # # # # # # # # # # # # # # + # # # # # # # + # # # # # # + # # # # # # # # # # # # # # # # # # # # # # # # # 6 w w 0 0 w w w 8 w w 8 w q w w w w w w 0 0 w w 0 0 0 0 w w w 0 0 w 0 0 w w w w w w w w w 0 0 w w q w 8 @ u u c #.v v v $.&.*.*.*.&.$.$.&.*.*.$.*.$.v v @.*.1.*.&.$.#.#.*.$.&.#.*.&.&.j.l.l.z.c.x.z.z.x.z.z.z.z.z.z.x.z.z.z.z.z.z.z.z.z.k.z.z.z.x.x.l.z.z.z.z.z.z.k.z.z.x.l.x.z.z.z.x.z.z.z.z.z.z.v.$.g z u , , , , , @ h ",
"l l l l l l l +.l l l l l l l l l t l l l l 9 u 7 7 2 , 7 7 7 7 7 7 7 7 , u 7 7 7 7 7 7 7 7 7 7 7 7 7 7 7 , , 7 : 7 # 7 # , # , @ @ @ # # , , # # : # # # # # # , # # @ # 7 # 7 7 # # : # , > @ , # : O + , , # # : # # 2 # , , , + , # # # # # , # # : # , , # # # : @ , # + , @ # # # # , , # @ : @ # # , , , # # # : # 7 7 # 7 # , # # # @ # # # # # # # , + # , @ # # , # , , # , # # , # # # # 2 + # # # # , # , @ # , # , # , # # : # , # # # # , # # # # # , # , # @ # # # , , # # # , , # # # # # # # # # # , + , # # : # # # 0 0 r w w w w w w w w w w w w w w w w w w w w w w w w 0 w w w w w w w w w w w w w w w w w w w w w w w w q @ u i c v.U.U.v.$.v #.#.&.*.&.#.#.#.#.*.1.#.A.6XA.z.5X#.#.#.j.j.$.#.*.&.&.$.&.&.j.j.l.j.j.l.z.j.z.z.z.z.z.z.z.z.z.z.z.z.z.z.z.z.z.z.z.z.l.x.x.z.z.z.z.z.z.z.z.z.z.z.z.z.z.z.z.z.z.z.z.z.z.x.*.g z u > 2 , , , + h ",
"l l t l l l l O.W t l l l l l t l l l l l l d 7 7 7 7 7 7 7 7 7 7 7 7 7 7 7 7 7 7 7 7 7 7 7 7 7 7 7 7 7 u u 7 7 # 7 7 # 2 # 7 # > : , , # , , , # # 7 # 7 , # 7 , , > @ : # # 7 # # # O , , , @ : , , # , , , , # # , , # # , , , , , # # : , , , # # # , , , # , , # # 7 # , , : # 7 7 # , , # > # , , , # , , , , # 7 # # , , # # 7 , , 7 : # 7 7 # , , , , , , , : # 7 # , , # , 2 , # 7 , , 7 # , , , , : # , , : @ , , , , , , , , # # , , : @ > , , , : # , # , , > : # 7 , , , # # : , , , # # : , , 7 # # : , , , > # @ , 6 w r 0 r t w w w w t w w t w w t w t w w w t w r w r w r r r w t r w w w w t w t w w t w w w w w w t w t t 8 + i i c A.U.l.qXn.I.A.A.l.Z.n.S.U.S.5Xm.1.#.6Xv.5XJ.I.j.5XC.I.yXz.J.I.&.k.A.x.I.n.S.J.qXJ.S.x.I.z.z.z.z.z.z.z.z.z.k.z.z.z.z.z.z.z.z.z.z.z.z.z.z.z.z.z.z.z.z.z.z.z.z.z.z.z.z.z.z.z.z.z.z.z.x.#.g z u + < , , , 3 f ",
"l l l l t l l l l l l l l l l l l l l l t l W f , , 7 7 7 7 7 7 u 7 7 7 7 7 7 7 7 7 2 , 7 7 7 7 7 7 7 7 7 7 7 7 7 # u , 7 # 7 , , , , 2 , , , 7 , , , 7 # 7 # u # , , 7 7 # 7 # 7 # , 7 , # 7 7 # 7 , , , , , , , , 7 , # 7 , # 7 7 # 7 , , , , , , 7 , , : # 7 7 , , 2 , 2 , , , 2 7 # 7 # 7 , # u # , , 7 , 2 , , 2 , , 2 , , , # , , , 2 , , 7 , 7 , , , , 7 , , , 7 # 7 # u # , , 7 7 # 7 # 7 # 7 # , , 2 , 7 , , , 7 , , # 7 , , , , # , , 7 # , , 7 , : , : # , 7 , # 7 7 , , , , 2 , # 7 7 7 # 7 , 7 , , 7 # , , , # 7 # 0 l r x d r r r r r r r r r r x r r r r r r r r r r r x r r t r d t r r r r r r r x t t t r x t r r r x r t x 0 , i g v S.U.v Y.6XyXj.qXx.I.J.tXD.yXZ.9Xj.&.9XtX5XC.6X1.S.qXU.I.S.9XqXJ.1.6XU.MXU.Y.v.qXyXqXP.qXj.z.z.z.z.z.z.z.z.z.z.z.z.z.z.z.z.z.z.z.z.z.z.z.z.z.z.x.z.z.k.z.z.z.z.z.z.z.z.z.z.z.z.z.z.c.*.g j p 7 7 i 7 7 7 h ",
"l l l l l l l l l t l l l l t l l l l l l l O.+.u u 7 7 7 7 7 7 u , 7 7 7 7 7 7 7 7 7 7 7 7 7 7 7 7 7 7 , 7 7 7 7 7 7 , u u # 7 7 7 7 , , 7 7 2 7 , : # , 7 7 , u 7 7 7 # 7 7 7 7 u , , 7 7 # 7 7 2 7 7 7 7 7 , u , 7 7 7 , 7 7 # 7 7 7 7 7 2 2 , 2 7 , 7 # 7 , 7 7 , , , 7 , 7 7 , # 7 7 7 7 7 7 , u 7 7 7 7 # , 7 7 , , 7 , 7 7 : 7 7 , 7 7 , # : # 7 u , 7 7 7 , : # , 7 7 , u 7 7 7 # 7 7 7 7 7 7 2 7 7 , , 7 , 7 2 7 , 7 2 7 , u , 7 : 7 , 7 7 u , , , , , , 7 , , 7 7 # 7 7 , 7 7 , 7 7 # 7 # 7 7 , 7 : # 7 7 u # u 7 7 p t l l t t t l l r l x t l t l t x t l t l r t l r l l t x t x t t t x t l l t l t t l d x l t t t x t t x l t w # i g *.J.U.@.qX5X5Xv tXz.U.I.9Xl.qXx.qXz.-.qXJ.j.v.qXP.9XtX9XS.I.yXY.Z.&.6XtX6XFXS.9XyXqX6XMXZ.l.z.z.z.z.z.z.z.z.z.z.z.z.z.z.z.z.z.z.z.z.z.z.z.z.z.z.z.z.z.x.z.z.z.z.z.z.z.z.z.z.z.z.z.z.c.$.h j h p i i i g g z ",
"l l l l l l l l l l l l l l l l l l l l l l l l k , 7 u 7 7 7 7 7 7 7 7 7 7 7 7 7 7 7 7 7 7 7 7 7 7 7 7 7 7 7 7 7 7 , : 7 7 7 7 7 7 7 7 7 7 7 7 7 7 7 7 u 7 7 7 7 7 7 7 , 7 7 7 7 7 7 7 7 7 u 7 7 7 7 7 7 # 7 7 7 7 7 7 7 7 7 7 u 7 7 7 7 7 , 7 7 7 7 , 7 7 7 7 7 7 7 7 7 7 7 7 7 7 7 , 7 7 7 7 u 7 7 7 7 7 7 7 7 7 7 7 7 7 7 7 7 7 7 7 7 7 7 7 7 7 7 7 7 7 7 7 7 7 7 7 u 7 7 7 7 7 7 7 , 7 7 7 7 7 7 7 7 7 7 7 7 7 7 7 7 7 7 7 7 7 7 7 7 7 2 7 7 7 7 7 u 7 7 7 u 7 7 7 7 7 u 7 7 7 7 7 7 7 7 7 7 7 7 7 7 7 7 7 7 7 7 7 7 u x l l l l l l l l t l t l l l l l l t l l l l l l l l l l t t l l l l l l l l l l l x l l l l l l l l l l l t l l x 2 g h *.J.FXtX6XS.qX#.U.tXFXP.qXv.tXv.qXx.-.qXC.j.C.qX6XtXtXI.yXG.tXI.J.U.Y.FXA.FXC.MXtX5XS.HXl.z.z.z.z.z.z.z.x.z.z.z.z.z.z.z.z.z.z.z.z.z.z.z.z.z.z.z.z.z.z.l.x.z.z.z.z.z.z.z.z.z.k.z.z.z.c.*.h j h u F.7XuXb.7 z ",
"l l l l l l l l l l l l l l l l l l l l l l l l t i , u 7 7 7 7 7 u , 7 7 7 7 7 7 7 7 7 7 7 7 7 7 7 2 7 7 7 , : 7 7 7 7 7 7 7 7 7 7 7 7 7 7 7 7 7 2 7 7 7 7 7 7 7 7 7 7 : 7 7 7 u 7 7 7 7 7 7 7 7 7 7 7 7 : 7 7 7 7 7 7 u , 7 7 7 7 7 7 7 7 7 7 7 7 7 2 7 7 7 7 7 7 7 7 7 7 7 7 7 7 7 : , 7 7 7 , 7 7 7 7 7 7 7 7 7 7 7 7 7 7 7 7 7 7 7 , 2 7 7 7 7 7 7 7 7 7 7 7 2 7 7 7 7 7 7 7 7 7 7 : 7 7 7 7 7 7 7 7 7 7 7 7 7 7 7 7 7 7 7 7 7 7 7 7 7 7 7 7 7 7 7 7 7 7 7 7 7 7 7 7 7 7 7 7 7 7 u 7 7 : 7 7 7 7 7 7 7 7 7 7 7 7 7 p t l l l l l t l l l l l l l l l l l l l l l l l l l l l l l l l l l l l l l l l l l l l l l l l t l l l l l l l l t g , g p 1.x.C.Z.l.x.x.z.z.A.v.c.v.x.v.x.x.z.z.v.x.z.x.x.x.A.v.l.m.x.n.A.x.x.z.z.z.v.j.B.m.z.x.x.z.z.z.z.z.z.z.z.z.z.z.z.z.z.z.z.z.z.z.z.z.z.z.z.z.z.z.z.z.z.z.x.l.z.z.z.z.z.z.z.z.z.z.z.z.z.v.*.p j h u B.KXVX@.i z ",
"t l l l l l t l l l l l l l l l l t l l l l l l +.d 7 7 u u , u 7 7 7 7 7 7 7 7 7 7 7 7 7 7 7 7 7 7 7 7 7 7 7 7 7 7 7 7 7 7 7 7 7 7 7 7 7 7 7 7 7 7 7 7 7 7 , u 7 7 7 7 7 7 7 7 7 7 7 7 7 7 7 7 7 7 2 7 7 7 7 7 7 7 7 7 7 7 7 7 u , 7 7 7 7 7 7 7 7 7 7 7 7 7 7 7 7 7 7 7 7 7 7 7 7 7 7 u u 7 7 7 7 7 7 7 7 2 7 7 7 7 7 7 , 7 7 7 7 7 7 7 7 7 7 7 7 7 7 7 7 7 7 7 7 7 7 7 7 u u 7 7 7 7 7 7 7 7 7 7 7 7 7 7 7 7 7 # 7 7 7 7 7 7 7 7 7 7 7 7 7 7 7 7 7 7 7 7 7 , 7 7 2 7 7 7 7 7 7 7 7 u 7 7 7 7 7 7 7 7 7 7 7 7 u , u w t l l l l l l l l l l l l l l l l t l l l l l l l l l l l W X.l l l l l l l l l l l l l l l l l l l l l l l l l l l l w + g h j.z.l.j.z.z.k.z.z.l.z.z.l.z.l.z.z.z.x.l.z.z.z.l.z.j.z.z.l.z.z.j.z.l.l.l.z.z.x.l.l.z.l.l.z.z.z.z.z.k.z.z.z.z.z.z.z.z.z.z.z.k.z.z.z.z.z.z.z.z.z.z.z.z.z.z.z.z.z.z.z.z.z.z.z.z.z.z.z.z.x.*.h z h i i iX4X> f j ",
"l l l l l l l l l +.l l l l l l l l l l l l l l t l q 7 , u 7 7 # : 7 7 7 7 7 7 7 7 7 7 , 7 u , 7 7 7 7 7 7 7 7 7 7 7 7 7 7 7 7 7 7 7 7 7 7 7 7 7 7 7 7 7 7 u u 2 7 7 7 7 7 7 7 7 7 2 7 7 7 7 7 7 7 , 7 7 7 7 7 7 7 7 7 7 7 7 7 7 7 7 7 7 7 7 7 7 7 7 7 7 7 7 7 7 7 7 7 7 7 7 7 7 7 7 7 u , 7 7 7 , 7 7 7 7 , 7 , : 7 7 7 u 7 7 7 7 7 7 7 7 7 7 7 7 7 7 7 7 7 7 7 7 7 7 7 u , , 2 7 7 7 7 7 7 7 7 7 7 7 7 7 7 7 7 : 7 7 7 7 7 7 7 7 7 7 7 7 7 7 7 7 7 7 7 7 7 2 7 7 7 7 7 7 7 7 u , 7 , 7 7 7 7 u , 7 7 7 7 7 u 2 7 l X.l l l l l l l l t l l l l l l l l l l l l l l l l l l l l l +.l l l l l l l l l l +.l l t l l l l l l l l l l l l l l x 2 g g j.v.x.v.x.v.x.x.x.x.x.x.c.x.x.x.x.c.c.x.x.v.x.x.x.c.x.x.v.x.x.v.c.x.v.c.c.x.x.x.v.x.x.c.z.z.x.x.v.x.x.x.x.x.x.x.x.x.x.x.x.x.x.x.x.x.x.z.v.x.x.z.v.x.x.x.x.x.x.x.x.x.x.x.x.x.x.x.x.z.n.&.p j g i 7 7.@.7 i z ",
"l l l l W l l l W O.l l l l l l l l l l l l l l l l x 7 7 7 7 7 7 7 7 7 7 7 7 7 7 7 7 7 u 7 7 u 7 7 7 7 7 u 7 , 7 7 7 , 7 7 7 7 7 7 : > 7 7 7 7 7 7 7 7 7 7 7 , , 7 7 7 2 7 7 7 7 7 7 7 7 7 7 7 7 7 7 7 7 7 7 7 2 7 7 7 7 7 7 7 7 u 7 7 7 7 7 7 7 7 7 7 7 7 , u 7 7 7 7 , , u 7 7 7 7 7 7 7 7 7 7 : 7 7 7 7 7 7 7 7 7 7 7 u u 7 , , u 7 7 7 7 7 7 2 7 7 7 , 7 7 7 7 7 7 7 7 7 7 , 7 7 7 2 , 7 7 7 7 7 7 7 7 7 7 , 7 7 7 7 7 7 7 7 7 7 7 7 7 , 2 7 7 7 7 7 7 7 7 7 7 7 7 7 7 7 7 7 7 7 7 7 7 7 7 u 7 7 7 7 7 7 , 0 l W +.l l l t l l l l l l l l l l l l l l l l l l l l l l l l l l l l l l l l l l l l t W l l l l l l l l l t l l l l l l l w 2 h g @.2.$.$.$.$.$.$.$.$.$.-.&.$.&.&.&.&.$.&.&.$.$.&.$.&.&.$.$.-.%.-.&.$.$.-.&.-.&.&.&.-.*.&.&.&.$.&.$.&.&.&.-.$.2.$.$.&.*.$.&.$.$.&.$.$.$.2.$.$.$.$.&.$.&.-.&.$.2.$.$.&.*.&.&.$.$.&.$.$.1.c a j g i i 7 u g i j ",
"l l  .+.o.l l l l t l l l l l t l l l l l t l l l l l u 7 7 7 7 7 7 7 7 7 7 7 7 : , 7 7 7 7 , u 7 7 7 7 7 , u u 7 7 7 2 7 7 7 7 7 7 , 7 7 7 7 7 7 7 7 7 7 7 7 7 7 7 7 7 7 7 , 7 7 7 2 7 7 7 7 7 7 7 7 7 7 7 7 u , 7 7 7 : , 7 7 u , 7 7 7 7 , : 7 7 7 7 7 7 u u : , 7 7 u u 7 7 7 7 7 7 7 7 7 7 7 7 7 7 7 7 7 7 7 7 7 7 7 , , u u u 7 7 7 7 7 7 7 7 7 7 7 2 7 7 7 7 7 7 7 7 7 7 7 7 7 7 7 7 7 7 7 7 7 7 u u , 7 u 7 7 7 7 7 7 7 7 7 7 7 7 7 7 7 7 7 7 7 7 7 7 7 7 7 7 2 7 7 7 7 7 7 7 7 7 7 7 7 , u 7 7 7 7 7 p l l l l l l l l l l l l l l l l l l l l l l W +.l l t l l l l l l l l l t l l l l l l t l l l l l l l l l l l l l l l t l l l g # p c g h h h h h h h h h h g h h h g j g h a h h h h h a h h g g h h p h h h g h p p h h h h h h h g h g h p h h h h h h h h h h h h h h h h h h h h h g h h p h h h h h h g h h h h h h h g z j z h h z j j g c ",
"l l l l l l l l l l l l l l l l l l t l l l l l l t l l 7 7 7 7 7 7 7 7 7 7 7 2 7 7 7 u 7 7 7 7 7 7 7 7 7 7 7 7 7 7 7 7 7 7 7 7 7 7 7 7 7 7 7 u 7 , u u 7 7 7 u 7 7 7 7 7 7 7 7 7 7 7 7 7 7 7 7 7 7 7 7 7 7 u , 7 7 7 7 7 7 7 7 7 7 7 7 7 7 7 , u u 7 7 7 7 7 , 7 u u , u , 7 7 2 , 7 7 : 7 7 7 7 7 7 7 7 7 7 7 7 u u , 7 7 7 7 7 7 u , 7 7 7 7 7 7 7 7 7 , : , 7 7 7 7 : , , u 7 7 7 7 2 7 7 7 7 7 u , u 7 7 7 7 7 7 7 7 7 , u 2 , 7 7 7 7 7 7 7 7 7 7 7 7 7 7 7 7 7 7 7 7 7 7 7 7 7 7 7 7 7 7 7 7 7 7 7 u k l l l l l l l l l l l l l l l l l l l t l l l l l l l l t l l l l t l l l l l l l l l l t l l l l l l l l l l l l l l l t W l l k # u g a p p g a g g a g g g p p a p p g g a i g g g p g g a a p p p g i a g g g a g p p i i g g p p i p p g a i p a p g g a i i g g i i g i p p p p p p a p p g g g g a a p p i g g p a a g p i u p i i i a i p p ",
"l l l l l l l l t l l l l l l l l l l l l l l l l l l l w u 7 7 7 7 7 7 7 7 7 7 7 7 7 u 7 7 7 7 7 7 7 7 7 7 7 7 7 7 7 7 7 7 7 7 7 7 7 7 7 7 7 , 7 7 7 7 7 7 7 , 7 7 7 7 7 u , 7 7 7 7 7 7 7 , 7 , : 7 7 7 7 u , 7 u # 7 7 7 7 7 7 7 7 7 7 7 7 7 u , 7 7 7 7 7 7 7 , u 7 7 7 7 7 7 7 7 7 , 7 7 7 u , 7 7 7 7 7 7 7 , u 7 7 7 7 7 7 7 7 u 7 7 7 7 7 7 7 7 7 7 7 7 7 7 7 7 7 7 7 7 7 7 7 7 7 7 7 7 # : 7 7 7 7 7 7 7 , 7 7 7 7 u u 7 7 7 7 2 7 7 7 7 7 , u , 7 7 7 7 7 7 7 7 , 7 7 7 7 : 7 7 7 7 7 7 7 7 7 g l t l l l l l t l l l l l l l l l l l l l l l l l l l l l +.W l l l l l l l l l l l l l l l l l l l l l l l l l l l l l l l l +.l l w 7 7 7 , # 7 , , 7 # 7 , 7 # 7 # 2 , , , # u , , , # 2 # , , 7 , , 2 # , , , 2 , 7 , , # , 2 u # , 2 2 , # u , , 7 # , , , , 7 , 2 , , , , , 2 , 2 , , 2 u # , , 2 # 7 , 7 # , 7 , # 7 > 7 , , # u , 7 # , 7 , , , ",
"t l l l l l l l l l l l l l l l l l l l l l l l l l l l l 9 7 7 7 7 u , 7 7 7 7 7 7 7 , 7 7 7 , 7 7 7 7 7 7 7 7 7 7 7 7 7 7 , u , 2 7 7 7 7 7 7 7 7 7 7 7 7 7 7 7 7 7 7 , u 7 7 7 7 : 7 u u u 7 7 7 7 7 7 , u 7 7 7 , : 7 7 2 7 7 7 7 7 7 7 , 7 7 7 7 7 7 7 7 , 7 7 7 7 7 7 , 7 7 7 7 7 7 7 7 7 u u 7 7 7 7 7 7 7 7 7 7 7 7 , 7 7 7 , u 7 , 7 7 7 7 7 7 7 u 7 7 7 7 7 7 7 7 7 7 7 7 7 7 7 7 7 7 7 7 7 7 7 7 7 7 7 : 7 7 7 7 u , 7 7 7 7 7 7 7 7 7 7 7 7 u 7 7 7 , : 7 7 2 7 7 7 7 7 , 7 7 7 7 7 7 7 u g t l l l l l l l l l l l l l t l l t l l l l l l l l l l l l l l l l l l l l l l l l l l l l l l l l l l l l l l l l l l l l l l l l l g 2 u i i i i i i u i u i u i i i i i u i i u i i i i u i i i i u i i i i i i u i i i i i a i u i i u i i i u i i i i i i i i i u i u i i i i i i i i i i u i i u i i i u i i i i i u i i i i i i i u i i u i i i i ",
"l l l l l l l l l l l l l l l l l l l l l l t l l l l l l g 7 7 u , u u 7 7 7 7 7 7 7 7 u , : , 7 7 , 2 7 7 7 u 7 7 , 2 7 7 u u 7 7 7 7 , : , 7 7 7 7 7 7 7 7 , 7 7 7 u , u 7 7 , 7 7 , 7 , 7 7 7 7 7 7 7 7 7 7 7 7 7 7 7 7 7 7 7 7 7 7 7 7 u 7 7 7 7 7 7 7 7 : 7 7 7 7 7 7 : 7 7 7 7 7 , 7 7 7 , 7 7 7 7 7 7 7 7 7 u , 7 7 : 7 7 7 7 7 7 u 7 7 7 7 7 7 7 , 7 7 7 7 7 , 7 7 7 7 7 7 7 7 7 7 7 7 , 7 7 7 7 7 7 7 7 7 7 7 , 7 7 7 7 7 7 7 7 7 7 7 7 7 7 , u 7 7 7 7 , 7 7 7 7 7 7 7 7 7 7 7 7 7 7 7 7 t l l l +.O.l l l l l l l l l l l l l l l l l l l l l l t l l l l l l l l l l l l l l l l l l l l l l l l l l l l l l l l l l l l l l l l r , u i p p i i u i i i i i i i p i i i i i i i i i i i i i i i i i i i i i i i i i u i i u i i i i i p i i i i i u i i i i i i i p p i a i i i i i i u i i i i i i i p p i i i p a g i i i u i i i i i i i i i i p ",
"l l l l l l l l l l l l l l l l l l l l l l l l l l l l l l i 7 7 7 7 u 7 7 7 7 7 7 7 7 7 7 7 7 7 7 7 7 7 7 u , 7 7 7 7 7 7 7 , 7 7 2 7 7 7 7 7 7 7 2 , 7 7 7 : 7 7 7 7 7 7 7 7 7 7 7 7 7 7 7 7 7 7 7 7 7 7 7 7 7 7 7 7 7 7 7 7 7 7 7 7 7 7 7 7 7 7 7 2 , 7 7 7 7 7 7 7 7 7 7 7 7 7 7 7 u 7 7 , 7 7 7 7 7 , 2 7 7 7 7 7 7 7 7 7 7 7 7 7 7 7 7 , 7 7 7 7 7 u u 7 7 7 7 2 7 7 7 u : 7 7 7 , 7 7 7 7 7 7 7 7 7 7 7 7 7 7 7 7 u 7 7 7 # 7 7 7 7 7 7 7 7 7 : 7 7 7 7 7 7 7 7 7 7 7 7 7 7 u 7 7 7 7 7 0 l l l l l l W t l l l l l l t l l l l l l l l l l l l l l l l l l l l l t l l l l l l l l l l l l l l l l l l l l l l t l l l l l l l t l l d u u p i g z c c c c c c c z c c h i g c c c c c c c c c c c j i i p i i i i g c c c c c c c c c c c p i z c c c c c c c c c c h i i i i i i i j c c c c c c c c z c h i i i i i p i h c c c c c c c c c c j i i i ",
"l l l l l l l l l l l l l l l l l l t l l l l l l l l l t l t 7 7 , 7 , 7 7 7 7 7 7 7 7 7 7 7 7 7 7 7 , 7 7 7 7 7 7 7 , 7 7 7 7 7 7 7 7 7 7 7 7 7 7 7 7 7 7 7 7 7 7 7 7 , : 7 7 7 , 2 7 7 7 7 7 7 , 7 7 7 7 7 7 7 7 7 7 7 7 7 7 7 7 7 7 7 7 7 , 7 7 7 7 7 7 7 7 7 7 7 7 7 7 7 7 7 7 7 7 7 7 u u 7 7 7 7 7 7 7 7 7 7 7 7 7 7 7 7 7 7 7 7 7 7 7 : 7 7 7 7 7 , 7 7 7 7 7 7 7 7 7 u # 7 7 7 2 7 7 7 7 7 7 7 7 7 7 7 7 7 7 7 7 , 7 7 , : 7 7 7 7 7 7 7 7 7 7 7 7 7 7 7 7 u u 7 7 7 7 7 7 , u 7 7 7 d l l l l l l l t l l l l l l l l l l l l l l l l l l l l l l l l l l l l l l l l t l l l l l l l l l l l l t l l l l l l l l l l l l l l l l +.w , u p i h #.z h z z z z j j j c @.i h *.j z z z z c j z j c v i p i i p i i c v j j j j j j j j z #.i p #.c j j j j j j c j v z i i p i p i i @.c j j c z j z z j c c i p p p i p i z v j j j z j j c j c #.i i p ",
"l +.l l l l l l l l l l l l l l l l l l l l l X.l W l l l l l p : 7 7 7 7 7 7 7 7 7 7 7 7 7 7 7 7 7 7 : 7 7 7 7 7 7 7 : 7 7 7 7 7 7 7 7 7 7 7 7 7 7 7 7 7 7 7 7 7 2 7 7 7 7 7 7 7 7 7 7 7 7 7 7 7 2 7 7 7 7 7 7 u u 7 7 7 7 7 7 7 7 7 , 7 7 7 : 7 7 7 7 7 7 7 7 7 7 7 7 7 7 7 , 7 7 7 7 7 7 7 7 : , 7 7 7 7 7 7 7 7 7 7 7 7 7 , 7 7 7 7 7 7 7 7 7 2 7 7 7 7 7 7 7 7 7 7 7 7 7 , , 7 7 7 7 7 7 7 7 7 7 7 7 7 7 7 7 7 7 7 7 7 7 7 7 7 7 7 7 7 7 7 7 7 , 7 7 7 7 7 7 u 7 , 7 7 7 7 7 , u u 7 u l l l l l l l l l l l l l l l l l l l l l l l l l l l +.l l l l l l l l l l l l l l l l l l l l l l l l l l l l l l l l l l l X.l l l l l l l l l w , i i i h v i i u u u u i i i h c i h @.u i u u i u i i u h c i p i i p i i j c u i i i i i i i i @.i p v i u i i i u i i u z j i p i i i p i @.g i i u u u i i u j c i i p i i i i c z u i u i u i i u g #.i p i ",
"l w w 0 w 0 w 0 w 0 r 0 0 w w 0 w 0 0 r 0 w w e e k 0 0 w 0 0 0 7 # , , , , 7 , 2 7 7 7 7 7 7 7 7 7 7 7 7 7 , u 7 7 7 7 , u 7 7 7 7 7 7 7 7 7 7 7 7 7 7 7 7 7 7 7 7 7 7 7 7 7 7 7 7 7 7 7 7 7 7 7 7 7 7 7 7 7 7 7 , 7 7 7 7 7 7 7 7 7 2 7 7 7 7 7 7 7 7 7 7 7 7 7 7 7 7 7 7 7 2 7 7 7 7 7 7 7 7 7 7 7 7 7 7 7 7 7 7 7 7 7 7 7 2 7 7 7 7 7 7 7 , 7 7 7 7 7 7 7 7 7 7 7 7 7 7 7 7 u 7 7 7 7 7 7 7 7 7 7 7 7 7 2 7 7 7 7 7 7 7 7 7 7 7 7 2 7 7 7 7 7 7 7 7 7 2 7 7 7 , 7 7 7 7 7 7 7 7 7 , u l l l l t l l l l l l l l l l l l l l l l l l l t l l l O.W t l l l l l l l l l w w 0 r 0 w 0 w 0 w w 0 r 0 0 r 0 0 r 0 w w 0 0 0 w w e d 0 0 0 0 t k , u p i h @.i p j j h j h i i h c i h v i p h h g g g g i h v i p p i i i i j c i i i i i i i i g #.p p #.g i h g h h g p i c j i p i p p p u @.h i i j j g g g i j c i p i i p i i c z i i j h h j p i h v i i p ",
"e > , > > , # > , > > > < > > > 6 , , > # # 6 , , # > > > > > , # @ @ @ @ @ , 7 7 7 7 7 7 7 7 7 7 7 , u 7 , 7 7 7 7 7 7 7 7 7 7 7 7 : , 7 7 7 7 7 7 7 7 7 7 7 7 7 7 7 , 7 7 7 7 7 7 : , 7 7 7 7 7 7 7 7 7 7 7 7 7 7 7 7 7 7 7 7 7 7 # : 7 7 7 7 7 7 7 7 7 7 7 7 7 7 7 7 7 7 7 7 7 7 7 , 7 7 7 2 , 7 7 : , 7 7 7 7 7 2 7 7 7 7 7 7 7 7 7 7 , : 7 7 7 7 7 7 7 7 7 7 7 7 7 7 7 7 7 u u , 7 7 7 7 7 , 7 7 7 7 7 7 7 7 7 7 7 7 7 , u 7 7 7 7 7 7 , 7 7 7 7 7 7 7 7 7 u , u 7 7 7 7 7 7 u 7 x l l l l l l l l l l l l l l l l l l l l l l l l l l l l l l l l l l l l l l l w > > , > , > , > , 6 , # > # 6 # > > > > , > > , > , > > 6 # # > 6 , > w 2 u p i h #.i p F.eXiXuXV.i f h @.u h @.g u 8XVXiXVXH.7 g j @.i i i i i g i j c i p u l.H.9 g i g #.p p *.g u V.VXiXVXuXf i c j u g i i i p i c j 3 =.4XeXGXeXk u z @.u p i g i i i z z i j 4XeXiX8X%.u j @.f p i ",
"> > X X > , 6 8 > , , 6 , 8 > > @ . @ @ @ 6 6 # , 6 6 > , , , , 7 # # # # # # 7 7 7 7 7 7 7 7 2 7 7 u 7 7 : , 7 7 7 7 7 7 7 7 u 7 7 , 7 7 7 7 7 7 7 7 7 u 7 7 7 7 7 7 7 7 7 2 , 7 7 7 7 7 7 7 7 7 7 7 7 7 7 , 2 7 7 7 7 7 7 7 7 7 7 7 7 7 7 7 7 7 7 7 7 , 7 7 7 7 7 7 7 7 7 , : 7 7 7 2 7 7 7 7 7 7 7 7 7 7 7 7 7 7 , 7 7 7 7 7 2 7 7 7 7 7 , 7 7 7 7 7 7 7 7 , 7 7 7 2 7 7 7 7 , 7 u 7 7 7 7 7 : , 7 7 7 7 7 7 7 7 7 7 7 7 7 7 7 7 7 7 7 7 2 7 7 7 7 7 7 7 7 7 u 7 7 7 7 7 7 7 , 9 r l t l l l l l l l l t l l l l t l l l l l l l t l l l l l t l l l l l t l l l l 0 > 1 O > . O > X > X X 6 6 o X , 6 O > > . O > X , X X > X O 6 , X O , 8 , i i i h @.i i 9 K.KXV.8 g g h @.u h @.g u l.GXGXVX@.i i h z i g i p i i i j c i p p eXGX$.u g g @.p p #.g i j BXGXGXN.u i c j i i i i i p i c j 3 %.8XF.BXGXj i j c i i i i i p i c z 7 j uXb.7.uX7.7 h @.i i i ",
"> 7 L.P.i O X O > O @ X o X 1 O 2.T.z z x . @ 8 @ X @ 6 O @ O > @ X . O O o # 7 7 7 7 7 7 7 7 7 7 7 u 7 7 7 7 7 7 7 7 7 7 7 u , , u 7 7 7 7 7 7 7 7 u u # u 7 7 : 7 7 7 7 7 7 7 7 7 7 7 7 u 7 7 7 7 u , 7 7 7 7 7 2 7 7 u 7 , 7 7 7 7 7 7 7 7 7 7 7 7 7 u u 7 7 7 , 7 7 7 7 7 7 7 7 7 7 7 7 7 7 7 7 7 7 , 7 7 7 7 7 7 7 7 7 7 7 7 7 7 7 7 7 7 7 7 7 7 7 7 7 7 2 7 7 7 7 7 7 7 7 7 7 7 7 7 7 7 7 7 7 7 7 7 7 7 7 7 7 7 7 7 7 7 7 7 7 7 7 7 7 7 7 2 7 7 7 7 7 7 u , u 7 7 7 7 7 7 i l l l l l l l l l l l l l l t l l l l l l l l l l l l l l l l +.O.l l l l l l l l l 9 O c k.# L.#.h P.7 n.n.# 6 m.m.7 O v g 6 P.j., x.7 m.n.h Y.c @ 8 D.k.@ , 7 u i i h @.i i @.BXVXiXh g i h @.i h @.i g , H.KXV., f i h @.i i i i p i i j c i u v.GXGX7Xi i g #.i i @.g p 2 M.KXuXi g i c j i i i i i i i @.j 7 %.KX8XF.eXj u j c i p i i i p u z z i j eX7.@.iX=.u h @.p i p ",
"@ c DXD.wXi m.2.g @.h m.x.m.z . R.R.T.P.m.x.z DX2.l.2.X @.h 1.g *.x.2.p i h O 7 7 7 7 7 7 7 7 7 7 7 , 7 7 7 7 7 7 7 7 7 7 7 u , 7 7 7 7 7 7 7 7 7 7 , 7 u u 7 7 , 7 7 7 7 7 7 7 7 7 7 7 7 , 7 7 7 7 u 7 7 7 7 7 7 7 7 7 , u u 7 7 7 7 7 7 7 7 7 7 7 7 7 u , 7 7 7 2 7 7 7 7 7 7 7 7 7 7 7 7 7 7 7 7 7 7 u 7 7 7 7 7 7 7 7 7 7 7 7 7 7 7 7 7 7 7 7 7 7 u 7 7 7 7 7 7 7 7 7 7 7 7 7 7 7 7 7 7 7 7 7 u , 7 7 7 7 2 : # 7 7 7 7 7 7 7 7 7 u 7 7 7 7 7 7 7 7 7 7 7 , 7 7 7 7 7 7 u w l l l l l l l l l l l l l l l +.l l l l l l l l l l l l l l l l l W l l l l l l l l l 9 X T.NXk.NXR.wXR.wXT.wXv , 2.DX2.. NXj i m.T.D.JXj k.NXm.m.NXX k.wXT.g > 7 u i i h c i u 8XKXVXKXF., i j @.u h @.i g C.uXVXuXV.f i h @.i i g i i i i c c u x iXGXGXGXb., g *.p g @.g p p g eX=.i g u c c i p p p p p i @.j 9 =.VXKXuX4Xz u j c i p p i g p i c c 9 z 8XeXiX4X&., h #.i i i ",
"O c R.  T.T.R.Y.x.Y.P.NXDXT.T.  R.NXP.D.m.DXNXDXY.JXJX> m.R.JXR.P.DXJXL.Y.j.X 7 7 7 , u u , 7 7 7 7 7 7 7 7 7 7 7 7 7 7 u 7 7 7 7 u , u 7 7 2 7 7 7 7 7 7 7 7 7 7 7 u , u 7 7 7 7 7 7 7 7 u u 7 7 7 7 7 7 7 7 7 7 , : , 7 7 7 7 , 7 7 , 7 7 2 7 7 7 7 7 7 7 7 7 7 7 7 7 7 7 7 , 7 7 7 7 7 7 7 7 7 7 7 7 7 7 , u 7 7 7 7 7 7 7 7 7 7 7 7 7 u u , u u 7 , 7 7 7 7 7 7 7 7 7 7 7 7 7 u 7 7 7 , 7 7 , u 7 7 7 7 7 7 7 7 , 2 7 7 7 7 7 7 , , 7 7 7 7 7 7 7 7 7 7 u u 7 7 7 7 7 q l l l t l l l l l l t l l l l l W o.l l l l l l l l l l l l l l l t l l l l l l l l l l l 8 O l P.P.h tXDX4 DXDXDX8 O 1.DXj h R.# O 6 wX> R.h . #X4 z R.X j JXwX> , 7 i i i h c i i @.#.%.%.@.g i h c i g @.i g %.&.#.7.#.i i j c i i p i i i i j c i g %.$.$.%.@.i g @.i p *.p i i i j p i i i c z i i i i i i i @.h i g %.$.&.%.g i j c i g i i i p i c z i p %.1.&.&.g i g #.i i i ",
"1 z T.w DXP.v m.n.T.P.k.P.k.wX  T.T.O D.JXR.DXR.Y.wXv 7 g JXNXDXwXR.T.wXDXO # 2 7 7 7 7 7 u 7 7 7 7 7 7 7 7 7 7 2 , 7 7 7 7 7 7 , u 7 7 7 7 7 7 7 7 7 7 7 7 7 7 7 7 u , 7 7 7 7 7 7 7 7 7 , 7 7 7 7 7 7 7 7 7 7 7 7 7 7 7 7 u , u 7 u u 7 7 7 7 7 7 7 7 7 7 u 7 7 7 7 7 7 7 u u 7 7 7 7 7 7 7 7 7 7 7 7 7 7 , u 7 7 7 7 7 7 7 7 7 7 7 7 7 , 7 u u # 7 u 7 7 7 7 7 7 7 u 7 7 , 7 7 7 7 7 7 7 7 7 , u 7 7 7 7 7 7 7 7 7 7 7 7 7 7 7 7 u u 7 7 7 7 7 7 7 7 7 7 , 7 7 7 7 7 p l l l l l l l l l l l l l l l l l l l l l l t t l l l l t l l l l l l l l l l l l l l l l l 9 O v Y.D.x.#XDX*.JXD.R.1.> X P.m.k.P.. 6 wX2.O wX9 Y.C.4 DXh X D.L.wXz > 7 7 p i h #.i i 9 i 7 7 3 f i h @.i h @.i i i 2 7 7 u i 9 h c i p i i p i u c c i f 7 7 9 , 3 i g @.p p @.p i i i u i i i u c j i p i i i i i c h i i , u , u g i j c i i i i i i i z z i i u 7 7 7 i i g #.i i p ",
"@ h DXDX#.n.*.c FX#Xn.k.m.2.L.. D.z . n.T.T.L.Y.P.T.D.n.f tX1.#Xm.DXm.L.P.  > 2 7 7 7 7 7 7 7 7 7 7 7 7 7 7 2 7 7 7 7 7 7 7 7 7 7 7 7 7 7 7 7 7 7 , 7 7 7 7 7 7 7 7 7 7 7 7 7 7 2 , 7 7 7 7 7 7 u u 7 7 u 7 7 7 7 7 7 7 7 7 7 7 7 7 7 7 7 7 7 7 7 , 7 7 7 7 7 7 7 7 7 7 7 7 , u 7 7 7 7 7 7 7 7 7 7 7 7 7 7 u 7 7 7 7 7 7 7 7 7 7 7 7 7 7 7 7 7 7 u 7 7 7 7 7 7 7 7 u , 7 7 : , 7 7 7 7 7 7 7 7 u 7 7 7 7 7 7 7 7 7 7 7 7 7 7 7 u 7 7 7 7 7 7 7 7 7 7 7 7 , 7 7 u , 7 d l t l l l l l l l l l l l l l l t l l l l l l l l l l l l l l l l l l l l l l l l l l l l l l 9 @ z m.i DXD.z.DXz.T.R.m.2.T.NX8 m.c X k.JXY.i D.#.JXU.wXDXP.n.$.NXY.7 , 7 u p i h #.g h h h h h h h g z @.u h @.g h p h h h h h g z @.i p i i i i i j @.h g h h j g g j j *.i i #.j h h g j h h h g @.z u p p i i p i @.z g h j h h j h g c c i i i i a i i j c p h h h h j h g h #.i i i ",
"> > # 6 O # < < 4 O > # @ # < 8 @ 6 6 @ X 6 @ @ > , u , < < < < > > @ @ O + > 7 7 7 7 7 7 7 7 7 7 7 7 7 7 7 7 7 7 7 7 7 7 7 7 7 7 7 7 7 7 7 7 7 7 2 7 7 7 7 7 7 7 7 7 7 7 7 7 7 7 7 7 7 7 7 7 7 , 7 7 7 7 7 7 7 7 7 7 7 7 7 7 7 7 7 7 7 7 7 7 7 7 2 7 7 7 7 7 7 7 7 7 7 7 7 7 7 u u , 7 7 7 7 u 7 7 7 7 7 7 7 7 u u , 7 7 7 7 7 7 7 7 7 7 7 7 7 7 7 7 7 7 7 7 u 7 7 u , 7 u , 7 7 7 7 7 7 7 7 7 7 7 7 7 7 7 7 7 7 7 7 7 7 7 7 7 u u , 7 7 7 7 7 7 7 7 7 , : 7 7 , 9 x l l l l l l l l l l l l l l l l l l l l l l l l l l l l l l l l l l l l l t l l l l l t l l l l 8 > > > @ < < O < O , > > 6 , @ > > > , > # 6 > @ # # , < # 6 > # > > > , 7 u p p p #.v @.@.#.@.@.@.@.@.#.c i p @.@.@.@.@.@.#.@.@.@.@.c i i p i i i i j @.@.@.@.@.@.@.@.@.@.c g i c @.@.@.@.v @.@.@.@.@.j i p i i i p i c @.@.@.@.@.@.v @.v @.j i i i i p i i j v c #.@.@.@.@.#.c #.c i p i ",
"8 , > , , 6 , , > , , 1 6 , , 1 , 6 1 , , > , , , > > , > 7 , 8 , , > 6 , > , 7 7 7 7 7 7 7 7 7 7 7 7 7 7 7 7 7 7 7 7 7 7 7 7 7 7 7 7 7 7 7 7 7 u 7 7 7 7 7 u u 7 u 7 7 7 7 7 7 7 7 7 7 7 7 7 7 7 7 7 7 7 7 7 7 7 7 7 7 7 7 7 7 7 7 7 7 7 7 7 7 7 7 7 7 7 7 7 7 7 , 7 7 7 7 7 u 7 u u 7 u 7 7 u 7 7 7 7 7 7 7 7 7 7 7 7 u 7 7 u 7 7 7 7 u 7 7 u 7 7 7 7 u 7 7 u 7 7 7 7 u 7 7 7 7 7 7 7 u 2 7 7 7 7 7 u 7 u u u 7 7 7 7 7 7 7 7 u 7 7 u 7 7 u u 7 7 7 u 7 7 7 u i l t l l t l l l l l l l l l l l l l l l l l x l l l l l l l l l l l t l l l l l l l l l l l l l l l w > , , , , > , 6 , > , 6 , > 6 , 1 , > , > , 1 , , 8 > , , , , , > , > 9 , i i i i i i i i i i i i i i i i i i i i i i i i i i i i i i i i i i i i i i i i i i i i i i i i i i i i i i p i i i i i i i i i i i i p p p p i i i i i i i i i i i i i i f p i i i i i i i i i i i i i g i i i ",
"w 8 , , 1 , , > , , > , , , , > , , , , 1 , , > > , > , , 1 > , > , , > , , , 7 7 7 7 7 7 7 7 7 , 2 7 u 7 7 7 7 7 7 7 7 , 7 u u 7 7 7 7 7 7 7 7 7 , 7 7 7 7 , 2 7 u , 7 7 7 , 7 , 7 7 7 7 7 7 7 7 7 , 7 7 7 u , 7 7 7 u 7 , 7 7 , 7 7 7 7 7 7 7 7 7 7 , 7 7 7 7 7 2 , 7 7 7 , u 7 , 7 7 u , 7 , 7 2 7 , 7 7 7 7 7 7 u , u , , u 2 , 7 7 u , , u 7 7 u , u , 7 , 7 7 7 7 7 u 7 7 7 7 7 7 u , 7 7 7 7 7 7 7 , u u 2 7 7 7 7 7 7 7 , 2 , u 7 7 , 2 7 7 7 7 7 7 7 0 x l x t l x x l l r r l r l l l l l r k x l l l t l l x x t x l l l l k r x l r l k l l l r l r l l r x 8 > > , > , > , , , , 1 1 > , , , > , , , > , > > , > , > > > , , 1 0 k , 7 i i i i i i i i i i i i i i i i i i i i i i i i i i i i i i i i i i i i i i i i i i i i i i i i i i i i u i i i i u i i i i i i i i p u i u i i i i i i u i i i i i i i i i i i i i i i i i i i i i i u i i i ",
", , , , , , , , , , , > , , , , , , , , , , , , , , , , , , , , , , , , , , , , # , , , # # # 7 , , # , , , # , , , , , # , , , , # , , , , # , , , , , , > , , # , , , , , , , , , , , , , # , , , , , , , , , , # , , # , , , , , , , , # # # , , , , # , , , , , , , , , , , , , # # , , , , , , , # , , # , , , # , , , , , , , , # , , , , , , , , , , , , , , # , , # # , , , # # , , , , # # , , # # , , # , , , , , , # , , # , , > , , # , , , # , , , , , , , , , 6 # , , , , , , > , > , , , > , > , 7 7 # # , , , , , , , , , , , , > , , > , , , , , , , , , , , , , , , , , , , , , , , , , , , , , , , , , , , , , , , , , , , , , , , , # , , , > , # , , , , , , , > > , , , , , , > > , , , > , , , , , , , , , , , , , , , , , , > > , , , , , , , , , , , , , , > , , , , , , , , , , , > , , , , , > , , , , , < # , > , , > , , , , , > , , ",
", , , , , , , , , , , , , , , , , , , , , , , , , , , , , , , , , , , , , , , , , , , , , 7 , 7 , , , , , , , , , , , , , , , , , , , , , , , , , , , , , , , , , , , , , , , , , , , , , , , , , , , , , , , , , , , , , , , , , , , , 7 7 # 7 , , , , , , , , , , , , , , , , , 7 , , , , , , , , , , , , , , , , , , , , , , , , , , , , , , , , , , , , , , , , , , 7 # u > , , , 7 , , , , , , , 7 # 7 # 6 > , , , , , , , , , , , , , , , , , , , , , , , , , , , , , , , , , , , , , , , , , , , , , , , 6 # 7 , , , , , , , , , , , , , , , , , , , , , , , , , , , , , , , , , , , , , , , , , , , , , , , , , , , , , , , , , , , , , , , , , , , , , , , , , , , , , , , , , , , , , , , , , , , , , , , , , , , , , , , , , , , , , , , , , , , , > , , , , , , , , , , , , , , , , , , , , , , , , , , , , , , , , , , 2 , , , , , , , , , , , , , , ",
"i i i i g f p i i i i i i i i i f i i i i i i i i i i i g i i i i i i i i i i p p i i i i i i i i i i i i i i i i i i i i i i i i i i i a i i i i i i i i i i i p i i i i i i i i i i p a i i i i i i i i i i i p i i i p i i i i i i p i i i i i i i i i i i i i i i i i i i i i i i i i i i i i i i i i i i i p p i i i i i i i i p i i i i i i i i i i i i i a i i i i i i i p i i i i i i i p p i i i i i i i i i i a i i i i p i , , i i i p i i i p p i i i i i i p i i i i i i i i i i i i i i i i i i i i i i i i i i i i i i i i i i i i i i i i i i i i i i i g i i i i i i i i i i i g i i i i i i i i i i i g i i i i i > , i i i i i i i i p p i i i i i i i i i i i i i i i i i i i i i i i i i i i i i i i i i i i i i i i i i i i i i i i i p a i i i i i i i i f p i i i i i i i i i i p p i i i i i i i i i i i i i i i i i i i i i i p i i i i ",
"i i p i g g g i i i i g i p i g g g i i g p i g g i i i i i i g i p p p p p i p p p i p p i p i i p i p i i i i i p p p i p p p p i p p i i p i i p p i i p i p p p p i i p p i p i g g p p i i i i p i i p i p p p i p p p p i p i p a i i g g p p i p p i p i a i i i i p p p i p p i p i i p i a h p p p i p p i i p i p p i i i p p i p i p i i p i p i i p i i i p i p i i p i i i p p i i p p i p p p p i i p i p i i i i i i i > , i p p p i i p p p p p p i p i p p p i i i p i p i p p i i p i i i g g p i p p i i i i i i p i g i i i i i p i p i i p i i i g g g i i g g p p g i p i g i g i p i i p i i g i g f g i i i , , i i p i p i i p p g p p i i p i p i p i i i i p i p i p p p p p p p g g g i g g i i i g i i i g i i p i i i p p p p p g i g i g i p g i p p p g p i p p p i p i p f i p i i g g p i i g i i p i p p p i g i i i p p p i p ",
"p i i p , , u g g g g p g i g g i g g i g p p p i i g i i i i i i i p 7 , 7 p h i p p p g i p p i p p i i p i a p p 7 i p 7 i p p i p p i p p p p i p p p p p p i p i i p i a i i g u # > 7 g g p h i p i p p g p i p p p p i p i i i i i i , , i p p i p p p i p p i i x g a p p i i i i i i i p 7 6 7 p p p i p p p i p p p i a p p p p p p i p i p p i i i i i i i i i i p i u p p h i g g a p i p p p p p p i p p i i p i i i i i , , p i i i i i p u , i p p p p p i p p p p p g i p p i i i p i i i g i , 7 i p p p p h i i i g g i i g g i p p p i i i g g i i i g i i g 7 u p i 2 g g p i i i i g g i g i p i g g g i i i i , , i p i p i i i p 7 , 7 p g g g i p g i i p p i i i p i i i i i i i 3 i u u i 3 g g g i g i i i i i i p p i i i , , u g g g p g g p i , i u u p u i g g p p p i p i i i p i g u , u g p i p i i p p p i g i i g i p p i i i ",
"p i i i B.G.#.i 7 7 u i u i 7 , i 7 7 i , u i , u g i i i g i i p p 9 z.J.1.h #.p u i , i I.> u p i i i p i i p p 9 #.#.i 1.h 7 7 p 7 7 p 7 i I.u p i , 7 i i u g u i p i p p i g u z.S.S.j., 7 h @.B.l.7 p 7 7 u i u i p 7 p i i p i i i h S.S.@.# 7 p 7 i I.i 7 7 p i &.g 7 , i i i p p i p p u k.J.v.i # i p O v.v., , i p p 7 7 i u i u q h u p i i i p p i i i i p p p i z &.u z $.7 6 u g u i , i u 7 u p i i i i p i i p i i i , , p p i i i i i &.G.#.u , i i u i u i 7 u i , i 2 u p i p i i p g u c J.n.p u 7 i u 6 i i g 7 u I.i 7 # z.C.# 2 i u p 3 i i i i i g g , l.1., #.c.u u # M.v.# p u , i u g u i , , i i i i i , , i p i p i i i i z.J.l.i u u 2 i i 7 p i i i i p p i i p i p p i i j.g &.@.h 1.u , u g u i i i i g i i i i i p A.F.$.u u , u i u u j C.h @.1.u l.p , u g i u p i p p i i p u l.G.&.u u g u i p u u > i u i i u h 2 i i p i ",
"i i i g rX1.qXp c.z.#.h c v 2.B.p 1.c.z C.1.h A.z i i i p i i i p p 7 0Xz.0X2.z 5XJ.g C.z.9XC.$.u p i p i p i i g # A.B.. 5Xv l.v.i c.B.i &.A.9Xu i c Z.j.@.h #.5XJ.i i i i p i i i c 5X5Xz x.B.h c A.v.7 i z.v.2.g #.l.tX$.i p p i i p u j.0Xc j z.B.i &.Z.0Xu v.z.i p $.j z.C.c u p p i i p g 7 9Xv.j c A.*.i z.9Xc.h A.j i i 1.C.p $.h c $.tXc.u p i i i i i i i i p i p 7 z.I.# c @.c C.x.yX&.v A.g $.C.1.i p i i i p i i p i p i > 2 i g i i p i c qX&.@.z A.c j #.g $.c v.@.c A.h c.z.i i i i i i g , A.S.J.Z.v v.h l.v.i p i $.Z.0X7 B.2.c.S.h A.$.$.i 2.j i i i i i g > rXqXO I.FXp Z.@.B.v.#.z l.x.h %.p $.c n.c.p p p p i , , i p i i p i p u rXz.5XB.c z.z.j z *.i p p i i p i i i i i p p p u 5Xc yXA.l.J.i A.c U.I.p i p i i p p i i i c tXj.qX&.&.v.l.p $.j v.FX1.G.tXz 9Xu C.*.B.qXz u p p i i p 2 c.9X1.0Xv %.p *.c.tX*.l.Z.h #.z z &.qXM.u g p i ",
"p i i g 0XZ.J.v.U.J.MX1.A.A.I.K.G.MX1.G.5Xc U.G.U.p i i i i p i p p 7 9XA.I.M.J.I.C.A.J.$.yXC.0Xi p p i p i i p g 7 n.qXv.qXC.I.5Xz.#.5XC.U.A.tX7 p 9Xx.A.Z.#.K.U.S.i i i i p i i g # v.v.# 1.5XA.J.C.v.@ v.5X&.0Xg I.B.tXc i p i i p p 3 &.rXl.j $.5XC.U.A.0Xz.U.5X1.# 6Xc.tXC.U.2 p i p p p g 6 I.J.#.j C.U.S.S.qXv.J.J.U.7 &.U.S.Z.K.*.C.A.tXl.i i i i g i i p p i i p p 7 7.J.# l.I.I.G.&.yX&.U.J.J.rXC.0Xh i p p i i p i i i i i , , i i i i i i p 0XC.u 5XZ.I.v.S.c I.J.9Xc 9Xz.C.I.6Xl.u p i i p p , B.U.J.l.tXB.1.5XU.v.7 c 9XZ.0Xz.I.I.K.B.g S.9X5Xv 9Xg i g i i g g 2 J.0Xc I.U.h m.U.S.5XZ.z.U.I.U.G.z U.S.U.I.c.7 p p p , , i i p i i p p i 5Xi c I.qXA.A.B.B.A., g i p i i i g i i p i p p 7 C.A.I.J.S.&.G.I.I.7XS.i i i p p i i i i u @.U.o v.J.yX7.I.2.U.$.S.l.J.A.I.A.v.n.I.I.U.5Xp p p i i p p , U.1.% Z.A.U.p U.C.qX&.tXZ.J.J.1.v.S.0Xz.i p i p ",
"i p i g 9X0Xv.Z.qXJ.Z.I.J.c.MXA.J.K., z G.B.MXG.I.g i i i p i p i p u 9XZ.p 1.Z.A.c U.h , 9X# 5Xh i i i p i i i g u n.5Xl.5XU.0XJ.A.C.0X9XC.# 9X7 #.5X  c.n.c S.A.c , p i p i i i g , B.B.h S.0XJ.A.C.v.@ J.1.X 0X7 J.z.S.@ g i i p i p 7 2.qXl.$.A.9X0XA.# U.J.0XJ.l.# I.c.S.u 6Xu p p i i i g , U.J.#.x.I.qX9Xi c.S.tXG.J., B.B.7 5XJ.z B.v.J., g i g i i g i i i p i i g 7 l.S.% 1.G.c J.z.G.h FXS.J.5X, U.@.u i i i i p p i i p u , , i g i i i i i u G.5XI.o I.A.C.h J.S.#.@.U.  J.0XJ.l.7 p i i p g 7 B.6X#.u 9X7 B.tXJ.J.G.B.S.# U.K.0XS.I.B.z.U.5XC.5XC.7 g g i p i g u J.S.K.A.J.z.J.0XG.HX%.B.tXA.I.C.h J.J.c 2.J., p p u > , i p i i p i i u 5Xu *.U.I.h g U.U.z u g i p p i i p i i i i i p u $.MXv.A.tXz tXG.S.I.v , g i i i i i p p u @.U.o C.I.I.# 1.5XS.%.G.p qXG.z.yX#.5X6XG.I.c.@ g p i p p p , U.l.. A.A.I.7 I.z.A.g U.O U.I.#.c.B.J.u i i p i ",
"p i i h 9Xg 0Xv.U.z.p tXJ.h 0Xz.&.0X7 #.A.9XJ.A.$.i i p i p i i i p u 9Xh # l.J.C.G.Z.I.l.9Xu qXh i p p i i p p g # A.B.o I.C.U.&.A.6XU.J.U.S.tX7 p 9XC.v.U.U.J.C.I.i i p i i p i g u A.B.j.0XI.I.G.A.B.# z.9X&.5XA.yX1.qX#.i p p i i p 7 7.K.X x.0XI.J.U.G.qX1.5Xl.j 7 5Xv.K.g 0Xu p p i p i g u 5Xc # 9XJ.6XS.J.qXv.J.Z.$.7 #.9XJ.B.B.J.tXc.5Xv.u i i i g i i i p i i p p 7 j.tX7.v.I.c I.U.6Xl.I.B.v 0Xi 6X@.i i i p i i p i i g i , , i i i p i i h x.A.S.I.S.I.$.9XI.I.G.j.i 0Xv.n.U.l.h i p i p i p , Z.B.# p 0Xp 2.6Xz.z 7 z 9XF.qXj.5X2.B.J.5XJ.9Xc FX#.7 g i i i p g , I.j.FX1.U.U.I.U.I.Z.I.n.5Xl.1.6XJ.U.A.5X5Xz.7 p f i , , p i i p i i p i tXB.0Xl.U.#., U.0X, g i i i i i p i g i i p i p p p FX&.x.FX# I.S.c S.I.i i p i i p i p i i @.yXv.0X&.6Xi i MXv.B.n.o tXJ.z HXi B.I.$.c.qXh p p p i p p u l.0Xv.0Xj U.A.yX&.qXl.tXJ.J.v.J.qXv.I.C.u p i i ",
"i i i p $.i *.z 1.C.g *.v 7 %.C.@.*.i #.C.j g C.2.p p i p i p i i p i $.h i j @.h c.h v.l.*.i &.p i p i i p p i i i z c i *.g 1.B.j z.l.g #.v.#.i u c C.z j.v.c h v.g i i i i p p p i v c i c.l.c @.c z i i l.c.j M.j.i j.1.u g g i i g i j #.i p z.z.h #.v.*.i z.v.j i *.z @.i &.i i i g i i g i #.j u c v.#.g x.l.h j C.&.i i 2.v.i g v.l.h *.z.i i i i i g i p p i i i p i h B.A.$.c 1.B.g &.&.z C.$.#.p #.h i i i p p p i p i p u , , i i i i p i p v.M.i j B.z 7 l.v.c c z u @.C.j l.B.h i p i i p p i c c i p *.g 9 1.B.z i i *.v.&.u z.v.@.z c v.c z 0Xp i p i p i i p i @.h #.h @.z B.*.#.j v z &.B.h 1.v.h G.J.&.i i i i i , 2 i i i i i p p u l.C.&.u $.h , G.v.2 g i p i i p i g i i i p i i p i &.g j #.u h B.l.h c.g i i i p i i i i i g c.C.c u &.i 7 9X@.c h u #.z i $.p i b.v.g z.c i i i i p i p i $.C.v u c v.&.g j.v.7Xz.j g v.z.j v z.u p i p ",
"i p i i u p u i 7 , p u 9 g u 6 i u i u , i i , u p i p p i i p p i p u i p i 9 i 2 i , , u p u i i i p p i i i i i i i i u p 7 , i 7 7 g i , u i p u 6 i u , i i 2 i i i p i i i i i u u p , u u i u i p i 7 7 i , u i 7 u g i i i i i i i u i p 7 7 i u 6 u p 7 7 i i u i i i u i g i i i i i i u i g i , i i 6 u i i , u g p 7 6 p i , u i u , g i i i i i i i i i p p i i i 6 # u u u , i u 7 i , u i p u i p p i i i i i i i p i , , i p i i i i i , 2 i i , i p 7 , i i i g u , i 7 , i i i p p i i i u i p p 9 i p 7 , i i g u 7 u g 7 , i i i , i U.z.7 p p i i p i i i i i 7 i i i , u 9 i u i 7 7 i u u # A.*.> g i i i i > , i i i g p i i p u , u p i 7 z.U.p i g i i p i i i i i i p i i p i i u i i u p p , u i , i p i p i p p i i p i 7 , i g u 7 A.S.7 i i p i i i 7 p g 2 , i 2 u p i g i i p i p u , 9 p i 7 u p , c S.O i i 6 7 i u , g i p i ",
"i i i p g p p i g g i g i i g g p p i p g i i g p p p p i i i i i i i p i i p p p p i g g g p p p i i i i i i p i i p p p p p p p i i g i g g i i i p p i p p p p p i i i i i p i i i i p i g i p p i p i i p p i p g i g i i i i i i i i i i i i p p p p g g i p p i i p i i i g i i i i i i i i p i i i g p i p p i i g i i i p p i p p p i p p i i i i i i g i i i i p i p p p p g g i p i g g i g p i i p i i i p i i i i p i p i > , g i i i p i p g g i p g p i p p i i i i i g i i g i i i p i i i i i p i i p i p p g p i i i g g i g i i i p p p p i p i i i i i i i i p i g i i i g i p p p p g g p p g p i i g i i i i i , , i g i i i i i p g p p p p i g i i p i i p i i p i i i i i p i i i i p i i g i p g i i g i i i i i i i i p i i p p p i g i h i i p i p p p p p p i p g i g i i i i i i i i i p p p p p p p i g i i p i i g p p p g i p i i ",
"p p p p p p p p p p p p p p i a p p p p p p g g p p p p p p p p p p p p p p p p p p p i g i p p p p p p p p p p p p p p p p p p g i g p p p g g p p p p p p p p p p g p g p p p p g g p p g g g p p p p p p p p p p i g i g i g i g i g i g g g p p p p p g p p p p p i g i g g i i g i i g g g p a g g g p g p p p p p i g g g p p p g p g p p p g p g g i g g p p g p p p p p p p a g g i g g p p p p i p p p p p p p p p p p p p i , , g g g p p p p g p p p p p p p p p p i p p g p p p g g p p p p p p p p p p p p p p p p i g i g i g g g i p p p p p p p p p g i g p p g p p p p i g i g p p p p p p p p p p p g i g i g p i , , i g i g p p p p i p p p p p i i g p p p p p p p i g g g p p p p p p p a g p p p g i g g p p p g p p p p p p p p p p p g i i p i p p p p p p p p p i g g g g i p p p p p p p p p p p p p p p p g p i g g p p p p g p p p p ",
", 2 u u u u u 3 u u 2 u u 2 3 7 3 u 7 3 u u 2 u 7 2 u u 7 3 u u 7 7 7 u 2 7 7 3 7 7 u 7 3 u u u , 2 u u u u u 3 7 7 2 u u 3 7 7 3 u u u u u 2 3 u 3 7 3 , 2 u u 7 2 u u 2 u 7 3 u 3 7 7 2 7 u 3 7 3 u , 7 3 u u u u 2 3 7 u 7 u 7 7 u u u 7 2 u 3 2 u u u u 7 7 7 7 7 7 u u u 7 7 u 7 u u 7 3 u 7 7 2 u 7 3 7 7 7 9 u 7 7 7 2 3 u u 2 7 u 3 u u 3 7 u 3 7 7 3 7 7 u 3 u u 2 7 7 u u u 2 3 7 3 u 7 3 u u 7 3 u 3 7 7 2 u u 2 7 7 3 u u , , u 2 3 7 3 u 7 7 3 7 7 u 7 7 u 3 u 7 u u 2 , i 3 7 u 3 7 u 7 7 u 2 u u u 7 2 7 7 3 7 7 7 7 7 7 u 7 3 7 u u 7 3 u u u u u u u u 2 3 7 u 7 3 7 7 7 7 7 u u 3 7 3 3 2 u u u 7 2 u 7 3 7 7 3 7 , , u u 3 u u u 7 3 , 2 u u 7 7 3 , u 3 7 9 u u u 3 7 7 3 u 7 u 2 u u 2 u u 2 7 7 3 7 7 3 u u u 2 3 7 u 7 7 u u 7 2 7 7 2 , 7 9 7 7 7 u 7 7 2 7 u 3 u u 2 u 3 2 u u u u u 3 7 7 u u 7 2 7 7 7 7 7 3 7 7 2 7 u 7 7 7 7 3 u u u ",
"> , > > > , > > > > > , > , > > , > > > , > > > > , > > > , > > # , > > , > , > , > , , > > > > , , > > > , > > > > > , > , , > > > > > > , > > > > > > , , > > > > , > , > > > > , > , , > > > , > , > > , > > , > > > , > > > # , , > > > , > > , > > # > , , , , , # , > > > # # , > , > , > , > , > > , > , # # , # > , > > , # , > > > > > > , , > > , > > > > > , > , > , , > > > > > > , > , > > , , > > # , > > > , > , > > > , , > > > , > , > > > , , , # > , > > , > > , < > , > > > > > , , > # , > > > , , , > > , , # , > > > , > , > > > , > # > , # > > > > , > > , > , # # , > > > > > > > , > , > > > > , > , , > , > , > > > > > , , > , > > > , , > , > , > > > > , > , > > , # > > > > , > @ < , > > , , > , > > > , > > , > , > , > > , > , # # # , > , > , > > > , > > > > , > > > , > > # , > , > , > > # < > , > , > > , > , , > , > > > ",
"u u u u 3 u u u u u u u 7 3 u u u u u u u u u 3 3 7 3 7 u u 3 u u u u u u u u u i 7 , i 7 u 7 7 u u u u 3 u u u u u u u u 7 3 7 u u 7 7 3 , i 3 u u , i u i u u 7 u 3 u u u u u 7 3 u u u u u u 7 9 3 i u u u u 2 u u u u u 3 u u u u u 3 u u u u u u u u u 7 9 9 u u u u u 3 u u i 9 7 2 7 u , u u u u 7 3 u u 7 i u u u , i 3 u u u u u u 3 u u u u u u 7 u 3 u u u u u 7 3 7 u 7 u u u u u u u u 7 u 7 7 u u 7 u 7 u u 7 3 7 u u 2 , , u 7 u 7 9 3 7 i , 3 u u u u u 7 7 7 3 u u u u u u u u u u 3 7 u u u u u u u u i , u i i 7 u u 3 7 7 u 3 7 u u 2 u u u u u 2 u u u u 3 i , u u 7 i 7 7 u u 2 u u u u u u u u 3 7 3 u u 3 7 , > 3 u 7 u 3 u u u u u u u u 7 7 9 u u 3 u 3 7 u 3 u 3 7 7 7 u i 7 7 u 3 7 i i f , u , i , 2 u u u u 7 3 7 u u u 9 3 u u u 7 u u i 7 9 u u u u 9 7 3 7 7 u u 7 u u 3 u u u 9 u u u u u 3 u u i i 3 u u i 3 7 9 3 7 u u 3 u u ",
"p g g i g g p p p p p p g g g g p p g p g i g g g g g g g g p p g p p p g g g u 3 3 i g g g g g g g g i g g p p p p p p g g g g g g g p i a i i p g i g i g i g g i g g g i g g g g g g p p p i g g u a i g i g g i g g g g g g p p p p g g g i g g g g i i u : i i p p g i g g p p p p g g g g i p g i g g g g p p a u i a i i p g g i g i g g p p p p g g g g p p p p g g g g p p g p p p p p g g g g g g p p g p g g g g g g i i i , 3 i g g g g g g g g p p g i g g g g g g g p p i i g g p p p g i g g p p p p p p g i g i p 0 g 0 g g g g g g g i g g p p p p p p g g g p g g g g p p h a g 0 0 e 0 g a g i g g g g g g g p i , 2 g i g g g g p g g p i f f g g g p g g g g g g p g g g g p p i p g g g g u u i 3 g g g g g i g g g g g g p p p g g g g g g p g f f 4 f f g g g f g g g g g g i g g g p p p p p p g g g g i u 2 a u p g g g g i g g g p p p ",
"p i i i i i i i i g i i g i i i i g i i i i i i g i i i i i i i p i g i i 3 i o.6.4. .k i u i i g i i g g i i i i i g i g i i g i i u g l X.+.l g u i g i i i i g i i i i i i i i f i p i i i i i k +.+.+.k f u i i i i i i i i i i p i p i i i i i i u d t ;.;.,.x i u i p p i i i p i i i i i i i i i f i i i i i x ,.,.;. .g i p p i i i i i i i p i i i i i i i i i g i i i i p i i i i i i i i i i i g i i i i i i g i i i i i i # , i i i i i i g i i i i i i i i i i i i i i i i i i i i g i i i i i p i p i i i i i i 0 s s B m s a i u i i i g i i i i g g i i i i i i i i i i i p i 9 B C D D B a 0 i p i i i f i i i i i > , i i i i i i i i g p Q ; ; ; d r f f i i i i i i i i i i i i g p g i u h =...+.+.k 3 3 g i i i i g i g i i i i i i i i i i f u d Q Q ! Q i u i f i i i i i i i i i i i i i i i i g g u a l <.8.8.<.h a u g i i i i i i i p ",
"p p i p i i g i i i i i i i i g i i i i i i g i i g i i i p p i i p p i g 6.sXjXnXsXw.y.5.X.g i i i i i i i i i i i i i i i i i i g 3.t.y.i.i.w.t.4.l u i i g i i i g i i i i i p p i i i p i l 5.t.w.i.w.q.0.O.g i i i i i i g i p i p i i p i i i h 4.a.s.aXs.s.s.>. .u g i p i p i i p i p i p i p i i g i i t q.s.s.;X:Xs.a.4.g u i i g i i i i i p i i i g i i g i i g i i i i i p i p i p i g i i i i i i i i g i i g i i i g i < , i i i i i i i i i i i g i i i i i i i i i i i i i i i g i g i i i i p i i i p i f a V M E.W.W.W.E.V s 0 i i i p i p i i i g i i i i p i i g i g 9 B ).].].[.[.].].J b 9 g i p i i i p i i > , i g i i g i i p ) } $X} ( ( / ~ ; f i p p i p i p i p i i i g p u g u.2XCX2X-X-Xr.u.O.u i g i i i i i i p i p i g i i i f b [ +XoXOXOXoX+X| b 9 p p i i g i i i i i p i i i i i i u o.f.fXxXnXnXxXfXg.@.2 g g i i i g i p ",
"p i p i g i i i i i g i i i i i i i i i i g i i i i i g i i i i i p u l <XnXnXfX<Xy.:.0.w.i.5.g i i i i i i i i i g i i i i i i X.0.i.w.>.:.:.4.y.i.y.O.i i i i i g i i i i i g i i p p i h :.w.y.q.:.:.:.0.i.i.5.l i g i i i i i i p i i p i p i  .a.;X;Xa.p.>.p.s.;Xs.8.i p i i i p i i p i p i p i p i i p >.s.s.s.p.>.q.i.:X;Xa.o.i i i i g i p g i g i i i i i i i i i i g i p i p p i i i i i i i i i i i i g i i i i i g i i i , , p i g g g i g g i p p i g i g g g i g p g i g g g i g g p i i i p p i p i i p u s E.E.E.M N M M E.W.E.V i i p p i i i i g i i i g i i i i i i i (.`.[.].).)._.).[.[.].V w i i i i i p i i , , i i f i g 9 b } $X$X$X( = ~ / ( ( ) p i i i i p i i i i i i 4 3 =.2XCXCXCXr...u.r.-X-Xu.g i i i i i i i p i i p i i f f | oXoXoX[ [ [ [ oXOX+XQ i i i i g i g i g i i i i i f a 4 y.hXnXjXsX,X,X<XxXnXhX8.u i i i i i i p ",
"i i p i i i i g i i i i i i g i i g i i i i i i g i i i p i p p p i z sXnXsXt.g > o # , t 0.w.0.g i g i i i g i i i i i g i i X.w.w.:.w , < < > 0 ;.w.w.,.i i i i i i i g i i i p i i i i :.w.q. .9 > # , , r 5.i.t.x i i g i i p i i i p i i u ,.s.:Xp.t 7 # # # 8 :.s.:X>.i p p i i p i i i p i i p i i i q.s.s.>.0 6 # # , r p.;Xs.O.u g i i i i i i i i i i i g i i g i i i i p i i p i p i i i i g i g i i i i i i g i i i i i i , , g i g u u i u i u i u u i u i u i u i u i i u i u u i i u i i p i i i p i i i B E.E.M 5 2 # # # 2 m E.W.V i p i i p p i i i i p i i i i g i i ).[.].(.m , > q # m ).[.].C 0 p g p i i g i , , i i i i f b $X$X} ) 7 < 1 6 , ; / ( ~ p i p p i i p g i i g 3 ..CXCXjXu.9 O O , < ..r.-Xu.g i g i i i g i i p i i i 3 [ OX+X[ ; 7 > > 7 ; [ OXoXQ 9 i i i i i i i i i g i i a a g.xXkX,X+.3 + O , +.,XxXxXy.3 g g i i i p ",
"i p p i i p i i p i i i p i i g i i i i g i i i p i i p i i p p i u <XnX<Xk $ $ &.GX&.O , 9 :.w.5.g i i i p i i p i p i g f x y.w. ., < , , , , + , t t.w.X.i g i p p i i p p i i i g u 3.w.t.e > > , , , , , , 3.w.0.g g i i i p i p i i p i x d.s.:.6 + , , , , # + t s.s.:.u i a p i i p i i p i i p u 4.:Xa. .> < # , , , + , >.s.s.x i p i p i p i i p i i i p i i i p i p i i i p i i p i g i p i i p i i i i g i i i i p i p u , 2 i i i , , , > , , , , , , , , < , , , , , , > # , > < < , 2 i i g i i i p 0 s E.M N 2 > , , , , < > K E.E.B i p i i i i i i p i i i p i i q J [.].V @ @ 6 , 2 # > > (.[.].b w i i i i g i , , i i p i d } $X} : 1 , rXG.# , > 2 ~ ( ~ w g i i p p i i g i g CXCX1Xw o 2 yXG.O , # e r.-X..g g i i i i i p i p p i ! oX+X! 1 < # , , , < , ) OXoXb i i i i i p i i p i p p 3 6.xXjXt.+ + , , , , @ + t.xXkX6.3 g g i g p ",
"p i i i p i i p i p p i p i i p i i p i i i i p i i p i i p p p u 6.xXfXt , , O l.LXM.o , , < t.w.O.u g i p p i p i i i i i :.i.O.@ , , , , , , , , +  .w.0.g g i i i p p i i i i i i k w.w.w + , , , , , , , , > :.w.3.i f p i p i i p p p i >.aXe.@ , , , , , , , 7 + ;.s.s.x i p i i p i i p i p p i x a.:X .O , , , , , , , # # >.;Xp.a p i p i i i p i i p i p i p i i p i i p i i p i i p i i i i p i i p i i i i i g i i i p i # , g i i , , , 3 , @ , , , > > , # , , , , 7 3 , , , @ < , # u g i i i p p p 0 M E.M # # , , , , , , , > K E.M a p p p i p p i i p p i i i 0 b ].].V O u 6 # , , , , > # ).[._.i p p i i i i > 2 i p i 4 ) $X'.u > # , HXBX# , , < : / ( b 0 i p i i i p g 2 r.CX2X4 , , , KXBXO , , + e r.-X+.u g p i p i i i p i a +XOX) < # , , , , , # , < [ OX[ i i i i i p p i p i p p g sXnXy.+ , , , , , , , 2 + g.nX<Xh i i i i i ",
"i i i p p i i p i i i i i i i i p p i i i i i g i p p i i p i p p <XnXy.$ , , O &.LXc.O , , , t w.>.g i i i p i i i p p i l w.0.9 , , , , , , , , , , , :.w.X.i p i i i i i i p p g i 3.w.;., , , , , , , , < , < w w.w.h i p i i i i i i i x s.s.w # , , # , , , , , , @ >.;X:.u p i p p i i p p i p u :.s.p.> , , , , > , , , 7 # w s.s.l i p i i p p p i i p p i i i p p i i p i p i i i i i i i p p p i i p g i i i i i g i i p i , , g g i , @ O O < j , , , , g 3 2 > > , , , , , , , @.< , > u g i p i i p g s E.M & 6 # , , , , , , , , > M W.V 9 p i p i p i p i p i p i 0 (.[.).O 7 # # , , , , , 2 > 5 ].].b i i i i i i > , i i i p } $X) 1 , , # BXKX> , , , > = ( ~ p p p i p p p f h 2XCX..$ , , < FXHX> , , , + ..-Xu.3 i i p i p i i p g Q OX[ , , , , , , , # , , 1 7 +XoXb 9 i i i i i i i i g 3 8.nXsXu , , , , , , , , , > i sXxX6.u g i i i ",
"i p p i i p i i p i i i i p p i i i i p g i i i i p i i p i g u z sXjXk < , , O %.LXM.@ , , , , 0.y.k i p i i p i p i i u X.w.:.+ , , , , , , > , , , ,  .i.4.i p i p i i p p i i i g >.w.r + , , , , , , , , , , , >.y.t i p p i p p i p i X.s.q., , , , , , , , , , , O ;.s.p.p p p i i i p i p p p i >.aXW > , , , , , , , , # > # e.s.3.u p i p i i i i p i i i i i i i i p i i p i i i i i i p i i i i p i i i i i i i i i i g i > , i i i O 1.7XS.u h , O O o 5X, o 2 j O , 7 2 , @ M.VX@.@ , u i i i p p i 9 B W.M > 2 , , , , , , , , + > m E.M p p i i i i i p i i i p i i ).[.V > # 7 , , , , o o o o # ).[.J 0 i i i i i , , i i i b $X'., > , , o 7XKX, > , > > : ( ~ g i p i i i p 4 =.CX2X4 # , 3 . rXKX, , , , # e -Xr.g p i i p i p p p 0 [ OX) < # , , , , , , , , , O [ OX| f g i p i p p i p g f g.nXy.+ , , , , , , , , , , + g.nXg.a i i i p ",
"i p i i i i p p i i i i i i i i i g i i i i i i p i p p i i i a ,.xXsX, , , , , 3 @.f , , , , , :.w.l p p p i i i i i g f 3.i. ., , , , , , , , , < , , e y.5.i i i p i i p i i i i g t.q.8 > , , O @ > , , , , , , ;.i.o.f g p p i i p i u 5.;X:.# , , , , , , , , , , + w s.a.p i p i i i p i i p i p a.s.r # , , , , , , , , 7 # @ ;.aX;.i i i p p i i i p p p i p i p i i i p p p i p i i i p p p p p i i i i i i i i i i i p f i > , p p p o Z.&.M.C.&.i Z.G.@.G.5Xv.@.FX&.< 7 7 > g uXiXH., , 7 g g i p i p i M W.m > , , , < > , , , , , > 5 E.M a i p i p p i i p i p p i a `.].5 # > # , , , 7 V.I.5X8X> J [.Q.0 p p i i i , , p i i ) $X} 6 , , , < j *., , , , , 7 / ( a i p p i i p u u.CX2X, , , , @ z c < , , , + , r.r.k 4 i i i i p i i g +XoX; < # , , , , , 6 , , , < ) OX| i g i i i i i p i i u <XxX3.+ , , , , , > , , , , + 6.nX,Xu p p i i ",
"i i p i p i i i i u i i i i i i i u i i i i i i i i i i i i i u <.nX<X> , , , , > O > , , , , , :.i.+.u i p p i i i i i a 3.i.r + , , , > O , , , , , + e w.t.i p i p i p i i p g i k y.0., , O , A.&.O , , , , , + O.i.,.u i i i p i i p u :.aX;.# , , , > O , , , , , > 7 s.s.x i p i p i i p i i i p d.s.q # , , # # @ , , , , 7 @ ;.;X>.u p i i i i p i i i u i i i i u i i i i u i i i i i i i u i i i i i i u i i i i i i u i i , , p p p o C.tX5Xh I.M.v.C.C.J.&.J.7.5X3 > 2 2 > , g , g , , 3 g i i i i p i m W.K > , # , &., , , , , , > & E.M i i i i i i i p i i i p i p `.`.a 1 # 7 , , > 3 GXLXLXKX6 m _.M 0 a i i i i > 2 i p e ) $X] 1 , , # , @ @ , , , , , , ~ ( d f p i p i p u u.CX<X$ , , , , @ @ , , , , , < r.-X+.i i p i i i i i g [ oXd , , , , , # O # , , , < ! OX[ 4 g i p p i p p i i a <XnX+.@ , , , , , < 4 O , , + O.nX<Xi p i i f ",
"p i i i i i h c c c c c z z c z c c c j c c j i i p i i i g p u O.xXsX7 , , 2 < , , , > , , , , :.i.+.i i i p i g i i g i 4.i. .+ , , O M.J., , , , , , w w.>.i i i i i p i i p i i k 0.t.e , M.HXLXrX< , , , , , > ;.i.o.i p i i p p p i u :.s.:.# , , o A.I., > , , , , w s.a.p i p i p i i p i i i i a.s.r # , # @.BX&.@ , , , , @ ;.;X>.: p p i i p i p j c c c c c z c c c z c c c z c h i g c c z z c z c c c j c j c c c c g u , , p p p o M.B.I.h G.A.@.@.C.G., C.l.F.o , , , > 4 eXGXH., , 3 g f i p p i 0 V W.N > O u rXLX&.O , , , , > 5 E.M i i i p p i p i i p i p i a `.[.m @ , , , , , , j j p u @ N E.V 9 p i p p i > , i i 4 Q $X] , # , , , , , , , , , , # ~ ( d f i i p p g 2 u.CX3X> , , , , , , , , , , , , r.r.k u i i i p i i i d [ oX; < # , , , , K.B.O , , < ! OX[ 9 a i p i i i i i a f <XxX3.+ , , , , O l.LXc.o , + 6.xX<Xu g i p a ",
"p i i i i i @.@.j c j z c z z z c j c z j v @.i i i g i i i i i z fXxXX.+ , > , , , , , , , > 7 0.0.k u p i i p i i i i i  .y.:., , < j KXHX< , , , , +  .w.;.i g p i p i i p f i i g :.i.w p LXKXF.3 , , , , , , , >.y.x u i i i i a i i d ;.s.i., , O g LXGX, , , , , +  .s.q.i p p i i p i i i i i d >.aX;.# , , GXLX&.> 3 > , , , 0.;X;.u i i p p i i g #.j z z z z z z z j z z z z z @.c i j #.z z z z z z c j c c z j z j *.j i > 3 p p p $ C.@.1.G.A.c I.7XM.S.3 A.*.5Xl.> u 2 , O b.iXp @ , 7 g i i i i i i B E.M # l.KXLX8X3 , , , , , > K E.S i i p i i i p i i p i i i a ).[.J @ 7 , , , , , @ @ + , @ M E.B g i p i i i , , i i 3 b $X$X: < , , , , , , , , , < : ^ ~ a i p i i i i i =.CXCXg + , , , , , , , , , + e -Xr.f p g i p p i i a i [ OX| < , , , , , GXLXu # , > [ oXQ , i i i i p p i p g f f.nXf.+ , , , , > h FXLXF., + g.nXy.u p p i i ",
"i i p i i i c h u i i u i i u i u i i u i g @.i i i i p p i i p u ,XnXy.+ , , , , , , , , , @  .y.5.i g i i p i i i p g i g y.q.9 , O 7XLX%.+ , , , , 8 8.i.+.u i i p i p p i i i g u ,.i.y.$ *.f o > , , , , , # r y.0.i i p p p p i i i i g a.s.t o 7 FXLXz O , , , 6 7 >.;X3.u p i i p i i p i p p u ,.;Xp.7 O yXLXM.o 2 , , 7 # r a.a.k p g i p p i i g v i i u i i u i i i i i i i i j z i j c u p i u i i u i i i i u i u @.h u , , p p i , 2 , , i 3 , c G.v.@ , 3 > i g > 3 , , , , p , , > u p i i i p i i s M E.& z FXl.O < , , , , , 2 M E.B i p i p p i p i i p i i p 8 J [.).# # > , , , , , , u > 5 E.M s p i i i i i , , i p i f } $X) > , > , , , , , , , > = ( ~ e a i i i i i p a 2XCXu.+ , , , , , , > , < < ..-X4.u g i i p i p i a i Q OX[ , # , , , o %.LX7X> , : +XoXd i p p i i p i i i g u <.xXfXi , , , , , $ , VXLXp 0 fXxXo.u p p i i ",
"i p p i i i @.h p p p p i g g i i g i g i h @.i i i i i i p p g a <.kXjXo.$ , , , , , , , @ 0 w.w.o.u i p p i i i g i i i i :.w.5.> 3 KXrXO , , , , +  .w.>.g i p i i i i i i p i g p z fXxX8.% , , , , , , , < 7 >.w.;.p i i i i i i p p p i >.;Xa., i GXJ.o , , , , O ;.s.s.x i p p i i p i i i p p i x a.s.;.o K.5Xo , , , , @ # p.pX>.a i i i i i i i g #.g i g i g i g g i i i i p i z c 7 j c f p i g g i g i i i g i g i @.j u , , p p i , , , , , @ g F.Z.u @ , , , < @ , , , , , , > , , , u p i p i i i p i S W.(., > @ , # , , , + 1 m W.M p i p i i p i i i p i i p p i a ].[.J > # , > , , , , , , M W.V 0 i p p i i i , , i p p 3 ) $X$Xa < , , , , , , , > : ( ( d f p p i i i i g u u.CXCXk + , , , , , , , $ +.-Xr.+.i i p i i i i p i i p +XOX| > # , , u o 0XKX3 > [ OX[ i p i i i p i i p i p i p sXxXf.$ , , , , , O i @.O ,XxX<Xp i p i p i ",
"i i i i i i @.h i p i p g g f g g g i i i g @.i p i p i i i p i i 3 f.nXfXO.> , , , , , , e >.w.:.i i p i i i p i i g i i i k 0.w.;.9 i g > , , , ,  .w.w.l i i i i p p p i i p i i g 3 y.nXjX6., > , , , , , 9 :.w.8.g i i i p i i i p i p i g a.s.q.0 7 7 # , , # 7 ;.s.s.,.u p i p i i p p i i i p d u X.:Xd.:.> # , , , # # 9 q.s.a.x i p i p i i p i g @.g i i g i g g g i i i i p u z c i j @.i a i i g g g g i i i i i i v j i > , p p i > < , , , , @ O O # , , , , , , > 2 2 , , , , > , , u g p i i i i p i a `.[.(.s , > , , , > 2 m E.E.B 9 i i p i i i p p p i i p p p q F [.].M 7 , , , , # # 3 M W.M s i i i p i i i , , i i p i g } $X} ; > , , , , , , : / ( ; g p i i i i i g i p u 2XCX2X+.< , < , , , , +.r.-X..a i i i i i p p i i i i Q oXoX) , , , , # a i 7 [ oX+Xb f i i i i p i p i p i g u o.kXxXg.2 , , , , , , > ;.<XhXo.a p i p i i ",
"p p i p p i @.h i i i i u u 7 f u u g i i h @.i i i p i p i i i i i g <XnXfXg 2 , , , , 3 0.i.5.g i i p i p i p i i i i i g i l 0.fXg.$ , , , , , +.w.w.O.i p p i p i i i i p i i i g i u f.nXkX+.3 , , , , 2 4.i.0.k i g i p i p p i i i i p i t a.bXdX# 7 7 > , 7 t s.s.>.i p i i i p i i p i p i p i g a :.aXZX8.# , , , 6 2 ;.aXa.X.i i i i i p p i i p v g i i i g 3 7 g i i i i i i z c u j @.u i i i i 9 u u u i i i i i @.j u , , p i i u i i i u i i p i i i i i i u i i i i u f i i i p u i i p i g i p i i 9 V `.[.(.6 , , # 2 , s W.E.V i i i i i p i p i i i i p i f i g 9 J [.[.Z < , , , u u N E.M s i i p i i p i i , , i p i p f d } $X} u , , , , 6 u ( ( ~ i i p i p g i i i p g u z 2XCX2X, , , , , , f r.-Xu.f p i i p g i i i p i i p f ! oXOXQ < , , , , 6 ) OX+XQ f p i p p i i i p i i i i i a 8.kXnXt., , , , , , X.y.q.,.4 i p i i i i ",
"i i i p i i @.h i i 3 %.eXeXeXeXeX&.u g i h @.i p i p i i p i p p p u p ,Xy.a i i i u g u X.5.g i g i i i p i i i i i p i i g u +.<X+.a i i i i i g 4.O.i i i i i p p i i p i i p i p p i a g.f.u p i u i i f l >.k i i i i p i i p i i p i i p u l gX4.a a i i i i a >.4.i i i i i p i p p i p i p i i i p u f.hXp p p i i i i t p.l i i i p p i p p i i g *.i i i i j 4X$.2 i i i i i i j c i j c i i i u V.iXeXeXiXN.9 g i i c h u , , p p i p p p p p p p p p p p p i p i p p p i p p p p p p p p i i p i i p i i g 8 B ).B i i i i i i a V N i i i p i i i i p p i i p i i i p i i 0 J (.i i i i i i i s M B 9 i p i p i i i i , , p p i p i f a } ) e p i i i i i ; ~ g f p i p i i i i g i i g u g 2Xu.u g i i i i p ....4 p i i i g i i i i i i i g i f ! [ h i i i i p i d [ Q i i i i i i i i p i p i i i p g 2 6.<Xh i i i i i i g 5.X.u p i i p i p i ",
"i p p i i i @.h i i i j V.F.F.V.7XiXj i i h @.i p i i i i i i p p p p i u p i i p p p i g i i i i i i i i p p i p p i i i i p p i i p p i i i i i i i i p i p i i i i p p i i p i i i i i p p i i p p p p p i i i i i i g i i i i i p i p i i i p i i i i u p p i i i p i i i i p p i i i i i i p i i p p i i u p p p p p p i i d u i p p i i i i i i p i p *.g i g u @.VXGXH.+.i i i i i j c u j v i i g , 4XKXGXGXKXH., g i i @.j u , , g i i p p i i i i i i i i i i i p i i i i i p i i i i p i p i i p i p i i i i g i i i p i i i i a i p 9 p i i i p p i i i i p p i i p i p i p g i g i i i p p i i g i p i i i i i p i i i , , i p i p i i f i f f i p i i i i i i g g i p i i i i i i i i i g 3 a a i i i i i p i p a u p i p i i i i i g i i i i i i i i g i i p i i p i p i p i i i i p p i p i i i p i i p p i i i g i p p i i p i i p p i i i i p i ",
"p p i i i i @.h i i i i N.%.8 i %.VX%.7 i h @.i i i p p p p i i p i i p p i i i i i i i i i i i i i i g i i i i i p p i i p p i g i g i g i i i i i i i i p i p p i i i p i i p i p i i i i p i p i i i i i p p i i i i i i i p p p i i i i p p p p i p i i i i i i p i p p i p i i i p i p p i p i i p i i p p i p i i i i p i i p i i p i i p p i i i i g @.g g f 9 @.iXVXGXVXc.7 p p i j c u j @.i i g 7 K.GXVXVXGXH., h g i c h u , , p p i p i p i i i p i i p i p i p p i i p p i p i p i i p i i i i i i i p i i i a d g p i i i i i p i p p i i i i p i p i i i p i i p i i i i a p i i i i i i i g i i i i i p p p i i i i < , i i i i i i p p f i g i i i i p i p p i i p i p p i i i g i i i i i i i i i i i p i i p p i p i i i i i i i g i i i i i p i i p i i i i i i p g p i i i p p i i i i i p i i i i i g i p i i i i i i i p i p i i p i i i i ",
"i i i p i i @.h i i g 7XKXVXiXiXVX8Xf g i g @.i p i i i i i p i i p i p i p p f g i i i g i i i g i i i p i p p i i i p i i i p i i i i i i i g i i i i i p i i i p p i i i p i i p i i g i i p i p p i p i i i i i i g i i p i i i i p i p i i i p p p i p p i p p i p i p i i i p i p i i p i i i p i i p i i p i p i i p i i p i i p i p i i i p i i i g @.g f g 9 @.iXKXVXK.z i p i i c c i h c i i g 2 4XGXVXVXGXH., h i i @.j i , , p g i p i i p p i i p i i i p i i p i p i i i p i i i p i i p p i p p i i i i i i p p i i p p i i i i p i i p p i i p p f p i i p i i p i p p i i p i i g i i i i i i i p p i i i p i i i # , i p p i g i i i i i i i p p i i i p i p i i i p i i p i i i i g i i i i g i i i i i p i i i p i g i i i g i i i i g i i p i p i i i i i i i i a i i p p i i i p i p p i i p p i i p i i i i i p i i f p i i i p i p p i i ",
"i i i i i i v j i i i &.uXH.l.b.7.i i g i g @.i i p i i i i i p i p i g p i i i p p p p p p p p p p i i i i p p i i i i p p i i p i p p p i p p p p i i p i i p i i p i i i p i p i i i p i g p i g g i p p i p p g i p p i i p p i i i i i i p p i p p p p p p p i p p p i p i i p i i i p i p i i i p i i p i p p p p p g p p p p i i i p i p i i i p i g *.p i p u @.BXuX@., u p p p u c c u j c i i g , 8XKXKXGXKXH., p g u v j i > , i g i p i i p p i i i p i i i p p i p i p i i i p p i i i p i i i p i i p i p i i p g p p p p p p g g g a i i i p i i i p i p i i i p i i p i i p p i p p p p p p p p p g i p p i i p i i , , i i i i p i p g p p p g p i i p g i i p i i i p i p i p i i p i i p p i p p p p p p p p p p p i i p i p i i i p i p i i i p i p i i g i i p p p p i p i p i i p p i i p i i p i p p p p g g i i p g p i g i i g i p p i g ",
"i i g i i i @.h i g i u i i , u u i i i i h *.i p i p p p p i i i i i u , i g i 7 7 p 7 7 p 7 7 i p i p p i i i i p p i i i i p i p i , u p p u 7 i p p i i p i i p i i p i i p i i p i i p 7 7 p 7 7 p u 7 p p u u p i i p i i i i p p p p i i i p p 7 7 p u 7 i p u u p p p i i p i p p i i p i p i i p i i p i 7 7 i 7 7 i 7 7 i i p i i p i i p i i i g @.p i p i h &.i 7 g p i p p u z c i h c i i g i %.N.b.N.N.@.i g i i @.j u , , i i i i p i i i i i g p i p i i i i i p i i p i i i p p i i p p i i p i i i p i p u 7 u p p 7 7 i u 6 u g i i i p i p i i i p i p i i p i i p p , i p i 7 p p 7 , i i 2 , i p i p i i i i , , p p i i i p i 7 7 u i 7 u p i 7 7 i p 7 i g i f i i i p i p p i p 7 7 i 7 7 9 i i 7 7 i p 7 i i i i i p i p i i i p i p i p i 7 i i , i i 7 7 g i i i i i p i i i i p i p p i p i 7 u i 7 7 p p i 7 7 i , i i i i i i p i ",
"i g i i i i @.h i i i g i i g g p p i p i h @.i i i i i i f i p p p 2 l.6X*.u i A.I.g v.U.h l.9Xc i p p p i i i i p i i p i i p p 9 #.5Xl.u i v.U.c i i i p p i i i p p i i i p i p i p p i z.C., l.G.7 %.J.p 7 z.v.u g i p p i p i i i i i i p i p i 1.A.u C.5Xv 6 x.x.u p i i i i p i i i i i i p p i i i i i @.U.B.h J.S.g G.J.p i g p p i i i p p i i g #.p i i p i 7 g g g i i p p i z c u j @.i i g i u 2 , , 2 i i i i i @.h u , , g i i i p p i i p i i i i p p p i p i p i i p p i i i i i i p p i i p p p i i p i &.5Xv.u p S.I.z l.9X#.u p i i i p i p i i i i p p i p i p i p J.#.7 j S.p u 7.5X1.n.U.5Xz u p i p i i i , , i i i i p p i Z.5Xv z.5X&.u h G.J.j , C.2.7 p i p p i i p i p i p A.U.c c.5X%.i h J.J.h 7 C.&.7 p p i i i p p i p i i i p u #.J.i 2.6X&.c 6Xz.7 p i p p i p p i i p p i i i p u #.U.A.p B.v.7 i #.I.n.i G.&.u g p i i i i ",
"i i i i i i v j i i i i p p i i i i i p i g @.i i p p i p p i p p i g 6Xz.U.u l.I.v.5XK.c.U.I.z.I.u p i i i p p p i i p i i p i i i U.z.U.j c U.x.J.7 i p i i i p i i i p p i i i p i i i i I.0X, S.tX7 n.MXi i yXU., g i i i i p i p i i p i p p i i G.qXi $.v.K.u FXJ., p i p p i i i i p p i i i i p i i i i #.#.I.I.C.A.0Xv.B.C.2 g i i i p i i i p i p @.p i p i p g i i g p i p p i z c u j c i g i i p p g g g p i i i i @.h i , , i i g i i i i p i i i p i i i i i p i i i p i i p p i p p i i i i p i i i i p p 7 5Xz.5Xh h c v.U.I.z.I.i p i p i i i i p p i i i p i i i p i #.MXl.# S.FXp h U.&.U.z @.qXh i p i i i i i , , i p i i i 7 g @.z.I.#.7.6Xi z #.A.C.g HXv.7 g i i i p i i g i 7 h c x.U.v z.6X7 j #.S.B.h HXz.7 p p p i i i i p i i p p p i v.MXg 5Xz.J.5Xz.U.z i i i i i i i i p i i i i p p 7 B.9Xj g 0XI.7 u I.v.I.1.yXv.2 p i p p i i ",
"i g i i i i @.g i i i i i i i i i i i p i g @.i p p i i i p i i i i c I.7 5Xp v.v.h FXn.i MXA.i 5Xp i i p i p i p i i i i i p i i h I.i K.@.&.A.p 5Xi i i i i p i p p i i i i p i i p p i i z I.7 h I.i i U.i v.Z.C.2 p i i i g i i i p p i i i i i i g U.i # Z.B.z.C.C.7 p p p p i p p i i i p p i i p i p i p 7 h 5X#.MX5XC.S.C.J., g i i i g p i p i i p *.p i i i i i i i i p i i f i j c u j c i i i i i i g i i i i i i i @.h u , , g i i p i i p i i i i i i i i p p i i i i p i p i p p i p p i i p p i i p p i p 7 c.FXS.9 i $.tXA.A.i 5Xh i i i p i p p i i i p p i i p i i p , C.l.@.B.J.i p 9X1.qXi z.A., g i i p p i i > , p i p i g #.g #.tXn.O z.J.7 g # I.z.v.A.z.7 g p i i i p p i h #.p #.tXv.O v.J.7 p , I.l.c.S.l.2 p i i p p i i p i p i i i p u U.@.I.7 5XqX7 J.1.u p p i p i i p p i i p p p p u #.I.5Xj #.J.7 7 l.FXI.@ B.v.u p i p i i i ",
"i i i i i i @.j i i g i i g g i p p p p i h @.i i i i p i p p i i i z U.i 7Xp c.C.z MXB.h tXJ.g 9Xp i p p i i i i i p p p i i p p p U.p I.@.*.J.h 6Xi p i i p i i i i i i p i i p i i i p u @.5X, j 5Xi p U.#.tX9XyXu p g i i i i p i i i i p i i p i z 6X, 1.A.j yX9XtX7 p p p i i i i p p i i p i i p i i i i i J.c v.v.C.B.j.qXC., g p i i i p i i i p p @.g i i g g g i i g p p p p i c c i j c i p i g p p g g i g i g g i @.h i , , i p i i p p i a f i i i i g i i i i p p i i i i i p p i i i i p i i i i i i p p p I.%.I.c i i l.0XJ.p 6Xp i i i i p i i i p p i i i p i i p p , G.1.U.9XFXj.7 %.J.0Xi 5X#.i p p i i i i i , , i i p i c J.#.7 l.I.z I.i i 7 v.v.&.tXtXI., p p p p i i i i c J.@.7 l.I.z J.7 p u n.c.1.tXyXI., p i p i p i i p i i p i p i i 5Xz 8Xi 5X0Xi I.$.u p i i i p i i i i p i i i p p i . S.z.#.J., g K.*.I.j B.M., g p i i p i ",
"i i i g i i @.*.@.*.@.@.*.@.@.*.@.*.@.#.*.@.*.u p i p i i i p i i p u S.0XC.A.1.I.0Xl.J.0Xz.S.0XB.7 p p i i p p i p i i p i i p p 7 B.qXS.Z.7.G.0Xv.7 p i p i i p i i p i p p i p i i i i i c U.2 x 5Xi i 5Xh c A.U.7 p p i i i p i p i i p i p p i i h U.g FXU.n.c A.U.7 p i p i p i p i i i p i i i i p p p 7 S.MXB.A.I.I.z.v.I.j i i i i p i i i i p i p #.#.*.@.#.*.@.#.@.#.#.#.#.#.@.#.c u j $.@.@.#.#.#.#.#.#.@.#.#.*.@.*.#.h u , , g p i g g g i a i i a i g 2 i p p p p i h h p p p p p p i i p i i i p p i p i p u J.I.J.S.n.B.I.B.A.0XC.u p p p p i i i p p i i i i p i p p p , S.z.h 1.0XC.v.#.I.z.#.U.u i i p i i p i i , , i p i p i , h Z.K.A.tX0Xc.S.v.FXJ.v.c U.A.7 p i i i i p i i i , j A.I.A.tX0Xc.S.v.FXJ.z.c 5XC.2 p p p i i i i i p p i i i p u 5Xi A.qXC.v.0XJ.i p p i p i p p i i p p i i i p i 1.K.5Xh 1.S.z F.A.I.5Xg C.n.7 p p i i p g ",
"g i i i i i g g g g g g g g g g g g g g g g g p i i p i p i i p p p i g $.i z p z #.7 h #.i h $.i p p p p i i i i i p i i i p i i p p $.g j g h $.i p p i i i p p i i p i i p i i i i i i i g h i p j i p j p 7 i h i p i i p p i i p i i p i i i p i p h g v &.#.7 i p i p i i i p i i i p i p i p p i i i p i z $.1.g $.c i 1.j i i i i g i i i p p i p i g g g g g g p g g p g p p p p p p i p g g g g p p p p p p g g p p p p p i > , i i g 2 q.mXpXmXmX>X3 g u l.c i u , p 7 c z 7 p 7 i # i i i i i p p i p i i p p i i 1.h h h $.$.i h &.i i p p i i i p i i i i p p i i i p p p i h h u 7 h h j c &.u h h i p i i i p i g u , , i i p i p g g $.&.p c 2.#.j z @.2.z 7 p p i p p i p i p i i i g g %.$.i @.2.#.j z #.1.z , i g i p p i i i p p i i i i p i p i j p p $.p i $.h i p i i p i i i p i p i i i i i i j 2.z u p h h j i &.j u h g i p i i p i i ",
"i i p i i p i i i i i i i i i i i i i i i i i i p i i i p i i i i i p i 7 p i i i 7 g i u p i 7 i p i i i i p i p i p i i i p i i i i u i i i i 2 p i p i i i p i i p i i p i i i i p i i p i i i i i p i i i p p i i p i i i i i p i p i i i p p i i i i i 9 u u g i i p i p p i i p i p i i i i p p i i i i p i 7 7 i 9 u p u i i i i i p i p p i i p g i i i i i i i i i i i i i i i i i i p p i i i i u p p u p p i i i i i p p i , , p i g 5 e.mXpXmXmXpXa p g BXA.# k.B.U.I.#.1.c h &.z A.c i p i i i p i i p i p i p i 7 i i i u u p p 7 p p p i i i p i p p i i p i i i p p i i i i i p p p i i i i i i i i i i i p p i i i , , i i i i i p i 7 u p 7 9 9 i i u 7 i p i i i i p i p i i p i i p p 7 7 i 9 u 9 i i i 7 i p i i p i p i p i i p i i i p i i p i i p p i p p 7 i p p i i i p i i i p p i i i i p p i 7 i i i i i i p i i i i i i i p i p i i ",
"i i i i p i i i i p i p i i i p p i i g i i i p i i p i i p p i i p p i p p i i p p p p p i p p p i p p p p i i i p i i p i p i i i p g p p g g g p p i p p i i i p p i i p i p p i i p i p i g p p p g p p p p i i i i i p i i p i i p i p i i i p p p p p g h g p g i i i i i i p p i i p p i p i i i p p i i p p p i g g p g g i i p i i i p i p i i i i i i g i i i i p i p i i p i i p i i i p i p i p p p i p p p p i p i p p u , , p i g u e.mXmXpXmXpX3 7 z.J.A.#.0X&.6XA.Z.I.S.1.J.J.J.5Xp i p p p i i i i i p i p p p p p p p p p p p i i i i p p i i i i i p i p p i i i i p i p i i p i i 7 , 9 i i p i i p i i p f i i , , i i i g i p i p p p i i i 7 , i p i i i i i p i i p p i i p i i p p p p g i p 7 , i i i i i p i f i p i p p i i p p i i p i i p u u p 7 p p p p i i p i p i p i i i i p p i i i i p p i p p i 9 # u p i i p i i p i i i i ",
"i i i p i p p i i i i i i p i i i i i i i i i g i p p i i i p i i p i i p i i i u 6 i u i i i i i i i i i i i p i i p p i i i p i i i 7 u 7 7 g u , p p i i i p i p i i i i p i i i i p i i i i u 7 i 7 i i 7 7 i i i i i i p g i i i i i p p i i i p i 7 7 7 7 i i , i i i p i i i i i i i p i i i i p i i i p p u 7 i , i p 7 2 i i i g i i i i p p i i i g i i i i i p i i i i i i i p i i p p i i i p i i p p i i i i i p p f p u , , i i g u q.mXpXpXmXpXa 7 U.tXtXA.A.  S.c v.v.S.U.z.tXJ.I.g i i i i i p p p i i p i p i 7 9 7 7 p i , i p i i p i i i p p i i p i i p i i p p i i p p p @ z.c.#.Z.1.i i i p i p p i i i i i , , i i i i i i i i p i # J.z v.C.z i i i p i p i i i i i i i p p i p i p i , J.h v.B.j i i i p p i p p i i i i i p i i i p i i p u 1.%.p $.i p p i i p i p i i p p p i i p p i i p i p i i # @.B.z A.l.i i p i p i i i i p i ",
"i g i i i i p i p i p p p i i p i p p i p p i i p i i i p i i p i i i p i p i i l.1.J.J.p i p p i p p i i p i p p i i i p p i i i i c z.$.l.2.7 &.v.g i p p i p i i i p p i i p p p i i p i i g $.x.c c.h p c.1.i p p i p i i i i p p i i i i p i i i z l.2.7.1.7 #.v.j i p i i p p i p p i i i i p i p i p i i p %.x.@.x.j i z.l.i p p i i i p i i i i p i i i i i i g i i p p i g i p i p i i i p p i i i p i i i p p p i i i p p i , , i i g a d.mXmXmXmXmXu v 5Xu z.5X5Xl.S.J.J.z.c.FX7 I.A.$.i i p i p i p i i p i i i i z z.$.l.1.u $.v.h i p i p i p i p i i p i p i i i i i p i i p i p 2.I.v.5Xv.6X1.7 p p i i i p p i i i , , i p i i p i i i i z z.9Xl.0Xc.9Xi i p i p i i p p i p p i i i p i p i z z.9Xl.0Xv.5Xi i p i i p p i i p i p i p i p i p p p i h I.J.x.v.6 p p i i p i i p i i i i i p i i p i i p i p i 2.J.S.G.A.I.v.7 p p i i i p p i i ",
"i i p i p p i i p i i i p i i p p i i p i i p i p i i p p i i i p i p i i p 7 l.tX*.9XU.i i p i i i p i p i i i i p p i i i i p g , 9XI.tXJ.5X&.tXv.j i p i i i p i p i i p i i i i i i p i i z MXJ.tXJ.Z.B.0X$.i i i i i i g i p i i i p p i i p p 7 I.5XqXI.5X&.0XC.j i i i p i i i p i i i p i p i i p i i i p MXJ.tXJ.J.l.qX&.g p i i i i p p i i p i g i i p i i i p i p i i p p i i p p i i p p i i p i i i p i i i i i p f p u , , g i g i l :.:.:.4.,.u z @.u h v #.v.z z.%.h h 2.9 h B.j.i i i i p i i i i i p i p 7 5XI.tXJ.5X&.rXM.h i i i i i p i i i p i i i i g i p i p i p p u M.K.qXv.K.B.5X#.i p p i i i i i i i i , , p p i i p i p i i 5XJ.tX&.9XB.I.i i p i i i i i p i i i p i i p p p i 5XS.tX1.5Xn.I.u p p i i i i p p i i p i i g i i i i p i c C.J.0XU.v u p p p i p i i i i p i i p i i p i i p p 7 1.5X5XS.A.A.I.l.7 p i p p g i i i i ",
"p p i i i i i p i p p i i p i i i i p i i p p i i i p i i i p p i p i i i p i h G.z.S.$., p i i p i p i i i p i i i i i i p i i p 7 U.j J.z S.$.v.S.h i p i p i p i i i i i p i i p p i i p u @.J.h I.h J.z J.z.i i i i p i i i i i p p i i i p p p # J.#.Z.*.B.l.z.J.z i p p i i p p i i p p i p i i p i p p i h U.i U.p I.z S.v.i p p p p i i i p i i i i i i p i p i p i i i p i i i p i i p i i i p p i i p i p i p p p i i p p i , , g i i i i 2 2 3 u u i i 9 p i 7 i , i 7 7 i i u p i , u p i p i p p i p p i i p p 7 U.h J.c A.&.v.S.h i i i i i p i p i i g i p i i i p i i i p p , U.j z.B.I.A.I.1.u p i i p i g i i i i , , i i i p i i p i c 5Xo I.1.0XB.I.p i i p i p p i i p p i i p i i p u v 5Xo U.1.0XB.I.p p i p p i i i i i p i i p i i i i p i p u A.qX9XZ.A.u p i p i i i p p i i p i p i i p i p i g 7 A.l.c A.Z.J.J.v.7 g i i i i i i g p ",
"i i i p p i p i i i p i i p p i i p p i i p i i i p p i p i p i i i p p p p i j l.9XI.J.i p p p i p i i i p i p p i i p i p p i g 2 6Xc I.#.J.l.#.rXl.7 g p p i i i i p p p i i i i p p i g u #.5Xz 5Xc U.j n.rXi i i p i i i p i p i i i i i p i p , I.1.S.7.A.c.c 0XB., p p i p p i i i p i i p i i p i i p i h 9Xh 9Xc 5Xc z.tXj i p i p i p i p p i i i i i i i p p i i p p i i i p i i i i p i i i p i i p p p p u i i i p p p i > , i i i i p p p p p g i p p i p g p g p p p p p g i p g p i i p i i i i i p p i p p , 5Xv I.#.J.l.#.qXc.2 p i i i i i g p p i i i i p p i i p p i p 2 Z.G.9Xn.5Xl.I.v.7 p p i i i p i i g i , , i p p i i p p p p 9Xv.yXj.0X$.0Xh i i i i i p i i i p i i p p i p i p 9XB.tXl.9X&.qXg i p i i p p i i p p i i p i i i i i i p i h S.z.9XB., p i i i i p i i p i i p i i i i p i p p 7 z.I.I.G.G.m.A.J.6 g i i g i i i i i ",
"i p i p i i p i p i i p i i i i p i i i p i i p p i i i p i i i p i i i i p i j S.1.j C.h i i i i i i p i p i i p i i p i i i p g u j.h &.x $.z B.v.i i p i i i i p p i i i i p p i i i p i i h 2.h 2.j $.#.S.%.i g i i i p i p i i p i p p i i i p i &.j #.z #.c v.B.g i i i p i i i p p i i p i i p i p i i i h 1.p 1.h &.c S.&.i i p i i i p i i i p g i i i p i i i p i i i i p p i i p p i p f p i i i p i p p p p i p i p i p i , , i g i i p p p p p i i i i p i i i p i p p p i i i i p p p i i p i p p i i i p i i i 1.h $.j #.c B.v.i g p i p p i i i i i i p p i i i i p i i p p i g B.n.j l.J.c.i p p i p p i i i i i i , , i i p i i p i p u #.Z.l.h Z.J.#.i i i i p i i p p i i p i i i p i p i $.Z.l.h A.S.@.i p i p i i i p p i i i p i i g i i i p p i j #.p B.j i p p i p p i i p i p i i i p p i i i p i i i v.B.@.*.G.C.g i i i i i i i i i p ",
"i i p i g i i i p i i i i i g i i g i i i i i g i i i i i p i p i g i i i i g i , u i , i g i i p p i i p i i p i p p p i p i i i g 7 i u i u i , , g i i i i i i p i i i i i g i i i i i i g i 9 i u i u i , u g i i g i i i i i i i i g i i i i i g 9 i u i u i 2 6 i i i i i g i i i i i i g i i p i i i g i i u i u i u i > 7 g i i i i i i i g i i i i i g i i g i i i g i g i i i i i g i p a i i i i i i g i g i i i i i i f i > , p p i p i p i i i i g i g i i i g i i g i i i i i i i i p i i i i i g i i g i i i g 3 i 9 i u i , 7 i i p i i g i i i i i i i i i i i i i i i i g i i 7 6 i u , 2 i i g i i g i i i i i i < , i p g i i i i i p i , 7 i , , u i i i i i i i i f i i i p i p i i i g u , u i , , u g p p i i p i p i i i i p i i i i i i g i i i u g , i g i i i i i i i i i p i i i i g i i i i g i i , , i u , , i i i i i i i i i i i ",
"p i i i i i i i i i i i i i i i i i i i g i i i i i i g p p i i i i i i i i i p g g i g i i i i i i i i p p i i i i f i i i p i i i g i i g g i g g i i i i i g i i i i i i i i i g i i i i i i g i p p i g g i i i i i i i i g g i i i i i i i i p i p i g i g i g g i i i g i i i i i i i i i i p i i i i i i i g i g i g p p g i i i i i i g i i i i i i i i i i i i i i i i i i i g i i i i i i i i i g i i i i i i i i i g i i i > , i p p i i i i i i i i i i i i i i i i i i i i i i g i i i p i i i i i i i i i i i i g i f p p p p g p i i p i i i i i i g i i i g i i i g i i i i i i g g i i p g i i i i i i i i i i i i > , i i i i i i i g i f p p g g g i i g i g i p i i i i i i i i i i i i i p g g p g g p i i i i i i i i i i p i i i i i i g i i i i g i i g i i i i i g i i i p i i g i i i i i i i i i i i g g i g g g p p g i p i i g i g i ",
"i g p p i p p p p g p g i g g i g i g g i g g f g g p p g g p p g i g g p p p p g i g g i g g i g g g g g p p p p p p g p g p p f i i g g g g g g g g i g g p g g p f p g g g g g i g i g i g g g g p p g g g i g g g g g g i g g g g g g g g f p i p p g g g g i p g f g i g g i g g g p p g g p i p p g g g g g g g g p g p p g g p p g g g g g g g i g g p p g i g i g i g g i p g g g i g g g g i g g g p g p g p i i g i p g g g , , g g g g g p p g g p p g i g g p p g i i g g g g i g g p i p p i g g g g g g g p f g i g g g i p i p g g g p p g g p g g i g i g i g g g i g i g i g g g g g p g i p p g g g g g g g g g i , , p g g g g g i g g g p p p p g g p p p p p p i p g p g g p g p p g g g g g g g g g g p p f p g g g i p g g g g p g i i g g i g i i g g g i g g i g i g i p i p p g g i g p p p g i g g i g g g g p g g g p g p p g g p p g ",
"3 i u u i u u u u u u i 7 i u 3 i u u u 3 7 7 i 7 7 i 7 u u u u u u 3 i u u u u u u u 9 7 3 i u u u u u u u u u u u i 3 7 7 i 7 i u 7 i u u u u u u u u u u u 3 i 7 i u u 3 u u u u i u u u u u u u u u u u u u u u u u u u u u u u u u 3 7 7 i u i u u u u u 3 u u 3 i u u u u u u u i u u u u 7 i 7 u u u u 3 u u u u u u u u 3 i u u u u u u u u u u 3 i u u u u u i u u u u u u , i u u u u u u u u u u u u u u u i 3 i u u 3 i , , , u u u u u u u 3 i u u u u 7 i u 3 i u 7 3 7 i u u u u 7 i u u i u u 3 u u u u 9 i u 7 3 i , i u i 7 u 7 u u u u u u u u u i u u u u u u u i u u u u u u u u u i u u u u u u u u 9 7 3 i u , , 2 u u u u u u u 3 i u u u u 3 i u u u u u u i u u 9 3 i u u u 9 u u u 3 u u u u u u u u i 7 3 u 7 i 7 9 u u u u i u u u u u i u u u u u u u i 9 7 3 i u 7 i u u u u u u u u u i 3 i u u u u u u u u u u u u u u 7 3 i u u ",
"> > > > , < > > > > > , > , > > > , , , , > , > > > > > , < # > > > > , , > > > > , > , > > , , > , > > , < > > > > > , > > , > , > > , > , , > > , > > , + > > > > , # > > , , > > > , > , > > > , > > , , , > > > > > > > > , > > , > > > > > > > > > , @ > > > > # , > > , > > > , > > > + > , , , > > # > , > > > > , > > , , > > > > > , > > , > , > , > > > , > > > , > > > > , > > > , > > , > > , @ > > > > > > > > , > > > , , , > , > , > > > , + > > > > > , > , , > , , > > > > , > > > > , @ , > > > > > > # > , # > > , , , > , > , > , > > # > > > > > , > > , > > > > , > > , > > # > , > + > , > , > > > > , > > , , , > , , > > , > > , , , > > > > + , > > > , > > , , > , , , > > > , + > > , > > > , > > , > , > > , > , > > , > > , > > , > > > , > > , > > > > , > , , , > > > > # , > , , > , > > , > , > > , > , > > > , > , > > , , > , ",
"7 3 7 2 7 2 7 2 2 u 3 , 3 7 7 2 u , 2 , 2 7 3 , u 2 7 2 , 2 u u 3 7 7 2 u , 3 u u u 2 2 7 3 2 , 7 2 7 2 2 2 7 7 2 u 3 , u 7 2 2 3 , 2 , 3 , 2 3 7 3 7 7 7 3 u u , u 7 2 7 7 2 , 3 7 3 2 7 2 2 3 7 2 7 7 , 3 3 u 2 u 2 7 3 7 3 2 7 2 2 3 2 3 2 3 u 2 2 u u 2 7 2 u u , 2 7 u 2 2 3 7 3 2 u 2 3 u 7 7 7 7 7 2 u , 2 3 2 2 3 7 , 2 7 3 2 7 2 7 2 3 7 3 u , , 2 7 3 3 7 3 2 7 7 2 3 3 u 3 2 7 3 2 3 , 2 7 3 7 3 7 3 2 3 2 7 7 7 3 2 7 2 2 , 3 , 2 2 3 2 7 7 7 3 7 7 3 7 , 2 u , 2 , 7 7 7 3 7 3 2 3 u 2 u u , 2 7 2 2 3 2 7 u 7 2 u 7 2 2 , 3 , 2 2 , u 3 u 7 2 7 3 3 7 , 2 7 3 2 3 3 7 , 2 7 3 2 3 u u 7 2 7 3 u , , 3 2 7 2 7 3 2 u , 2 , 3 , 2 2 , 2 7 3 , 2 , 2 u u u 3 3 u 2 7 7 7 , 2 , 2 2 , 2 u 7 7 7 3 7 7 2 u 2 3 2 7 , 2 7 u 2 2 3 , 2 2 7 2 7 3 2 2 u , 3 7 , 2 7 2 2 3 3 7 , 2 u , 2 , u 2 2 u , 2 2 u 3 , 2 2 , u , 2 7 2 2 2 2 u 2 7 u 3 7 3 , 2 , 3 2 ",
"g g i g g g g g p g g i i g g g g i i g g g g i g g i g g g g p i g g i i i i g i i g g i p g g g g i g p p p g g g g i i g g g g i g g g g p p g p p g g i g g i g g g g g i g i g g g p p p p g g g i g g i p p p g p i g g g g i g i g g p p i g p g g g i g g g g g g i i g g i g g p p p p i g p p g i g g g g g g i g g g i p g i g g p p g g g i p i p p p g g g g i i g i g g g p p p p g g i g g g g i g g g i i g g g g i g i g g p p g g p g g i g i i g g g g g i g i g g g p p p p i g g i g g i g g g g i g i g g g i g i g g p p g g i p g g g i i g g g p p i g g i g p p p p p p p p p g i g g g g g i i g g g i g g g g g p p g i g i g i g g i g g g p p p p i g g g p p p p g p p p g g i g g g p p p i g p g i g i g g p p g g g i g g g i i g g p i p g i g i g g g i g i p g i g g p p p g g p p p p g g g p p p i g g p g i g p g p p p g ",
"i i i @.c z c j c j i i i i i i i i i i i i i i i i i i i i i i i i i #.l.&.7.&.7.c i i i i i i i i i i i i i i i i i i i i i i i g #.z z c c @.h i i i i g i u i i i i i i i i i i i i i i p i i i i i i i i i i i i i i i i i i i i i i i p i i i i i i i i i i i i i i i i i i i i i i i i p i i i i g i i i i i i i i i i g i i i i i i i i i i i i g g i i i i i i i i i i i i i i i i p i g i i i i i i i i i i i i i i i i i i i i i p i i i i i i g i i i i i g i i i i i i i i i i p i i i i i g i i i i i i i i i i i i i i i i i i i g i i i i i i i i i i g i i i i i i g g i p i i p i p i g i i i i i i i i i i i i i i i i i p i g g i i g i i i i i i i i i i i i i i g i i p i i i i i g i i i i i i i i i g g i i i i i i i i i i i i i i i i i i i g i i i i i i g i i i i g i i f i f p p f i i p p p f l l k +.k l k i i k +.l l k +.l p i i ",
"i i g @.$.7.&.&.z.c u g i g i i g g g i i i i i p i i p p i i i i g u l.l.@.%.@.&.#.u g i i i i g g i p i i i i i i i i i i i i i g @.&.&.&.1.l.j i i i g g g O.g i i i i p p i i i i p i i i i i p i i i p p i i i p i p p i i p i i p i i i i i p i i i p p i i i i i p p i i i p i i i p f p i i i p p i i p i i i i i i i i i p i i p i p i p i i i p i i i i i i i i i i i p i i i p i i i p i i i i p i i i i i i p p i i p i i i p i i i i i p i i i i p i i i p i i i p p i i p i i i i i p i i i p p i i i i i p p i i i p i i i p p i i p i i i p p i i g p i p p i i i i p i i p i p i i p i i i i p i i i p i i i p p i i i p i i i p i i i i p i i i i g i i i p i p i i i p i i i i i p i i i i p i i i i i i i i p i p p i i p i i i i i g p @.i @.@.i h &.#.j @.g #.f i p i f y P E y p T i y W f i i i p i l g o.O.+.g l i i g ,.o.i g 3.+.i i i ",
"i i g c c.&.#.@.&.c i i i i i i O.g i i i i i i i i p i i i p p i i i l.@.j &.&.7.#.i i i i g u O.x u p i i i i i i i i i g i i i h @.b.&.B.l.=.z u g i g 3 g ;Xf u g i i f u a i i p i i p p i i i p p i i i p p i i i i i i p i i p i i p p i i i p p i i i p i i p i i i i p p i i p p i i p p p i i i p i i i i i i i g i i i p p i p i i i i i p p i i p p g i i g i g i i i p p i i p p i i i p p i i p p i i i i i i i p i p p i i p p i p p i i p p i i g i p i i p p i i i p i i p p i i i p p i i i p i i i g i i i p p i i p p i i i i i p p i i i p i i i i i i i p p i i p i i i p p p i i p p i i i g i p i p p i i p p i i p p i i i p p i i p p i g i i i i g i i i p i i p p i p p i i p p i i i i i i i g i i i i i i i p p f i g i i i g %.i #.&.i %.h i h &.#.j c j i p i E q d E y R W W I f i p i i i l g l i ,.g x i i k +.+.k l l +.g i g ",
"i i g c b.j c #.&.c u i i i g O.3.O.x i i g O.X.o.+.p i p i p i i g u z.@.7.N.&.&.&.u g g i g o.3.O.X.i i p +.o.o.o.g i i g g i i g @.g i v.#.h j i i g u 5.,XcX,X4.a i g o.o.O.+.i i i i p i i p i i i p i i i i i p p p i p i i p p i i i p i p i i i p i i i i i i p p i p i p i i p i i i i i p p i i p p i i i i g i i g i i i i i i i p p i p p i p i p i i i i i i i p i i i p i i i p p p i i i p i i i i i i g p i i p i i p i i i p i i i i p i i i p i p i i i p i i i p p i i i p i p i i i p i i i i i i i p i p i p i i i i i i p p i i i p i i i i i p p p i p i p i i p p p i i i i i p i p i p i p i i i p i i i i p i i i p p p i i i p i i i i i g i p i i i i p p i i i p i i i i p i p i p i i i g g i g i i p i p p p i i i i g i i p $.h &.&.j &.i i h b.&.3 h p i i d E f g P W P P P W f a i i g i z g i X.X.g l i i k g i 3.+.3 z g i i ",
"i i f @.l.j b.C.V.c i g i i h l ,.+.h i i p k z x k i i p i i i i g u b.c 7.#., g c i i i i g k O.o.g p i p k j k k g i i i i i i h z 3 g v.#.h h i i g i o.y.aX8.l u g g l k k g i p p p i i p p i p i p i p i p i i i i i p i p i i i p i i p p i p i i p p i i g i i i i p i i i p i i p p i i i i p i i i p g i i i p p i i p i p p p i i i p i i i p i i i i i p i i i g i p i i p p i i i p i p i p i p i g i i i i i p i p i i i p i i p i p i p i p i p i i i p p i i p p i i i p i i p p i p i i p p i i g i i i i p i i i p p i p p i p i p i p i p i p i i i i i p i i p i i i i p i i p i p i i i p i i i p p i i p p i i p p i i i p i p i p i p i i i i i i i p i p i i i p i i p i p i p i i i p g i i i i i i i i p i i i i i p i g i i i h #.@.$.$.#.%.h u j #.#.c i p i i i E p i E W I d }.W 4 g i i i i l i g O.i f j g i g +.l g l +.+.i i i ",
"i i p @.c.j l.C.C.@.u p i i i i +.i i p p p u i i i i i i g i p i i u b.@.7.&.u h @.u g i p p u +.g i g p i u p u p i i i i i g i h @.i h M.$.z j i i i g 2 g f.u 3 g p g i u i i p i i p i i i i i p i i i p i i p p i p p i i p i i p p i i i i i p i i i p i i p p i p p i i i p i i i i p i p p i p p i i i p i i p i i p i p i i i p i i p i i i p i i p p i i i g i p i i p i i i p i i p i i p i i i p p i p p i i p i i p i i p p i i p p p i i i p i i p i i p i i i p p i i p p i i i i i p i i i p i i p p i p p i i i p i i i i p p i i p i i i p i i p p i p p i i i i p i i p p i p p i i i p i i p i i p i i i p p i i i p i i p i i p i i i p p i p p i i p i i p i i p i p p i p p i i i p i i p i i p i i i p i i p p i p p i i i i g i i &.#.i i #.j &.#.j @.p #.#.j i p f W E E W q I 4 E I 4 i i i i i l g g O.g k x p i k 3.O.i k <.O.g i i ",
"i i f @.&.@.&.&.1.z p p i g f i i p i i p p g p i i p i i p i i i i i #.#.&.#.c @.c i i i p p i i i g i i p p p g i p i i p i i i p @.c @.&.#.@.h i i i i p g i g i i i g g g i i p i p i i p p p i p i p i i p p i i i i i i p i i p i i i p p p i p i p i i p p i i i i i i p i p i p p p i i i i i i i i p i i i p i i p p i i p p i i p i i i p p i g i i i g i i i p i i p i i p i i i p i i p p i p i i i i i i p p i i p i i p i i i p p i i i p i p p i i p i i i p i i i i p i i i p p p i p i p i i p p i i i i i i p i p i p p p i f p i p i p i i p p i i i i i i p p i i p p i i i i i i p i p p i i p i i i p p i i i p i i i p i i p p i p i i i i i i p p i i p i i p i p i i i i i i p i p p i i p i i i p p i p i i i i i i p i i i i i c &.u g i i i g g i i i i g i i i p f p p g g i i g i i i g i i i j l k l l z j i i g l z l x l l g i i ",
"g i i i i i i i i i p p p i p p i i p i p p p i i i i i i i i i g i g i i i g g p i p i p i i g i g i i i i p i p p i g i p i i i i i i i i i i i i i i i i p i g p p i i p i i p i i i f p p i i i i i p i i p i i i p p i i p i p p i p i p i i i i p p i i p i i i p p i p i p i i i i i i p i p p i i p p i i p p i i i i i i i p i i p p i i p i i i i i p i i p i i i i p i p p i i p p i i i i i p i i p p i i i p i i p i p p i i p i f p i i p i i i i i p p i i p p i i p p i p i p i i i i p p i i p i i i p p i p i p i i i i i p i i i i i p i i p i i i p p i i p p i i p i i i p p i p i i i p i i p p i i p i i i p p i i p p i i i i i p i i p p i i i p i i p i p i p i i i p p i p i i i p i i p p i i p i i i p i p p i i i p i i p i c h i i i g i i i i i i i i i i i i i i i p i i p p i i i i i i i g i g i i g g i i i i i g i g i i i i ",
"i i i i i i i i i i u p i i p i p i i p i i i i p p i p i i g i i i i i i i i i i p i i p i i i i i i i p i i p p p i p i i i p i g i i i i p i i g i i p i i p p p i p i i i i i i p p i p i i p p i p i p i i i p p i i i p i i p i i p i i i p p i i i i p i i p p i i i p i i i p p i p i p i i p i p i i i p i i i p p i p p i i p i i i i p i i p i g i i i i i i i g i i p i i i p i i i p p i p i p i i i p p i i i p i p i i i p i p i i i p i p i p p i i i p i i i p i p i i p i i i p p i i i i p i i p p i i i p i i i p p i p i i p p i p i p i i i p p i i i p i i i p i i p p i i i p i p i i p i i i p i i i p p i i i p i i i p p i p i p i i i p p i i i p i p p f i i p p i i i p i p i i p i i i p i i i p i p i i p i p i i p i i g u i g i i i i i i i g p i p p i i g i i g i i p i i p i i g i i i g i i i i i i i i i g i i i i i i i g "
};
