/* XPM */
static char *impulse_responses_stereo[] = {
/* columns rows colors chars-per-pixel */
"353 256 256 2 ",
"   c #0C0E18",
".  c #0D1218",
"X  c #121315",
"o  c #15161A",
"O  c #1A161B",
"+  c #17181D",
"@  c #191A1E",
"#  c #191516",
"$  c #0C0B0C",
"%  c #201C1D",
"&  c #231819",
"*  c #3D1D1E",
"=  c #3E3601",
"-  c #2F2F19",
";  c #151C22",
":  c #1C1D23",
">  c #181927",
",  c #0F1A23",
"<  c #241E24",
"1  c #221C28",
"2  c #261C32",
"3  c #361E20",
"4  c #152125",
"5  c #1F2025",
"6  c #172529",
"7  c #1D242B",
"8  c #1A292E",
"9  c #1C2D23",
"0  c #1D3924",
"q  c #1C2C32",
"w  c #1C2636",
"e  c #1E3036",
"r  c #1C333B",
"t  c #222126",
"y  c #25262D",
"u  c #26282F",
"i  c #2A272B",
"p  c #38252A",
"a  c #263429",
"s  c #242530",
"d  c #262931",
"f  c #2A2C34",
"g  c #2D2F38",
"h  c #262636",
"j  c #213136",
"k  c #21353B",
"l  c #2E303A",
"z  c #28343A",
"x  c #31343D",
"c  c #36393E",
"v  c #373628",
"b  c #173E1D",
"n  c #443B0C",
"m  c #51211D",
"M  c #72261B",
"N  c #48272B",
"B  c #55282C",
"V  c #423E26",
"C  c #5B2A31",
"Z  c #532E32",
"A  c #573239",
"S  c #672B32",
"D  c #7B2E35",
"F  c #732D34",
"G  c #683338",
"H  c #702D2B",
"J  c #441E21",
"K  c #005C0A",
"L  c #00560B",
"P  c #16541B",
"I  c #026909",
"U  c #047708",
"Y  c #186819",
"T  c #1D4723",
"R  c #1C5320",
"E  c #364829",
"W  c #38461D",
"Q  c #4C4202",
"!  c #5A4D00",
"~  c #544800",
"^  c #5B5202",
"/  c #485119",
"(  c #645500",
")  c #6B5A01",
"_  c #705F01",
"`  c #57721A",
"'  c #776503",
"]  c #6C6C0D",
"[  c #445522",
"{  c #1B2C45",
"}  c #1C3748",
"|  c #1A3658",
" . c #142954",
".. c #263640",
"X. c #233B44",
"o. c #233E48",
"O. c #2B3548",
"+. c #343641",
"@. c #373944",
"#. c #393B46",
"$. c #3B3D4A",
"%. c #373A49",
"&. c #2E354D",
"*. c #183C68",
"=. c #142C6E",
"-. c #253C63",
";. c #233C79",
":. c #0D1F64",
">. c #663843",
",. c #1C434C",
"<. c #1C4B56",
"1. c #1C525C",
"2. c #23424C",
"3. c #234149",
"4. c #3E414E",
"5. c #3D4146",
"6. c #234A55",
"7. c #214E59",
"8. c #254654",
"9. c #3E4152",
"0. c #3E445E",
"q. c #26525E",
"w. c #305D58",
"e. c #1F5966",
"r. c #1F5D6A",
"t. c #1F5561",
"y. c #184274",
"u. c #18477C",
"i. c #19466D",
"p. c #275865",
"a. c #274D74",
"s. c #1D616D",
"d. c #1B6A74",
"f. c #147079",
"g. c #266776",
"h. c #28646F",
"j. c #41434D",
"k. c #45494D",
"l. c #424553",
"z. c #464856",
"x. c #424659",
"c. c #46495A",
"v. c #4A4D5C",
"b. c #484A55",
"n. c #51545A",
"m. c #4A4E61",
"M. c #464C67",
"N. c #4E5163",
"B. c #4E5269",
"V. c #515465",
"C. c #535669",
"Z. c #56596C",
"A. c #585C6E",
"S. c #5A5D62",
"D. c #5A5E72",
"F. c #565B73",
"G. c #5D6175",
"H. c #5E627A",
"J. c #5E6166",
"K. c #64676B",
"L. c #62657B",
"P. c #65697E",
"I. c #656875",
"U. c #75787B",
"Y. c #6E7175",
"T. c #8C2617",
"R. c #902716",
"E. c #852E36",
"W. c #8C3139",
"Q. c #843038",
"!. c #97333B",
"~. c #91352C",
"^. c #A73731",
"/. c #CB3F2A",
"(. c #8B7706",
"). c #EA442A",
"_. c #D7412A",
"`. c #038A05",
"'. c #099507",
"]. c #04A900",
"[. c #729B12",
"{. c #658716",
"}. c #6B9839",
"|. c #61984B",
" X c #9B8300",
".X c #938E00",
"XX c #A48902",
"oX c #96DB3D",
"OX c #95DE44",
"+X c #122B8F",
"@X c #0E2EAB",
"#X c #0C30B8",
"$X c #213EAF",
"%X c #164C8B",
"&X c #184985",
"*X c #164F92",
"=X c #184D95",
"-X c #15539B",
";X c #165095",
":X c #1F5983",
">X c #305489",
",X c #187B83",
"<X c #0A7985",
"1X c #287586",
"2X c #307B8C",
"3X c #307788",
"4X c #317E90",
"5X c #267890",
"6X c #1457A5",
"7X c #135CB0",
"8X c #337DB4",
"9X c #5D6382",
"0X c #666A82",
"qX c #696D84",
"wX c #666B87",
"eX c #6D728B",
"rX c #6C7086",
"tX c #71758D",
"yX c #757786",
"uX c #6D7395",
"iX c #757993",
"pX c #767B96",
"aX c #676E93",
"sX c #767DA3",
"dX c #485AA4",
"fX c #0A31C8",
"gX c #0A2FC1",
"hX c #5376F8",
"jX c #4560C6",
"kX c #2748C7",
"lX c #0A8692",
"zX c #258599",
"xX c #318598",
"cX c #0299A9",
"vX c #3495AA",
"bX c #3498AD",
"nX c #239CB4",
"mX c #359DB2",
"MX c #268FA8",
"NX c #00AAB9",
"BX c #23A3BC",
"VX c #36A4BA",
"CX c #7D829D",
"ZX c #7E8184",
"AX c #7C83A6",
"SX c #7E86B1",
"DX c #3792D5",
"FX c #23A9C3",
"GX c #2DADC6",
"HX c #399AE1",
"JX c #898B8E",
"KX c #848CB7",
"LX c #888EB1",
"PX c #8F97C5",
"IX c #A4ACD9",
"UX c #9EA6D0",
/* pixels */
"y u y u y y d y y d y d y y y y y y y y y y y u y y u y d s y d y y y y y y y d u u u u u u u y u u y u y y y y y i d y y d y y u y u u u y y y u y u y y u y y u y y u y y u y u y y u y u u y y u y u y u y u y u u y y u y u y y u y u y y y u y u y i y y y y y u y y u y u u y u u y u u y y u y u y u y u y u y u y u y u y y u y u y y y u y u y y y u y u y i y y y y y y u y y u y y u y y u y y y u y u y y y u y u y y y u y u y y y u y u y u y u y u y d y d y d y y u u y u d d d d y y d u d u y u d d u d d d y y d d d y d f s d d u y d d y y u d d u y d u y d y d d d y d d y d d y y y d f d d d d d s d u u u u d d d d u u u d u u y u u y u y y d y y d d u y d d y d y d u y y y y u y u s s s 2 d y y y ",
"y y u d d d y y y y y y y d d d d d d d d y y y d d d d u u u d d y y d d y u t t q d d u t y u y y u y y d d y d d y y y y y y y y y s y u u y y u y u u y y u y u u y y u y u y u u y u y y u u y u y y u u y y y u s u y u y u y y u y u u y y u y u s y y y d y y u u y u y y u y y u y y u u y u y y u u y y y y u u y y y u y y u y u u y y u y u u y y u y u s y y y y d u y u y y u u y y u y u u y y u y u u y y u y u u y y u y u u y y u y u y u y u u y d t 1 y y t u y t u t 5 5 u t d y t d t y u t 5 5 7 5 t t u y 7 t 5 d t 5 t y 5 5 y y 5 5 d y 5 7 t u t y y 7 y t 5 t y 7 t y t t t y d t : t t t 5 t y 5 t y t 5 t u 5 5 u y 5 5 t u u y u u y y y t y y y t d u t y y y 1 1 y u u u y y u y a a a a 0 y y d ",
"d d y < 1 t y u y y y y d y < < 1 1 < < < s d y < 1 < < 1 < < < y d d y y s i z =.i.h.a.p.6.z i y u y u y y y u y y y y y d d y y u y u u u y u y u u y y u u y u y y u y u u y u y u y y y u y u y y y u y u y u y u y u y y u y u y y y u y u y u y u y u y y y y u y u y y y u y y u y y u y u y y u u y u y u y u y u y u y y u y y u u y u y u y u y u y y u u y u y y y y y u u y u y y u y u u y y u y y y u y u y u y u y u y y u u y u y u y u y y y u y u t $.F.g 9.c.t l B.d m.G.9.d c.y +.9.d c.t u +.Z.N.f B.G.x.t s c.D.x.y c.D.m.d B.Z.g c.G.c.t f N.F.l y B.f f c.y m.F.l 9.G.B.f c.F.@.y y 9.F.9.c.D.F.9.0.G.m.x F.C.g x F.D.+.f B.F.x y u u g u y t z p.o.t ..8.y t 8.2.t z t.p.d y y y u i s T R P I T P u y y ",
"d t X.h.h...i y y d y d 1 o.p.h.h.s.h.h.p.f t ..h.h.s.h.s.h.h.p.f t y y d y 8.r.|.|.OXOX|.w.r.8.y y u y u y u y y y d y y y y y u y u y y y u y u y u y u y y u y u u y u y y u y u y y y u y u y u y u y u y y y u y u y u y y u y u u u y u y u y u y u y u u y y y u y u y u y u y y u y y u y u y y y u y y y u y u y u y u u y u u y y u y u y u y u y u u y y u y u y d y u y y u y u u y u y y u u y u u u y u y s y u y u y u u y y u y u y u y u y u y u u y @.aXt F.iX; v.AXg wX@.0X%.wXy 9.D.l 0Xu 5 9XN.+.+.wX%.l d t wX%.0X$.H.c.g B.H.+.g H.$.wX%.D.B.9.wXg pXZ.l G.9.0X@.l F.N.l 9.wX+.+.: z eX$.%.f H.F.d 0Xc.g x.D.x.H.9.H.+.d H.N.9.0Xf t u f u u d d g.o.< p.1Xd j 1Xp.& p.p...d y y y y y s 0 P Y U P P u y y ",
"d < p.FXFX7.t d u y d t 6.nXBXFXFXFXBXFXnXf < 8.FXFXFXFXBXFXFXBXMXk i u 1 8.p.oXOXOX` ` oXOXoXw.7.y d y y y y y y u y u y u y u u y u u u y u y y s y d y y u y u y y u y u y y y u y u y u y u u y u y u y y u y y y y u y y u u y u y u y u y y s u y y u u y y u y u u y y u y u y u y d y y u y y u y u y u u y u u u u y u y y d y y y y y y u u y u y u y y u y u y u y y d y y y d y y d y u y y u y u y y y y y u u y y d y y y d y y d y u u y u y y u u u t x H.t N.wX@.Z.0Xg H.B.H.+.H.y 4.Z.l H.u 7 x.wX%.f eXG.9.5 7 H.B.H.+.H.9Xx.l 0Xc.7 H.B.9X$.9Xy : G.9.F.D.c.Z.l H.B.t F.wXm.l H.C.d y y Z.G.l o B.c.@ P.H.x.$.0XB.M.$.eXZ.@.0Xy ; H.$.t u f d y d y s.j h g.p.6.1 2.p.< o.d.8.t d y y y u 2 T U a T T U t d y ",
"d < 7.BXBX8.< d y d y d MXBXnXnXnXnXnXnXMXf t 8.nXnXnXnXnXnXnXnXFX1X1 s o.h.}.OXE : { 2 s E }.h.p.3.t d y d y d u y u y u y u y y u y y y u y u y i y y u y y u y y u y u y y u u y u y u y u y u y y y y u u y y y d y y u u y y u y u y u y u u u y u u y y u u y u y y u u y y u u y y y y d y u y u u y u y t u y s y y u y y y y y y y d y y y y u y u u s u y u y u y y u y y y u y y y y u y u y y u y u y y y y u y y u y y y u y y y y y y y u y u y u u u u l H.t C.B.9XN.F.+.9XB.l d wXy 9.G.f 9X5 u 7 l eX4.H.d d d y H.H.L.5 L.+.y u t wXc.F.Z.l y wXl y 0X$.F.l uXH.y t G.N.C.x.t u 7 F.F.: d 5 x.eX5 C.v.5 P.+.5 l.L.0X@.9.F.: d wXl y 0X+.t d f d y y y h.z o.1Xg.g.< 8.p.1 d d g.2.t d d y u s a I T 8 Y P y d y ",
"d < q.BXBX8.t d y d y ..nXBXzX8.X.X.o.o.X.u < 8.nXnXs.z X...6.nXnXMXs u *.oXOXz : f u u y w 2 MX5Xp.d u y y y y y y u y u y y u u y y u y u u y y y y y y u y y u y y u y y u y u y u y y u u y y u y u u u y u u y y y i s y u y y y u u y y y y y u y y u y y y y u y u y y y y y y y y y y y y y u y y y y u u u y y u y y y y d y y d y d y u y y y y y u y y y u y y y u y y y d y y y y y y y y u y u y y y y s i y y u y y y d y y y s y u y y y y y u y u u t 9.uXf B.4.L.4.F.x G.d 5 y m.9X0X%.d eX9Xc.N.D.F.l wXF.x.t y G.d Z.c.F.9Xv.9.G.H.+.D.g 5 t x.P.9XN.f H.5 C.H.O.G.H.%.C.0XM.4.D.H.9.t g F.G.B.5 B.v.5 H.9Xv.x.N.l G.l.aXD.+.9.0XH.B.y y y f y y y d 1X2.p.X.t h.z 3.7.1 6.p.h.k y y y y y s T T Y U P P u y y ",
"d < q.BXBX8.< d y u t ..nXFXg.& 3 < & % t u t 8.FXFXq.1 y y < 5XFXzX1 o.s.|.[ > u u u y p.p.% 8.zX7.2.t d y u y y u y u y u y y y y u y u y y y y y y d u y u y y u u y u u y u y u y u y y y u u y u y y y u y y u y y y y u y u y u y u y u y y u y u u y y u y u y u y u u u u u u d y d y y u u u u u u u u u u u u u u u u y y d y d y d d u u u u u u u u u u u u u u u u d y y y y d d d u u u u u u u u u d u u u u u u y d y y y d d d u u u u u u u u u u u f x f d d d u f u f d d h t l f t d l +.f h +.d u l +.g d y g d d f f +.l d +.d y g d d d t f l t y f u y f s +.g t f +.+.d x g y u u l l 7 u f d u f x l d f y g h g +.h 7 g l t y d s d y d d d j j d s y d d d d y f z d d d y y d y d j 0 a 0 a 0 u u d ",
"u t q.BXBX8.< d y d y z MXBXnX5X,X1X1Xp.j s t 8.nXFXq.& i t < zXBXMXt j 5XzX5Xr.w d y f 7.f y f 5Xh.6.i d u y y u y y u y y u y y u y y u y y u y y u y y u y y u u y u u y u y y u y u y y u y y u y u u y y u y u u y u y y u y u y u y y y u u y u y y y d y u y u y y y t t s t t s t y y 1 s t t t s t t 1 t y t y t t s t 1 t y 7 t t 1 t s t t t s t t t y t y t : t s t y t y 7 1 y t t t y t 1 s t t t y t t t t s t s 1 t y t y t t t 5 y t 1 y t t 1 7 y y t 1 t t t s t t s < t t t y : t 1 s t : : t t t y t t t y s y y s y t t y s t t d t y y s d 7 y y d t d h y d t t d y 5 t y y y s t d t 1 t u t y y t : t 1 t s 5 t t : t y t 1 t s t t 1 y t t t 1 t t t s t y t 1 t y t s t t t t t y 1 y y 1 t s 1 y y t ",
"d t q.BXBX8.t d y y d t p.BXBXBXFXBXBXFXzXd < 8.BXFXg.6.7.8.g.nXBXzXy y % 7.FXnXz t s y t y y t zX1X6.t y y u u y u u y y u y u u y y u y u u y u u y u u y u u y y u y y u y u u y u y u y y u u y u y y y u y u y y u y u u y u y u y y u u y y u y u u y y y y u y u 1 : : : : : : : @ : : : : : : @ : : : : : : @ : : : : : : : : : : : : ; : : : : : : : : : : : : : : : : : : : : : @ : : : ; : : : : : : : : : : : : : ; : : : : : : @ : : : : : : : : : ; : ; @ @ : : : : ; : : : : : : : : : : : : : : ; 5 : : ; : : : 5 5 : 5 5 5 5 1 7 t : 7 5 : 7 5 5 5 5 : 7 : : : 5 : 1 7 1 : 5 7 : 5 : 5 7 5 5 : ; ; : : : : : : : : : : : : : : ; : ; : : : : : : : : : : @ : : ; : : : : : ; : : : : : : : : : @ : : @ : : : : : ",
"d < q.BXBX8.< d u y y u t p.zXMXnXMXnXnXBXt.< 8.BXnXBXBXBXFXBXnXFXg.< d h.MXnXnXo.t d d d y y d zXd.6.i d y u y u y y u y u u y y u u y u y y u y u u y y u u y u y y u y y u s u y y u y u y u y y y u u y y u y u y y y u y u y u u y u y u u y u u y y u y y y y u y : ; : O : : : ; : : : : : : : : : ; : : : : : : : ; : : : O @ : : : : : : : : ; : : : : : : : @ : : : : : : : : : : : : : : : : : : : : : : : : : : : : > O @ : : ; : : : : : : : : : @ : : : : : : : : : : : : : : : : : : : ; : : O : ; : : : : : : t 7 5 5 5 : t 7 7 : t 5 5 5 5 : 5 7 5 5 7 7 : o , < 5 7 : 5 7 7 1 5 5 1 5 1 5 : @ : < : : : : : : : : : : : : : : < : : : : : : : : : : : : : : : ; : : : : : : : : : : : : : : : : : : : : : : ; @ ",
"u t q.BXBX8.t d u u u y u t d e d d k MXFXg.& 8.BXnXnXBXBXnXBXnX5Xf t 2.FXBXnXBX5Xt < t s d t 2.5X8.8.1 d y y u y u u y u y y u u y y u y u u y u y y u y y y u y y u y u y u y y u y y u y u y y u y u y u u y u y u y y y u y y u y u y u y y u y y y u y d y y y y : : : : : : : @ : : @ : : : ; : : : : : o : : @ : : : : : : : : : : : : : ; : : : : + @ @ : : : d < @ : : : : o ; : : : : : : : : : ; : : : : @ : + + : : : : : : : : : : : : : ; : : : : : : @ : @ : : @ : ; : : : : : O : : : : : : : : : : : @ : 1 7 5 5 5 5 9 0 > 1 5 t : 1 7 5 7 7 7 t 5 5 1 4 6 ,.<.e 1 7 t 5 5 1 7 : 7 7 5 5 : : : @ @ o O @ : : + + : @ O ; ; : @ o : @ ; + : @ : : : : : : : @ : : : : : o + : + : o : o ; + : @ : @ + : + o : : : ",
"d < q.BXnX2.< y t t i y y t y t t 1 d zXFXg.& 8.nXnXg.8.8.8.8.3.y y u u 8.X.h.BXnXzX1.8.d y t zXMXp.k y y y u y u y y u y u y y y y u y u y y u y y u y y d y y u y y y u y y u u y y y y u u y u y u y u y u y u y u y u y u y y u y y u y y u y u y y y y d y u y : : : : : : @ @ { 5 ; : : @ : : : : : : : : @ : : : : : @ : : : : : : : : : : : @ : @ c.L.$.X : X H.u : 1 o : @ 4.l O : @ : + + : : : : o < : @ t o $.x @ : : : : : : @ : : ; : : : : : : : @ : O : : : : : : @ : : @ : > e @ : : @ : : + : : : : : : 5 7 1 7 1 1 Y U 2 t : 7 1 5 : ; : : ; : t 7 5 < r f.<.<X7 1 5 7 : s : 1 t : t : @ : @ r i.<.<.t.w X A.c.$ c.Z.+.0Xv.l.D.X l.+.v.@ +.9.o : : O } } 1.,.} : : X C.5.: L.D.v.o 9.L.D.: v.s y v.9.eX0Xx @ : ",
"u t q.BXnXMXzXzXzXMX6.< 2.MXzXzXzXzXnXnXFXp.& 8.BXFX7.& t t y t u y u u < X.MXBXnXnXBXBX..< g.5Xp.<.t d u y y u y y u y u y y u u y y u y u y y u y y u y y y y y u u y y u u y i s y d u y y u y u u y y u y u y u y u y u y u u y y u y y u y u y y u y y y y y : @ : : @ : : : ,.<.@ : : : : : : + : O : : : : : : : : : : : : @ @ : ; : O : : : : @ t iXg @ 9.L.l.A.#.Z.Z.g L.m.pXL.@ f P.P.%.v.L.#.D.C.j.L.$.#.L.x.tX0X: : : @ @ : : : : @ : : : @ : : : @ : : : : : : : : : : : : : : : <.<.: : : : : : : : : : : 5 5 5 5 : 1 9 I I 0 : 5 1 7 7 r r w } 1.s : 5 1 : e <Xs.f.: : 7 t t : t 5 7 7 : : : : @ e d.1X1Xd.7 X 0XiX$ rXL.x.D.: $.LXx v.x.L.o l.C.. : : : ,.5 g.q } 7 @ 5 tXA.y qX+.0Xg qX: x.Z.D.g u 0XX C.c.o : : ",
"u < p.FXnXFXFXBXFXFXp.< 7.FXBXFXFXFXBXFXMXk < 8.FXFXp.1 d d u d y u y u t g.FXg.p.FXnXnXq.,XnX8.p.d d y y u y y u y y u y y u y y u y u u y y u y u u y d y y d u u y u u y u u y y y y y y u y y u y u u y y u y u u y y u y u y u y y u y y u u y u y y d y 1 : : @ : : @ : O w g.O : : : : @ : : : : : : : : : : @ O : : : O : : : : : : @ : : @ : : o $.0X%.tXL.qXC.0X0XP.tXl.$ D.x X +.L.1 L.P.+.C.0XqXL.D.y tXL.qXD.x o : : : : : : > : : : : : : O : > : : : : : : : : @ : : : @ @ : > # d.r O : : @ : : : : 5 7 7 5 5 7 : 1 T `.U P 1 5 7 : 7 s.f.f.<XlXe 1 7 7 : r f.w f.r ; : : : t : 1 > : : : ; : @ e s.s.s.r.w O V.P.$.L.N.l.yXl.4.C.D.C.j.D.X $.V.X : : O } 5 d.8 r 7 X l.L.0Xx rXL.C.$.D.$ t L.G.s t L.$ N.9.X : : ",
"u t 8.MXzXzXzXzXzXMX7.< 2.zXzXzXzXzXzX1X..y i 2.zXMX8.< d y y d u y y u y d 7.t p.FXp.p.5Xp.p.p.d y d y u y u u y u u y u u y u u y u y y u u y u y y u y y y y y y u y y u y y y y y y u y y u u y u y y y u y u y y y u y u y u y u u y u u y y u y u y y y : : : : : : : : : O <.1.: : @ : : : @ : : : @ : : @ : > : : ; : : : : : O @ > : : : : : : 1 : %.eX0Xl.s D.P.D.y V.V.X H.$.  x 0Xg G.D.h V.D.f t x.0XqXx.1 D.$.o : : : @ : @ @ : : @ : : @ : : O : @ : : @ : @ : : : @ : : : : O <.<.O : : : : : : : : 1 t : 5 5 1 < : U T 0 U 7 5 1 : 7 : : : 7 r : : : t 1 e <X<.<Xw : : t 7 : s t : : : : : : + w 1X1Xf.g.7 O Z.v.pXz.C.v.m.$ b.x.#.LX+.P.s C.m.X : : : } 7 e.7 } 7 o P.G.qXD.D.: eX$.0X1 v.C.Z.$.#.L.$ Z.l.o : : ",
"u u y t t t y t t t u d y t t y t i t t y d y y y t y y y u y y y y d y y y i < p.nX..z zXq.8.y t s y y y y y y y y y y d y y u y d y y y d y y d y y d y d y y y y y y y d y d y u u y u y y u y y y u y y u y d y y d y y y d y y y u y y u y y y y y y y : : @ @ : : : : @ : : : e : : : ; : : : : ; : : : : : : : : : : @ : : : @ : : @ : O : : : o : C.G.g +.L.$.x.g Z.C.y D.v.%.D.: g tXL.x l.u 1 D.m.$.G.$.x L.$.%.D.: @ : : : : : : : @ : @ : : @ : @ : @ : @ : : : : : @ : @ : : : : e > O : : : : : : : 1 1 5 5 1 5 5 1 5 0 1 : 0 w 1 t 5 5 7 7 5 : 1 7 5 7 1 5 5 } ,.q 1 7 5 t : : < : ; : : : : : @ w p.<.<.p.8 o l.f Z.f 9.+.rXN.$.%.X P.u +.L.V.: @ : : o ,.} <.} ,.: 1 m.o : V.D.L.v.o 4.D.D.1 d D.H.h X l.+.+ : : ",
"y y y u d d d d d y d y u u u u y d y d d y y y s y y y y y u y y y y y y y d y t d y y d h t y d d d y y d d y d y y d y y y y d d y y y y y y y y y y y y y y y y d d y y y d y y y u y y u y y u y y u y u y y y y y y y y d y y y y u y u y d y y d y : @ : : > : @ @ : : : : : O : : @ : : O : : : @ : @ : : @ O @ : : : : : : : : : : : : : : : > : o O @ @ o : o @ + @ @ o : @ o o @.D.$ : @ : @ + : + : @ o @ : @ @ : : : : O : : : : : : : : : : : : : : : : : : : @ : : : : : : : : @ : : : : : : : : 1 : 7 5 5 7 7 5 7 5 > t : 1 : t 5 5 t : 5 5 t 7 t 5 1 : 5 5 @ < : t : 5 7 t 5 : : : @ : : @ : : : o o O @ : : o : o @ o : O : : @ : X : @ @ o O : : : : @ : @ : @ : : o : : O @ @ o : @ O o : + + + @ : @ @ : : : ",
"u u u d d d d y d d u y u d d d d u u d d d u u d d d d d d y d d d d d d y d y d y u d y y d d d d y d d d d y y d d d d d u u u u d d u d d d d d d y d d d y d y d d u u h u u u d s d u f s u d d d d d d y d d u u u d d d d d u u d d d y d d d y : : : : : : : : : : : : ; : : : @ : : : : : : > : : : : : @ : > @ : : @ : @ : : : : : : : : : : : : : : : : : : : : : : : : : : + y #.: : : : : : : : : : : : : : : : : : : : : @ : : : @ : : @ @ : : : : : : : @ : : : : : : : ; : : : O : : : : : : < 5 5 7 t 7 t : t : t 5 < 7 t : t : s t : 1 5 1 : : t t 7 7 5 5 7 t 7 7 1 1 5 : : : : : : @ : : @ : : : : : : @ : : : : : : : : : : : : : : : : : : : : : : : : : : : : : : : : : : : : : : : : : : : : @ : : : : : ",
"5 5 5 : : 5 : < 5 : < : < : : 1 : : 1 5 : 5 : < 5 < : : < 5 5 : < : 5 : 1 : : : 5 : 5 5 : t : : 5 1 : : : < : : : t : : : 5 : < : : : : < : : 1 : 5 t : t : : : 1 : t : : < : : 5 5 5 5 5 : 5 1 < : : 1 : t : 5 : t 1 > < 5 : : : 1 5 5 : 5 : 5 : < : : : : @ : @ : : @ : : : : O : : @ : : : : : : O @ : @ : : : : : : : : : : : : : : @ : : @ @ : @ : : : : : : : : : : : : : : : : : : : o : : : @ : : : : : : : : : : : @ : @ : > O : : : @ : : : : : : @ : @ : @ : : : : : O : @ : : : : : : : O > : : : : : : : : > : : : : : : : : : : : : : : : : : : : : : : : : : : : : : : : : : @ : : : @ : : : : : : : : : : : : : : : : : : @ : : : : : : : : : : : @ : @ : : : : : : : : : : : : : @ : : : @ : : : : : : : : @ : : ",
"@ : : : : : : : : : @ : @ ; @ ; : : : : : : : : : : ; : : : : : ; : : : : : ; : : : : : : : : ; : : : ; : : : : : : : ; : : : : : : : : : : : ; : : : : : ; : : ; : : : : : : : ; : : : < @ < : : : : : : : : : : : : : : : : < : : : : : : : : : @ : : : : ; ; : : : : : : : : : : : : : : : : : : : : : : : : : : : : : : : : : : : : : : : ; : : : : : : : : : : : : : : : @ : @ : : ; ; : : : : : : @ : : : : : : : : : ; ; : : : : : : : : : @ : : : : ; ; : ; : : : : : ; : : : : ; : : : : : : : : : : : : : : : : : : : : : : : : : ; ; : : : : : @ : : : : : : : : : : : : : : ; ; : : : : : : : : : : : : : : : : ; ; : : : : : : : : : : : : : : ; ; : : : : : : : : : : : : : : : : : : : : : : : : : : : : : : : : : ",
"y y y y y y y t y y y y u y u u t d t y y y y t y y t y y s t d y y y y y y y y y y s t y h y y y y y y y t y y t y y y d y y t t d y y t d t y y y y d y y s y y y y t y 2 : 7 7 7 2 7 1 s 7 : 7 : 2 2 7 7 2 7 t 2 7 7 7 : 7 t 7 7 > 2 t d s t y y y t y y y y y t y y y y t y t s s t y y t y y t y y y t y y y t y y 1 y y t y y t y t y y y y t y y y t y y t y y y y y y y 2 y y y y y y y t y t y y t d t y y t y y y y y t y t y 1 y y t y y y y y y y y 2 t y y y y t y t s s t y y y t y y y y y t y y 1 y y y d y t y t y y y y y y y s d y y d t y y d s s t y y y t d y t t y y y y t y y y 1 y t y y y y t y y y y t y y y 1 y t t y y t y y y y y t u y y y y t y t t y s y y t y y t y y y t y y y t y y t y y t t ",
"y y y y y y d y u u u y i u u u d d y y y y d y u u u s t y t y d t t y t y y y t y y y d t t t t y y y d y d y d y t s s t t d t y s t y y y y t y y t t t s d u y d y h v V / V V v V V V V V V V / V V V v V V V V V V V / Z V V / V v u s d u u u u y y u y y y y y y d y y y y d y y d d y y d y d y y y y y d y d y y d y u y y y d y d y s d y u d y d y u u y y y u y u y y y y y u y u d d y d d y d y u u u y y y u u d d d y d y d y u u u y y y u y u y y y y d d y d y s y u u d y y u u u y d y u y y y u y y d y u u u u y y y u d d y d y y y y y u s u u y y d y d h d u y u u d y y u y y d y u y y y y y u u d y y y y y h d u u y y y y u u u y y y d y y d y d d y u y u u y y y u s d y u y d y d d y d y u ",
"y y d d y d d d d d y y d d u u y y d y y d y y y y y y : : : : : : : : : : : : : : : ; : : : : : ; : < y y y y d t : : : : : : ; : : : : : : 5 : : : : : : : t u y y u 2 (.XX(. X X X XXX(.XX(.XX(.(. X X X X X X X X XXX(.(.(.XX(.(.XXXXu y y y u y y u y u u y s y y y y d y d y d y y y y y y y y y s y d y y y y y d y d y y d y d y y y y y y y y y y y y y u s y u y u y u y y y y d y y y d y y y y y d y u y y y y y u y d y y y y y d y u y u y u y u y u y y y y y y y y y d y y y u y y y y y y y y d y y d y y d y y u y y u y u u y y y y d y y d u y u u u y y y y y y y u y y u y y y d y y d y u y u y y y y u d y y d y d y y y y d y y y y u y u y y y y y y y y y y u y y y d y y u y y y y y y y y y y s y y ",
"y d t : t 7 7 t 5 5 y y 5 7 u d y d d d u u u y u d u u : : o : : o : o o : : o : + : : : : : : ; : : t u u u y d t : o o : + + : : : : o + ; < : : : X : : : t y y y y > (.) ~ ! ! ! ! ! ! ! ! ! ! ! ! ! ! ! ! ! ! ! ! ! ! ! ! ! ! ! ( (.i y y y u u u u y y u y y y y y y y t u u y u y y d y y y y y y y y u y y d y y s s u y y y u y y d y y d y y y u u d y y y y y y y t y y y y y y y y y y y t y y y y y y y y u u y y t s y y y y y d y d y y d u y y y y y y y s s u u y 7 u y y u y y d y u y y u u y y s s y y y y u y y u y y s u y y y d y y y u y y y y y y y y u y y d y y s u y y y t y y y y y y y y u y y y y y y y d y y y y y y y u y y y y y y y y s u u y u y u y y y u y u y u u y y u y y y y y u y u u ",
"d 1 $.L.j.N.A.v.H.D.f g H.N.t t y t y 1 5 5 7 y t t u u : : +.t : +.: +.+.: s g < x : : : : + $.+.o : t u y y y d 5 : +.x d x +.o + : : l h + < : : O M.: + : t y t y y 7 ' ) ^ ( ( ( ( ! ( ( ! ) ! ( ^ ( ! ! ! ( ! ( ( ( ( ( ( ( ( ! ( (.i t y t t y t t y 7 t t y y s 5 y y 7 t y 7 t y t t y 7 y t y t y t t t t t y t t t 7 y t 7 t y t t 7 t t 7 y t t 7 t t t y s 5 y y 7 7 y t y t 7 y y 1 y 7 y y t t y 7 t t y t t t y t s t y y t t t 7 t y t t t t y y t y y 5 t t 7 u t t y t 7 t y t t 7 y 7 y t t t t t y t y t 7 y t 7 t y t t y y y t t 7 y t t t t y y 5 y y 5 t y 7 t t 7 5 y t y s t y t t y 7 t y t t y t y t y t t t y 7 t y t y 7 t y t y y t y t 5 y y y u y u y y u u y s y u y y y u y d y d y u y u y y ",
"u : C.C.u qX#.u H.v.% 9.L.t v.A.x C.9.N.H.A.G.f b.A.f u : d v.C.$.Z.m.$.0XN.Z.+.m.D.x.+ t @ h SXsX: : t u y y u d : l 0X+.u l.x.1 @.; : v.D.g : > @ x.PXF.o : : t t t t 2 ' ) ~ _ _ _ ) ~ ' ( ) _ ) ) ! ) ! (.! _ ~ ' ( _ ' ' ( _ _ ! ! (.y 5 t 7 t 5 7 t t 5 t t t 7 t 7 t 5 t t 7 5 t 5 7 t 7 5 t 7 t 7 t t 7 t t t 7 t 7 t 7 7 t t t 5 7 t y 7 t t t 7 t t t t t 7 t 7 t 5 t t t 7 t t 7 t t t 7 t t t 7 t t 5 y 5 7 t 7 7 t 5 y 5 7 t 7 7 t y 7 5 5 t 7 t t t t t 7 7 t t t t t 7 t t 7 t t 5 7 t t t 7 t 5 t t t t 5 y 7 t 7 t t t 5 7 t 7 5 5 t 7 5 t t t 7 t 7 t y 5 5 5 t t 7 t t 7 t y t t t 7 t 7 t t y t 5 7 t 7 5 t t 7 7 t 7 t t t t 7 5 t t 7 5 t 1 t t y 5 y y y u y u y u y u y u i y u u y y u y y d y u y y u u ",
"d : N.tX#.0XH.u N.4.@ 5.pX4.P.4.d A.P.L.v.G.v.V.0X0Xv.5 < @ $.L.o +.V.$ m.N.0X$.v.tX#.+ t ; h +.O.d @ 1 u u u y d : x 0Xf N.m.c.Z.0X#.+ X C.x @ : @ g g O.: @ : 5 5 7 t > ] ( Q ( ) _ ( ~ _ ( ) n ) _ ~ ( ( _ ( ( Q ) ~ ( ( _ ( _ ) ~ ~ ' t 5 t 5 5 5 5 7 5 5 5 : t 5 5 t 5 5 7 5 5 5 t 5 5 5 5 5 5 5 5 5 5 5 5 7 : 7 1 5 5 5 t 5 5 5 5 5 5 5 5 5 5 5 7 5 5 5 5 t 5 5 5 t t : 7 5 5 5 t 5 5 5 5 5 5 5 5 7 5 5 5 5 5 5 5 5 5 t t 5 5 5 5 5 5 t t 5 5 5 5 7 5 5 5 5 5 5 5 5 5 5 7 5 5 5 t 5 5 5 7 5 5 5 5 5 5 5 t 5 7 5 7 5 5 5 5 5 5 5 5 5 5 5 5 5 5 5 7 5 5 5 5 5 5 5 5 5 5 7 5 5 5 5 t 5 5 5 5 7 5 5 5 7 5 5 t 5 5 5 5 5 5 5 t 5 5 5 5 5 5 5 5 5 5 5 5 5 5 5 t 5 5 5 7 7 t 7 y y u y u y u y u y y y u y u u y y y y y y u y y y ",
"d 5 C.x.5 P.f 5 A.l.; x.A.o L.f C.rX0XG.$.C.c.N.0XN.l y 5 @ g L.+.C.@ %.N.c.$.C.L.x.V.+ 1 o O.uXwXs : 1 u y y y u : x 0Xs V.v.Z.0XV.+.o l.v.o 1 1 o x.sXB.+ + : 5 < : : > ] ! n ( ( ) ! n ( ~ ( ! ( ( ! ( ) _ ) ) ~ ( ( ( ! ( n ) ) n ~ (.O : : 5 5 t : 5 : 5 5 : t : : : : 5 : 5 5 ; 5 : 5 : t 5 7 : : 5 5 : 5 t : 5 5 5 5 5 : 5 : 5 t : t < : 5 5 5 : : 5 : 5 : t < : : 5 : 5 5 : 5 : : : : : : 5 < : : 5 5 : 5 : : < 5 ; t : 5 : : : t : 5 : : 5 : t : : t : 5 < 5 5 5 5 5 : t : 5 : : 5 : < 5 5 5 : 5 : 5 5 : 5 5 : 7 : : t 5 : 5 t : 5 5 : 7 : : 5 5 : 5 t : t < : : 5 : 7 : 5 5 : 5 : : : : 5 : : : : 5 : : 5 : : 5 5 : 5 5 : : : 5 : 5 5 5 : : : < 5 t : : 5 5 5 t y y y y y u y u y u y y y y y s u u u y u u y u y y u u ",
"u t #.+.7 4.d t 5.l t l #.7 5.f c N.$.$.l @.+.l #.N.f y @ l C.v.D.0X+.v.l y L.v.v.D.j.@ t : O F.B.o : t u d s u u : g l.$ c.z.$.x.V.< t tXC.h : : : t aXx o + : ; : : 1 > ^ ! n ( n n ! ~ ! ! n ( ( n ! ~ ~ n n ! ~ ~ ~ ! ! ! ~ n ~ ~ n _ < : ; : ; : : : : : 5 : : : : : : : : : 5 : : : : : : : : ; : : : : : : : ; : : : ; : : : ; : : : ; ; : : : : : : : : : : ; ; : : : : : : : : : : : : : : : ; : : : : : : : ; : : : : : : : : : : : : : : : ; : : : : ; : ; : : : : : : : : : ; : : ; : : : : : 5 ; : : : : : ; : : : : 5 ; : : : : : ; : : : : : ; : : : ; ; : : : ; : : : : : : : : : : : : : : : : : : : : : : : : : : : : : : : : : : : ; : ; : : : : : 5 5 t y y u y y u y u y u y y y d y u y y u y y u y u u y u ",
"u u t t u t u u 7 t d t t u t u t 5 t t y t y t y 5 y u 5 : y : : 1 t : : @ 1 @ @ 1 : : : : : : : : : : u y y d s t : : : : : O @ y : : : y : : : : : : @ @ @ : : : > O > ( n n n n n n n n n = n n n n n n n n n n = n n n = n n n n n ( < @ : ; @ : @ @ ; @ @ @ @ ; : : @ : : @ @ : @ @ ; : @ @ ; : @ : @ @ ; @ @ @ @ : @ ; : @ : : @ @ ; @ : @ : ; ; @ : @ : ; @ @ : : : : ; : @ @ : ; @ @ : : : : @ ; : @ @ ; : @ : @ : @ ; ; ; : @ ; @ : @ ; : @ : @ ; @ : @ : @ @ : @ ; ; @ ; : @ : @ @ : @ : ; ; : @ @ ; @ @ @ : ; @ : @ @ @ : @ @ ; : @ @ @ ; : @ : : @ @ ; @ : : @ : @ : @ @ ; : @ : @ : : @ : ; @ : @ ; ; : @ @ ; @ : : : : @ ; : @ @ : : @ : @ : @ ; ; : : : 5 5 5 d y u y u y u y y y y y y u y u y y u u y y u y u u ",
"u u u u y u u u u u u u u u u u d d d d u u u u u u y u ; ; @ : : : @ @ : : @ : : ; : : : : : ; : : : t u y y d u t @ : @ : : : : @ : : @ @ : : : @ : ; @ @ o : : @ > O O ! ( ! ! ! n ! ! ~ ! ! ~ ~ ! ! ~ ~ ~ ~ ~ ! ~ ! ~ ! ~ ~ ! ~ ~ ! ) @ @ @ @ @ @ @ @ @ @ @ @ @ + + + : + + @ @ @ @ @ @ @ @ @ @ @ @ @ @ @ @ @ @ @ @ @ @ @ @ @ @ @ @ @ @ @ @ @ @ @ @ @ @ @ @ @ @ @ + + + @ @ @ @ @ @ @ @ @ @ ; @ + + @ @ @ @ : + @ + @ @ @ @ @ @ @ @ @ @ @ @ @ @ + @ @ @ @ @ @ @ @ @ @ @ @ @ @ @ @ @ @ @ @ @ @ @ @ @ @ @ @ @ @ @ @ @ @ @ + @ @ @ @ @ @ @ @ @ @ @ @ @ @ @ @ @ @ @ @ + @ @ @ @ @ @ @ + @ @ @ @ ; @ + @ @ @ @ @ @ + @ @ @ @ @ @ ; @ + + @ @ @ @ ; @ + @ @ @ @ @ : ; 7 5 5 5 y y u y u y u y u y u y d y y u y y u y y u y y u y u ",
"y y y y y y y y y y y d u y y u y y y d y y y y y y y d 5 t t t : t t 5 7 t t t 5 t 5 t y 5 5 5 t 5 5 s y y y y d y t t 7 t t t t 5 t 5 t 7 t y 5 5 t 7 : : ; : : ; @ @ o - n n n n n n n n n n n n n n n n n n n n n n n n n n n n n n = @ @ @ @ @ o @ + + @ @ @ + + + + + + + + + + + + + + + o @ @ + + + @ @ + + + + + @ o + + + + + @ @ @ @ o @ @ + + + + + @ o @ @ @ o @ @ + + + + @ o @ + + + + @ + @ @ O + + + @ + @ @ o + @ @ o @ @ @ @ + + @ @ o @ @ @ o @ + + + + + + @ @ o @ @ + o @ + + + + @ @ @ + + + + + + + + + @ o @ @ @ o @ @ + + + + + + @ o + + + + @ + + + @ @ + + + + + + + + + @ + + @ @ + + + @ + + @ @ + + @ @ + + @ @ + + + @ + + o + @ @ : t t t y y s y y y y y u y y y y y y y y y u y y y y y y y y ",
"d y d d d u u d u y d d u u u d d y d d u d y y d y d d d d d u d d d d d d s f d d d d d d d f f s d d d d u u y y d d d u s f d d d d d d d d d d d d y 1 t 5 : : @ @ o .   X   X                               o           X           o X X X X o o X o X # X o X o o X X o X o o X o X X o o # X o o X X o o X X o o # o X o X X o X X X o o X X o o X X o o X X o o X X o X o o X o # X o o o X X o X o X X o X o X o X # X o X o X o X X X o X X o o X X o X o X o X X o X # o X o X o o X o X o X # X o o X o o X o X o o X X o X o X o X o X o o # X o X o o o X o o X X # X o X o X o o o X o X o X # o X o o X o X # o X o X o o X X o X o X X o + + @ : : 5 : 1 y y u u d d d y y d u u d u u d d d u u u d d d d y d ",
": : : 5 : < : : : < : : < : : : : : : : : < < : : : : 5 : 5 : 5 : : : < : : : : 1 5 : : : : : 5 : 5 : : : 5 : : : < : : 5 : : : < : : : : : < : : : : : : @ + ; o o X o $ u x l l l l l O.x g x +.+.l l +.x l l +.g l l +.g l x +.x l l +.g l l g g l l g g l l l l l l l l l l l l g l l l l l l l l l g g l l l g g g l l l l g x g g l l l x g g l l l l g g l l l l g l l l l l g g l l l l g g x g g g l l g g l l g l l l g g l l g l l l g l l l g l l l l l l l l l l l l l l l g g g l l l g g l l l l g g g l l l g g l l l l g l l l l l g g l l l l g g l l l g g g l l l l g g g x g g l l g l l l g g l l g g l l g g l l g g l l g g x g x :   X X o + @ @ : : : : 5 : : : t : : < : : : : < : : 5 < : : : t : : : ",
": : : : : : : < : : : : : : : : : : : : : : : : : : : : : : : ; : : : : : : : : : : : : : : : : : : : : : : : : : : : : : : : : : : : : : : : : : : : : @ : + + o o X X X g $.%.%.#.#.#.%.#.#.#.%.%.#.+.+.%.#.#.%.%.%.$.%.%.$.+.%.%.+.+.%.%.#.$.$.#.#.#.#.%.+.%.#.$.#.#.#.$.#.@.#.$.#.#.$.#.#.#.#.#.#.#.#.#.#.#.#.#.#.#.#.#.#.#.#.#.#.#.#.#.#.#.#.#.#.#.#.#.#.#.#.#.#.#.#.#.#.#.#.#.#.#.#.#.#.#.#.#.#.#.#.#.#.#.#.#.#.#.#.#.#.#.#.#.#.#.#.#.#.#.#.#.#.#.#.#.#.#.#.#.#.#.#.#.#.#.#.#.#.#.#.#.#.#.#.#.#.#.#.#.#.#.#.#.#.#.#.#.#.#.#.#.#.#.#.#.#.#.#.#.#.#.#.#.#.#.#.#.#.#.#.#.#.#.#.#.#.#.#.#.#.#.#.#.#.#.#.#.#.#.#.#.#.#.#.#.#.#.#.#.#.#.#.#.#.#.#.#.#.#.$.: X o o o o + @ @ : < : : : : : : : : : : : < : : : : : : : : : : : : : ",
"@.+.+.#.+.+.+.+.@.@.@.+.+.+.+.+.#.+.+.+.+.+.+.%.#.+.+.+.c @.+.@.@.+.+.+.@.@.@.+.@.+.+.+.+.+.+.@.@.@.@.+.@.+.+.@.+.+.+.@.@.@.+.+.+.+.@.@.@.+.c @.%.+.+.c x l l p d y s t : g %.@.$.#.$.%.4.x x %.x +.+.z.c.l.#.x x +.+.x %.x l m.l.x l.N.4.x x +.+.+.+.+.l c.c.9.x x +.x +.x #.l.x x @.+.x +.@.@.+.#.+.+.+.#.@.@.#.%.@.@.+.#.+.@.%.+.@.@.@.+.@.+.+.@.#.+.#.+.#.+.@.@.@.@.@.@.@.@.%.+.@.@.+.#.+.@.@.@.@.@.+.@.@.#.#.+.#.+.#.+.#.#.#.+.#.+.@.@.+.@.#.+.#.+.@.@.@.@.@.@.@.@.@.@.@.@.@.@.@.@.@.+.+.@.%.+.+.#.+.#.+.@.#.+.+.@.%.@.@.+.@.@.@.@.@.+.@.+.%.+.@.@.+.#.@.@.@.@.@.@.%.@.@.@.@.@.@.@.@.@.@.@.+.+.+.@.+.#.+.+.%.@.@.@.@.@.@.@.%.@.@.+.@.+.#.@.@.#.+.#.#.u < t t d u f l l x +.+.+.+.+.@.+.@.+.+.+.+.+.+.+.+.+.@.+.@.@.+.+.@.+.+.",
"#.#.+.x %.#.#.#.@.@.#.#.#.#.#.#.+.$.#.#.#.+.#.c x +.#.$.#.#.#.#.#.#.#.#.#.#.#.@.@.#.#.#.#.@.#.@.@.@.#.@.@.@.#.@.#.#.@.@.%.@.#.@.#.@.@.@.@.@.#.@.+.%.#.+.x x l f h d y t 1 x +.l.D.Z.eXm.D.$.v.m.0X+.v.wXm.c.#.m.m.#.v.m.%.m.j.G.m.l eXA.$.x.m.4.4.$.4.v.l.D.Z.4.c.C.l.N.l.0Xv.4.$.B.@.l.N.4.@.@.#.+.#.#.#.+.#.+.@.+.@.@.@.@.#.@.@.@.@.@.@.#.@.@.#.@.@.@.%.+.@.#.@.@.@.@.@.@.@.@.@.@.@.@.@.@.#.@.#.+.#.@.#.@.#.+.%.+.@.#.+.#.#.+.%.+.@.#.@.@.#.@.%.+.@.#.@.@.@.@.@.@.@.@.@.@.@.@.@.@.@.@.#.#.#.#.@.@.@.#.@.@.#.@.+.#.#.@.+.@.@.#.@.@.@.@.#.@.#.#.@.@.@.@.@.@.@.@.@.@.@.@.+.@.@.@.@.@.@.@.@.@.@.@.#.%.@.#.@.#.#.#.+.+.+.#.@.@.@.@.+.@.@.#.@.@.@.@.#.+.#.+.#.d : y y d f l l x c @.#.#.#.#.#.@.@.#.@.#.#.#.#.@.#.#.@.@.@.#.#.@.@.#.#.",
"#.+.$.A.$.x x x c +.x x c +.l m.N.g +.+.x %.+.V.D.$.x x @.x +.l x +.+.x +.+.x +.+.x +.x +.@.@.@.@.@.@.@.@.@.@.@.@.@.@.#.@.@.@.@.@.@.@.@.@.@.@.@.@.@.#.+.x x l f f u y t < x #.+.L.D.wX0Xm.0XwXeXwX+.c.eX$.D.D.D.eXD.rX0Xm.m.wXL.m.l eXC.m.0XwXD.Z.V.Z.v.eXH.D.D.v.pXx.P.0XeXF.H.H.L.Z.wXL.L.x #.@.#.#.+.@.@.@.#.@.+.#.@.@.+.#.@.@.@.#.@.@.@.@.@.@.#.+.#.@.@.@.#.@.@.#.@.@.@.@.@.@.@.#.@.@.#.+.@.#.@.+.#.@.@.+.#.@.@.@.@.#.+.+.#.@.@.@.@.+.#.@.@.@.@.@.@.@.@.@.@.@.@.@.@.@.@.@.#.@.@.@.@.@.@.#.+.#.+.#.+.#.+.#.#.#.#.+.#.@.@.@.@.@.@.@.@.@.@.@.@.@.#.+.@.@.+.#.@.@.@.@.@.@.@.@.@.@.@.@.@.@.@.+.@.@.@.@.@.#.+.@.@.#.@.#.@.#.@.+.#.@.@.@.@.@.@.#.@.#.+.@.+.#.d : t y d f f l x x @.#.+.@.@.@.@.@.@.#.@.+.#.#.+.#.@.@.@.@.@.@.@.@.@.#.",
"#.@.4.eXx.D.Z.D.c.x.H.N.x.l.x.D.A.V.V.z.D.$.+.wXD.0Xl.D.9.F.N.B.L.$.c.L.$.m.L.x.v.D.j.D.z.+.#.@.@.@.@.@.@.@.#.@.@.#.@.@.@.@.@.@.#.@.@.@.@.@.@.@.@.@.@.+.x x l f f i y t : x #.x L.uXV.pXx.pXF.L.C.l +.l.aX0XwXm.C.L.N.m.0XD.eXeXc.x eXc.D.B.C.0XZ.m.0XD.uXwXD.D.N.v.C.wXwXG.x.0XH.$.0X0X$.0Xx #.@.@.@.#.@.@.@.@.@.#.@.@.@.#.@.@.@.@.@.@.@.@.#.@.#.+.#.@.@.@.#.+.@.@.@.@.@.@.@.#.@.@.+.#.@.@.#.@.+.@.@.@.@.@.#.@.@.#.+.#.@.@.#.@.@.@.@.#.#.@.@.@.@.#.@.@.@.@.#.@.@.@.#.@.@.@.@.@.@.#.@.@.@.@.+.#.+.#.@.#.+.#.#.+.#.+.#.@.@.#.+.#.#.+.#.@.@.@.@.@.@.@.#.@.@.#.@.@.#.@.@.@.@.@.#.@.@.#.@.@.@.@.%.#.@.@.@.@.@.@.@.#.+.@.@.@.+.#.#.+.#.@.@.@.@.#.+.#.+.#.@.#.%.f t y y d f g l x +.+.+.#.@.@.@.#.@.@.+.#.#.+.#.#.+.#.@.@.@.@.@.@.@.@.%.",
"@.+.#.D.Z.0X0XF.D.H.D.G.wXc.F.D.D.wXm.wXuXL.g wXuXB.wXeXaXqXc.eXV.0XL.V.D.wXF.0X0XZ.H.eXrX@.@.@.@.@.@.@.@.@.@.@.@.@.@.@.@.+.#.@.@.@.@.@.@.@.@.@.@.#.@.+.x x g g f u y t 5 l $.x N.L.4.wXc D.D.v.wX#.l.P.Z.D.v.G.uXA.N.v.G.0XL.H.c.x 0XL.v.L.pXN.L.rXD.0XH.D.C.A.eXL.L.0XZ.G.L.V.Z.eXv.D.$.D.+.#.@.@.@.#.+.#.+.@.#.+.@.@.+.#.#.+.+.#.@.@.#.#.@.@.@.@.+.@.@.@.@.@.#.@.@.@.@.@.+.+.+.#.#.+.@.@.+.%.#.@.+.@.@.@.@.@.+.#.#.#.+.#.@.@.@.@.@.@.@.@.@.#.+.#.@.@.@.@.@.@.@.@.@.@.+.#.#.@.@.#.+.#.@.@.@.#.@.@.#.+.#.+.#.+.+.#.@.@.@.@.@.@.+.#.@.@.@.@.+.@.@.@.#.+.#.#.#.+.@.@.@.@.@.@.@.#.@.#.@.@.+.#.+.+.@.#.@.@.@.@.@.@.+.#.@.+.#.@.#.#.@.@.+.#.+.+.#.@.@.@.#.@.#.i : y u i f f g x c @.#.@.#.@.@.@.#.+.#.#.+.@.@.@.#.+.@.@.@.@.@.@.@.@.+.",
"#.+.$.0XF.V.F.v.D.G.C.D.wXZ.0XL.Z.c.eXiXD.v.+.0XG.G.eXG.v.N.eXwXv.wXL.v.0XL.$.0X$.wXuX0XN.@.@.@.@.@.@.@.@.@.@.@.@.@.@.#.@.#.#.@.@.@.@.@.@.@.@.@.@.@.@.+.x x g f f u d t : x #.@.@.+.@.@.#.+.$.#.#.#.%.$.%.x $.Z.eXj.+.+.+.$.#.+.%.+.%.$.#.l H.m.x #.+.%.+.%.@.@.%.$.%.$.+.%.#.+.@.#.+.@.%.+.%.#.#.#.#.+.+.#.%.#.@.#.@.+.#.#.+.#.#.+.#.#.+.+.#.@.+.#.%.#.@.@.@.#.+.#.#.@.@.@.%.#.#.+.#.#.#.@.@.#.#.@.%.#.@.#.@.@.#.#.+.#.@.@.@.#.+.#.@.#.@.@.@.@.#.+.@.@.@.#.@.+.@.#.@.@.#.#.+.#.#.+.+.#.#.#.#.+.#.@.@.#.+.#.@.#.+.#.+.%.@.#.@.@.#.@.@.@.@.#.%.#.#.@.#.#.+.+.#.@.@.@.@.#.@.#.#.+.#.+.#.@.#.#.#.#.@.@.@.#.#.@.@.@.#.@.@.#.@.@.+.#.@.@.#.#.#.#.+.#.@.@.@.+.$.f : y y u f l x x x +.+.#.+.#.@.@.@.#.+.#.#.@.#.@.#.+.@.@.@.@.@.@.@.@.@.",
"#.+.j.L.m.b.m.x.c.D.uXN.$.9XD.v.m.D.C.v.L.l.+.C.5.C.v.G.m.G.B.tX0X9.m.0Xl.N.$.V.C.G.x.H.v.@.@.@.@.@.@.@.@.@.@.@.@.@.@.+.%.+.+.#.@.@.@.@.@.@.@.@.@.@.@.c x x g f d s y 5 : l @.@.@.@.@.@.@.@.+.#.@.+.#.%.+.%.#.N.l.x +.%.+.%.+.%.+.#.+.%.%.+.$.$.+.@.%.+.+.+.#.@.+.+.#.+.%.+.%.+.@.+.@.@.#.+.+.+.+.+.%.#.#.+.#.#.+.@.#.%.+.#.%.+.+.#.%.+.#.+.%.+.#.+.#.#.+.#.+.@.+.#.%.+.@.%.+.#.+.#.+.#.+.@.#.+.+.@.@.+.+.#.@.+.@.+.+.%.+.#.%.+.@.#.%.+.+.#.+.@.#.%.+.%.+.#.@.%.@.@.@.@.@.+.+.#.%.#.@.@.+.+.+.+.+.@.+.#.#.+.%.+.#.@.@.#.+.#.@.+.+.#.%.+.@.%.+.#.+.+.%.+.#.+.%.+.+.#.+.@.#.+.%.+.+.%.+.@.#.+.+.%.+.#.%.+.+.%.@.@.+.#.@.@.#.+.#.@.@.@.@.#.+.%.@.@.#.%.@.@.%.d < t y u f f g x c +.#.+.#.+.#.+.+.#.#.+.+.@.+.@.+.#.@.@.@.@.@.@.@.@.@.",
"%.@.#.x @.@.+.#.x D.c.l @.+.+.@.+.+.+.+.x +.#.x #.x +.x +.c %.H.l @.+.+.@.+.#.c +.+.+.+.@.#.#.@.#.#.@.#.#.#.#.#.#.#.#.#.@.#.#.#.#.#.@.#.#.#.#.#.#.#.@.@.c x g g f d y y 5 y d u i d u u d y d d i h s i i d u 1 u u u u u u u i u u i u u u u s u u u u f u u u u u d i u u u u d d d d u d u d u u u u u u u i u d d i u u u u i u u d d i u u u u u i d d d i u u u u u i i d u u d d d i u d i d d d d d i d u u u u i d u u i d u u d d d i i u u u d i d u d i d y u u d d u i d u u f d u d i u u u f u u u u u i d d d i u u u u u i u i d i u d d i u u u d d i u u u u i u d i d i u d d i u u u u i s s 2 s s 2 i 2 s s 2 i 2 s i 2 s i 2 2 f u 1 t y i h f f x x @.@.#.#.#.#.#.#.#.#.#.#.#.#.#.#.#.#.#.#.#.#.#.#.#.#.#.",
"+.+.l +.x x x x x x x +.x x +.l x x +.+.@.@.+.+.5.c +.5.@.+.x x x x x +.x x x x x x x x x x x x c c x x x x x x x c x x x x x x x x x x x x x x x x c x g f f u y y y t @ t u y d y y y y u y y y y y y y y y d u y y y y y y y y y y y i y y y y y y y y y y y u y y y y y y y y y y y u u i y y y y y y y y y u u i y y y y y u y y y y y y y y y y y y y y y y y y y y y y y u u y y y y y y y y y y y y y y y y y y y y y y y y y y y y y y y y y y y y y y y y y y y y y y y y y y y y y y u y y y t u u y y y y y u u y y y y y y y y y y u u y u y y y y u u y y y y y y y u y y y y y y y y y y u s a T T T T T T T T T T R T T T T T T T T T f u 5 : t t y y d f g x x x x x c x x x x x x x c x c x c x x x x x x x x x ",
"q ; : ; : ; ; : ; ; ; : ; ; 4 ; ; 4 4 e k j k r r k r r r q % 5 : < 5 : t : 5 : : 5 5 : 5 t 5 : : : < : 5 : @ t : @ 5 : < : t : 5 5 5 : t : 5 : < : : : 5 @ @ @ o o X X X t u u y y y y u y y u u y u u d y y y y u u y u y u u u u y u y y u u u y u y y u u y u y u u y u u u u y u u u u y y u y u y u u u y u u y y y u u u u u u y u u y u u y u y u u y u u u y u u y u y u u u u y d y u u y u u u y u u y u u u u y u u u u y u u y u u y u u y u u y u d y d y y y u y u y y u u u u u u u u u u u u y u y u y u u y u y u u u u y u u u u u y u y u y y u y u u u y u u y u y y u u y u y u u u 2 Y ].'.'.'.].'.].'.'.'.'.'.'.'.'.].'.'.'.'.2 u o X X o o o @ @ ; @ @ : < : @ : : @ < < @ : @ : @ : ; @ t t @ 5 @ @ 5 : ",
"; ; . ; : . o ; ; + : . ; : . 5 + . + 7 k k k k k k k k k 7 5 5 5 5 5 5 5 5 5 t t 5 5 t 5 5 5 5 5 5 5 5 5 t 5 5 t t 5 5 5 5 5 5 5 5 t 5 5 5 t 5 5 5 < : % ; @ + o o o o X 5 u y y y y y y y d y y u u y y y y y u y u y y u u y y u u y u y y u y u y y u y y u u y y y u y y u y u u y y y y y y u u y y y y u u y y y u y u y y u y u y y y u u y y u y u u y y y y u u y y u u u y u y y y y y u u y u y y u u y u y y u u y y u u y u y y u y u u y y y u y y y d y y y y y y y u y y u y y u y y u y y y u u y y u y u u y u y y u y u u y y u y u y u y u u y u u y y u y y u y u u u y u y u u y i 2 Y `.K K K K I K K K I K L I K K K K L U '.s u 5 @ @ : 5 < t t u i d i d f f d f d f f f f d d f f f f u d f f f d d f ",
"; f U.l . J.S.. z 5.+ K.d d J.. x U.u 4 X.k k k k k e k y 5 5 5 5 5 5 t 5 5 5 5 5 5 5 5 5 5 5 5 5 5 5 5 5 5 5 5 5 5 t 5 5 5 5 5 5 5 % 5 5 5 5 5 5 5 5 5 5 5 @ @ @ o X X X 5 u u d y y d u y y y u y y y u d y u y u y y u y y u y y y u y u y y u y u u y u u y y u y u y u y y u y y y u d y y u y y u y u y u y u y y y u y y y y u y u y u y u y u y u y u y u y u y u y u y u u u t y y d y u y y u y y u y y u y y u y y u y y y u y u y y y u y u y u y u y y y y d y y d u y y u u y y u y u y y u y u y u y u y u y u y y u y y u y y y u y u y u y u y y u y y y u y u u y u y y y u y y y u u u s Y `.K I U I I I I I I I U I I I I U K U `.s i ; o @ ; : 5 5 t u u f h d f d d i f d d f d i f d d i f g g i f d h d g ",
". S.J.S.u K.Y.h n.b.o JXl S.ZX. J.J.S., k r k k k k k k t t 5 5 5 5 % 5 5 5 5 t 5 5 5 5 5 7 5 5 5 5 5 5 5 5 5 5 5 5 5 5 5 5 5 5 5 5 5 5 5 5 5 5 5 7 5 5 + % ; @ o @ o X X 5 d y y u y u y d y y y y u y y u y y u y y u y y u y u y u y y u u y u y y u u y u u u y u y u y s i y y u y u y y y u y y u y y u y y u y y u y y u u y y u y y u y y d y y d y y y i d y y y y y y y y i y y y d y y y u y y y u y u y y y u y u y y y u y u y y y u y u y u y u y y d y y d d y y y y u y u y y u u y u y y u y y u y y u y y u y u y u y u y u y u y y u u y u y u s y u y u y u y y u y y u y y u y u y u 2 Y `.K `.U U `.U I `.U U `.U `.K `.U K U '.2 u ; o @ @ ; : 5 5 7 t u y y y y y y y y y y y y y y y y u g f y u g y y l ",
"+ J.4.J.f n.S.E K.u . v.S.JXJX+ J.5.K.o k k k k k k k 8 @ t 5 5 5 t 7 5 % 5 5 7 % 5 5 5 5 % 5 5 5 5 t 5 % 5 5 5 5 5 5 5 5 5 5 5 5 5 5 5 5 5 t 7 5 % 5 % 5 5 @ + @ o X o X t u u u y u y y y y d u y y u u y u y y u u y y u y u y u y u u y y u y u u y y u y y u y y y y u y y u y y u y u u y y u u y y u y u u y y u y u u y y u u y u y y u y u y y y y y d y d d y y d d y y d d d d y y y y u y u u y y u y u u y y u y u y d y u y u u y y u y u y y y u y y y d y i y y u u y u y u y y y u u y u y u y y u u y u y y u y u y u u y y u y u u y y u y u u y u y y y u y u u y u u y u y y u u y u 2 Y `.K U `.I `.`.U `.U U `.U U I `.U K U '.2 i : o @ @ : : : t t y u y u y u u y u y y y u y y y u y u g f t l uXg t l ",
"o 5.JXn.l Y.Y.x S.; . n.5.@.ZX5.k.JX5.+ X.k k k k k j t 5 5 5 5 5 5 5 5 7 5 5 % 7 5 5 5 5 5 5 5 5 5 : t 5 5 t 5 5 5 5 5 5 5 5 % 5 5 5 5 5 5 5 % 5 5 5 5 5 + @ @ @ X X X X : u y y y y u y y y y y y u y y u u y u y y u y u u y y y y u y u y y u y y u u y y u y u y u d y y y y u y u y u y u u y y u y u u y y u u y u u y u u y y u y u u y u y y u u u y y y d y y y y y y y y y y y y d y y u u y y u y y u u y u y u y u y y y y u u y u y u u y y u y u y y y y y y y d y u y y u y y u y u y u y u u y u y y u y u u y y y y u y u y y y u y u u y y u y u u y u y y u y u u y y u d y u y y u u 2 Y `.L `.U U U '.`.`.`.`.U `.`.I `.U I U `.2 u ; o @ @ : : t 5 7 t u u y d y y y u u u y y u y u y y d l f < F.PXF.7 l ",
"; ; u 4 5 5 7 ; ; ; ; 7 4 o + 6 4 u + 7 k k k k k k 9 t 5 5 5 5 5 % 5 5 5 5 5 5 5 5 7 % t 5 5 5 5 5 5 5 5 5 5 5 5 5 5 5 5 5 t 7 5 5 5 5 5 5 5 5 5 5 5 5 % 5 @ @ @ o o X X 5 d y y u y y y d y y u u y u u y y u y u u y u y y u u y u y u y y u y y u y y y u y u y u y y y y y u y u y u y u y y u u y u y y u u y y u y y u y y u u y u y y u y u y y y y u y y y y y y d y y u y u u y y y y u y u y u y u u y y u y s y u y y y d u y y u y u y u y u y u y y d y y d y y u u y u y u y u y y y u y y u y u y u u y u y y u u y u y u y u y y y u y y y u y u y y u y u u y u y y u y y y y y u y y d i Y `.I I U I I I U I I U U I U U I U K Y '.2 y : o o @ : : : t 5 y y y y y y y u y y y u u y y y u y i l h y F.9XF.s f ",
"7 ; + ; + ; ; : ; ; ; ; + ; ; + 5 + ; 8 k k k r k j 5 5 5 5 5 5 5 5 5 5 5 5 5 5 t % 5 5 5 5 5 5 5 5 5 5 5 5 5 5 5 5 5 5 5 5 5 5 % 5 5 5 5 5 5 5 5 5 5 5 @ @ + + @ # o X X 5 y y u y u y d y y d y u u y u y u y u u y u y u y y u y y u u y d y u y y u y y y u u y y u y u y u y y d y y y y s u y y u y u y y y y u y y d y y u y y u y u y y u y y u u y y u y y u y u y u y y y u y d y y y y u y u y u u y y u y u u u y u y y u y y y y y y u y u y u u y y d y y y y u y y y y y y y u y u y y y y y u y u y y u y u y u u y u u y y y y u y y u y y y u y y u y u y u y y y u y y y d y u y y u u 2 Y `.L K K K L I L K L L L K L I L L L I '.2 f 1 o @ @ ; : 5 5 7 t d u y y u u y u y y y y u u y u y u l f y t 5 t y f ",
"k 8 8 8 7 8 8 q 8 7 u q 8 8 8 8 8 8 q r k k k k r y 5 5 5 5 5 5 5 5 5 5 5 5 5 5 5 5 5 5 5 5 5 5 5 5 5 % 5 5 5 5 5 5 5 5 % 5 5 5 5 5 5 5 5 7 % 5 5 5 5 5 5 5 5 @ o o o X . 5 u y y u u y y y y y u y y u u y y u u t u u u y y u y u u y y y y y y u u y y u u y y u y y y y u y y y y y y d y d y y u y u y y u y d y u y y y d y y u y u y y u y y u y y y u y u u y u y u y u u y y u y y u y u y y u u y y u u y u y u y y y u y y u y y d y y y u y u y y u y y y y u y y u y d d y u y y u y u i u y y y u y y u y u y y y y y y y y y d y y u u y y u u y y u y u y u y u u y y u y d y y u y u y u 2 Y ].`.'.`.`.`.`.`.`.`.'.'.`.`.`.`.'.`.].'.2 s : o @ : : : 5 5 y y y y u u y y u y y y d y y y u y y u g y : : : : : i ",
"k k k k k k k k k k k k k k k k k k k k k k k X.j 5 5 5 5 5 5 5 5 5 5 5 5 5 5 5 5 5 5 5 5 5 5 5 5 5 5 5 5 5 5 5 5 5 5 5 5 5 5 5 5 5 % 5 5 5 5 5 5 5 5 5 @ @ @ + @ o o X X < u y y u y y y y y d y y u y y u y y u y y s u y u y y y y y y y y y y u y u u y y u y u y u u y y y y y y y y y t d u y y u u y u y y y y y y y y y u y y u u y u y y y y y u y y y y y u y y u y y y y y y y y y y y y y u y y u y y y u u u u u t y y y y y d y s u y y u y y u y u y y u y y y y y y y y y y y s y u y s y y y y u y y u u y u y y y y y y d y y y u y u u y y u s y y u u y y y u y y u y y s d y y u y y y T Y Y Y Y Y Y Y Y Y Y Y Y Y Y Y Y Y Y Y R y u @ o o @ : : : 5 5 t d u y y u y u y u u y y u u y u y u l d : 5 7 < < d ",
"k k k k k k k k k k k k k k k k k k k k k k k r t 5 5 5 5 5 5 5 5 5 5 5 5 5 5 5 5 5 5 5 5 5 5 5 5 5 5 5 5 5 5 5 5 5 5 5 5 5 5 5 5 t 7 5 5 5 t 5 5 5 5 % 5 @ % + o @ o X X 1 u u u u u u y d d d u u u u u u u u u u u u u u u u d y d u u d d h u u u u u u u u u u u u u u u d d y d y d d d d u u u u u u u u y y d d y d d d u u u u u u u u d y d d i u u y u u u u u u u u u u u d y d d y u u u u u u u u u u u u u u u u u u d y d y d d u u u u u u u u u u u u u u d y d u u u u d s f u u u u d y u u u u u u u u u u d y d y d y d y u u u u u u u u u u u u u u u u u u u u y y d d u u u u u u s 2 2 2 2 2 2 2 2 s 2 2 2 2 2 s 2 2 2 2 2 y u : O @ @ @ 7 5 5 5 y y y u y y u y u y u y y u y u y y u g u @.@.#.#.+.g ",
"....k k k k k k k k k k k r k k r k k k k k k d % t 5 5 7 % 5 5 5 5 % 7 t 5 5 5 t 5 5 5 % 7 5 5 5 5 5 5 5 5 5 5 5 % 5 5 5 t % 5 % 5 5 5 5 5 5 5 5 5 5 5 5 @ @ @ # o X o X % y 7 t t s t 7 t t s 7 1 s t t : s t t y 5 t s t t 7 t t s t t t t 7 t 7 t t t t t t t t t t t y t t t t t s 5 t y t t 1 t t y t t 5 y t t t 5 y 5 t t 1 t y 5 y 5 t t 7 t t y t t y t t t t t t t t t t t s y t t t t 5 t 7 7 t 7 t t t t t t t t s t t y t t t 5 t t t t t t 5 t t t y t y t t 5 t 5 y 5 t t y t t t 7 t t t t y 7 t y t t t t s 7 t t t t t t t y t 5 t t t y u t t t t t t 7 t t s t y t t t 7 t s t t s t t y y i t y t t y 7 y 7 y t t t u 7 t 7 5 y s t : + + @ : : < 5 y y u u y u y u y u y y y d y u y u y d g d @.+.#.#.+.f ",
"r T r k k k k k k k k k k k k k k k k k k k k 7 5 7 5 % 5 5 t 5 5 5 5 5 5 5 7 % 7 % 5 5 5 5 5 5 5 5 5 5 5 5 5 5 t 7 5 5 5 5 5 5 5 5 5 5 5 5 5 5 5 5 5 5 @ 5 % @ @ o o X X @ @ @ : > : : : : : : : : : : : : : : : : : : ; : : : : > : ; : : : : : : : ; > ; : : : : : : ; : : ; : ; : ; : : ; : : : : : ; : : : ; : ; : : : : ; : : + : : : : ; : : ; : ; ; ; : : : : : : ; : ; : ; ; : ; ; : : : : : : : : : : : : : ; : ; : ; : ; ; : : ; : : : ; : ; : : : ; : : : ; : : ; : : : : ; ; : ; : : : : ; : + : : : : : ; : ; : : : ; ; : : > @ : : : : : ; @ ; ; : : ; : : : : > > : : ; : > : : : ; : : : : ; : : : : > : ; @ @ : : ; : ; ; : : : : : : : + o + @ ; ; 5 t 7 t s u y y u y y y u u y y y y y y y d g f +.#.@.@.+.f ",
"k k k k k k r k k k k k k k k k k k k k k ..q 5 5 5 5 5 5 5 7 5 5 5 5 5 5 5 5 5 5 5 5 5 5 5 5 % % 7 5 5 5 5 5 5 5 5 5 5 5 5 5 5 5 5 5 5 5 5 5 5 5 5 5 5 5 @ @ @ + o o o X @ 7 5 : 7 : : : : : : : : : 7 : : : : : : : 5 : : : : : : : : : 5 : : : : : : t t t t t 1 7 t t t y t t : t t t t t t t t 5 7 t t t t t 5 t t t t t 7 t t t 5 t t 7 5 7 t t t t t t t t 1 7 t t y y t t 5 1 t t y t t 7 t t t t t t t 1 t y t t 1 t 7 t y t t t t 7 1 7 t t y 7 t t y 1 t 7 t t 7 t t t t 7 t 1 t 5 t 1 7 t t 7 t t t < t 5 t y t : t 5 y t t 7 t t 7 7 t y t t t t t t t t t t 7 5 : : : : : : : 5 : : : : : : : : : : : : : : ; 5 5 : : : : : : : : ; : : : : + o + @ : : t t t t y y u u y y u y y y u u y y u u y u f f +.#.@.#.+.f ",
"k k k k k k k k k k k k k k k k k k k k T ..5 5 5 5 5 5 5 5 % 5 5 5 5 5 5 5 5 5 5 5 5 5 5 5 5 t 5 t 5 5 5 5 5 5 5 5 % 7 5 5 5 5 5 5 5 5 5 5 5 5 5 5 5 5 5 % @ @ + o X X X @ 5 5 : t : 7 : : 7 : 5 : : : : 7 7 : : : : 1 7 : 7 : s : 7 : > 5 7 : 7 : : : s f d d d d d d d d d d f d d d d d d d d d d d d d h d f d h f d u d u f d d d u d d u d d f h f u d u d d d d y d y u f d d d d d d u d d d d d h y d d y d y d d d d d d d u d d d d d d u u d h d i y u d d d s f f u y d d d d d d d d d d d d d u s d f d y y d h d d d u d y f s s f d d d d u y y d d d d f t : : t : 7 5 : 7 : : : : 7 : : t : : : : t 5 5 5 5 : 7 5 5 5 5 5 5 : t : : : ; o + @ : ; 5 5 7 y y u y u y u y u u y y u y u y y y i l f +.#.+.@.+.f ",
"k k k k k k k k k k k k k k k k k k k k r u % 5 5 5 5 5 5 5 5 5 5 5 5 5 5 5 5 5 5 5 5 5 5 5 5 5 5 5 % 7 5 5 % 5 7 % 5 5 5 5 5 5 5 5 5 5 % t 5 5 5 5 % 5 : @ @ @ @ @ o X X @ 5 5 : : 1 : : : : ; : 7 : 7 : 5 7 : : : 7 : 1 : 7 : : : 7 t : 7 7 : : : : : y y y y s y u 5 5 u 5 5 s s u y y y y y d y y y d t : d 5 5 t 5 5 u d u s y y y y u u y y : t t 5 t 7 5 y s y y u y y u s y y y u 5 t 7 5 d t y d y y y d y y y y y y y y : y i y d y y d y d y u y y y u y t : d t 5 7 i i d y u y d y y y y y y d 5 y u 5 5 t d u u y y y u y y y y u y y : y t 5 u u d y y y s y t : : 7 : : : 7 7 : 7 : : : 5 7 : : : : : : 7 : 5 7 1 : : : : : : : 5 : 7 : : : o + @ : : t t t y y y y y y u y u y d y d y y y u y d l f +.@.@.#.c f ",
"k k k k k k k k k k k k k k k k k k k k k 7 5 5 5 5 5 5 5 7 5 5 5 5 5 5 5 5 5 5 5 5 5 5 5 5 % 5 5 5 5 5 5 t 5 5 5 5 t 5 5 5 5 5 5 5 5 5 5 5 5 5 5 5 5 5 t @ @ @ o o X o X + 7 5 7 : 7 : : : d +.: : : : : : : : > : : : : : : h : > : : : : : 5 : 7 < > y d y y y d t x.A.l v.C.y u y y y u u y d y y y t x C.t N.N.$.D.A.d t u y y u y u y d t x D.4.4.G.%.V.H.@.5 u y y u y u s y u u t N.c V.x.: c.#.t d y y y y y d d y d y y C.g Z.f t d y y y y y y u u y y d Z.v.t g D.9.C.x 5 d y y y y d y d y d t v.x u C.A.G.c.; i u u y y u u u y u y g C.y c.N.v.x.: d y y y d t : : : 1 7 : : : 5 : %.> g g s : ; s x.; : : : : : > : y s : s : 7 : 5 7 : : : o + @ @ ; 5 t 7 7 y y u u y y u y y y y y y d y y y u g d %.#.@.#.+.f ",
"r k k k k k k k k r k k k k r k k k k k u 5 5 5 5 5 5 5 t % 5 5 5 % 5 5 5 5 5 5 5 5 5 5 5 5 5 5 5 5 5 5 5 5 5 5 5 5 7 5 5 5 5 5 5 5 5 5 5 5 5 5 5 5 5 5 : @ @ @ @ X X X X : : : 7 : : : 7 : g c.@ h m.+.+.l %.l g : x.9.+.d $.F.+.: : 7 1 7 : 1 7 : : : y y d y y d : qXC.4.A.C.4.t d y u y u u y y d d t $.tX#.F.C.z.+.0Xu u y y u u u y y u y g #.P.x v.G.t 0X$.7 d u y u y y u u u 5 4.iXN.H.D.f pXc.5 d y u y y y y d y y y d tX$.C.c.4.1 d d y y d y y y u y g +.P.x g @.G.L.x.l.t u u y y y y y d t x CX$.t f C.P.v.z.h u u y u y y u u u t @.eX#.G.v.0Xv.x.i y y y d t : : t : : 7 : : 5 : M.: x.$.h #.M.+.B.x.g ; d x.$.u g x.F.7 : t : : : : 1 : : o @ @ : : 5 5 t u y u y u u u u y u u u y u y y d y u g i +.+.+.#.+.f ",
"k k k k k k k k k k k k k k k k r k k e 5 5 5 5 5 5 5 5 5 5 5 7 % t 5 5 5 5 5 5 5 5 5 5 5 5 t 7 % 5 5 5 7 % 5 5 5 5 % 5 5 5 5 5 5 5 5 5 5 5 5 5 5 5 t ; t @ @ @ @ o o X . ; 5 : 1 : 7 : : : f 9.X M.h x.x.m.M.M.7 +.$.t x.d x.0.7 t : : 5 : 7 : : : : : y y y y u u y x N.eX5.4.N.; d y y u y y y y y y f 7 C.x.x.5.z.9.v.5 u u s u y y u y y d : #.C.o N.%.f G.5 d y y u y y u u y y l F.G.l.eXZ.C.G.z.< d u y u y y y y y y d : c.$.L.pXy y y y y y y u y u y d : g A.t ; x N.A.CXh y u y y d y y y y d A.G.5.; d A.#.LXl.7 i y u y y u y u d d 5 C.c.c.x eXCX$.t d d y h t ; : : 7 7 1 : 5 5 : B.c.B.x.x.$.%.x.9.+.x.o M.h $.O.$.$.%.; s : : 7 7 : 5 : + o + @ : : 5 5 t y y y u y y y y u y y y u y y y y y u l d #.#.#.#.+.f ",
"k k k k k r k k k k k k r T k k k k k d : : 5 5 5 5 5 t 5 5 5 5 5 5 5 t 5 5 5 5 % 5 5 5 5 5 5 5 5 5 5 5 5 5 5 5 5 5 5 5 5 5 5 5 5 % 7 t 5 5 5 % 5 5 5 5 @ @ @ @ @ o o X X + : : 7 : : : s : g B.s x.%.9.%.C.x.V.o +.x.f x.0.l.x.h : : t : : 7 : : t : : h d y y u u u g l.0XC.G.4.t u d y y d y u y y u d t L.@.G.A.j.L.g y u u u y y u y y d t #.tXx C.0Xt A.c.< u u y y u y u y d t @.L.pXqXv.P.L.iXL.: d d y u y y y u y u u : Z.9.D.rX$.5 d d y y y y u y u y l tX$.$.$.tX+.D.eXl.t d d y y y y y y x D.pXL.x b.N.%.pXC.y u y y u y u y y y u t L.%.D.C.P.rXV.y y y y y y : : t : : : s 7 : : m.: 9.x.9.9.$.0.$.z x.o x.+.%.$.M.$.x.: : 7 : : : 7 : 1 ; o + @ : : : 5 t y y u u u y y u y d u y y u u y u y u l f +.@.@.#.+.f ",
"k k k k k k k k k k k k ..X.r k k k j ; N B > 5 5 5 5 5 5 5 5 5 5 5 % 7 5 5 5 5 5 5 5 5 5 % 5 5 5 5 5 5 5 5 5 5 5 5 5 5 5 5 5 5 5 7 % 5 5 5 5 5 5 5 5 5 5 % @ @ @ # o X X + 5 : 7 : : 7 : : 5 0.$.h 9.g t O.h O.: : %.+.+.9.d +.l : : 7 7 : 7 1 : 7 : : y d d y u u t x.C.d z.v.y u y y d y y y y y u y d y 4.y z.v.h 9.t u y y y y d y d d d t 5.A.c.C.C.4.5.h y u y u u y u y y y d y : #.x C.j.; x x t u y u y u u y y u u u t @.x @.x 9.t d d y d y u y y u t +.D.v.l.l.C.v.$.x l.t d y y d y d y y y : +.$.#.#.l l x 4.g y u u y u y u u y u y $.y l.m.x x l.d y d y d t : : : 7 : : : : : 1 O.t h +.h +.B.9.h s g ; s l.h $.%.s $.h : : : : t 7 : : ; o @ @ ; : 7 5 7 t y y y y u u y y y y y u y y u y y u f f +.@.@.#.+.f ",
"k k k k k k k k k k k k k k k k k k d ; Z S ; t 5 5 5 5 5 5 5 5 5 5 7 % 5 5 5 5 5 5 5 5 5 t 5 7 5 5 5 5 5 5 % 7 5 5 5 5 5 5 5 t 5 5 5 5 5 5 5 5 5 5 5 5 5 @ @ @ # o o X X : : 7 : 5 : : : t : ; : : : : : : : : 7 t ; : : ; > : ; 7 : : 7 1 : : : : : : y d y y u u u t 5 u t 1 y y y y y y y y u y y u y u t u t 5 y t d y y u y u y y y y u u t 5 5 : 5 t t y y u u y y u u y y d y u i y y : t d y t u y y y y u y u y u u y d t y t t t d y y y y y y u u y d y : t t t 5 t t y t u y d y y y y y y d u y t t t y t y t t d u y y u y u y u y u t y : t t t 5 y y y y s t : : 7 1 : 7 : 7 7 : : 5 : : : $.x.s ; : : t : ; : : > : : : : : 7 7 : 1 : : : o + @ : : 5 7 y y s u y u y y u y y u y y u u y y y i l f %.#.@.@.+.f ",
"k k k k k k k k k k k k k k k k k e 5 4 B S ; 5 5 5 5 5 5 5 5 5 5 5 5 5 % 7 5 5 t 5 5 5 5 5 5 % 5 5 5 5 5 t 5 5 5 5 5 5 5 5 % 7 5 5 5 5 5 5 5 5 5 5 5 % ; @ ; @ @ o o o . : 5 5 1 5 7 : 7 : : : : : : : 5 7 : : : : : > 5 5 1 : : : : t : : 7 : : : : : y y y y u u u u u u u u y y y d y y d y y u y u y y u y u u y u y d y y u y y d y y y y d d d d d d y d y y y u y y y u y y y y y d y d i y u u y y d y u y u y u y y u y y d d d d y u y d y y u y y u y u d u d u d d u y d y y y y y d y y d y y d u d d d y u u u u y y u y u y u y u y d y d d f d d y y y y d t : : : 7 : : : : 1 : 7 : 5 7 : : < : 5 5 5 : : : : 7 : : : : 7 5 : : : : 7 : @ o + @ : : 5 5 t t y u y y u y y y d y u u y y u u y u f i @.@.@.#.+.f ",
"k k k k k k k k r k k k k k k k r u < ; B S 4 t 5 5 5 5 5 5 5 5 5 5 5 5 5 5 5 5 5 5 7 5 5 5 5 5 5 5 5 5 % 5 5 5 5 5 5 5 5 5 % 5 5 5 5 5 5 5 5 5 5 5 5 5 5 @ @ @ + o o X X ; 5 : : : > : : : : : : : > : < : > : : 7 : : 1 : : : : < > : : 5 7 : : 7 : : y y y d y u y y u u y u y y y y y y d y y u y y y u y u u u y y y y y y y u y y y y y y d y y y y y d y d y u y u y y y y y y y y y d y d y d y y y y y u y y u y u y y d y y y y y d y y d y y d y u y y u u y u y y u y u y d u y u y y y u y y u y u y y y y y u y u u y y u y u u y y u u y u y y y d y y d y y y : : 7 : : : : : : 7 : : : : 1 : > : : : < 7 : : t : : : : : : 1 > s : : : 1 : o + @ @ < 5 7 t s y u u y u y y y y u y y u u y y y u l u %.@.+.#.+.g ",
"k k k k k k k k k k k k k k k k e 5 t 4 B F ; 5 5 5 5 5 5 5 5 5 t 5 5 5 5 5 5 % 5 5 % 5 5 5 5 5 5 5 5 5 7 5 5 5 % 5 5 5 5 5 7 5 5 5 5 5 5 5 5 5 5 5 5 5 % 5 @ @ @ o o X X @ 5 5 : : : : : : : > : : : : : : : @ : : > : : : @ @ : @ : : > : : : 5 5 : : y u y y u y y u u u u y d y y d y y y y u y y u u y y u u u u u d y y d u y y u y d d y y y y d y d y y y y d y y u d y y d d y y y y d u d y y d y d y y y u y u y y u y d d y u y y y y y y y u y y u u y y y u u u u u y u y y u y u u y y u u y y y d y d d y y u y y u u y u y y u u y y d d d d y y y y y y d 5 : : : 7 : : : : > : : ; : ; : @ @ : ; : > > : ; : : @ : : : : : > > : : : : + o @ @ ; ; 5 t 7 y y y y u y y y y y y u u y y u u y u l f +.#.@.#.c f ",
"k k k k k k k r k k k k k k k k 7 5 t 4 Z F ; < 5 5 5 5 t 5 5 5 5 5 5 5 5 5 5 5 5 5 5 5 5 % 7 5 5 5 5 % 5 t 5 5 5 5 7 % 5 5 5 t 5 5 5 5 5 5 5 5 5 5 5 5 5 @ @ @ # + o X X % 6 ; + o > o + o + + o @ o > o o o > o o o o o o o > : o o o o o o > 5 : : : y u y u u u u t u t s t y y y y d d y y y u u y y u y y y t t u y y y y u y u y y y y y y y y t t y y y y y y y y y y d y y y y d y y t t y y y y y d y u y y u y y u y y t y t s u y y y y y d y u y y y u u u y y t y y y y u y u y y y y u y y u y y t s t u y y y y u y u y y u u y y y u t t i t d y y y y y d t : : 5 : o + ; + o o + o + + o o > ; o o o > o > o > o X > o o o o + o ; : 5 @ o + @ : : t t t y y u y y u u i y u u y y u y y y i u f i %.+.#.#.+.f ",
"k r k k k k k k k k k k e k j j 5 t 5 + B F 4 t 5 5 % 5 5 5 5 5 5 5 5 5 5 5 5 5 5 5 5 5 5 t 5 5 5 5 5 5 5 7 % 5 5 t 5 5 5 5 5 5 5 5 5 5 5 5 5 5 5 5 5 5 @ 5 @ @ + # o X X + 5 5 ; o X X o @ > ; > o o o o ; o ; o > o ; o + ; o ; ; o > ; o o : 1 : : : y u y y u u u d X.X.X.z y d u y i y y d u y y u y u y ..X.X.X.y y d y y y u y u y y d y d y z o.X.o.d y y d y y u y y y y d y y y d X.o.o.z y y y y y y y u u y u u y u y ..o.X...i d y y d y y u y u y y y u u d o.X.X.d y u y u y u y u y y u u y u d X.X.o.j y d y u y u y y u y y u y u y ..o.o...y d y y d y d 5 : : < > > o X X o o > : > + + ; o > o + o o o + o o O o : ; + o > o + > : 7 ; o + @ : ; 5 t t t y y u y y s y u y y y u y y y y u u l f +.#.@.#.+.f ",
"k k k k k k k k k k k k k k k 7 : 5 t ; C F 4 5 5 5 5 5 5 5 5 5 5 5 5 5 5 5 5 5 5 5 5 5 5 5 t : 5 5 5 5 5 5 5 5 5 5 5 5 5 5 5 7 5 5 5 5 5 5 t 5 % 5 5 5 % ; @ @ @ o o X   : 7 : o > %.0.: h 9.%.%.. + o + > o o o > o > ; o o > : o X M.M.> o : : 1 : : y y y y u u y d s.r.s.} 1 i d y y d y y y u y y u y y q.r.s.1.y y y y d y u u y s y u y d t o.s.r.s.j y d y y u y y u y y u y y y d r.r.h.o.t d u y u y u y u y u y u y t 7.h.s.1.y y y y u u y y u y u u y d t o.s.r.r.h d d t y u y u u y y u u u d d p.s.s.2.t u y y y y u y u y u y y s y 7.s.s.q.y y d y y y y y : : : 5 ; o +.$.s : l.%.$.o o > o o o > o O ; o > o > o ; o X &.9X; o : 5 : + + + @ : : t t t y u u y y u y u y u u y y u y y u y u g d +.#.@.#.+.f ",
"k k k k k k k k k k k k k k j t t 5 t 4 C F @ 5 5 5 5 5 t % 5 5 5 5 5 5 5 5 5 5 5 5 5 5 % 5 5 t 5 5 5 5 5 5 5 5 5 5 5 5 5 5 5 % 5 5 5 5 7 % 5 5 5 5 5 5 5 @ @ @ o o o X X : 5 1 X +.%.s 9.x.x.B.%.X + + o o O o o o o o O o o O > X > M.M.h X > : : : : y d y d u u y j r.p.s.X.i u y y y y y y y y u y y d y <.r.r.6.y y d y y u y y u u u u y d y o.p.t.r.d y y y u y u y y u y y y d d d e.t.r.o.t y y u y y u y y y y u y d y 7.r.r.6.y d y u y y u u y u y y u y y X.r.e.e.z t d d u y u y y y u y y u u d e.e.s.X.y y d i u y y u y u y y y y y <.p.r.<.y y y y y y d t : : : : o h x.: M.$.M.m.x.X O o o ; O o o o o O o ; o O : o > 0.B.g o + 1 5 + o + @ @ ; 5 5 t 7 y u y u y u y y u y u u y y u u y y g f +.#.@.#.+.f ",
"k k k k k k k k k k k k k k 7 % 5 5 t ; C F ; 5 5 5 5 5 5 5 5 5 5 5 5 t 5 5 5 5 5 5 5 5 5 5 5 5 5 5 5 5 5 5 5 5 5 5 5 5 5 5 t 5 5 5 5 5 5 5 5 5 5 5 5 5 5 @ @ @ @ o o X X @ 7 :   9.2 $ x.%.g $.s o ; o + o ; > O o : o o > o ; >   : g O.> X : 5 : : : y y d y y y t j e.e.r.X.s u y d y y y d u y y y y y y 7.r.r.6.y y y y y y u y y y u y u s t o.s.r.e.f y d y u y y u u y y d y d y z e.r.r.o.i d u y y u y u y u u y y y u 6.r.r.7.y y y y u u y y y u y y y d t X.r.e.r.f y d t u y d y u y u y u y u q p.r.r.2.t d y y y u y u y u y u y u y 6.r.r.7.y y d d y d y 5 : : : : o %.+.$ 9.%.O.&.g o > o ; o o o ; @ o o o O o X ; o : h { s o ; > 7 : o + @ : : 5 5 y y y u y u u y y u y u y y u y u y y y g f @.@.@.#.+.g ",
"k k k k r k k k k k k r k 8 5 5 5 5 t 4 C D 5 t 5 5 5 5 5 5 5 5 5 % 5 5 5 5 5 5 5 5 5 5 5 5 5 5 5 5 5 5 5 5 5 5 5 5 5 5 5 7 % 5 5 5 5 5 5 5 5 5 5 5 5 5 5 % @ @ @ X X X X : : 7 X +.$.+.$.+.O.$.2 o o + o + o o o ; o o o o o O : o , 9X9X> o : 7 : : : y y y y u u u d r.p.s.X.t d y y y d y y y u d y y y y 7.r.p.7.y d y y d u y y u y y u y d t o.r.t.r.d s y y y u y y u y y y y y y d r.t.r.o.1 d u y u y u y u y y u y u t <.r.r.7.y s y u y y u y u y u u d d t o.r.e.e.d y d d y y y y y u y u y u d d e.e.r.} t d y y u y u y u y u y y d y <.r.r.6.y y y y y y h t : 7 : : o h x.s x.l %.+.g X o O o o > O o o o o > o > o : O o M.aXh o : : : + o + @ : : 5 5 t t y y u y s y u y u y u u y y y u y i l f +.@.@.@.+.h ",
"k k k k r k k k k k k k k t 5 5 5 5 t + C F 6 5 5 5 t 5 5 5 5 5 5 5 5 5 5 5 5 5 5 5 5 5 5 5 5 5 5 5 5 5 5 5 % 5 5 5 5 5 5 5 5 5 5 % 5 5 5 5 7 5 % 5 5 % 5 + @ @ @ @ X X X + : : o o O.$.> 1 7 d : o > O o + + + o o O o + o ; o : O X h h o + ; : : : : d s y y y s y d e.e.r.X.t d y y d y y d y y y y y u y 7.r.r.<.t d u u y d y y y u y u y y t o.s.e.e.d y y u y u d y u y d y y y s d p.t.r.} y y y u y u y u y y d y u y y 6.r.r.6.u u y y y u y u y u y y d d t X.p.e.e.j s d y y y y y y u y u u y y d t.r.r.o.u d y y u y u y y d y y y d t 6.r.r.1.y d y y u y u t : : : : : o h $.> 1 1 s : o ; o o o + o o > o @ o > o o : > o > +.. o + : : : + + @ ; : 5 5 7 y y u y u y y y u y y u y y u y u y u l h @.@.@.@.@.f ",
"r k k k k k k k k k k k u 5 5 5 5 5 t 4 S D 5 t 5 7 % 5 5 5 5 5 5 5 5 5 5 5 5 5 5 5 5 5 5 5 5 5 % 5 5 7 5 5 5 5 5 5 5 5 5 5 7 % % t 5 7 5 5 % 5 5 5 5 5 5 ; @ @ @ X o X X : : : O o X X o o o o o o o o ; + o + > o o ; o + o > > o o o o + o : : 7 : : y y y d y y y z e.e.r.X.i u y y y y y y u y d u u u y 7.r.r.7.y y y y u y y y y y u y u d i o.p.e.r.d y y y u y y y d y y y y d u j e.r.r.o.t y y u u y u y u u y y y u y 7.r.r.7.t d u y u y u y y y u y y y y o.s.e.e.z t y y d y d y u y y y u u y d r.r.r.o.i y y y y u y u y y y d y u s 7.r.r.1.y y y u y y u t : : : : ; + o X X o o o > O o o > ; o + > o o o > + o o : X o o X o > : : : @ o + @ ; : 5 7 t y y y u y u u u y u u y u u y u y y i f f +.#.@.@.+.f ",
"k ..k k k k k k k k k k 7 5 5 5 5 5 5 4 C D 5 % 5 5 5 5 5 5 5 5 5 5 5 5 5 5 5 5 5 5 t % 5 5 5 5 7 5 5 % 5 7 t 5 5 5 5 5 5 5 5 t 7 5 5 % 5 5 5 t 5 5 5 5 @ 5 @ @ o @ X X X : : : > o : + o : > o > o ; O o > ; + o + O > : + ; : @ o > @ o : o : 1 : : : y d y y y d y j r.e.s.X.s u y y y y y y y y u y y y y 7.r.r.7.u y y u y y y i y y u u y d t } s.e.e.d y i d y u u y y y y y y y y d r.t.r.X.u u u y u y y u u y u y u d y 6.r.r.7.y y y y u u y y u y u y u d t o.r.e.e.h y y y y y d y y u u y s u y d t.r.s.o.t y d y y y y u y u y y y y i 8.r.r.7.t d y d y u u y : : 2 7 ; o : ; > + : o + > o ; O o > : o @ @ o @ ; + o : o > : ; + ; ; : 5 ; o + : : : : 5 t t d y y y u y u u y y u u y u y u y u l f @.@.@.#.+.f ",
"T X.k k k k k k k k k 8 % 7 5 5 5 t t ; C D 5 t 5 5 5 7 % 5 5 5 6 % 5 5 5 5 5 5 5 5 5 5 5 5 5 5 t 5 5 5 5 % 5 5 5 5 5 5 5 5 5 % 5 5 5 t % 7 5 5 5 5 5 5 5 @ @ @ @ o # o X > t : : : : > : : : : : : : : : : 1 : > : : : : > : : : : : : : > : : 5 7 : : y y y y y y y d e.e.r.X.t d y y d y y d d i y u y d t 7.r.p.6.t d u y u d y s y u y u y d t 2.r.e.e.f y y d u y y u y u d y y d y j r.t.r.X.i y y u y y u y y u y y y y y <.r.p.7.y u y u y u y u y u y u y y i X.r.e.r.j y d y y y y y u y y u y y y f e.e.p.X.s d y y u y u y u y y y d y y <.r.p.7.y y y y y y u t : 7 : : : : : : : : : > : : : : : : : : : : > : : : < > : : : : : : : < > 5 + o @ @ @ 7 5 5 5 y y u u y y u y y y u y y u y y u y u l i @.@.@.@.+.f ",
"r k k k k k k r k k e 5 5 5 5 5 5 5 t + S D 5 5 5 5 5 5 5 5 5 5 5 5 5 5 5 5 5 5 5 p B 4 5 5 5 5 5 5 % 5 5 5 5 5 t 5 5 5 % t 5 5 5 5 7 % 5 5 5 5 5 5 5 : t @ @ @ o o X o X + : : 5 5 : 1 7 : : 1 5 : 7 : 1 5 7 : : : 7 : : 7 : : : 7 : : 7 : : 1 < > : : y y u y y y y d r.t.r.X.y d y u y u y y y u y y u y y 7.p.r.<.y d y y y y u y u u y y u y i o.r.r.e.f y u y u y d y y u y u y y y d r.r.r.o.y y u u y u u y y u y u y d t 7.r.r.<.y y y y y y d y y u y y y d t } s.t.r.f i u y u y u y y y u y y d y d e.e.r.X.y u y u u y y u y u y u y u i 6.r.r.1.y d y y d y d t : : : 7 1 : 7 : : : : : : t : t : 5 5 7 5 : 7 : : t : 7 : : 1 7 : : t : : s ; o + @ : : : 7 t y y y y y y u d y y u y y u y u u y u f f +.@.@.#.@.f ",
"k k k k k k k k k k 8 5 5 5 5 5 5 5 t 4 S Q.5 5 5 5 5 5 5 5 5 5 5 5 % 5 5 5 5 5 + N D 5 t 5 5 5 5 5 5 5 5 5 5 7 % 5 5 7 7 5 5 5 5 5 5 5 5 5 5 5 5 5 5 5 @ 5 @ @ @ o o X X : 5 : 7 : : : : ; 5 5 5 : : 7 : 7 : : s : 7 1 : : 1 7 1 : 7 : : : 7 7 : : : : y u y y d y y j r.t.r.X.t y u y u y y u u y y u y u y <.r.r.6.y y u u y y y u y y u u y d t o.r.e.e.d y y u y u y y y u u y y u y j r.t.r.o.t d y y u y y u u y u y y d u 6.r.r.7.y y y y y y y y y y u u y d i X.r.p.e.d s y y y u y u u y y u u y y d e.e.r.3.y y y y y u u y u y y u u y y <.r.r.7.y y y y y y d t > : 7 : : : : 5 : : : 7 : 7 : : 7 5 1 : : 7 : : : : 7 : : 7 : 7 5 : : 7 : : : o + @ : : 5 5 5 y y y d y d y y y y y u u y u y u y u l f +.@.@.@.+.f ",
"k k k k k k k k k j 5 5 5 5 5 5 5 5 t 4 S D 5 : 5 5 5 5 5 % 5 5 5 5 5 5 5 5 5 t 4 N D 5 5 5 5 5 5 5 5 5 5 5 5 % 5 5 5 % 5 5 5 5 5 5 5 5 5 5 5 5 5 5 5 5 5 @ @ @ @ o o X X + 7 5 : : : y x.$.: ; : : : : : ; : : ; : : : > : : : : : : : 1 7 : : 5 : : : y u y y y u y z t.r.r.X.y u u y y y u y y u u y u y y 7.r.r.7.y y y y u u y y u u y u y d t o.s.e.e.d s y y y u u y u y d y u y y d r.t.r.o.t y u y y u u y y u y y u y s 6.r.r.7.u d y i y u y d y u y y y y t X.s.r.e.j t d y u y y y y u u y y u d d e.e.r.2.y u u y u y u y y y u y y d y 8.r.r.7.y y d y y y d t : : 7 : 7 7 : : 9.9.7 : : : : : > ; : : : : : : ; > : : : > : : : : 7 : 7 > @ o @ @ @ : 5 5 y y y y d y y y y d y u y y u y y u y u l f +.#.@.#.+.f ",
"k k k k k k k k k y 5 % t 5 5 5 5 5 t + S Q.5 5 5 5 5 5 5 5 5 5 5 5 5 5 5 5 5 t 4 N D 5 5 5 5 5 5 5 5 t 7 % 5 5 5 5 5 5 5 5 5 5 5 5 5 5 5 5 5 5 5 5 5 5 5 % @ @ @ # o X . : : 5 : 7 : O.M.: %.9.h $.g g M.+.x t +.f x.h $.x.t +.M.O.s %.: : 7 : : 7 : : y u d y y s y d r.r.s.X.t d d y u u y u u y y u y d i 7.r.r.8.y d y u y y u y y y u y y d 1 o.p.e.r.d u u y u y y u y u y u y u y d e.r.r.o.y d y u y y y u y y u y y u i 6.r.r.7.t d y u s y u y y y u y u y y X.s.t.r.z d u y u y u y y y u y y d y d e.r.r.} t u y u y u y y y u y u y y y 6.r.p.7.y y y y d y y 7 : : 1 : t : : d N.s g 9.h $.+.h M.O.+.s +.h l.g %.m.h g c.$.t %.: 7 1 : : 1 ; o + @ ; : 5 5 t 7 y y y y y u u y y y u y y u y y y i f f +.@.@.@.+.f ",
"k k k k k k k k j % t 5 5 5 5 5 5 5 5 + S Q.5 t 5 5 5 5 5 5 5 5 5 5 : 5 5 5 5 5 : N W.t : t 5 5 5 5 5 5 5 % 7 t 5 5 5 5 5 5 5 5 5 t 5 5 5 5 5 5 5 5 5 % @ % ; @ o o o X X @ 5 ; : 5 ; h F.g M.x $.B.B.M.+.m.x.d x.M.M.N.m.+.x.x.t x.9.%.: 7 : t 1 7 : : y d y y u u y d r.r.r.X.t y y u y u y u d y y y y y y 7.r.r.7.y y y u y u y y y u y y u d y o.r.e.e.d u y d y u y u y u y u y u y f r.t.p.X.1 y u y u y y u y u y u y d y 7.r.r.7.y y y y u y y y u y u u y d t X.r.r.t.d y u u y u y u u y u y u y y d t.e.r.o.t d y y y u y u y u y u y d t 6.r.r.7.y d y y d y d t : : : : 7 : : s F.%.9.$.+.B.B.B.g m.x.h 9.c.M.m.B.+.c.c.d 0.9.9.; 7 : : : : + o + @ : : 5 5 t t u y u y y y y d y y u y u y u y y u l f +.#.+.@.+.g ",
"k k k k k k k k 8 5 5 5 5 5 5 5 5 5 5 4 S W.< : ; t 5 5 5 5 5 5 5 t t 5 5 5 5 t 7 N W.< 5 5 5 5 5 5 5 5 5 5 5 5 5 5 5 5 5 5 5 5 % 7 5 5 5 5 5 5 5 5 5 5 5 @ @ @ @ o o X X % 5 5 5 : : +.l.o M.t $.B.&.v.+.x.9.%.m.c.l.+.x.h m.x.t %.F.5 : : : : 5 5 : : y y y y y y y j r.e.r.X.s d u y u y u y y y y u y y y 7.r.r.7.t d y y u y u u y y u u y y t o.s.e.r.d y u y y y y y u y y y u y y f r.e.s.X.y d y u u y y u u y u y y u y <.r.r.7.y u y u y u y y y u y y u u s X.s.r.r.h s u y y u u y y u y y y u q d p.r.r.o.i y y y u y u y u y u y y y y 7.r.r.7.y y y y y y y t : : 7 1 : 7 : h M.o 0.g g Z.l M.+.x.l.%.m.x.m.+.x.y M.c.h f D.h : t : 1 7 : : o + @ : : 5 7 t y y u y u u u y y y y u u y u y u y u g d +.#.#.#.+.f ",
"k k k k k k r d 5 5 5 5 t 5 5 5 t 5 5 5 G E.5 i p 5 t t t t 5 5 5 5 5 5 5 : 5 5 ; Z !.< 5 5 5 5 5 5 5 5 5 5 5 5 5 5 5 5 5 5 5 5 5 5 5 % 5 5 5 5 5 5 5 5 @ 5 @ @ @ # o X X ; 7 5 5 : : h +.; +.5 : 9.g g M.x.h x.+.s $.O.g d g O.$.l M.@ 7 : : 7 : : : : y y y y d u y d t.p.t.X.i y y u u y y y y y y y d y u 8.t.t.<.y y y d y y u y u u y y u d t X.t.1.t.q d y u u y u y y u u y u u y d t.t.r.X.i y y u y u u y u y y u y y y 8.p.t.8.s y u y u u y u y y u y y u i X.e.t.t.d y u y u y u y u u y u u y y d t.t.r.X.t d d y u y u y y y u y y y y 8.t.e.<.y y u y u y d t : : 7 5 : : : 7 %.; g h : %.+.d x.B.h x.$.t $.+.O.t +.h x.f B.: : 7 : 1 : : : o @ @ @ 5 5 5 7 u u y y y y y u u y u y u y y u u y u f f %.+.@.#.+.f ",
"r k k k k k k 7 5 5 5 5 : 5 5 5 4 N N , F W.4 N D ; t ; B B 4 5 5 5 5 5 5 t 5 t : N !.i : 5 5 5 5 5 5 5 5 5 5 5 5 5 5 5 5 5 5 5 5 5 5 5 % 5 5 5 5 5 5 5 5 5 @ @ o o o X X + 5 5 : 7 : : : : : : : ; : : 1 $.; ; : : ; : : : : : : x.g ; 1 7 : : : : : : y d y d y y y y ; : : 5 u y y u y u y u d y y d y y u : : : : d y y y y u y u y y u u y u u 7 : : : y d u y y u y u u y y u y y y y : : : 5 u u y y u y y u y u y y u y y 5 : ; 5 u y y y u y u y u y u u y y y t ; : 5 7 u y u y u y y y y u y y u u y : : : t d y y y y u y u y u y u d y y : : : : d y y u y d d s : : : : 7 t : > : : : : : : : : ; $.: ; : : > : : : ; : , $.+.: 5 : : 7 : : ; o + @ : : 5 t t t d y d y d y y u y y u y u y y y y u l i %.#.@.#.+.f ",
"T ..k k k k e 5 5 5 5 5 5 t 5 t 4 S S , F W.: N F i D 4 S F ; t 5 5 5 5 5 5 5 5 : B !.i 7 5 5 5 5 5 % 7 5 5 5 5 5 5 5 5 5 5 5 5 5 5 5 5 5 5 5 5 5 5 5 t : @ % @ @ o o X   : : 7 : 7 t : 7 s : : 1 7 : 1 5 : : s 7 : 1 7 1 7 7 : 5 7 : : : 1 7 : 1 7 : : d d y y y y u y : : : t u y y u y y u y y u y u y y d : : : : d y y y y y u y y y u y u u u 5 ; : : y y u y y u y u u y y u y d y y : : : 7 d d y u y u y y u y u y u u u ; : : : u d y y y y y u y s y y u y u t : : : y y y d y y y u y y y y y y y y ; : : t d y d y u y u y y u u y y y i : : : : u u y u y y u y : : 7 : 7 : 1 t : : : 1 5 : 7 : 1 : : t 7 : s : : : 7 : 7 t : : : 7 2 : 7 : : o + @ : ; 5 5 t y y y u u y u u y u y u y u y u u y i g f @.@.#.#.+.f ",
"r ..k k k k 5 5 5 5 5 5 t : 5 t 4 C F ; F W.: B F p W.: C Q.: 5 5 5 5 5 5 5 < t : C !.p : 5 5 5 5 5 5 5 5 5 5 5 5 5 5 5 % 5 5 5 5 5 5 5 5 5 5 5 5 5 5 @ 5 % @ @ o o X o X : 7 : : : : : : : 7 : 7 : : 7 7 5 7 : : : 7 : 5 : : 7 : : 7 1 7 : 7 : : : : : y y y y u u u t : : : y u y u y u y y u y u u y y u y : : : : y y y d y u y u u y y u y y u 1 : : : y y y u u y u y y u u y y y u t : : ; t d y y u u y u y y u y u y y u 5 : ; : y d y d y y u y u u u u y y u t : : : y y y y y y u y u y d y y y y y : : : t y y y y y u y u u y y u y d d : : : < u y u y u u u t @ : : : : : 7 : : : 7 > 5 7 : : 7 7 : : : : : : 7 : : : : : 7 7 : : : : : : ; o @ @ ; : 5 7 7 t y u y y u y y u y y u u y y y u y h g i @.@.+.#.+.f ",
"k k k k r d 5 5 5 5 5 5 5 5 5 t ; S D 4 F W.> Z F p !.< C W.5 5 5 5 5 5 5 t t t ; B !.N 5 5 5 5 5 % 7 5 5 5 5 5 5 5 5 5 7 5 5 % 5 5 5 5 5 5 5 5 5 5 5 5 5 @ @ @ @ o X X X @ 5 5 : 1 7 7 7 : : : : : 7 : : : 7 : 1 7 7 : : 5 5 5 : 7 : : : 5 : : : 7 : : y y y y y y y y o O O < u u u u u u u t u y u y u y u : O O : y y u d y y u u y u y y u y u < # o @ y y y y y u y y u y y u y y u y o O @ : d y y y y y y y u y y y y y y : O O : y u y u y d y u y y u y y y u : o @ O y y d y u u y u y u d y y d d y @ o o t d y y d y y y u y u y y y y u : o O : u y u y y y d t : 5 7 7 : : 1 7 7 7 : 5 7 5 5 : < : : t 7 : 7 : < 1 : 1 7 : : : 7 1 : 7 : : : o + : : : 5 t t s s y y u y u y y u y y y y u y u y s g f @.#.+.#.+.f ",
"k k k k k 5 5 5 5 5 5 5 5 t ; S p C Q.> G !.: C D p !.t S !.t 5 t 5 5 5 t t : t 7 C !.p ; 5 5 5 5 5 t 5 5 t 7 % 5 5 5 5 t 5 5 5 5 5 5 5 5 5 5 5 5 5 5 : ; @ @ @ @ o X X X : 1 7 7 : : : : : : s 7 : : 5 : : : : : : : : 7 : > 5 t : : 7 7 : 7 1 : : : : y d y d y u y u } ....f s u y y y u u u y u y u y u s z } ..z u u y y y y y y u y u u u u u z } ....d y u y u y u y y u y y y y y d } ....f y y d y y d u u y u u y u y y j X...z u y y y y u y y y u y y u u u d ..} ..d y y y y y u y u y y y y y y d ..} ..j y y y y u y u y u y u y y d y j } ..k y u y u y y h t : : 1 : : 7 : : : : 5 5 : : 5 5 : : : : > : : : : 7 7 : : s : : : 7 7 : : : @ o + @ @ : 5 5 y t y u y y u y u y y d y u y y u y y s g i +.@.#.#.+.g ",
"k k k r d 5 5 5 5 5 : 5 : t 6 D N C W.; F !.> C D N !.i S !.t 5 5 5 t ; S S : D 1 B !.N 4 t : : t 5 5 5 5 5 5 5 5 5 5 5 t 5 5 5 5 5 5 5 5 5 5 5 5 5 5 5 t @ @ @ @ o X X X @ : : : 7 7 : : : : 7 : t : : u x #.#.@.f t : : : 7 5 : : 5 1 : : 1 7 7 : : : y u y u u u y k mXbXVXp.< u y y u y y u y u y y y d t 4XmXVX2Xt y y y y u y u y u u t u i < w.GXmXbXz t y y u u y u u y u y u d y ..mXbXVXp.< d u u y y y u u y u y y d t 4XmXVX4Xi d y u y y u y y y u u u d < p.VXbXmX..i y y u y u y y y u y u u y k bXbXVXp.< d y y u y y u y y y d y d t 2XVXmXxX1 d y y y y y t : : 7 : 7 : : : : : 7 : 1 7 : @ f x.Z.G.Z.j.d : : : 5 : 7 : 1 s : : : : 7 : : o @ @ : : t 7 t y y y u u y u y y u y y y y y u u s i g i %.@.@.#.+.f ",
"k k k e 7 5 5 5 5 5 t 5 t 7 : D B C !.t F !.: S Q.B ^.p S !.i 5 t t 5 ; G D t W.i C !.N > : p N ; 5 5 5 5 % 5 5 5 5 5 5 5 5 5 5 5 5 5 5 5 5 5 % B N ; 5 @ 5 @ @ o # o o X ; : : : 1 : : s : : : : : t @.z.z.k.l.x.z.l.g : : : 1 7 7 : : : 7 : : 5 : : : y u y y y u i ..vXvXmXq.< u u u y u u y u y u y y d y 2XbXmX2Xt d y d y y u y u s u u u s 2 p.mXvXvXz y d u y y u y y u y u y y 1 z vXvXmXp.< d u u y y u y y u u y y d < 2XmXbX2X1 u y y u u y y u u y u u d < p.mXvXvX..t d y y u y y y u y u y u t l vXvXVXp.< d y y y u u y u u y y y d t 3XmXbX2Xi y y d y y d t : : : : 1 7 7 1 7 : : : 7 : t v.rXyXtXrXrXiXyXv.< : 7 : : : 7 : : : 7 : : : > o + @ ; : : 5 5 y y u y y u y u u y d y y d u y u y u g u %.#.@.@.+.f ",
"k k k u 5 5 5 5 5 5 < : : 5 : D B S !.p F !.p S Q.Z !.N S !.p ; : : < : F Q.1 W.p C !.N p C S Q.t t 5 5 5 5 5 5 5 5 5 5 : t 5 5 5 5 5 5 5 5 p C S G + 5 t @ @ @ @ @ X X X : : 7 7 : : 7 : : 7 1 : h z.z.#.i : : < g 4.z.+.: : 7 : : : 7 5 : 7 : : 5 : : y u y u u d t ..bXvXmXq.< d u y u y y u y u y y y d i 4XmXbX2X< d y u s y u u y u u u u u < p.mXvXvXz t u y u y y u u y y y y u y z vXvXmXp.< u u s i y y y u y y u y y t 2XmXbX2Xt d u u y y u u y u u u u d < q.VXvXvX..i d u u y y u y u u y y u t l vXvXVXp.< d d y u y y u y u y u y d < 3XmXbX4Xt d y d y y d y : 1 7 : : : : 7 : 7 7 : : s D.pXL.$.y 1 t #.I.pXD.: : t 7 : : t : : 7 : s : @ o + @ @ : 5 5 y y y u y u y y u y u y y y i y u u u u f f +.@.@.#.+.f ",
"k k e 5 5 5 5 5 5 5 5 < i i : Q.C C !.N S W.S !.D S !.B F !.p ; p : F i F Q.p W.N S !.N p W.F ^.B 5 H i 5 5 5 5 5 5 % 5 5 5 5 5 5 5 5 5 5 5 N D S D 5 t t @ @ @ X @ X o X ; 2 : t : : : s : 7 : 1 I.rXg o @ : : ; @ < #.v.g : : 1 7 : 7 : 7 1 : 1 : : : y y u y u d t ..bXvXmXp.< d y u y y u y y u y d y y t 2XbXmX2Xt y y i y u y u y s u u u u < p.mXvXvXz s y u y y u y y u y d y u y z vXvXmXp.< d u u y y u y y u u y u d t 2XmXmX2Xt d u y u u y y u y y u u i < p.mXvXvX..t y y u y u y u y y u y y y x vXvXmXp.< d y y y u y y u y u y y d < 2XmXmX4X1 d y y y y d t ; : : 7 7 : t 1 : : 1 : : C.iXn.: @ : : @ o X n.P.#.> 5 : 7 : : 7 t : : : 7 : o + @ ; : 5 t t t y u y y u y y u y y y y y u y u u u l i %.@.@.#.@.f ",
"k k q 5 5 5 5 5 5 5 t ; Q.S ; W.S S W.B S E.D !.E.S !.C S !.p C W.p !.N F W.p !.N S !.B N !.!.E.S < W.p : t 5 5 5 5 5 5 5 5 t 5 % 5 t 5 5 ; B Q.F W.: : : : @ + @ X X X X @ 7 : : : : 7 7 : 7 : $.pXv.t uX%.X : : : : : $.l.1 : : : t : : 7 7 : 1 : : : y y u y y u t ..bXvXmXp.< d d y y d y u y u y u y d 1 2XmXmX2X< u u u u y y u y u y y y u < p.mXvXvXz s d y y y y y y y u y y d t l vXvXmXp.< d u y y u y u y y y y y y 1 2XmXmX2Xt d d y u u y u y u y u t d < p.mXvXvX..i y y y y y y u y u y y d t z vXvXmXp.i h u u y u y y u y y u y y 1 2XmXbX4Xt u u y u y u y : : : 1 7 : : 7 : t : : x tXZ.: + : : : o t m.: #.x.h : : : : 1 : : 7 7 : > o o + @ : : t t t u u u y u d y y y u y y u y d y y y d g f +.@.@.@.+.g ",
"k k 5 5 5 5 5 t 5 5 ; < Q.D 5 W.S S W.C F Q.W.E.E.D E.S H W.C Q.E.S !.C F W.N !.C S W.W.W.!.W.D F 2 !.p ; : > : t 5 5 5 t t ; 5 7 5 4 % 5 4 B !.D W.i < : ; % < @ @ @ X X : 5 5 : 7 1 : : 5 : : L.rXt < LXUX+.@ : : : O f z.x : 7 : : 7 1 : : : 7 : : : y u y u y u i ..bXvXmXq.< d y y y y y u u y u y y d t 4XbXmX2Xt d u u y u y y u y u u y d < p.mXvXvXz t y d d y y d d y y u u u y ..vXvXmXp.< d y u y y u y u u u d y d t 2XbXbX4X1 y y u y y u y u y y u u d < p.mXvXvX..t d y y d u y y u y u y d y z vXvXmXp.< u u u u y u y y u u y u d < 3XmXmX4Xt u u y y y u 1 : : 7 7 : t : : : : : @ V.yXg o : : : : d SXUXd t b.@.: 7 7 : 7 7 : : : 5 1 : o @ @ : ; 5 5 t 7 y y u y y u y y y y u d y d i y y y g f +.#.@.#.+.f ",
"k 8 5 5 5 5 5 4 4 p p 1 E.Q.t !.S S E.S F D !.D E.W.F Q.W.E.Q.E.F D W.F F W.B Q.W.E.D !.!.E.W.S E.D !.N N N N N ; : i 5 5 t B t o p C i C 7 C !.W.W.Q.S 3 B % H % o X X X @ < : 1 : 7 : 5 5 : d qXA.: : : LXLXo : : : : t l.+.: 7 : 7 5 7 7 : : : 7 : : y y y y y d t ..bXvXmXq.< d y y y y y y u y y y y d t 2XmXmX3Xt u y y u y u y u y u y u f 1 p.mXvXvXz s d d d y y y y y u y y d t k bXvXmXp.< d u y y u y u u y y y y d t 2XbXmX2Xt y y y u u y y u y u u y u < p.mXvXvX..i d y y u y u y u y u s y 1 z vXvXmXp.< u u u y u u y u y u u u u t 2XmXbX4Xy u y y y t d t : : : : : : : 7 7 5 : : L.qX< : : : : @ LXPXx o t j.#.: 1 1 7 : : t : 5 : 5 ; o + @ @ 5 5 t 7 y y y y y u y y u d d y y y y y y y d g d @.#.#.#.+.f ",
"e % 5 % < 5 t F i H W.3 E.W.p !.E.E.D W.E.H W.D E.!.H E.W.D !.D D !.D W.W.W.!.D W.W.S W.E.H E.S E.E.E.W.W.!.!.!.F B !.p p B !.E.N Q.!.W.^.B S !.!.D W.Q.E.E.J F * O # J * @ : 5 7 : 7 : : t ; f yXv.+ : o y h @ : : : @ < l.#.: : 5 : 5 : : 1 7 : : : : y y d y u u s z bXvXmXw.< d y d y d y u y u y u y d i 4XbXmX2X< u y u y u y u y u y u y u 1 w.VXvXvX..t y t d y y d y y y y y y y l vXvXmXw.< u y u u y u y y u y u y y i 2XmXmX2Xi d y y y y y u y u y u u u < q.mXvXbX..t y u y y u y u y u y y d s z vXvXmXp.< u u y y u y u y u y y u d < 3XmXbX4Xt d d y d d d t : : 7 : 7 7 : : 1 7 : < qXD.: : : @ : : $.f X : : $.j.7 : : : 7 : : 7 5 : : @ o @ @ : : 5 5 t t y u y u y y u y y y y u y u y u y y g f +.+.+.#.+.f ",
"l f f g A g l D A >.>.A G >.>.A G >.A >.>.A A A A G Z C A C F A C S B G G A G Z A S Z Z B C Z Z Z Z Z G A G F G G F F G G G G G G G Z G G G G S G Z N A C C C B v p N p J 1 7 : : 5 7 : : t > h tXC.+ : : : o : @ : : : : l.#.: 7 : 1 > : t 7 : 1 7 > : d d d y u u t ..bXvXmXp.< d d y y y u y u y u y u d t 4XbXmX2Xt d u y y u y u y u y u y u < p.mXbXvXz t u y u y y y y y u y y d y z vXvXmXp.2 i u y u u y y u y y u y d < 2XmXmX4Xi y y u y y d u y u u u u u < w.mXvXbX..y y y y u y u y u y u y u s z vXvXVXp.< d y y y y u y u y y u u u < 2XmXbX4Xi y d y y d y t : : 7 : 5 : : : 7 : : 7 0XI.< : : : : @ o O : : : 4.j.< : 7 : : : : 1 : 7 : : o o @ : : 7 7 y y y d y y y y u y u y y y d y y y y u f f +.#.#.#.c f ",
"l f f g f f f q d j d d d d j d d d j d d d j d h *.a.u.a.&Xi.i.i.u.a.u.-.-.-.-.-.u.-.-.-.-.-.-.-.-.-.-.-.-.i.-.-.i.&X-.u.a.u.u.a.&Xa.u.u.a.u.&Xu.a.u.y.*.| | {  . .w  .{ : : : 7 : : : 7 : : t Y.P.: : : : : @ : : : @ d b.g : : : 5 5 7 : : : 7 : : : y d y y u u u ..vXvXmX0.< d y y u u y u u y y u y y 1 4XmXbX2Xt y y y u y u y u y u y u u < w.mXvXvXl i d u y u d y d y y u u u 2 ..vXvXmXp.t h y u y y y u y u y y u d 1 2XmXbX4Xt d y y u y y y y y y u u u < p.mXvXvXz t d y y y u y y y u y y d t z vXvXmXp.< d y y u y y u y y u y y u < 3XmXmX4Xt d y y d y d t : : : 2 : 7 t : : : t : D.tXi O : : : : : : @ : 1 j.+.: t : t s : 7 : : : : ; o @ @ ; : 5 t t 7 y y y y u y y u y u y y y u y d y u l f +.#.+.#.+.f ",
"q 9 @ @ % % 5 5 5 : 5 : < : 5 : 5 : : 5 5 5 % 5 % &X-X=X;X-Xy.y.6X-X-X6X%X6X=X=X-X6X=Xa.=X;.;.+X;.;.;.=X=X+X7X&X-X%X6X=X-X-X-X-X7X%X-X%X-X;X%Xu.} *.6X;X-Xu.;.+X=.y.*.:. .> 5 7 : : 1 7 : : s : v.iX#.+ : : : : : : : @ #.x.y : 1 7 : 7 : : 1 7 : t : : y y d y y u t ..vXvXmXp.< d y u y u u y y u y y u y t 2XbXmX2Xt u y u y y y y u u y y y h < p.VXvXvXO.s y y u y y u y y u y y y t k vXvXmXp.< f u y y u y u u y d y y d t 2XmXbX2Xt u d u y y u y u y y s u s < p.mXvXvX..y d y u y u y u y u y y u y z vXvXVXp.< d u y y u y y u y y u u u t 3XmXbX4X1 y y y y y d t : : 7 : 7 : 1 7 : 7 5 : $.pXb.X : : : : : : : @ x x.g : : : : 7 1 7 : 7 : : : o + @ ; : 5 t 7 y y y u y y u y u y y u y y y y u y u l i %.#.@.+.+.f ",
"k y 5 t 7 5 5 5 5 t 5 5 5 5 5 t 5 5 5 5 5 5 5 5 % | } %X*X{ w *.6X=X6X=X6X-X=X6X-X6X-X&X-X;.;.=X&Xa.=X-X-Xa.-X=X6X=X&X6X| y.u.%X*.{ -X{ { &Xi.& & | ;Xu.-X;X%Xu.u.| *.w  .w : 5 : 7 5 : : 7 : > f rXrXp + : : : : : @ l z.#.: : 7 : : 1 : 7 : : : : : : y y y y u y y l bXvXmXp.< d y y u y y y u y u y y d i 4XbXmX2X1 d u y u u y u y u y u y d < p.mXvXvXg t u y y y u y u y y u y d y z vXvXmXp.< u y u y y u y u y y y y y t 2XbXmX2Xt d y y u y y u y u u s u h 3 p.mXvXbX..t y u y u y u y u y u y u t l vXvXmXp.< d y u u y u u y u u y y u t 2XbXmX4Xi d y y d y h t ; : t : : : 7 : : : 5 : 1 L.tX+.o : : @ : : : d l.$.7 : 5 7 : : : : : 7 1 : @ o + @ : : 5 5 t t y u y u u y u y u u y y d y u y y i f f @.+.#.#.+.f ",
"k j 5 5 5 5 5 5 5 5 5 5 5 5 5 5 5 5 5 5 5 5 5 5 5 < & u.%X% & | 6X%X6X&X6X*X6X-X6X&X6X;X-X&X=X6X%X=X6X-X6X-X%X-X6X-X*.7X} { } *.e 7 | 5 & i.| % % } %X*.-X*.&X*.=.| *. . ., : 5 : : t : t : : 7 @ #.tXrXg : : : O : l v.$.t : : 7 : : : 7 : : 7 5 : : : y u y u y y t ..vXvXmXq.3 d d y y u y u y u y u y u 1 4XbXmX2Xt i u u u y u y y u y y u d 3 p.VXvXvXz t d u y d y u y u y y u u y z vXvXmXp.< d u y y u y y y y y y y d i 3XmXbX2Xi u s y u y y u y u y u y d < p.mXvXvXl y u y y u y y d y y d y d t z vXvXmXw.2 u u u y u y u y u y u u u < 2XbXbX2Xy d y y d d y t : > 5 5 : 7 : : : : : 1 : g eXtX#.: : : : : h b.l.u : 7 : : : : 7 7 : : : t : o @ @ @ : t 5 y y u u u y u y u y y u y u y u y u y u l f +.+.+.#.+.f ",
"k k 8 5 5 5 5 5 5 5 5 5 5 5 5 5 5 5 5 5 5 5 5 5 5 5 % i.%Xt % } 6Xu.-Xu.6X%X-X*X6X*.-X6X=X=X6X-X6X-X-X;X6X6X&X-X-X7X| i.w % : 5 : 5 5 5 5 % 5 5 t w r *.u.o {  .*. .=.r  .w : 5 7 7 : : : : 7 1 5 : $.L.h : : : : : g $.t : : 7 : 7 : t 7 : : 7 5 : : : y y u y u d s ..mXbXVXp.< d y y y y u y y y u y u u i xXmXVX4X1 d u u u u y u y y u u y d < p.VXmXmXz y y y y y y u u y u y y y t z mXbXGXw.< d d y u y y y d y y d y d 1 4XmXVXxX< u u u y u y y u y u i y d < p.VXbXmX..u u u u y u y y y y y y d y z bXbXGXp.< i u u y u u y u y y u u d < 2XVXVXxXt y y y y y y t : : : : 7 : 7 2 7 : 7 : 7 ; l L.c > 7 : : : y $.h : < : : 1 7 : : 1 : 7 : : ; o ; @ : : : t 7 t s u y y y u y u y y u y y y y u y u l d %.#.#.#.+.f ",
"k k k 5 5 5 5 5 5 5 5 5 5 5 t 5 % 5 5 5 5 5 5 5 5 5 @ | y.% @ { *Xy.-Xy.7X&X-X%X6X{ &X7X=X=X6X&X-X-X-X*X| ;Xy.6X&X6X| & t 5 5 5 5 5 5 5 % 5 5 5 5 5 & *.y.@ X 6 y.r =.w  .8 , 4 : 1 7 : 7 : : : : 5 : 5 : : 7 : : 5 5 7 : 7 : 7 : 1 : 7 : : : 1 : 5 : : y u y u y y i l 3X3X2X8.t d d y y d y d u y y u y u t h.2X2Xh.s d y s i y u u y u y u u d t 8.2X3X3Xj i y u u y u y u y u y u y y z 3X3X2X8.t u u y y u y d d i y d y d y h.2X2Xh.t u y u y y u u u y y u y y t 8.2X3X3Xf y u y u y u y y y y y d y y f 3X3X2X8.< u u u u y u y y y u y u u 1 h.2X3Xh.y d y y y y d t ; : : : 7 t : 7 : : 1 5 : : : < : t : 7 : : 5 5 : : : 7 7 s : t : : 7 : : : : o + @ : : t t t y y u y u y u y u y y u y u u y y y u f f +.#.@.#.+.f ",
"k k k u : 5 5 5 5 5 5 5 5 5 5 5 5 5 t 5 5 5 5 5 5 5 t 7 5 5 < q *Xi.-X{ *Xu.*X&X-Xh y.6X=X-X6Xi.-X-X*X-X7 ;Xi.6X*.6X{ < 5 5 t 5 5 5 5 5 5 5 5 5 5 5 @ } | @ ; > =., *.6  .6 4 6 : 7 : 7 1 : 7 : 5 : 1 7 : 5 : : : 1 : 5 5 1 : : : 7 : 1 1 7 7 : : 7 : ; y y y u y y y y < t < y d y y y y y y y y u y y y d y t < t < i y y y y y u y y y u y y y y t < < < y u u y u y y u y u y u y u y y < < 3 2 i u y u y y y y d y y y y y y t < < i y u y y u y y y y u y y y y d t < < < u u y u y u y y d y y d y y y y < 3 < y u u s y y u y y y u y u u y y i t < t u y y y d d d t : : t : : : : : 7 7 : 7 : : 7 : : : : : : 5 : : 7 5 5 : : : : : 7 : : 7 7 1 ; o + @ : ; 5 5 7 t y y u y u y u y y u y u y u y u y u l i %.@.@.#.+.g ",
"k k k k t : t 5 5 5 5 5 5 5 5 5 5 5 5 5 5 % 5 5 5 5 5 5 5 5 % 7 | | 6X6 y.y.=X&X-Xh y.6X=X-X7X| i.-X%X;X7 | | 6X*.6X{ % 5 5 5 5 5 5 5 5 5 5 % 5 5 5 t @ @ @ @ @ 4 ; *.,  .w 1 : : : 1 7 7 : : : 5 : : 7 : : 7 7 5 5 7 : : : 7 : 1 7 : : : 7 7 : : : : : y u y y y u y y d d d y y y y y y y y y u y u y y y y d d d d y y u y u d y y d y y d y d y d d u u u y y u u y s u y y u y y y i d d y d d y y u y y u d y y y y d y y y d d d s u u u u y y u u y y u u y u y u d d d u u u y y u y u y y d y d y y d d d d y y u y u y y y u y d y y y y u u u d u u y y y y y d t : : 7 : : : 7 : 1 7 : : : 7 5 5 5 : 7 : 7 : t 7 : : : : 7 : : : s 5 5 7 : 5 @ o @ @ : : t t t y y y u y u y u y u y y y y u y u y d l f +.@.@.#.+.f ",
"k k k k q < 5 5 5 5 5 5 5 5 5 5 5 5 5 5 5 5 5 5 5 5 5 5 5 5 7 5 @ | 6Xt y.y.*Xu.;Xw u.6X*X-X7X{ | -X%X*X5 & { -X| -X{ : 5 5 5 5 5 t t : 5 5 5 5 5 5 t 5 : : @ @ o o  .,  .w : 7 7 : : : 2 : : 7 : 7 : : : 7 : 1 > 1 : : 7 : 5 1 : 7 : 7 : : : : : 7 : : y u y u y y d y y y y y y y d y y d y d y u u y y y d y y y y y y y y y y y y y d y y y y y y y y y u u u y y y y u u y u y y y y d d y y y y y y u u y y y y u y y y y y y y y u s i s y u u y y u y y y u y u y y u y u y u u u y u y y y y y y y y y y y y d u y u y y d u y y y y d u y y y u u u u u y y d y y t : : : 7 : 1 : : 7 : 7 1 7 : 1 5 > : 7 1 5 7 : : : 1 7 : 1 : 7 : : > 5 : 5 5 + o + @ @ ; 5 t 7 7 y u y y u u y u y y d y u y u y y d p f %.@.@.#.+.f ",
"r k k k k 9 5 5 5 5 5 5 5 5 5 5 5 5 5 5 5 5 5 5 5 5 5 5 5 5 5 5 @ | -X5 | *.%Xy.;Xw y.-X=X-X7X} | *X&X%X5 % { -X{ -Xe < 5 5 5 5 5 5 5 5 5 5 5 5 5 5 5 5 5 : : @ + o , . w w : : 7 : 7 : 7 : t : : : 7 1 : : 7 : 5 7 : 7 : : : 7 : : : 7 t : 7 : 5 5 : > y y u y d d d y y d d y d d y y y d y y y u y u d d y y y d d d u u u y y y y y y y y y d d y y u u u u u d y y u u y u y u y d d d y d d y d d u y y u y y u y y y d d y y y d d d y y y y y u u y y u u u u d u y d d u d u u y y u y u y y y d y d y y d d y u d y u y y y y y y y y d d u u d d u u d d y y y d t : : : 5 : 7 7 : : : : t : : : 7 5 : : 5 : : 2 : 7 7 : 7 : : 1 : 7 1 5 5 : 5 ; o + @ : : 5 5 t u y y y u y y y u y d y y u y y y y d f f +.#.@.@.+.f ",
"k k k k r d % 5 5 5 5 5 5 5 5 % 5 5 5 5 5 5 5 5 5 5 5 5 5 5 5 5 % | -X5 : 7 ;Xi.;X7 y.-X=X6X7X{ | *Xu.&X% 5 { =Xr ;Xh @ 5 5 5 5 5 5 5 5 5 5 5 5 5 5 t t @ @ @ @ o o . . , , t : : : 7 1 : 7 : : : 7 : : : : : : 5 : : > t 7 : : 7 : 1 : : 7 5 : 5 1 : : y u y u y t 5 y d 5 5 y t t d y y y y y u y y u y 5 t d y : y t < y y u d y y d y y d y 5 t y y 5 7 y 5 t u d y y y u y u y u 1 : y y t 5 y t 1 u y u y d y y y y d y 5 t d y : y 5 < y u y u y u y y u y y 1 t u y 5 t t 5 t d y u y u y u y u d t : y d 5 5 y < t u y y y d y y d y y y < t u t 5 t 7 < y y y d y y : 2 7 : 7 : : : t : t : : 7 ; : : ; : : : : ; : : : : : : 7 7 : : : 7 : : : ; o + @ : : 5 5 t y y u y y u y u y u y y u y u y y y d g i @.@.@.#.+.f ",
"k k k k k k 9 5 5 5 5 5 5 5 t % 7 5 5 t 5 5 5 5 5 5 5 5 5 5 5 5 % } ;X5 5 t -X*.%X7 y.-X;X-X6X{ | %Xu.&X< : w ;X5 %Xw t 5 5 5 5 5 5 5 t : 5 5 5 % 5 5 5 @ : @ @ @ o o X X @ t 5 : 1 7 : 7 1 : 7 7 : ; $.9.d $.$.: 1 l.$.> : : : 7 : : s : 7 : : : t : : h d s s t z.G.h t v.A.d D.v.t d u y y u y u u t +.H.#.5 @.L.c b.G.u t u u y y u y u t d D.v.t f D.b.c L.+.y u u y u u y u u t z.G.f 5 v.D.f D.c.t d u u y u y y d t +.H.#.5 @.L.c z.G.u u u u u y u y u u u A.N.t u G.c.x L.@.y u y y u y u y u t z.G.f t v.A.g A.v.t u y y u y u y d y x L.$.: +.L.@.l.G.f y y s d 5 : : : : 7 1 : : 7 7 7 : 2 : 0.y g M.y 9.$.s m.g x M.t : : : : : s : 7 : : 1 @ o @ @ ; : 5 5 t y y u y u y u y u y y y y d y u y y d g i %.+.#.#.+.f ",
"k k k k k k d : 5 5 5 5 5 5 5 5 5 5 5 5 5 % 5 5 5 5 5 5 5 5 5 5 < } ;X5 : 7 ;X| %Xt y.;X%X6X6X{ } &X*.&X@ < w &X5 q 5 5 5 5 5 5 5 5 5 5 t 5 5 5 5 5 5 5 5 @ @ + @ o o X X @ 5 5 7 : : : : 5 : : : t : B.$.O.$.x.h O.$.x.g : 7 : t : : 7 : : : 7 : 7 : : y d f t l G.N.v.g G.b.rXv.F.+.t u u y y u y d t D.v.G.t G.z.P.A.N.v.5 d y u u y y u 5 x.C.A.x x.V.A.0Xx.F.t u y u y y u u u l G.N.v.f G.z.tXc.D.x y u y y y u y d 5 A.v.G.7 D.z.P.D.N.v.5 u u t u y y u 5 l.V.A.c l.C.C.rXx.D.t u u y y u y u y f G.v.N.d G.z.rXc.D.c y u u y u u y d 5 Z.v.G.t A.b.P.G.N.v.5 d y d t : : t : : 7 7 : : : : 5 : 5 B.+.9.+.B.$.$.B.O.M.c.%.$.; 7 : t : : : : 1 7 > @ o + : ; : 5 5 t 7 y y u y y y u y u y u y y u y u y u g f +.#.+.+.+.g ",
"k k k k k k k 8 5 5 5 5 5 5 5 5 5 5 5 7 5 5 5 5 5 5 5 5 5 5 5 5 @ } =X5 5 5 ;X| *.% y.*X;X-X6X{ { &X*.u.@ 5 t q % 5 t 5 5 5 5 5 5 5 5 5 5 5 5 5 5 5 5 5 5 5 + @ o o o X X ; 5 5 7 : : 7 7 7 : s 7 2 7 s $.F.g %.g +.g %.+.; : 5 : : 7 : : 7 1 7 : : : : y d y t @.N.c V.g V.x LXd C.#.t u y y u y y d y D.d G.t F.y tXv.@.V.5 u y y y u u u 5 N.#.v.@.b.#.v.tXt H.y u y y u y y u 7 c N.l V.d C.i LXg V.4.5 u y u y y u d t D.d G.t A.y tXN.+.C.5 u u u u y u u 5 v.#.c.@.c.#.v.iXt G.d y u y u y y u t x C.x C.f C.f LXl N.4.5 u y y u y u u t D.d G.t A.u eXN.x C.: d y d t : 7 : 7 : : : 7 1 : 7 7 : ; %.+.9.: D.l l H.; m.x.t x.: : 7 s : 7 : : : 7 : : o @ @ : : 5 7 t y s u y y u y u u y d d y u y u u y u g f #.#.#.#.#.g ",
"k k k k k k k j % 5 5 5 5 5 5 5 5 5 5 % 5 5 5 5 5 5 5 5 5 5 5 t % { %X< 5 t ;X{ % % y.%X;X;X-Xe } &X*.y.% 5 5 < 5 5 5 5 5 5 5 5 5 5 5 5 5 5 5 5 5 5 5 5 @ % @ @ @ o o X X ; 5 5 : t : : : : : : : : : f %.M.$.M.%.+.l.x.h : : 5 : 7 : 1 1 : : : : : : : y y y y f G.A.C.5.D.C.L.C.G.g y u y u y y y d 1 N.A.G.4.C.A.H.D.G.l.7 u u y u y y d 5 4.G.A.v.v.D.D.H.A.A.t u u y y u y u y u G.A.A.4.G.C.I.C.L.l t u u y u u y d 5 C.A.G.4.C.A.G.D.G.l.5 u u u y u y u 7 4.G.D.v.c.D.D.G.A.A.t u y u y y y d d d G.Z.Z.4.D.C.L.A.H.l t u y u i u y d 5 N.D.G.4.V.A.H.G.D.v.5 d y y 1 : : : 1 : : 7 : : : : : 7 o 9.+.9.9.M.0.x.M.9.c.x.x.%.: 7 : : : : 1 7 : : : ; o + @ @ : 5 5 y 5 y y u u y u y y y y i y y y u y y u l u u f f f u i ",
"k k k k k k k k 7 t 5 5 7 % 5 5 % 5 5 5 5 5 5 5 5 5 5 5 5 5 5 5 < { %Xt 5 5 %X{ % % i.%X=X*X=X{ s w *.y.% t 5 5 5 5 5 7 5 5 5 5 5 % 5 5 5 5 5 5 5 5 5 t 5 + @ @ @ o o X X + 5 : 7 : : : : 7 : 7 7 : : %.$.: %.O.z s +.O.: 1 : : : s 7 : 7 7 : 1 : 7 : : y y y y t 4.v.l @.%.v.y v.5.t d y y u y y d d y f V.x $.l N.d 4.v.t d u u y u y y u u t v.4.#.l v.#.f N.f t u u u y y u y u t #.v.c @.#.v.y v.4.7 d u y y u u y u t f N.+.4.l N.l %.v.y u u y y u y u y y t c.j.#.l v.5.d N.l u u y u y y d u u t %.m.x @.@.N.y v.5.t d y u y y u y y y f N.+.$.f N.f #.v.y y u d y t : : : : 7 : s : 7 1 7 : : > g s h $.: +.+.: $.d h $.: : 1 7 : : 7 7 : : 5 7 : o + @ : : t 5 y y y u y u y y u y u y y y y y y u y f l t + @ @ : + s ",
"k k k k k k k k j t 5 5 t 5 5 5 7 5 5 t 5 5 5 5 5 5 5 5 5 5 5 5 @ r &X% 5 5 %X{ 5 5 *.&X;X*X%Xr 5 & *.i.& 7 5 5 5 5 5 % 5 5 5 5 5 5 5 5 5 5 @ 5 5 t 5 @ 5 5 % @ @ o o X X + : 7 : : 1 7 : 2 : : : : : : ; : : O : : ; : 7 : 7 7 : : : : : : : 7 5 5 : : y d y d u t 5 u t t 7 d 7 t u u u y y u y y y y y : y t t 5 u y 5 u u u y y y u u u u u 5 5 7 y 7 t y 5 u u u u y u u y u y d t 5 y 7 t 5 d 5 5 u u y u u y y u u u u 5 t t 7 5 u t 5 y y u u y y u y u y u 5 t t t 5 7 u 5 t u y u y u y y y u u t < t 7 t 5 d 5 7 u u u y u y y u y u y 5 y t u 5 u y 5 u u y y y y : t 7 1 : : : : : : : s : 5 : 5 > : : ; : : @ : : > 7 7 : : t : : 7 : 1 7 : + o + @ ; : : 5 5 y y y u u y u y u y d y d y y d y y d g t : < : : : s ",
"k k k k r k k k k 8 % 5 5 5 5 5 5 5 % 7 5 5 5 5 5 5 5 5 5 % 5 5 < 5 q : 7 % *X{ % @ i.&X;X&X%X{ 5 : q w 5 5 5 5 5 5 5 5 5 5 5 5 5 5 5 5 5 5 t t t : 5 5 @ % @ @ o # o X X : 5 : 1 7 : 7 5 : : t : : : : : : : : 1 5 : t : : : 1 : 7 s : 7 : : 7 : 1 : : y y y y u u u u d d 5 5 y d y u y u u y y y y d y d d d f 8 5 t u y u u y u u y y y y u u u u d u 5 t u u y u u u y y u u y u d u u f d t 5 y d y u y y y u u y y u u d d d f t 5 7 u u u y y u y u y y u y d d u f y 5 7 u d u y y y u y u y y d y u u d d 7 t y d y u u y y u y u u y u u u d d 7 5 t d y y y y s d : : : : 7 : 7 : 7 7 t : : : : 7 t > : ; > : 7 5 5 : : 7 : : : 7 : : : : : : ; o o @ : : 5 5 y t y y u y u u y u y y y d y y d y y d g y : : : : + f ",
"k k k k k k k k k j 5 5 5 5 5 5 5 5 5 5 5 5 5 5 % 5 5 5 t 7 5 5 5 5 % 5 5 % | u 5 @ *.&X;X&X&Xe @ t 5 % 5 5 5 5 5 5 5 5 5 5 5 5 5 5 5 5 t 5 5 5 5 5 5 t ; 4 @ + @ o o X   ; 5 5 : 7 : : : 7 : 7 : s : ; +.h t +.: > 7 : : 7 7 : : : : : : t : : : : : : y d y y u u u + v.c.C.D.@.t u y u y y u y d y y y y < l C.z.L.x.t u u y u y y u y u u y u u 5 C.4.H.V.f t y u u y y u y y u y u u @ b.c.C.D.@.t u y u y y y y y u y u u 5 l C.l.L.z.y u y u u y u y u y y u u u 5 C.4.G.C.d u u u y u y u y y u y d u : x.v.N.G.@.t u y y u y y u y y y u u 5 f A.l.L.z.y u y u y d y > : 7 : : 7 1 : : : : 7 : 7 : : : %.: +.f : : 5 : s : : : : s 1 : 1 7 7 : : : o : @ ; : 5 1 t y y u y u y y u y u y y y y y y y y d g 1 @ : : : @ u ",
"k r k k k k k k k T d : 5 5 5 5 5 5 5 % 5 5 5 5 5 5 5 5 7 5 5 5 5 5 5 5 5 5 @ 5 5 % i.y.*X&X&Xw 5 5 5 5 % 7 5 5 5 5 5 5 5 5 5 5 5 5 5 5 5 5 5 t % 5 5 % 5 @ @ @ o o X X X + : 5 : : 7 : 7 : 1 : : : s ; 9.+.g c.$.B.: : s : : : 7 7 : : : : 7 : 7 7 > 1 y y y d u u u V.tXN.G.v.D.5 u u y y u y y u y y d t c.qXA.A.v.L.d y d y y u y u y y y u t +.H.qXN.C.G.9.7 u u y u y y u u u y u u C.eXN.G.v.G.5 u y y u u y u y u y u 5 z.qXG.A.c.P.d u y u y u y u u y u u t +.H.qXN.V.A.l.5 d u u u y y u y u y y u C.tXV.G.c.G.5 u u y u y u y y y u u t l.0XG.A.c.P.g y u y y u t ; : t : : 2 7 : t 1 : : : : 7 : : m.t l.$.M.$.: : 7 : : 7 : : : 7 5 5 7 : : : o + @ : : t 5 7 t u y y u y u y u y d y y y d y d y y g y : : : : + u ",
"k k k k k k k k k k k 7 5 5 5 5 5 5 t 7 5 5 5 5 5 5 5 5 % 5 5 5 5 5 5 5 5 5 t t 5 @ *.u.%X&X8 6 t t 5 5 5 5 5 5 5 5 5 % 5 5 t % 5 5 5 5 5 5 5 5 7 5 5 5 5 @ @ @ @ o @ X X @ 5 : 7 : : : : : 7 : : 7 : ; $.B.M.4.g 9.; 7 : : : 7 : 1 : 7 7 : : 1 : : : : y d y y u 5 l.N.v.N.P.P.v.t u u y u y y y y u u y f G.#.A.A.0XD.y y y y y u u y y u u u 5 D.$.Z.N.0XL.+.t u y y y u u y u u u 5 l.N.v.V.P.H.N.t u y u y y u y u y u y f H.#.A.C.P.G.d d u y u y u y y u u u 5 A.4.A.v.rXL.#.t d u u y u y y u y u 7 4.N.z.V.P.P.N.5 u u y u u y y u u y u d L.@.A.C.0XG.u y y u u u y : : : 7 : : : : 7 7 : 7 7 : : t > m.M.F.h $.g : : : : t : : 7 : 7 > 1 : : 5 + o + @ @ ; 5 t t y u u u y u y u y y y y y d y y y y y g t : : : : @ u ",
"k k k k k k k k k k k q 5 5 5 5 7 % 5 5 5 5 5 5 5 5 5 5 5 t 7 % 5 5 5 5 5 5 5 5 t % *.y.%Xu.& 5 5 5 5 5 5 5 5 5 5 5 5 5 % 7 5 5 5 5 5 5 5 5 5 5 5 5 5 5 5 @ @ @ o # X X X : 7 5 : s t : : 7 : 7 : : 1 ; 9.x d M.B.g : : : 7 : 7 : : : 1 : t : 7 : 5 : : y y y y u 7 4.A.G.Z.G.b.L.7 u y u u y u u y y u u d G.V.G.D.c.0Xx y d y u y y u u u y u 7 V.N.P.V.V.Z.v.5 d u u u y y y t d u 5 #.G.F.V.G.x.L.5 u u y u y u y y u y u u G.N.H.F.b.0Xl t u y u y y u u y t d 5 N.N.L.V.A.C.N.5 u y u y y u y y u y t $.G.A.C.G.z.P.t u u u y u y u y y u u u G.N.I.Z.c.P.x t d u y y t : : 7 1 : 5 : : : : : : 1 t : 7 : M.; $.x.M.: : 7 1 7 : 7 1 : : 1 5 7 : 7 5 ; o + @ : : 5 t 7 t u y y y u y u y u y y y y y y y y u g y @ : : : : u ",
"k k k k k k k k k k k j 5 5 5 5 5 5 5 5 5 5 5 5 5 5 5 5 5 5 5 5 5 5 5 5 5 5 5 5 t % *.y.%Xu.% t 5 5 % 5 t 7 % 5 5 5 5 5 5 5 5 5 5 5 5 5 5 5 5 5 5 5 5 5 5 % @ @ @ o @ X X ; : ; : : : 7 t : : : 1 : : : h h : +.$.$.7 : t : : 5 1 7 : 7 : 7 : : 5 : : : y y d y u u t x.N.l v.V.l t u u y y u y y u u y d t #.C.@.5.A.5.t d y y y u y y y y u u y f n.l.x A.v.d d u u y y u y u u u u u t z.N.l v.C.x t u u y u u y u y y u d t c C.#.4.D.5.y u u y y u y y y y u u u f N.z.l C.v.u y u u y u y y u u u u u t l.N.x b.C.l t u u y u y u y u u y u t @.C.@.$.A.9.t u u u y d t : : : 7 : 7 : 7 : : 7 7 : : 7 t : x : g @.9.+.: : : : 7 1 7 : 7 : 5 : 5 : : + o + @ : : t 5 5 y u u y u y u y u y u y y y d y y y u l y : : : : O u ",
"k k k k k k k k k k r k d 5 5 5 5 5 5 5 5 % 5 5 5 5 t % 7 5 5 5 t 5 5 5 5 5 t % 5 @ *.y.%Xu.% t 5 5 5 t 5 5 5 5 5 5 5 5 5 5 7 5 5 5 5 5 5 % 5 5 5 5 5 5 @ @ @ @ o o X X X % 5 5 : 7 : 1 7 : : t 5 7 : 5 : : : : ; : 5 : 5 : 5 : 7 : : : 7 : : 5 : 7 : : y y d y u u u 7 5 y 5 5 y u y y y y u y y y y y y y t : y t ; t y y y y u u u u u u u u u y 5 5 t 5 5 y u y u u y y u y u u y u y 7 5 y 7 5 t u u u u y y y u u y y y u y : t t ; 5 u u y y u y u u y u u u u u 7 t y 5 5 u u y u u u u u y u y u u u 5 5 y 5 5 u u u y y y u y y y y y u u 7 : 5 y : 5 u u y s d y t : : 7 : 7 7 : 7 : 1 : 7 : : : : : : 5 : : ; : 5 : 7 : : : : 7 7 : : : 7 : 5 : o + @ : : : 5 5 y y u y y u y u y u y u y u i d d y d g y + : : : O u ",
"k k k k k k r k k k k k r 5 5 5 5 5 5 5 5 5 5 5 5 5 % 5 5 5 5 5 5 5 5 5 : 5 5 5 t & | y.%X&X@ t 5 5 5 5 5 5 5 5 5 5 5 5 % 5 % t 5 5 5 5 5 5 5 5 5 5 5 5 % 5 @ @ @ @ o X X 5 5 5 7 : : : 7 5 : : : : 5 : : 7 : : 1 > : : : 7 : : : 7 : : s : 5 : 7 : : : y y d d u u u d u u u u d d u u d u u y d u y d d d d d d d d d y d u u d d u u u u u u u u d u d d d d u u u d u u u u u u u u u d u u u d u u u d u u u u u d d u u u d d d d f d u d u u u u u u u u u u u d u u u u d d u u u u u d u y u u u u u u u u u u u u u u u y u y u u u y u u i d y y d d y y s y y y 5 : : : : : : : : : 7 : : : : : 7 : : : : 5 : 1 : 7 : : 7 : : : : : 7 : 7 1 5 @ o + @ ; : : 5 y y y u y u y u y u y u y u y y y y y d l t : : ; : : f ",
"k k r k k k k k k k k k k d 5 5 5 5 5 t 5 5 5 5 5 5 5 5 5 % 7 5 5 5 5 5 t 5 5 5 5 % e { *Xu.% 7 5 5 5 5 5 5 % 5 5 5 5 5 7 5 5 5 5 5 5 t 5 5 5 5 5 5 5 5 5 5 @ + o o o o $ + 5 5 > : : : : : : : : : : : : : : : : : : : : : : : : : : : > : : : > : : : t t y t t t u t t t 8 t t t t t t y t y y t t y t t y t t y t y y t y t t t y t 7 t t u t t t u t y t y 7 t y t t t t y u 7 t t t y 7 t u t y t t t y t t y t t y t t y t t y t y t t t y t t y y 7 t t t y t t t 9 y y 9 t y 8 t u 9 t 8 y t u 8 t 8 9 y y 8 t y 8 t u 9 8 y t y 8 y y y t y y g g y y f d t g f s f : : 5 5 h s : : 7 s : s : 7 h : 7 7 : : : > : : : : : : : : : : : : : : : : @ o @ ; : : 7 5 t y y u y u y y y y u u y y y y u y y d g t : : : : o u ",
"k k k k k k k k k k k k k k 7 5 5 5 % 7 5 5 5 5 5 5 5 5 5 t 5 5 5 5 5 5 5 5 5 5 5 5 5 @ *Xy.% t 5 5 5 5 5 5 7 5 t 5 5 5 5 5 5 5 5 5 % 7 5 5 5 5 5 5 5 % ; @ @ @ @ o X X X X . X o X X X o X   X o o   X o X . X X X X . o o   X o X X X X X X X X X X X X X X X X X X X X X X X . X o X . X X X . X X X X . X X X X . X X X X X X X . X X X X X . X X X X X . X X X X X X X X . X X X X X X X X X X X X X . X X X . X X . X X . X . X X X X X X . X X X X X X X X . X . o . ; ; ; ; ; ; , ; ; ; ; , + 4 ; 4 + ; ; ; ; ; ; + 4 , ; ; 4 ; ; ; , + . + o o 7 s + o y : o s 7 : t 7 + : : d > : o : : : : : : s : : : o o o + o o ; o o o o + : o o o o + + o o o @ @ @ 5 5 t 7 5 y y u y u y u y u y u y u u y y y y g 2 ; O : : : u ",
"k k k k k k k k k k k k k k d 5 5 5 5 5 5 5 5 5 5 5 5 5 5 5 5 5 5 5 5 5 5 5 5 5 5 5 t 5 %Xu.: 5 5 5 5 5 5 5 5 7 5 t 5 7 7 % 5 5 5 5 5 5 % 5 5 5 5 5 t @ @ 5 @ @ + o o X X X X X X X o X X X o X X X X X X X X X X X X X X X X X X X X X X X X X X X X X X X X X o X X X X X X X X X o X X X X o X X X X X X X X X X X X X X X X X X X X X X X X X X X X X X X X X X X o X X X X X X X X X X X X o X X X X X X X X X X X X X X X X X X X X X X X X X X X X X X X X X X o ; 4 4 4 4 4 4 4 4 4 4 4 4 4 4 4 4 4 4 4 4 , 4 4 4 4 4 , 4 4 , 4 4 4 4 ; X + + + o X + + o o + o o + o o O o o o o o O o @ o o o o o o o o @ + + + + + + > O + + + + O @ @ @ @ + + + + + : : : : t t y d s s u u u u u u u u u u y u u d d g y : : : : @ u ",
"r k k k k k k k k k k k k k r 7 % 5 5 5 5 5 5 5 5 5 5 5 5 % 5 5 5 5 5 5 5 5 5 5 5 t : 5 ;Xy.% 5 5 5 % 5 5 5 5 % 5 5 5 % 5 t 5 5 5 5 5 % 7 5 5 5 5 5 5 5 5 % @ @ + # o o o X o o o o X o o X o X @ X o X X o o X @ X @ X o o o o o X o o # X o o @ X @ X o X o o X o o o o o X o X o X o X o X + o o X o o X o X X @ o X # o o # o o o o X o o o o X o # o o o o X o o o o X o o X o o o X o o o X o o o X o o o o # X o o o X o X o o o X o o o o X o o o o o o o X + 6 4 4 4 4 4 4 4 4 4 4 4 4 4 4 4 4 6 6 4 4 4 4 4 6 4 4 4 6 6 4 4 6 4 4 4 4 X @ @ + @ @ + o + + + + + o @ o @ @ @ + @ o o o o @ @ @ @ @ o @ @ o + + + o o + o O o o o + o o o o o o O @ + + + + : < : t 7 t y y t y y t y t y t t y 1 i y t y g t : : : : @ u ",
"k k k k k k k k k k k k k k ..q 5 5 5 5 5 5 5 5 5 5 5 5 5 5 t 5 5 5 5 5 5 5 5 5 5 5 5 5 %Xu.% 5 5 5 5 5 5 5 5 5 % 5 5 5 5 5 % 7 5 5 5 t 5 5 5 5 5 5 5 5 5 @ @ @ + # + o @ X o o o o o o o o X # # # o o # @ o o X @ @ X o o o o o # # + + o o o X @ @ X @ X o o o o o o o + @ o o o o # @ o # # o o o o o o o o @ X @ o o + o o o o o o @ X @ + o o o o o o o o # o o # o o o o o o o # @ o o # o o o o o o o o o # + o o + # + o o # o @ o # # o o o # o # o o o 4 6 6 6 6 6 6 6 6 6 6 6 6 6 6 6 6 6 6 6 6 6 6 6 6 6 6 6 6 6 6 6 6 6 6 6 4 6 4 X % 5 u i d d i i d d i u d u i i h i i y u u f i d u i i h i i i d d i i d d i i f i i u u u f i d d i i u i i u f f l l c @.@.#.#.#.#.#.#.#.+.@.#.#.#.#.#.@.@.g f y @ : : : : u ",
"k k ..X.T r k k k k k k r k k k 9 5 5 5 5 5 5 5 5 5 5 5 5 5 7 % 5 5 5 5 5 5 5 % 5 5 t : *Xy.% t 5 5 t 7 % 5 5 5 5 5 5 5 5 5 t % 5 5 5 5 5 5 5 7 t 5 5 5 5 @ 5 @ # ; # # @ @ + + # @ # o @ @ @ @ + + @ o @ o @ @ # @ X @ o @ + + + + + + # @ o @ X @ X @ @ @ + o o + + o + # # @ @ o @ @ @ o # + + + + # + + @ o @ o @ # + # ; # # o @ @ o @ # # # ; # + # o @ @ @ + # + # + + # @ o @ @ @ # # + o # ; # @ o @ o @ # + + + # + + + + + @ @ # + + o + # ; o + + + 9 6 6 6 6 8 6 8 8 6 8 8 6 8 6 8 8 6 8 6 6 8 6 6 8 6 8 6 6 8 6 8 6 8 8 6 6 8 8 6 o 5 y c +.@.+.+.+.+.+.+.+.+.+.@.+.+.+.@.+.+.+.+.@.+.+.+.+.+.+.@.+.+.+.+.+.+.@.+.+.@.+.c +.+.+.+.+.@.+.+.+.+.%.c +.+.+.#.$.j.l.z.b.b.b.b.v.z.b.v.b.z.v.v.b.v.b.v.g g y @ : : : @ u ",
"k k k k k k k k k k r k k k k k d 5 5 5 % 5 5 5 5 5 5 5 5 5 5 5 % 5 5 5 5 5 5 5 5 5 5 @ *Xi.@ : 5 5 5 5 5 5 % 5 5 5 5 5 5 5 5 5 5 5 5 5 5 5 5 % 5 5 5 % 5 @ @ @ + @ @ + + @ + @ + @ @ @ @ @ @ @ + + + + @ @ @ @ # + + + + @ @ @ + ; + + @ @ o @ @ + @ @ + @ @ @ @ @ @ @ + @ @ + @ @ @ @ @ @ @ @ + + + + @ @ + @ @ @ @ @ ; + @ @ @ @ @ @ @ @ @ @ + + @ @ @ @ @ @ @ @ @ @ + @ @ @ @ @ @ @ @ @ @ o + + @ @ @ @ @ @ @ @ @ @ + + % + @ @ @ @ @ @ @ + + + + @ + @ % 8 8 8 8 8 8 8 8 8 8 8 8 9 8 8 8 8 8 8 8 8 8 8 8 8 8 8 8 8 8 8 8 8 8 8 8 6 8 8 8 7 + 7 y c c x +.@.@.@.+.@.@.@.c +.@.@.c x x c x +.@.@.@.@.+.#.@.c +.c @.+.@.@.+.@.@.@.c @.c @.@.+.@.+.@.c +.@.@.@.@.@.@.#.$.j.j.l.b.z.l.z.z.l.z.l.x.l.l.b.z.l.z.z.g f y : : : : O u ",
"k k k k r k k k k k k k k k k k k q : t 5 5 5 5 5 5 % t 5 5 5 5 7 t 5 5 5 5 t 5 5 5 t t *Xi.% t 5 5 5 5 5 5 7 t 5 5 5 5 5 5 5 5 5 5 5 5 5 5 5 5 5 5 5 5 5 @ @ @ ; @ @ @ + + @ @ @ @ @ @ ; @ @ @ @ % ; % @ @ @ @ % ; ; % @ @ @ @ + % @ @ @ @ @ @ % @ @ @ @ @ @ @ @ @ @ @ @ @ @ @ @ @ @ @ @ @ @ @ % @ ; + + % @ @ @ @ @ @ # ; @ @ @ @ @ @ @ @ @ @ @ ; @ @ @ @ @ @ @ @ @ @ 4 @ @ @ @ @ @ @ @ @ @ @ ; % @ @ @ @ @ @ @ @ @ @ + + @ 4 @ @ @ @ @ @ @ ; % @ @ @ @ 6 q 8 q 8 8 q q q q q 8 q q 8 8 q q 8 8 8 q q 8 8 8 0 8 8 0 q q q 8 8 q 8 8 e q 8 q 8 # 7 y #.l.b.#.#.c #.#.#.#.@.@.@.@.#.#.z.b.4.v.+.+.#.+.@.c #.#.#.#.#.#.@.@.@.@.#.#.#.#.#.#.#.#.#.$.#.#.#.#.#.#.#.#.#.#.#.$.j.l.l.b.l.b.z.z.z.b.z.b.b.z.l.z.b.z.z.l f y @ @ : : : u ",
"k k k k k k k k k k k k k k k k k j t 5 5 t 5 7 5 5 7 5 7 5 5 5 5 5 % 7 5 5 5 5 5 5 5 % %Xy.% 7 5 5 5 5 5 5 5 5 5 5 5 5 5 5 5 5 5 5 5 5 5 5 5 5 5 5 5 5 @ : % @ % @ 5 @ + 5 @ @ @ ; % % @ % 5 % @ @ % 4 @ @ @ @ % + % ; @ % @ @ @ 4 % % @ 5 @ ; % ; @ % @ 5 @ + % 5 @ @ @ 4 % % ; @ % @ @ @ % 4 4 ; @ % % @ @ @ @ @ @ @ @ @ @ 5 @ @ % @ % 5 @ @ 5 @ % @ @ @ @ ; % 5 @ @ : @ @ % @ @ : @ @ 5 % 4 % @ ; @ @ @ 5 @ % 5 ; @ 4 % @ % @ @ : @ @ 5 @ % 4 4 @ % 8 e q q e q e q q q q q e q q q e q e q e q q q e q q e r q q q q q e q e q q q q e q q @ y u j.qXI.G.j.v.b.j.j.l.v.v.v.z.#.l.qXG.D.L.j.N.l.L.k.v.b.#.l.j.z.4.l.v.b.l.j.b.#.4.#.j.4.4.#.$.$.4.$.4.5.$.$.j.#.4.4.4.j.l.l.z.z.l.z.z.l.b.z.z.b.z.z.z.z.l.b.g f y : : : : o y ",
"k k k k k k k k k k k k k k k k k r u : 5 5 5 % 5 5 5 5 % 5 5 5 5 5 5 5 5 5 5 5 5 5 5 5 &Xy.% t 5 5 5 5 5 5 5 5 5 5 5 5 5 5 5 5 5 5 5 5 5 5 5 5 5 5 5 5 4 5 5 5 9 5 @ 5 5 % 5 5 5 % 4 5 ; 5 @ @ 5 ; 5 % 5 ; 5 5 4 5 % 5 5 @ 5 5 5 % 5 4 @ 5 5 % 4 5 % 5 @ 5 5 5 5 @ 5 @ 5 % 4 5 @ 5 5 5 @ 5 @ 5 % 5 % 5 4 5 5 5 @ t 9 % 5 5 @ 5 5 : 5 ; 5 @ 5 ; @ 5 9 @ 5 5 5 % @ 5 t @ : : @ 9 5 @ 5 ; 5 % @ 5 9 @ : 5 t @ % 5 5 ; % 5 @ 4 % 5 5 @ 5 ; 5 % @ 5 % % 7 q j j e e q r e e e e e e e e e e e e e j r e e e r q e e e e e e e e e r e e e e e e r d @ y d z.0X@.L.qXI.A.Z.A.I.rXrXP.P.4.z.rXI.G.I.l.qXP.tXZ.rXrXl.D.I.tXI.Z.A.tXL.C.G.#.j.j.j.j.j.j.j.j.j.j.j.j.j.j.j.j.j.j.j.k.l.b.z.z.b.z.z.b.l.z.z.l.z.z.z.z.b.b.l g h : : : : : u ",
"r k k k k k k r k k k k k k k k k k j t 5 5 5 5 5 5 5 5 5 5 5 5 5 5 5 5 5 5 5 5 5 5 5 5 %Xi.@ t 5 5 5 % 7 5 5 5 7 5 5 5 5 5 5 5 5 5 5 5 5 5 5 % 5 5 5 5 5 5 % 5 : : @ t 5 @ t 5 % 5 5 ; t : @ t 5 5 % 5 5 ; 5 5 % 5 5 % 5 5 @ 5 5 ; 5 5 ; 5 : 5 % 5 5 5 @ 5 % 5 5 5 @ 5 % 5 5 5 % 5 5 5 5 5 5 @ 5 5 5 @ 5 5 5 % t 5 % 5 5 5 @ 5 5 5 5 ; t @ % 5 ; 5 5 5 5 5 5 % 5 5 5 @ % 5 5 5 % 5 5 5 5 5 5 @ @ 5 5 5 5 5 5 % : t 5 5 : 5 : 5 : : t : : t % 5 5 7 k r e k k r r k k 0 r k k e r k k k r j k r k j j r r k k r r r r j k e e k k e e k e r r q : u f b.rX4.qXtXN.Z.D.G.rXA.I.Z.P.b.b.pXV.z.rXD.tXtXL.A.pXL.b.C.pXrXiXA.rXyXP.pXN.j.j.l.l.k.l.l.k.l.l.l.l.l.l.l.z.k.l.j.l.l.b.b.z.z.z.z.b.l.b.z.b.l.z.z.z.z.l.z.l f f d u d d d g ",
"k k k k k k k k k k k k k k k k k k r u 5 5 5 5 5 % 5 5 5 5 5 5 % 5 5 5 5 5 5 5 5 5 5 % %X*.% 5 5 5 5 5 5 5 5 5 % 5 5 5 5 5 5 5 7 % 5 5 5 5 5 7 5 5 5 5 5 5 5 5 5 5 5 5 5 5 5 5 t 7 5 5 5 t 5 5 5 5 5 5 5 5 5 5 5 5 5 5 5 5 5 5 5 t % 5 t 5 5 t 5 5 5 5 5 5 5 5 5 5 5 5 5 5 5 5 5 5 5 5 5 5 5 5 5 5 5 5 5 5 5 7 5 5 5 5 5 5 5 5 % 5 5 5 t t 5 5 t 5 5 % 5 5 5 5 5 5 5 t 5 5 5 5 5 5 5 5 5 5 5 5 5 5 5 5 5 5 5 5 5 5 5 5 5 5 5 5 5 5 5 5 5 5 t 7 d k k k T k k k r r k k k k k k k T k k k k k k k k k k k k k k k r k k k k k k k k k k k k ..j 1 i l b.pXtXL.I.Z.v.yXiXL.D.D.Z.P.b.v.qX4.v.qXqXiXI.rXL.rXI.L.Z.iXA.tXA.pXqXZ.CXl.z.z.z.b.x.z.z.z.z.z.z.l.b.l.z.z.z.z.z.b.l.l.b.l.b.l.z.l.b.z.z.z.z.z.z.z.z.b.b.l f f 7 H.uXD.y g ",
"k k k k k k k k k k k r k T X.k k k k r 5 7 5 5 5 5 5 5 5 5 5 5 7 5 5 % 5 5 5 5 5 5 5 5 %X*.% 5 5 % 7 5 5 5 5 5 5 5 7 % 5 5 5 5 5 5 t 7 5 % 5 t 5 5 5 5 5 t % 5 t 5 5 5 5 5 5 5 5 % 5 5 5 5 5 5 5 5 5 5 5 5 t 5 5 5 5 5 5 5 5 5 5 5 5 5 5 5 5 5 t 5 5 5 5 5 5 5 t 5 5 5 5 5 5 5 5 5 5 5 5 5 % 5 5 5 5 5 5 5 5 % 5 5 5 5 5 5 5 5 5 5 7 % 5 5 5 5 5 5 5 5 5 5 5 5 5 5 5 5 5 5 5 5 5 5 5 5 5 5 5 5 5 5 % 5 5 5 5 5 5 5 5 % 5 % 5 5 5 5 5 5 5 t 7 j r k k k ....k k k k k k k k k k k k k k k k k k k k k k k k k k k k k k r k k k k k k r k k k j : i l l.b.v.l.x.z.z.v.b.x.b.z.z.z.z.l.b.z.z.l.l.v.l.v.z.b.v.z.x.l.z.z.z.b.z.b.z.z.z.z.z.l.x.b.b.z.z.z.z.b.l.z.z.z.z.z.z.x.b.z.z.z.z.b.z.x.z.z.z.z.z.z.z.l.z.x.b.l p l 5 B.PXB.: g ",
"k k k k k k k k k k k k k r k k k k k k u % 5 5 5 5 5 5 5 5 5 t t 5 5 5 5 5 5 5 5 5 5 % %X*.% 5 5 5 t 5 5 t 7 % 5 5 t 5 5 5 5 5 5 5 5 % 5 5 5 5 5 5 5 5 5 % 7 5 5 5 5 5 5 5 5 5 5 5 5 5 5 5 5 5 5 5 5 5 5 t : 5 5 5 5 5 5 5 5 5 5 5 t 5 5 % 5 5 7 % 5 5 5 5 5 5 5 5 5 5 5 5 5 5 5 5 5 5 5 5 5 5 5 5 5 5 5 5 5 5 5 5 5 5 5 5 5 5 5 5 t 5 5 5 5 5 5 5 5 5 5 5 5 7 5 5 5 5 5 5 5 5 5 5 5 5 5 5 % 5 5 5 5 5 5 5 5 5 5 5 5 5 5 5 5 5 5 5 5 5 : t j k k k k k k r k k k k k k k k k k k k k k k k k k k k k k k k k k k k k k k k k k k k k k k k T ..: d l b.z.z.b.b.z.z.z.b.z.z.b.b.z.z.b.z.b.b.b.b.l.z.z.z.b.b.z.b.b.b.z.z.z.z.b.z.b.z.z.b.b.b.l.b.z.z.b.b.b.b.z.b.z.z.z.z.z.b.z.z.z.b.z.z.b.z.b.z.b.z.z.b.z.b.b.b.f f f y z wXf s g ",
"k k k k k k k k k k k k k k k k k k k k e 9 t : 5 5 5 5 5 5 % 5 5 5 5 7 5 5 5 5 5 5 5 5 &X*.% 5 5 5 5 5 5 5 5 5 5 5 5 5 5 5 5 5 5 5 5 5 5 5 5 5 5 5 5 5 5 5 5 5 5 5 5 5 5 5 5 5 5 5 % 5 5 5 5 5 5 5 5 5 5 5 5 5 7 5 5 5 5 5 5 5 5 5 5 5 5 5 5 5 5 5 5 5 5 5 5 5 5 5 5 5 5 5 5 5 5 5 5 5 5 5 5 5 % 5 5 5 5 % 7 5 5 5 5 5 5 5 t 5 5 5 5 5 5 5 5 5 5 5 5 5 5 5 5 % 5 5 5 5 5 5 5 5 5 5 5 5 5 5 5 5 5 5 5 5 5 5 5 5 5 5 5 5 5 5 5 5 t 5 5 5 q k k k k k k k r k k k k k k k k k k k k k k k k k r k k k k k k k k k k k k ..k k k k k k k k k k k j < i g l.k.l.j.l.l.j.l.l.l.j.l.j.j.z.j.j.l.l.k.l.k.l.l.j.j.l.k.j.l.j.j.l.l.l.j.z.l.j.z.j.j.j.l.j.l.l.l.j.k.l.j.l.j.l.l.j.l.j.k.l.l.j.j.l.j.l.k.l.j.l.l.j.k.j.l.l.f f i y s d y y g ",
"k k k k k k k k k k k k k k k k k k r k k e : t 5 5 5 5 5 5 5 5 5 5 5 % 5 5 5 5 5 5 5 % &Xi.% 7 5 5 5 5 5 % 5 5 5 5 5 5 5 5 5 5 5 5 5 5 5 5 5 5 5 5 5 5 5 5 5 5 5 5 5 t 5 % 5 5 5 5 7 5 5 5 5 5 5 5 5 5 5 % 5 5 % 5 5 5 5 5 5 5 5 5 5 5 5 5 5 5 5 5 5 5 5 5 5 % 5 5 5 5 5 5 5 5 5 % 5 5 5 5 5 5 5 5 5 5 5 5 t 5 5 5 5 5 5 5 5 5 5 5 5 5 5 5 5 5 5 5 5 5 5 5 % t 5 5 5 % 5 5 5 5 % 5 5 5 5 5 5 5 5 5 5 5 5 5 5 5 5 5 % 5 5 5 5 5 t : 5 j k k k k k k k k k k k k k k k k k k k k k k k k k k k k e k k k k k k k k k k T k k k k k k k k k k k j : f f f f f g d f f f f f f f f f f f g f f f f f f f f f f f g f f g f f f f i f f f f g g f f i g f f f f g d f f f f f g f f f f f g g f f f f f f f f f g d g l l f h d f d l ",
"k k k k k k k k k k k k r k k k k k k k k k t 5 5 5 5 5 5 5 t 5 5 5 5 5 t 7 5 5 5 5 7 % &Xi.% 5 5 5 5 5 5 5 5 5 5 5 5 5 5 5 5 5 5 % 5 5 5 5 5 5 5 5 5 5 5 5 5 5 5 5 5 5 5 5 5 5 t 5 5 5 5 5 5 5 5 5 5 5 5 5 5 5 5 5 5 5 5 t 5 5 % 5 5 5 5 5 5 5 5 5 5 5 5 5 t 5 5 5 5 % 5 5 5 5 5 5 5 5 5 5 5 5 5 5 5 5 5 5 5 5 5 5 5 5 5 5 5 5 % 7 5 5 5 5 5 5 5 5 5 % 5 5 5 5 5 t 5 5 5 5 5 5 5 5 5 5 5 5 5 5 5 5 5 5 5 5 5 5 5 5 5 5 t 5 5 5 % 9 k k k k k k k k k k k k k k k k k k k k k r k k k k k k k k k k k k r k k k k k k r k k k k k k k k r k k j 5 t u u u y u u i y y y y i u u u u i u u u y y y y i u y y u i u y u u y y u s i u y y u y u y y y u s u u y y i y y y y y y y u y y y y y y u y y i u y y u y u t y y u u u u y ",
"r k k k k k k r k k k k k k k k k k k k k r d 5 5 5 5 5 5 5 5 5 5 5 5 5 5 % 5 5 5 5 t @ u.*.& 5 5 5 5 5 5 5 5 5 5 5 5 5 5 5 % 5 t 7 5 5 5 5 5 5 5 5 5 5 5 5 5 5 % 5 5 5 5 5 5 5 7 % 5 5 5 5 5 5 5 5 5 5 5 5 5 5 5 5 5 5 5 5 5 5 5 5 5 5 5 5 5 5 5 5 5 5 5 5 5 5 5 5 5 5 5 5 5 5 5 5 5 5 5 5 5 5 5 5 5 5 5 5 5 5 5 5 5 5 5 5 % 5 5 5 5 t 5 5 5 5 5 5 5 5 5 5 5 5 5 5 5 5 5 5 5 5 5 5 5 5 5 5 5 5 5 5 5 5 5 5 5 5 5 5 5 5 5 5 5 5 j k k k k k k k k r k k k k k k k r k k k k k k k k r k k k k k k r k k k k k k k k k k k k k k k k k k k k k j 5 5 : 5 5 ; 5 5 1 < : < 5 : 5 : < : : : < : t : : < : < 5 : 5 : : t : 5 < : < < @ t : t : 5 : 5 < : < < : t : 5 1 < : < < 5 5 : < < : 5 < 5 5 @ : < : < 5 : 5 5 5 5 5 : t : : < < ",
"k k k k k k k k k k k k k k k k k k k k k k k 8 t t 5 5 5 5 5 5 5 5 5 5 5 5 5 5 5 5 5 % &X| @ 7 5 5 5 5 5 t % 7 5 5 5 5 7 t 5 5 5 5 5 % t 5 5 5 % 7 5 5 5 5 5 5 5 5 5 5 % t 5 5 5 5 5 5 5 5 5 5 5 5 5 5 5 % 5 5 5 5 5 5 5 5 5 5 5 5 5 5 5 5 5 5 5 5 5 5 5 5 % 5 5 5 5 5 5 5 5 % 5 5 5 5 % 5 5 t 5 5 5 5 5 5 5 5 5 5 5 5 5 5 5 % 5 5 5 5 5 5 % 5 5 5 5 5 5 5 5 5 5 5 5 5 7 % 5 5 5 5 5 5 5 5 5 5 5 5 5 5 5 5 5 5 5 % 5 5 5 5 t j k k k k k k k k k k k k k k k k k k k k r k k k k k k k k k k k k k k k k k k k k k k k k k k k k k k k k k k j 5 y y y u y t u t y y y y y y y y y y y y y y y y y y y y y y y u u t u u t u y t u u u t u u y y y t y y y y y y y y y u y y 7 y y y y y y y y d y y y u y y y y t u u y u u y y ",
"k k k k k k k k k k k k k k r k k k r k k k k j % 7 5 5 5 5 5 5 5 5 5 5 5 5 % 7 t 5 7 % &Xi.% t 5 5 5 5 % 5 5 5 5 t 5 % % 5 5 5 5 5 5 7 7 % 5 5 5 5 5 5 5 5 5 5 5 5 5 5 7 % 5 5 5 5 5 5 5 5 5 5 5 5 5 5 5 t 5 5 5 5 5 5 5 5 5 5 5 5 5 5 5 5 5 5 % 7 5 5 5 5 7 5 5 5 5 5 5 5 5 5 5 5 5 5 5 5 5 5 5 5 5 5 5 % 5 5 5 5 5 5 5 5 5 7 5 5 5 5 5 5 5 5 5 5 5 5 5 5 5 5 5 5 5 5 t 5 5 5 5 5 5 5 5 5 5 5 5 5 5 5 % 7 5 5 5 5 5 5 t 7 j k k k k k k k k k k k k k k k k k k k k k k k k k k k k k r k k k k k k k k k k k k k k k k r k k k k k k k k k j 5 t u y f d f f f f f f f f u u d f f f f f f h g h u u u u y u u f f f f f f f f d u u d f f d f h f f f d y u u y u y d f h f f g h f f f u u y u u u d d f f f f f f d f u u u ",
"k k k k k k k k k k k k ....k k k k k k k k k k 7 % 5 5 5 5 5 5 5 5 5 5 5 5 5 5 5 5 5 % &X*.@ t 5 5 5 5 7 5 5 5 5 5 5 5 5 5 5 5 5 5 5 5 5 5 5 5 5 5 5 % 5 5 5 5 5 5 5 5 5 5 t 5 5 5 5 5 5 5 5 5 5 5 5 5 5 5 5 5 5 5 5 5 5 t 5 5 5 5 5 5 5 5 5 t 5 5 5 5 5 5 % t 5 5 5 5 5 5 5 5 5 5 5 5 5 5 5 5 5 5 5 5 5 t 5 5 5 5 5 5 7 % 5 5 5 5 5 5 5 7 t 5 5 5 5 5 5 5 5 5 % 7 7 5 5 5 5 5 5 5 5 5 5 5 5 5 5 5 5 t 5 5 5 5 5 5 5 5 8 k k k k k k k k k k k k k k k k k k k k k k k k k k k k k k k k k k k r k k k k k k k k k k k ..X.k k k k k k r k k j 5 y u y +.+.l +.+.+.+.x x @.f u @.x x x x x +.+.x @.i y u u u t f @.x x +.x x +.x +.l u @.x x +.+.+.+.+.+.+.u y y u y y x +.+.+.x x +.x x +.d u u y y y g @.x l +.+.x l l @.f y y ",
"k k k k k k k k k k k k { o.T k k k k k k X.k k j t 5 5 5 5 t t 5 5 5 5 5 5 5 5 5 5 5 % &X| % t 5 5 5 5 5 5 5 5 5 5 5 5 5 5 5 5 5 5 5 5 5 5 5 5 5 5 5 t 5 5 5 5 5 5 5 5 5 5 % 5 5 5 5 5 5 % 5 5 5 5 5 5 5 7 % 5 5 5 5 5 5 7 % 5 5 5 5 5 5 5 % 7 5 5 5 5 5 5 7 5 5 5 5 5 5 5 5 5 5 5 5 5 5 5 5 5 5 5 5 5 5 5 5 5 5 5 5 5 5 5 t 5 5 5 5 5 5 % 5 5 5 5 5 5 5 5 5 5 5 t % 5 5 5 5 5 5 5 5 5 5 5 % 5 5 5 % 7 5 5 5 5 5 5 5 j j k k k r k k k k k k r k k k r r k k k e k k k k k k k k k k k k k k k ....X.T k k k k k k k X...T k k k k k r k k X.j % t u y x d y 5 5 5 5 u t l f u c y y 7 t 5 t t y x f u y u u u f x t y u 7 u t u l l t x d t 7 t 7 : t d x y u u y y y x f t y 5 t t y t +.d y y y y y l l t y 5 5 5 y t l l y u ",
"k q 8 8 8 8 8 8 8 7 8 8 8 8 7 8 8 t 8 u 8 8 7 8 8 5 @ : @ : ; : 5 5 5 t % 5 5 5 5 5 5 % u.i.@ t 5 5 5 5 5 5 5 5 5 5 5 5 5 5 % 7 % 7 5 5 5 5 5 5 5 5 5 5 5 5 5 5 5 5 5 5 5 5 5 5 5 5 5 5 5 % t 5 5 5 5 % t % 5 5 5 5 % 5 5 % 7 5 5 5 5 5 5 5 5 5 5 5 5 5 5 5 5 5 5 5 5 % 5 5 5 t 5 5 5 5 5 5 5 5 % 7 5 5 5 5 5 5 5 5 5 5 5 5 5 5 5 5 5 5 5 5 5 5 5 5 % 7 t 5 5 5 5 5 % 5 5 5 5 5 5 5 t 5 5 5 5 t 5 5 5 5 5 5 5 5 t t e k r k k k k k k k k k k k k k k k k k k k k k k k k k k k k k k r q 8 8 8 8 7 8 8 8 8 8 7 8 8 7 8 8 8 7 8 8 8 8 7 7 8 q j 5 8 u y c u d %.+.O.%.u t x f u +.y d @.O.+.+.d y +.d y u u u t g x y u d d u d y l g y @.d d @.%.%.+.d d c y u y y u y g g t l $.+.+.s y +.d y u y y y g x y f %.%.%.f u l l u u ",
"9 ; + + ; + ; ; ; ; ; ; ; @ + : ; ; ; ; ; ; ; ; 4 + o @ @ @ + o @ 5 5 5 5 5 5 5 5 5 5 % u.| @ 5 5 5 5 5 5 5 5 5 5 5 5 5 5 5 5 5 5 t 5 5 5 5 5 5 % 5 5 5 5 5 5 5 5 5 5 5 5 5 5 5 5 5 5 t 5 7 7 % 5 5 5 5 5 7 5 5 5 5 5 5 5 5 5 5 % 5 5 5 5 5 5 5 5 5 5 5 5 5 5 5 5 5 t 7 5 5 % 7 5 5 5 5 5 5 5 5 5 t 5 5 5 5 5 5 5 5 5 5 5 5 5 5 5 5 5 5 5 5 5 5 5 5 5 5 5 5 5 5 5 5 5 5 5 5 5 5 % 7 5 5 5 5 5 5 5 5 5 5 5 5 5 5 8 k k k k k k k k k k k k k k k k k k k r k k k k k k k k k k k k k k 8 + ; + + ; ; + ; ; + ; @ + : ; + ; > ; o ; + : : ; + ; 7 5 t u u +.u d B.AXsXm.u y x f d +.y h sXSXPXF.7 u x f y y y u u f x t y l uXl s y l g y x d y uXKXKXwX: d +.y y u y y y x g t B.wXKXAXd t c d y y u y y f x 5 9.wXuXwX9.5 l f y u ",
"; : f 5 ; + ; ; ; @ o + 4 ; f 5 ; ; ; + + + ; 5 + ; o X X o @ o # 5 5 5 5 5 5 5 5 5 7 % u.| % t % 5 5 5 5 5 5 5 5 5 5 5 5 7 t 5 5 5 % 5 5 5 5 5 7 5 5 5 5 5 % 7 5 5 5 5 5 5 5 5 5 5 5 5 5 5 5 5 5 5 5 5 5 t % 5 5 5 5 5 % 5 5 5 5 5 5 5 5 5 5 5 5 5 5 5 5 5 % 7 7 % 5 5 5 5 % 5 5 5 5 5 5 5 5 5 5 5 % 5 5 5 5 5 % 7 7 5 5 5 5 % % 5 5 5 5 5 5 5 5 5 5 5 5 7 5 5 5 5 5 5 5 5 5 5 5 5 5 % 5 5 5 5 5 5 5 5 5 5 5 y k k k k k k k k k k k k k k k k k k k k k k k k k k k k k k k k k k k 8 + 5 5 f : t u ; ; y ; ; : ; 9 d o ; : f ; d 5 ; : d 4 4 5 t u u x d t l AXsXu y y x f y +.d 5 x.KXpXf t y x d u y u u y g x d t F.PXF.5 y l g t +.d 5 9.LXSX@.t d +.y u u y y y x g 7 F.aXD.AXz y x d y u y u y g x : c.wX7 aX9.7 l l y y ",
". n.JXI.t l u 7 t f g x ; f JXK.S.4.5 k.k.7 t ; y 7 7 y d t @ t @ 5 5 5 5 5 5 5 5 5 t % &X| @ t 5 5 5 5 5 5 5 5 5 5 5 5 5 % 5 5 5 5 5 5 5 5 5 5 5 5 7 % t 5 5 5 5 5 5 5 5 5 5 5 5 5 % 7 5 5 5 5 5 5 5 5 5 5 7 5 5 5 5 t 7 5 5 5 5 5 5 t 5 5 5 5 5 5 5 5 5 5 t % 5 5 5 5 5 5 7 5 5 t 7 % 5 5 5 5 5 5 5 5 5 5 5 5 5 t % 5 5 t 5 7 5 5 5 t 5 5 5 5 5 5 5 5 5 % 5 5 5 5 5 5 5 5 5 5 5 5 5 5 5 5 5 5 5 5 5 7 % t q k k k k k k k k k k k k k r k k k k k k k k k k k k k k r k k k k k k k 6 6 JXc K.I.S.U.5 @.JXn.  K.y k.yXb.JXl Y.J.J.Y.. b.JX5.o t t u u +.d t uXPXPX9X5 y x f y +.u f c.KXuX%.y y x d y u y y y h +.5 O.SXPXKX$.t l g y c d u 5 aX9X: u u +.y y y u d t +.g : 9XPXaX9Xg y +.d y y u y y g x : z.wX9XwX9.5 l l t u ",
". S.z n.U.Y.J.b.K.U.ZXZXb.u ZXY.K.J.JXJXU.JXZX4 J.JXU.J.JXJXn.n.. t 5 5 5 5 5 5 5 5 5 % u.| % 9 5 5 5 5 : t 5 5 5 5 5 5 5 5 5 5 5 5 5 5 5 5 5 5 t 5 5 5 5 5 5 5 5 5 5 5 5 5 5 5 5 5 5 5 5 5 5 5 % 5 5 5 5 5 5 t 5 5 5 5 5 5 5 % 5 5 5 5 5 5 5 5 5 5 5 5 5 5 : 5 5 5 5 5 5 5 5 5 5 5 5 5 5 5 5 5 5 5 : 5 5 5 5 t 5 5 5 5 5 5 5 5 5 5 5 5 5 5 5 5 5 5 5 % 5 5 : 5 5 5 5 5 5 5 % 7 5 5 5 : t 5 5 5 5 5 5 5 u r k k k k k k k k k k k k r T k k k k k k k k k k k k k k r T X.k k k k k k 6 + K.z ; Y.. Y.: #.PXb.5 I.;   S.4.K.6 f K.+ Y.. n.JX5.+ t t u y +.i d v.M.c.x.u y x f u +.y f m.M.m.j.y u x d u y u y y f x t +.m.c.m.@.t l l y x f u y l l u u d +.y u u y d y l g t %.N.m.9.d y x d y u y u u g l y l M.M.v.l 7 l l u u ",
"  S.S.J.U.5.S.K.U.n.J.J.n.e JX6 J.JXZXZXK.JXl.+ Y.JXJXZXZXZXJXc X 5 5 % 5 5 5 5 5 5 5 % u.| @ 5 5 5 5 5 5 5 5 5 5 5 5 % 5 5 5 5 5 5 % 5 5 5 5 5 % 5 5 5 5 5 5 5 5 5 5 5 5 5 5 5 5 5 5 % 5 5 5 5 5 5 5 5 5 5 5 5 5 5 5 5 5 5 t 7 5 5 5 5 5 5 5 % 5 5 5 5 5 5 t 5 5 5 5 5 5 5 5 5 t 5 5 5 5 5 % 5 5 5 t 5 5 5 5 : 5 5 5 5 5 5 5 5 5 5 5 5 5 5 5 5 5 5 5 5 5 5 t 5 5 5 5 5 5 5 5 t 5 5 5 5 5 5 5 t 5 5 @ a k k k k k k k k k k k k k k ....k k k k k r k k k k k k k k k k k k k k k k k 7 . K.c U.5.J.J.. S.|.J.4.S.$ n.U.. Y.c ZXf U.b.+ K.ZXn.. t t u y x y y @ : ; : y t x f y +.y t : : : t y t +.d y u u u y g x t t : : : t y l g y +.d t u 7 t u t u x y y y u d t x f y t : : 5 y y x d y u y u t f l y t 5 @ 5 t t l f u y ",
"X 5.ZXk.c l @.U.b.5.5.5.#.t k.. 5.J.J.b.S.S.n.c 5.b.n.b.K.N S.@ o 5 5 5 5 5 5 5 5 5 5 % u.| % t 5 5 t : 5 5 t 5 5 5 5 5 5 5 5 5 5 5 5 5 5 5 5 5 5 5 5 5 5 5 5 5 5 t 5 5 % 5 5 5 5 5 5 5 t 5 5 5 5 5 5 5 5 5 5 5 5 5 5 5 7 % 5 5 5 5 5 5 5 5 5 5 5 5 : t 5 t 5 5 5 t % 5 5 5 5 5 5 5 5 5 5 5 5 5 5 5 5 5 5 5 5 t % 5 5 5 5 5 5 5 t 5 5 5 5 5 5 5 5 5 5 5 5 5 5 5 5 5 5 5 5 7 5 5 5 5 5 5 5 5 5 t 5 5 d r k r k k k k k k k k k k k k r k k k k k k k k k r k k k k k k k k k k k k k r 7 + 5.5.yXS.U.K.j.Z I.@.5.d . K.U.f 5.k.U.S.U.S.5.5.Y.z ; 7 t u y +.l g x x x l l g @.f u +.l g x x x g x g @.f y u y y y f @.l l x g x l g +.l 7 @.l l l l l l l x +.y y y u u y l +.f l l x l l l @.d y y y u y g @.g l l x l l l @.l t u ",
"6 . . + + + ; . + + o + + 4 o 5 + . . o o . , ; + + . + . o X o @ 5 5 5 5 5 5 < t 5 5 % u.| @ t 5 5 5 t 5 5 % 5 5 5 5 5 5 5 5 < 5 5 5 5 5 5 5 < 5 5 5 5 5 5 5 5 5 5 5 5 5 5 5 5 5 5 5 5 5 5 5 5 5 5 5 5 t : t : 5 5 5 5 5 5 5 5 5 5 t 5 5 5 5 5 5 5 5 5 5 5 5 5 5 5 5 5 5 5 5 5 5 5 5 t : t 5 5 5 5 5 5 5 5 5 5 5 5 5 5 5 5 5 5 : t 5 5 5 5 % 5 5 5 5 5 5 5 5 5 5 5 5 5 5 % 5 5 5 5 5 < 5 5 5 @ t k k k k k k k k k k r r k k k k k k k k k k k k k k k k k k k k k k k k k k k k k k 7 ; + o . +   o , ; . ; + ; ; . . 4 + o . ,   o ; ; . + 5 5 t u u g l g x l l g l g l u u g g x g g g g g l l u u y y u y d l l l x g g x l l d y f l l l l l l l l g y y u y y y f l l l l l l l l g u y y u y y d l l l l l l l l l d u u ",
"8 ; 5 5 : : : 5 5 : : ; 4 ; 5 ; ; : 5 : ; 5 : ; 4 6 5 4 5 ; @ @ ; t t 5 5 t 5 t 5 5 5 & u.| % 5 t t t t t 5 5 t 5 t 5 5 t 5 5 t 5 t t 5 t t t t 5 t t t 5 7 5 t t 5 5 5 5 t 5 t 5 t t 5 t 5 5 t 5 t t 5 t t 5 5 5 t 5 t 5 5 5 5 t < 5 5 5 t 5 t 5 t 5 5 t t : t 5 t t t 5 5 5 5 t t : t 5 t t t t t t 5 < 5 5 5 < t t t 5 7 t 5 < 5 5 5 5 t t t 5 t t 5 t t : t < t t 5 5 5 5 t < t 5 t t t 5 s k k k k k X.k k k k k k k k k k k k r k k k r k k k k k k X.k k r X.k k ..r k k r k k e ; : : : ; 5 5 ; ; 5 : : : ; : 5 ; 5 5 5 : : ; ; 5 ; 5 q 5 t d d u y y y y y y y y y y u y y y y d t y y t u d u u y d d y y y y y y y y y y u u y y y t t u y y y y y y d i u u u y y y y y y y y u y u d d y u i d y y y y y y t u u u u ",
"6 : ; ; @ : ; ; ; ; : : ; ; : : : : ; : ; : : : 5 + ; @ : @ ; : : : : : : : ; : : : : : w 7 : : @ : ; : ; : : @ : @ : : : : ; : ; : : @ @ : ; : ; : @ : @ % 5 @ @ : : : : : @ : ; : : @ : : @ : ; : : @ : : : : ; : @ : @ 5 5 @ : : @ : ; : @ : @ : @ : ; : : : ; : @ : @ 5 5 @ : : : @ @ : : @ @ @ : ; : : : : ; : ; : @ % 5 @ : : : : ; : @ : : @ : ; : : : : ; : ; : @ 5 5 @ : : ; : ; ; : 5 7 6 5 5 5 5 5 5 5 7 6 5 5 7 5 5 7 5 5 5 5 7 5 5 7 6 5 5 5 5 5 5 5 5 5 : 7 : 7 5 5 5 7 5 5 ; : : : ; ; : : : ; : : : ; ; ; @ ; ; : : : : ; : : 5 : 5 : : : : : : : : : : : 5 : : : : : : : < : : : 5 : : < : : : : : : : : : : : : : : : : : < : 5 5 t : : : < : : : : : 5 : 5 : < : : : : : : : : : : : : : : : : < : : 5 5 : : : ",
": : : : : : : : : : : : : : : : : : : : : : : : : : : : : : : : : : : : : : : : : : : : @ : : : : : : : : : : : : : : : : : : ; : : : : : : : : : : : : : : ; : : : : : : : : : : : : : : : : : : : : : ; : : : : : : : : : : : : : : : : : : : : : : : : : : : : : : : : ; @ 5 ; : : : : : : : : : : : : : : : : : ; : : ; ; : : : : ; : : : : : : : : : : : : : : : : ; 5 @ 5 : : : : : : : : @ : @ ; ; ; : : @ @ 5 @ ; ; : : ; : : : ; : : : @ ; : ; ; ; : : ; : : : : : ; : : : : ; : : : : : : : : : : : : : : : : : : : : : : : : : : : : : ; : : : : : : : : : : : : : : : : : : : : : : : ; : : : : ; : : : : : : : : : : : @ : : : : : ; ; : : ; : : : : : : : : : ; : : : : : : : : : : : : : : : : : ; : : : : ; ; : : ",
"y y y u y y u y y y y u y y y y y y u y y u y y y y u y y y y y y y y y y y y y y u y y u u y y y u y y y y u y y y y u u u u u y y u u y u y y y y y y y u y y u y y y y y y y y y u y y y y y y y u u i y y y u y y y y y y u y y y u y y y y y u u u y y y y y y y u y y u y u y y y u u u y y y y y y y u u y y u d i i y y u y y u i y y y y y y u y y y y y y y u u t u y y y y y u y y y u u i u u u y y u u u u i d y y u u y y u u y y i u i u u y y y y u y y y u y y y y y y u s y y y y d y y y y y y u y y y y y y y y y y y d y y y u y u y y y y y u y y y y y u y y y y y d y y u y y y y u y y d y y y y y y y u u u u u y u y u y y y u u y y y d y y y y y y y y y u y y y y y y u y y y y u y y y y y y u u y ",
"u u y u y u y u y u u y t d u u u y y u d u u u u u u u u u u u s u u y u y y u y u y u y u y u y u u y u u u y y u t u d y i u u u t d u y u y u y u y u y y u y u y u y u y u y u u y u u s u y u y u y y y y d d y y u y u t u u u u u u u u d d y u y u y u i y u y y u y u y u u u y y u y y d y y u y t t y d d y t y u u u d d u u u y u y u u u y y u y u y u u u y u y u y u y u y u y u u u u d t 7 u u u u u t d u u d t d d y y y y u y u y y u u u y i d y y y u y u y u u u y u u y y y t y u u u u t u u u y u u u u u y u u d y y d y y u u y u y u y u y u y u u y u y u y u u u y u y y u u u u y y u y d y y u y u u y d t y d d u u u u u d y d y y u y u y u y u y u u y u u y u y u y y u y u y u y y d y y ",
"y y u y u y u y y y y d @.y y t y y y y t y y 7 t t u t t d u u y y y u y u u y u y y y u y u y u y y u y y y u u y l l y +.7 t t t 5.y y u y u y u y u y u u y u y u y u y u y y y u y y y y u u y u y d d d i y t d t y u t 4.u u t 7 y y t 5 t u y y u y y y u u y u u y u y y y y y y u y u y y y u y d x x l 5 t l @.@.7 u t t y y y t y y u y y y y u y u y u y y u y y u y u y u y u y u u u u u u l +.u t y 7 f $.7 t u y +.y t y y y i y u y u u y y y y d y y y u y u y u y y u y y y u y g @.d t y y t 4.y 7 y u u 5 y u y y t t y y y y y y y y y u y y u y u y u y y u y u y u y y y u y u u y y y y u y u y y y d y u y u d y @.y 5 t 5 y 5 u y t y y y y y u y u u y y u y y u y y u y u y u u y u y y y y y y y d ",
"u y u u y y y u y d 5 G.G.Z.y @.g d d d c f f @.f $.d @.g 7 u y y d y u u u y u i u u y y u u y y y u y u y y u y l 0XG.x.f V.#.f #.P.4.d y u y y y d y u y y u u y y y y u y y u y u y y u y u u y d 5 v.#.x V.d +.y $.f y 4.P.7 y c #.d u c Z.l y u y y y u d u y y u u y u y u y y u y u y u d y y d y d D.pX4.@.l f c.Z.5 u #.x d d 4.N.u u y u y u y u u y y y y y y u y y y u u y y y y u y u u t +.rXb.l #.u u N.A.t #.t d +.d #.g y u s u y y y y u u y y y y u d y y d u y u y y u y u y y 0XV.x @.g y 4.0Xt #.u y u #.d d d y c.v.t d y d d y y u y u u y u u u y y u u y y u y u y u u y u y y u y u u y y y y d y y y u 5 c.c.: +.d @.l.N.u #.d f #.d y d y y y y y y u y y u y y y u y d y u u y u u u u y y y s y y ",
"y u y y y y i y y d 5 G.Z.Z.N.P.tXc.v.Z.L.G.0XN.D.G.4.P.L.d y u u y u y y y u y y s y u u y y u y u y u y u y u t x P.Z.C.N.eXV.H.c.P.L.Z.5 d y u y y y y u u y y u y u u y u u y u y u u y u y y y d : V.D.V.D.Z.qX4.N.H.V.L.0X5 #.H.N.N.$.D.iX@.t u y y u y y y y u y y u y y y u u y y y u y y y y y u t x A.; N.H.C.N.n.@ V.A.A.4.v.H.rXu u u y u y u y y u y y d y u y u y u y y u u y u y d t u 7 #.0Xl l I.C.A.0XA.N.rXx.y Z.A.P.D.y u s y u u y u y y u y u u y y y y y y u y y u y u y y y 0Xj.d C.G.C.H.P.v.qXA.: N.L.V.Z.#.C.P.L.t d y y y y u y u y y u y y y u y y y u y y u y u y y u y y u y y u y u u y y y y y u u : v.N.5 D.D.G.C.qXv.qXA.0XL.N.t d y u y u u u y y u y u y u y y y u y y u y y s y u y i u u y ",
"y u y u y d y y y d t D.tXc.P.G.C.I.A.G.qXC.0Xu x C.qXP.C.g y u y y d y d y y d y y y y y u u y y u y u u y y u y x rX#.x A.V.$.A.X L.g H.t d d y y y y y y y y u y y u y u u y u y u y y y u y y y d : V.D.V.0XrXZ.F.C.tXP.u L.@ C.4.d C.5.A.C.: d u u d y y d u y y y u y y u y u y u u y u y y y d y y y @.A.x Z.qXH.C.N.@ P.5 v.4.N.A.x.@ u u y y u y y u y y y y y y y y y y u u y u y y u u u u 5 #.eX$.z.G.iXV.x L.rXD.z.y D.D.c D.g y y y u y u y y y y i y y y y y y u d y y u y d y y d y qXv.4.A.rXqXu G.qXH.C.t L.u A.L.c C.C.#.: d y u y y u y u y y y u y u y u y y y y y y y d y y u y u u y u y u u y u d y y d u u 5 v.x.o L.#.N.C.l.D.P.C.G.l G.5 u u y u u y y y u y y u y y y y y y y y y y u y y u y u u y y ",
"u y u y y y y y y d t Z.x A.N.H.g D.F.l P.$.A.f #.P.C.G.z.u u y y y y y y y y y y y d y u y y u u y u y y u u u t x Z.@ x C.V.C.G.C.A.x D.t u u y d d y y y d y u y u y y y y u y u y y y u y u u y u < v.#.g C.Z.V.N.qXG.C.P.P.5 @.0Xv.H.rXc.G.$.t u y y y y y y u u y y u u y y y u y y u u y y y y y d t +.C.#.rXG.D.N.N.@ c.H.v.H.0Xl.P.f y u u y y u y y u d y y d y d y y u y y y y u y u u u u 7 #.N.X G.0XC.C.rXN.N.D.l d C.C.+.D.f y y u y u y d y y u d y u y y u u y y y y y y y y d y u D.: x.qXD.C.P.H.l.H.#.5 c.0Xv.x.P.P.x.L.y y u y u y y u y u u u y u y u u y y d d y d y y y u y u y y y y u y y u y y y y y u u 5 z.tXz.A.5.H.A.G.c.H.9.Z.+.Z.t u u u y y u u u y y u y y u d y y u y y d y y u u y u y y u u ",
"y y d y u y d y u y y d d d d +.f y d t l +.d u l x 7 x x y y u d y y d y y y y y d y y y u y y y y y u y u y y y u d d y d d g u x d u d y u y y y d y d y d y y y u u u u y y u y y u u y u y y u u y d d d d d @.d l f u x d u t l l f l y f g y y y y y y y y y u u u u y u u y u y y u y u y d y d y y d d y x f d u u y y x d l l y l f y y y y u u y u y y y y y y d y d y u u u u u y u y u u y u d u d l u f l y u @.h y d u u u u u y y u y u y y y y d y y d y u y y d y y y y y y y y y d u y x d y c u t +.f u y c d y c h y x d y y y u u u u y y y u u y u u y u y y d y y y d y y u y y u u u y y u y u y y y y u y u u c x d l c t x y +.l d d h u y y y u y y y u y u u y u y y y y y d y d y y y u u y u y y y ",
"y u y y y y y y y y u y y y d t y y y d t t u u u t d t t u y y y y y y y y y d y y y y y y u y y u y u y y y u u u y y y y y y u t y y y y u y y y y y y y y y y u y y y y y u y y u y y u y y u y y y y y y d y t y t t u t u u d y t u t u y y u y d y y y d u y y y y y y y u y y u y y y y y y y y y y y s u t t u y y y u t u u t y t y y y u u y y y u y y d y y y y y y y y y y y y y y y y y u u u u d t u u t d d t t y y y y y y y u y y y y y y d y y y y u y y y u y y y y d y y d y d y u i t y y 7 u u t u u u t y y t y y t y y y u y y y y y u y y y y y y y y y y y y y y y d y y y u y y y u y y y y y d y s y u y y 7 7 u u t u t y t t y y u u y u y y u y y y u y y y u y y y d y y y y y u y y y y y u y y ",
"u d d d h d u d d d d d h d y d d d d d d d d d u u d d y d d d d d y d d d d d d d d d d d d y u d d y d d y d d f d s d d d d d d d d d y d d d d d d h d d d d d y d d d d y u u d d d d u u f d d d d d d d d d d d d d d d u u u u d d d f d f s d d d d d d d d d d d d y d y d d d f d s d d d d d d d d d d d d d d y d d d u d d d y d u u d d u d d d h d u d d d d d d d y d d d d y u u d d d d d d d u u u u u d d u u d d d d d d d u u d d y d d d d d d d d d d d d d d d d y d d d u u u u u u u u d d u d d d d d d d d d d d d d d d d d u y u d d d d d d d d d d d d d d d u u d d d d d y h d y d d d d d u u d d d d d d d d d d d d d d d d d y d d d s i d d d d d d d d d y d d d f d d d y d d d d y u ",
"t t 5 1 t : t 5 5 t 5 5 t : t 5 5 5 1 : 5 t 1 : t 7 t t t t t : 5 : t t t : t 7 5 5 1 : 5 t t 1 1 t t t t : t t : t 5 5 5 < 5 5 t 5 5 t t t t 5 5 t t : t : 5 t t 5 t : 5 t 5 1 t < 1 7 1 5 t 5 t : : t t : t : : t t : 1 7 t : 5 7 7 t 5 5 : t : t 5 5 t : 1 5 t 5 1 : 5 t : < t t t : : t 5 5 5 5 1 5 t 5 t : t 5 1 : 5 5 t t 5 t 5 1 t 5 t < t 7 t t t t 5 5 t : t 5 t 5 1 7 t 5 t : 5 t 5 1 t t 5 < 5 5 5 t t t t 7 t t t t t t t : 1 5 t 5 t t t t 5 t 7 : t 5 t : 5 < : t t 5 t : t : t 5 t 5 t t t 7 t t 7 t t t t t 5 t 5 1 t 5 5 t t 7 5 5 1 : 5 5 t 5 t t 5 1 1 : : t t 5 t : t 5 : t t t 7 t 1 5 t t t : t t t : t : 5 t t t : t 5 1 1 : t 5 t 5 1 7 5 t 5 1 t t : < 5 t 5 5 5 5 t : t : : t t t : 7 5 t 5 1 1 t : < t ",
"@ : ; : : : @ : : ; : : : : @ : ; : ; : : : : : @ ; ; : : ; : : : : : ; : : ; : : : : : : : : @ : : : ; ; : + : : ; : : : ; ; : ; : ; : ; : @ ; : ; : : : : @ : : ; ; : : : : : : : ; : : : ; ; : : @ : : : ; : : : ; : : : : : + : : @ : : : @ : : : : : @ @ : : ; ; : : : : ; : : ; : : ; : : : + @ ; : : ; : : ; ; : : : : ; : : : ; : ; @ : @ ; @ ; : : : : : : @ : : ; : : : ; ; : : : : : ; : : ; : ; : : ; ; @ + ; ; : @ : : : ; ; : : : @ ; : ; : ; : : : ; : : : ; : : ; : : : ; : + : : ; ; : ; : + ; @ ; : ; : : : : ; @ @ : : ; : : ; : ; : : : ; : : ; : : : : @ : ; : : : : + @ ; : : : ; : : : ; : : @ : : : ; : ; ; : : : : : : : : : : : ; : : : : : ; : ; : : : ; : : ; : : : : : : ; : ; : : : : : ; : ; : : : ",
"t y t y t y t y t s t t t y t y y t y t y t y t t u y t t t y t y y t t t s t t y t 7 y t t y t t t y t y t y y t t y t y s t t t y y t y t y t t s t t t y t y t t y s t t t y t y t t t y t y t t y y t s t s y t y 5 y t t 7 y y y t t y t y t y t 7 y y t y y t y s t t y y y t t y t t y t y y t y y 5 t y y t y s t t t y y t y s t t y t y t u t t 7 y t t y t y t y t t t t y s t t t y y t t y t s t t t y u i y t y y t s t y t t y 5 t y y t y t t y t s t t y t 1 y t t s t y y t y t t u t t y y y y t y t t 7 y t y y t y t y t t t y y t y t y t t t y t d t t y t t s t y y t y t s t t t s t t t y t y t s t y y t y t t 7 y t t y t t t y t t t t y s t t t y y t t s t s t t y y t t t s t t y t y t y t y t t ",
"d d y d y d u u d d y d y y y u y d y d y d y d d i d y h y d y u u u d y d u u s u u u u u u u d s d y u u d y h d d d i 1 d f d y t u u u u u d d y d y y u u f d y d u u u u u u u u d d y y y u u u y d y d d d d y t d d d y t u d u u u u s d y d y y d y d y d y d u u i u u d y h y d y u u u u u u u u d d y y d d s y t s d y u u u u y d d y d d y y u u u u y d y d f d y d u u u u u u u u d d y d u y t y u u y i y d y u f s u u u u u u u u u u d d y d y d u u f s u u u u d y d y d y u u u u t a u u d y t y i d u u u u u u d d y d u u u u d d d y d y u u f s u u u u u u y d y d s d y y u u u u u u u u d y d y d d y d u u u u u u u u d y d y u u u u u y d y d y d y d y u d y d y d s d y u u u u u d ",
"y y y y y y u y y d d y d y d y y y y y d y y y d y y y y d y y y u y y y y y y y y y y y y u y u s y u y y y y y d u t 3.g.xX4Xt.6.} u y u y u y d d y y y y y s y y y u y y y u y y y y y d y y y y y y y y y d t 1 z 8.t.t.p.7.X.d t u y u y y y d y y y y y y y y y y y y y y y y y d y y y u y y y y y y u y t d 8.t.t.t.7.o.d t d y y y u y y y y y y y y y y y u y y y y s y y y y y u y y u y y s y y y i k 1.d.f.d.s.2.d t u y s y u y u y y y y u y y t d y d y y y y y y y u y y y y d d y y y y y t j 1.s.f.f.r.8.d t y y y y y y u y y y y u y y y d y y y y y y y y y y u y y y y y y y y d y u y u y y y y u y y y y y d y y y y y y y u y u y y s d y y y y y u y y y y d d y y u y y y y y y u y y y y y y y u d ",
"y y y d y y d y y d y y y y d y u y y y y y y y y y y d d y y d u y y u u y y u y y u y y u u y y u y y u u y y y y d g.mXVXvX3X<.r.r.p.k y u y y y d y d y y y y y y y u y y u y u y y y y y y y d d y y d y y y d 8.r.s.t.<.<.e.s.p.k t y y y y d y y d y y y d y y d y u y y y y y d d y y d u y y u y u u y y 8.r.s.t.1.1.p.s.t...y u u u y y y d y y d d y y u y u d y y y y y y y y u y y y u u y y u y y <.f.,Xd.s.s.f.,Xf.X.y u y y y y u y y u y u u y d d y y y y d y s u y y u u y u d y y d y y a <.f.zXd.s.s.d.,Xf.} y d y u y y y y y y y u y u y y y d y d y y y s u y y u u y u u y y y y y y u u y u y y u y u y y y y y y y y y u y u u y y u y y u y y u u y d y y d d y y d u y y u u y y y y u u y y u y u y ",
"y d y y y y y y y y y y y y y y y u y d y d y y d y y y y y y y y y u y y u u y u u y u y u y u u y u y y y u u y d 2XVX4Xo.< @ : 7 } r.p.k y u y y y y y y d y y y d y y u y y u y d y y d y y y y y y y y d y y 7.s.<.e : > : 7 } e.r.X.y y y y y y y y y d y y y y y y y d u y u y y y y y y y u y y u y s y 8.s.1.e : : : : } r.r...s u y y y d y y y y y y u y u y y y y d y y d y u y u u y y y u y u y t.,Xd.r 9 @ @ 7 2.f.,X2.t u u y u y u y y u y y u d y y y y y y y u y u y y y u y y y y y y y 1.,Xs.e 7 @ @ 7 ,.f.,X2.i u y u y d y y d y y u y y y y y y y y d y u y u y y y u y y u d y y d y y y u y u y u u y u y y y d y d y u y u y y u u u d y y d u y u u y y y y y y y y y u y y u y u y u y y u u y u y y ",
"y u y u u y y u u y y u u u y y y u y y y y y y y y y y y y y y u y u y u y u y u y u y y y u y y u y u u y y u < g.VXg.; O : LXB.X : d r.p.f y u y y u u y y u d y y d y u y y u y y u y y u y y u y u y y u t 2.s.<.: O : : : : @ w t.e.d d t s y u y y y u y y y u y u u y u y u y y u y y u y y y u y y i o.s.<.: @ @ : : @ @ 8 p.e.d y y y d y y d y y y d y y y u y u y y u y u u y u u y u y y u y i ,.lXq.5 o : : : @ O q f.f.z i y u y u u y u y u y y u y u y u y u y y y u y y y u y y d y d t 2.,Xe.6 O @ : : @ O q d.,Xk t u y u y u y u t u y y u y y y u u y u y y u y u u y y u y u y u u y u y u y y y y y y y y y y y y y y y u u y u u y y y y y y t u y y y y y y u u y y u y u y y y y y y u y y u y u u y d ",
"u y u y y y u y y y u y y u f f f d d f f h f d d f d d y d y u y y y u y u y y y u y u u y y u u y u y y y u i +.bXxX: @ : : PXF.X : o } s.,.t d y u y y u y y y y y y u y u y y u u y u y y u y u u y y u y d e.t.: @ : : : O : : @ r s.8.y d u u y u u u y u d y y u y y u y u y y u y u u y y u u y u y f t.t.5 : : : : @ : : o r s.<.y d y d i y y y y y y y y u y u y y u y u y y u y y u y u y u y f d.d.5 @ 5 : @ : : : o r lXq.i y y u y y u y u y y u y u y y y u y y u u y u u u y u y y y y a d.f.8 @ : : : : : : O e f.e.a u u u u y u u u y u u y y i s y y u y y y y u y y u y y u y y y y y y u y u f h f f f i f f f d d f f d y y y y u d d f h d f f f f f d f h d u y u y u u y d y y d d y y u u y u y y u y ",
"y y u y u y y u u y y u y x c x x x c x x x x x c x @.f y y u y y u y u y u y u y u y u u u y u y y y u u y d t p.VX6.O < : 1 UXF.X : : ; t.t.d y y y u u y y u y y y y y u u y u y y u y u u y u y y u u u t X.s.r @ : ; : : : : : : : t.t.d y u y y y y u u y y y d y u y y u y u u y u u y u u y u u y y X.s.} # + o @ : : : : : : 7.t.d y y y y y u d y y y d y u y y y u y u y y u y u y y y y y u t X.lX,.@ 5 + ; : @ : : 5 % h.d.j y u y u y y y y u u y u y y u y u y u y u u y y u u y u u y t 3.,X<.# : : @ ; : @ : : @ s.f.z y u u u y u u u u y y u y y y u u y y u u y y u u y y u y d u y d y y d y g +.x x x x x +.x x x x x @.x y u u y d +.x x c x x x x x x x x x +.u y y u y y y y y u y y y u y y u y y u y y ",
"y u y u y u u y y u u u y +.d t y y y y y y y y y t x f y y d y u y u y u y u y u y u y s y u y y u y u y u d t g.mXe @ : : : c.x + : : : ,.r.z s y u y y u u y d y y d u y y u y u u y u y y u y y u y y u y 8.p.w @ : : : : : : @ : : ,.r.z t y u u y u y y u y y y y y y u y u y y u y y u y y u y y y y } r.w h $.$.x @ : : : : O ,.r.z y y y d y y y y y d y y y u u u y u y y u y u y y u u u u u t w.f.e @ % 5 ; : : : : % @ <.f.k t u u y u y u u y y u u y u y u y u y u y y y u y y y u u u s 7.f.r @ : : : < : : : : @ <.,Xz t i u u y u u u y y u y y y u y y u u y y u y u y u u y y y y u y y y y y g x t u y y u t y y y u t f x t y u y d +.y y y y y y y y y y i u +.u y u y u i y y y y u y u y u y u u y y u y ",
"u y u y u y u y s y y y u x f s y u d d d d d y y y x f y y y y u y u y u y u y y y y u y u y u u y u y y y d 1 2XbXy : : : : X @ : : : O } h.j i y d y u y y u y y u y u y u y u y y u y u y y u y u u u u t 8.s.7 : : : @ o : : @ : @ } h.k y y u y u y u y y y y u y u y u y u y u y u y y y u y y y d t p.xX; 0XIXUXpX+ : : : : @ } s...t d y y u u y u y u y u y u y u y u u y y u y y i s y u u u t 1.lXy O : : @ o : : : 5 o ,.lXX.y u y u y u y u y u y y u y u u y y u y y u y y u y u i y u 1 7.,Xe @ : : : + : : : : @ ,.f.3.t u u y u y u y u y y u y y y y u y y u u y u y u y u u y u d d y y y y y l l t u y u u u u y u y y f x u u y y d +.y d u u d d d d u u u u x f y u y u y u y u y u y u y u t u u y y u y ",
"y u u y y u y u i y y y s x u u y y 5 < t : y d y y x g y y u y y u y u y u y u y u u y u y y u y u u y u y u t 3XbXk O : : : : : : : : @ ,.r.j t d y y y u u y u y y u u y y u y y u y u y y u y u y y u u u 8.r.q @ : o D.Z.o : : : O ,.r.j y u y y y u y u y u u y u y u u y y y y u y u y y y u y y d < g.VX..s +.O.h @ : : : : @ } s.z y d y d y y y y u y u y u y u y u y y u u y y y y y y y y u t 1.f.r : : X Z.D.@ : : : O ,.,Xk t u u u y y u u y y u u y y y y u u y u y y u u y u y y y u s 6.,Xr @ : X F.D.o : : : o ,.lXz i u y u y u y u u y y u y d y u y u u y y u u y y u y y y y i y y y y d y l l y u u y t u u u y u y f x y u u y d x y y y y 5 5 5 5 y u y u x u y y u y u y u y u y u y u y u u y u y y d ",
"y u y u u y y u y d y d u +.u u y h x.x.x.x.l y u y x d y d y u y y y u y u y y u y u u y y u y y u y u y u u 1 w.GX7.O : : : : : : : @ : t.p.u u y y y u y y u y y u y y u y y u y y u u y u y y y y y u u t X.s.} @ + +.IXF.o : : : : 1.t.y u u y u y y u u y y u u y y u y u y u y u u y y d u y y d d < q.VXh.# + o : : : @ : : : 1.p.d y y y y y y d y y y y y y u u y y y u y y y y y y u u y u u i X.,X<.O @ h IXD.X : : @ 5 s.f.d u u u y u y y y u y y y y u y u y y u y u u y u y u y y y d t X.,X1.@ ; g IX0XX : : : @ s.f.d y y u y u u y y y u y y y u u y s u u y y u y u u y y u u y y y d y y y 7 l l y d y l +.5 u u y y y f c y u u y d c y y y f 0.x.x.c.f y s u +.u y y y u y y u y u y y y y u u y u y y u y ",
"u y u y y y u y y y y y u +.u u y x wXuXuXuXuXl t y x g y y u y u y u y u y u y y u y y y u y u u y u y y y d 2 g bXxX: @ : @ : @ : : O } s.o.t d u y u y u y y u y y u u y u y y u u y y u y u u y u u y u y d r.1.5 o LXLXo : : : O { r.8.i y y u y u y u y u u y y y u y u y u y u y y u y y y u y y y i g vXxX7 @ : : : : : : o r r.<.t d y u y u u y y y d y u y u y u y u y u y y y d u y y u y u y d d.f.7 X LXKX: : : : # ,.f.e.t u u u u y u y u y u y u u y u y u y y u y y u y u y y y y y y u d.d.8 X sXKXO : : : # } ,Xp.t d y y y y y u y u y y u u y y u y u y u y y u y y y u y y u d y y y y d t l l y d 5 c.SXB.d t u y y h c t d y y d +.y d t %.KXPXKXKX@.t u u +.u y u y u y u y u y u y u u y y u u s u y y ",
"y y y u y u y y y u y u y +.d u s 7 9.+.t d sXx.t y x f y u y u y u y y u y y u y u y u u y y u y y y u y y u u < p.GX2Xi < : : : : @ r p.t.d d y u y y u y y u u y y u u y u y u y u y u y s u y u y y d y d y X.s.8.@ c.@.o : @ : q r.e.f y y u y u y u y u y y y u y y u y y u y u y i y y y u u y u y d t p.VX4Xy : : : : : @ q e.e.j y u y u y y u y d y y u y u y u y u y y u y u u y u u u y y u u t ,.,Xe.; 9.4.o 5 + @ k f.d.j i u u u u y y u y u y u y u u y y u y u y u y y u y y u y y i j i ,.,Xs.: 9.#.o : @ @ e d.f.k y y y y u u y y u u y u y y u u y y u y u y u y u y y y u d y y d d i u y y l l u d 7 c.KXPXsX$.t d s f x y y y y u +.u u t %.KXSXSXSX%.t d y +.d y y u y u y u y u y u y u u y u u y y u y ",
"y u u y u y y u u y u y y c u y 7 C.PXsXuXsXuXf y y x f y y y y u y u y y u u y u y u y y y u y y u u y u y u y y u g.VX3X@ : : : : w r.e.k y u u y u y y u u y y u y y y u y u y u y y y u y u u y u y y y y y y 2.1X3Xo @ : ; ; d s.p.k y y y y y y u u y y y u y y u u y u y y u y u s y y y y y u y d y y t g.VX3X< : : : @ d p.r...t u y u y u u y y u y y y u u y y u y u u y u y y u y y y u y y u y y <.zXMX+ + 5 ; : q f.f.3.y u u u t y y u y y y u y u y y u u y y y u y u y y u u y y y y y y t <.zXMX: @ : ; < u f.,X2.i u u y u y y u y y y u y y u y y u u y u y u y u y y u u y y y y y d y y y y l l t d t M.KXSXwX&.y d y f x y y y i u x y u 7 $.KXSXKXKX%.5 d y +.d y u y u y u y u y y y u y y u y y u u y y ",
"u y u u y y u y y y y y y x u d y g F.M.%.$.d y y y x f y y u y y y y y u y y u y y u y u y y u u y u u u y y y y y u g.8.< y y t y d 8.X.t u u y u u y u y y u u y y u u y y y y u y u y u u y u y u y y u y y u t p.p.t d y y u u 2.k t u y s y u y u y u y u y y u y y u u y y u y u y u y y u y y u y y y y i g.q.i d y y y y 2.} y u u u y u y y y u y y u y u y u y y y u u y y u u y y u u y y u u u u t d.h.i u t y u u 1.3.t u u u y u u y u y u y y u y y u y u y u y u y u y u y y u u y y u y y t g.g.y u y y y y 1.,.y u u y y u y u y y u u y y u y y u y u y y y y u u y u y u u y y y y y y y d t l l y d t c.uX$.t t u y y h x y y u s f x y u t %.SXSXSXSX%.t d y x d y y u y y u y u y u y u u y y u u y y u d ",
"y u y y u u y u y d y y y +.d y d y t t 5 t y u y y x f y u y u d y y d y u u y y u y u y u u y y u y y y u y u u y u t i y u u y y y y y u y y y u y u y u u y y u u y u y u y u y u y u y u y y u y y u y y d y d s t d u y u u y u y d y u u u y u y u y u y u u y u u y y u u y u y u y u u y u y y y d y y s t t y y y y d y y y y u d t u y u y u y u y y y y u y u y u y y u y y y y u y u y u y u u u u u i y y u u u y y y u u u u u y y u y u y u y u u y y u y u y u y u y u y u u y u y u y y y u t t i u u y y y y t u y y y u y u y u u y u y u y y u y u y u y u y u y u y u y y d y y d y y y y u l l 7 u y d y t u u y y y f x y y u u u +.y u d d l l g g d y y y +.u y u y u u y u y u y u y y u y y y u y y y ",
"y u y u y u y u y s i y u +.d y y d d y y u u y u y x f y u u y y y y y u y u y u y s u u y u y u y u y u u y u d u u d u u u u u d y u y y u y y y u y y u y u u u y u y u y u y y i s y y u y u y y u y u y y y y d y d u y y u y y u u u y y u y u u y y u y y u u y u y u y y s u y y u u y u y y u y u y y u u u u u u y y u u u u u u u y y u u y y u y u u y y u y u y u u y u u y y y u y u y u u u u u u u u u u u u u u u u y u y u u y u y u y y u y u y y u y u y u y u y y y u y y y u y u u u u u u u u u y u y u u u y y y u u y u u y u y u y u y u y y u y y u y u y y u y y u y y d y y u y d y g l y u u y y u u y u y y f x y y y y d +.u u d y y t y t y y y y +.u y y y y y y y u y u y u u y y y u y y u y ",
"y y u y u y y y u y y y y +.u y y y y y y y y y u t x g t d u y y y y y y u y y y u y u y u y u y u y u y y u y t y u y t d t y d t y u y y u u u y y u u y u y y y u y y u u y y y y y u y y u y u u y u y y y y y y y t u y d d y d y d y y u y u y y u u y u u y y u u y y u u u y u u y y u y u u y d t y y t u u t u y y d y u d d u y u u u y y u u y u y y u u y y y y u y u s y y u u y u y y y u u u u y y u y t d u u d d u u u u y u u y y y u y y u y y u y u y u y u y u y u y u u u y y y 7 d u y u u u t y y u u u s y d u y y u y y u y y u u y u y u u y u u y u y y u y y u y y y y y y u u y y g l t y y y y u y y y y y f x y y y y d x y y y y y y d d y y y y +.u y u u y y u u y u y y u y u u y y u u y y ",
"u y y u u y u y y u u u y x d u u y d d d d d u d y x f y u y u u i y u u y y u y u u y y y y u y u y y y d y u x y y u x 7 g f 5 x u u u 5 t t y y u y y u u y u y y u u y y y y y y u y y u y u y y u y u y d l t y d x y u y 5 y t d t 5 u y u y y u y u y y y y u y y u y y y y u y y u y y y u y y y x g t x y u x 1 g f t u t t t t u 5 u u y y y y y u y u y u u u y u y y u y u u y u y u u u u t d u u u u y f l t u t t 7 y d 5 t u u y u u y y u y y u y y u u y y y y u u y y y u y u u y f c t u d u t f l y d t t t y d < t u y y u y y u u y u y y u u y u y y u y u u y u y y u u y y u u y y y y g x y d u d d u u u y d y f x y y y y u +.u d d d d d d d d y d u +.u y u y u u y u u y y u y u u y u u y u u y ",
"y u y u y u y u y u y u u x +.+.+.+.x +.x +.c +.x +.@.d y u y y s y u y u y u y u y u y u y u y u y y d y u t V.qX5.5 A.0Xz.L.F.v.qXN.5 f @.c.N.y u y u y y y u y u y y y u y y d y u y u u y u y y u y y u y A.qX$.t D.0X@.5 l @.x @.7 @.@.y u y y u y u y y y u y y u u y u y y u y u u y y u u y u y g A.D.v.qXN.C.P.x.L.I.y u @.x @.l u %.l y y y u u y y u y u y y y u y u u y u y y u y u y u u t 4.tXu f pXf u H.P.l y +.+.+.l t #.+.t u u y y u u y u u y u y u y u y u y u y u y u y u u u t 4.H.v.u pXl u H.P.l t +.@.+.x t %.+.y u u y u y y y u y y u y y u y y u y u y y u y u u y y y d y y u y y y f +.+.c +.x +.x +.+.+.+.c +.x y y d y d +.c +.+.x +.x +.x c +.+.+.c d y y u y y u y y y u y u y y u y y u y y d ",
"u y u y y d y y d y u y y u u y y d y u u y u u y u y u y y y y y y y y u y u y d y y d y y y u y u y u y y f D.+.A.d G.x CX5.v.pXf H.t H.A.A.qXy u u u u y y u y u y y u y u y u y y u y u u y y u y u d t x F.@.C.f A.#.C.t rXP.0XI.l.eX$.t d y y u y d y y d u y s y y y d y y y y y y y d y y u u u u : D.qXg qXG.l CX#.V.#.@.rX0XP.C.N.0Xg y u u y y y d y y u y u y y d y y u u y u y u y u y u t f L.h z.qXu 4.v.x.c.f eXP.P.A.b.eXx y d y y y y y y d y y y y u y y u y y y y y y y u y u y y u F.N.4.rXf #.V.j.v.d rXP.P.D.x.rX@.y u y u y y u y y y y y y y u y y u y y u y u y y y u y u y y y y d y y d u u u u u u u y u u u y u y u u y u y y d u u u u y y d y d y d y y d y y d y u u y y y u y y u u y y y y y y ",
"y u u y y y y y y y y u u y u y y y y y u y y u u y y y d y y d d y u y y u y u y y y y y y u y u y y y y y f D.+.D.d A.x pX$.v.pXl H.u @.V.A.9.@ d u u y u u y y y u y y u u y y u u y u y y u u y u y d t l Z.#.A.f Z.$.C.y G.$.m.v.j.v.N.y y y u u y y y y y y u u u d y y y u y d u d y y y y y u u t v.l.C.x P.G.x CX#.C.@.9.v.N.5.C.+.Z.4.t u y u d y y y y y u y d y y y u y y u y u y y y u u d : D.z.qXtX5.$.v.z.z.x C.z.l.C.#.V.v.t d y y y d y y y y y d u y u y y u y y d y y u y u y u u u v.rX0XtXl.@.N.l.v.g A.l.b.V.#.V.c.t u y y u u y d y y d d y u y u y y u y y u y y u u y u y y u y y y y y y y y y y y y u y y y y u y u y y u y y y y y y y y y y y y y y y y d y y y y u y y u u u y y u y y u y d y y u ",
"u s y u y y y y y y y y y u y u y d d y y u y y u y u y y y y y y u y u y u y u y y y y d y u y u y u y y d t N.0XN.z.N.0Xl.L.D.c.qXN.5 5.P.C.L.u y u y u y y u u y y u u y y u u y y y y y u y u y y y y d t C.P.N.l.C.qX@.d Z.$.v.v.l.V.L.y y u y y u y y y y y u y y y y y y y y u y y y y u u y u t +.pXm.c.qXN.V.P.x.H.H.y 4.v.v.4.C.#.L.m.t d y y y y y y u y y y y y y y y u y y y u y u u u u u t D.+.#.P.C.l.D.P.f c N.x.l.N.$.D.Z.t y y y y y y d d y y y u u y y u y y d d y d y u y u u y x.D.Z.@.L.C.l.A.P.g x C.l.x.v.$.D.A.t u u u y y u y y y y y y u u y u u y d y y d u y u y u y u y y d d y u u y u y u u y u y y u y u y y y y y y y d d y u y y d y y y y y u y y y y y y y y u y y u y u y u u y y d y d y ",
"u y u y d y y d d y y u u y u y y y y y u y y u y u y u y d y y y y u y u y u y d y y y y y y u y u y u y d y d l y d u x t g f t l y y l l t l u y u y y y u y y u u y y u y y y u y y y u y u y u y u y d y d g y d i l t u d y d y d x y y y y y u y d y y d u y y d y y d y y u y y u y y y y u u u f l +.d g y u l t g f t u u i u y g +.t d y y d y y y d y u y d y y d y y y u y u y u y y u u u y d y : y d y d g y u u u u u u x y y y y y d y y y y y y u y y u u y u y y y y y y y u u u t l +.t 5 t d u d g t u u u d d d +.u y u u y u y y y d y y y u y y u y y u y y y y y u y u y u y u y y y y y y u y u y u y y u y y u y u y d y y d y y y y u y y y y d y d y y y y d y y y y d y y u y y y u y y y y y y y y ",
"y y y y y d y y y y y d y y u y y y y y u u u u y u y y y y y y y y y d y y u y y y y y y y y d y y y y y y y y t d t d t u y y d t s y y t y y u u y y y y u y y y y y y y y y y y y y y y y y y u y y y d y y t y y y y u y y y y y y t y y d y u y y y y y y y u y y d y y y y y y u y y y y y u y y y t t y t u u t d t y y u y y y y y t d y y y y y y y y y u y s d y y y u y y y y y y y y u y y y y y d y y y y y u y y y y y y t y u u u y y y y y y y y y y d y u y y d y y y y y y d y y y y t d d y y y y y u u u y y y y t y y y d y u y y y y y y y y y y y u y y y y y y y y y u y y y y y d y y y y y d y u y y y y y y y y u y y y y y y y y y y u y y s y y y u y y u y y y y y y y y y y y y y y u y y d y y u ",
"u u y d d y y d d y d d u u u u d d d y u u u d u u d d y d d d d y d d u u u u d f d d d y d d u u y d d d y d d d d d d u u y d d d y d u d d u u u u u d u u d y d d d u u d d d d d u d d d u u y d d y d d d u u d d u u u d d d y d y d d y d d d y d d d u u u u d d d y d d u u y d d d u u u u d d f d u u d d d d d d u u u u d d d d d y y d d d d y u u u u d d d y d y d d d d u u u u d y y d d d y d d d y u u u d d d d d u u d u d d d y d d d u y d d u u u u d d d y d y d d u u y d d d d d d y d d u u u u d d y d d y d d u u d d y d d y d y d d u u u u d d d y d u d d u u y d u y d d d y d d u u u u u d d u d y d d u d y d d d u y u u u u d d d y u u u u d d d d d u u d d d u d u u u u d d y d d ",
"< : t : 1 5 t t 1 5 : t : : t t : t t t 5 5 t t t : t : 1 : t : 1 5 : t : : t t : : : < t 5 : t 1 t 5 : 1 t 5 5 5 t : t t : t t < 5 5 : 5 5 t 5 t t t t t : t 1 1 5 : t 5 < t 5 : : t : t t t t 1 : t : t : t : t 5 : 1 t 5 5 5 : 5 1 : t 5 : t t : t : t : 5 : : < < t : t t : t : t t < 5 5 t t : 5 t : t t 5 t t t 7 1 5 5 5 t t 5 t : 1 t : : < t t : t 5 5 t 5 1 t : t t : 5 5 t t t t 5 t 5 t t 5 5 : t : t 5 < : 5 t t t : t 5 t 5 5 t 5 t : t : t : t : t t : : 5 : 1 t : t t : 1 5 t 5 t : t : 1 5 5 : : t : t t 5 t 5 : t 5 < 1 5 : t t 5 5 t t : 1 t t t : t 1 : t t : t 5 < 5 5 t 5 1 t t : t : t : 1 5 : 5 t : 1 t : 1 5 < t t t t t : t : t : 1 t 1 : t t : t t : : : t t < 5 5 t t : t t : 1 t : 5 : 1 t : t t t t ",
": : : : : @ : ; : : : : : : : : : @ : : ; ; ; + : : : : : : : : : : : : : : : : : : : ; : : @ : : : : : ; : : @ : : @ : : : ; : ; : : : : : @ ; ; @ ; : : : : ; : ; : ; : ; : : : : : : ; : @ ; : : : : : : : : : : : ; : : : ; : : : ; : : : : : : : : : : : : : ; : : : ; : : : @ : : : : ; ; : : : ; ; : : @ : : ; @ ; : : : : : ; ; ; : : : : ; : : : ; : : : @ : : : ; : : : + : : @ : ; ; ; @ : : : : : : : : ; : : @ ; : ; : : : ; : @ ; : : : : : : : : : : : : : : : : @ : : ; : : : : : : : : : @ : : : : : + : : : ; : ; : : : ; : : : @ ; : : : ; : ; : : : ; : : : ; : : : : ; @ ; ; : : : : : : : : : : : : @ : : : ; : ; : : ; ; : : : : : : ; : : : : : : : : : : : : : : : ; ; : @ : : ; : : : : : : : : ; : ; : ",
"t y t y 7 y y t t y y t y y t y y y t y y 7 t y t y t t u t y t t y t y t y y t y y 7 t y t y y y t y t u t y t t s t y y t y y t y t u t u u y u t t u t y t y y y t y y t y y t t y t t y t y t y y t t y y t y t y 7 t y t y y t y y t y : : y t t y y y t y t s t y y t y t t y t y t u t u t y t y y y 7 t y t y y t y y t t y t y y t y y t y t y t y t y t y y y 5 y t y 7 t y y t u t u y t y y y t u t t t y 7 t y t y t y t u t u t u t u t 7 t y y t t t y y t u 7 y t t u y y t : : y t y t t y t y t y y y 7 t y y y t y y t y y t t y y t 1 y t y t t y t y t y t y y 7 t t u t y 7 y y t u t t 7 t y y 7 t y t y t t u y t y y t t y t y t y t y t y t y y 7 y t t y y t y y t y t s y t y t y y t y y t y y y t t ",
"d d d y y y d d y s u u s u u d u u u u u y u u d d d u u u u u s u y d u u u u u u d d y d d y d u d u u u u u s s u u d d d y u u d u u u t u d d u u d u u u y y y d u d y d d d d d u u d d d d u u d y u u s d u u d d y d y d d y d d < : y d d d y u u u d d d y d y s f u u d d u u u u y d u d u u d d y d d y y d y d y d y d d y d s u u d d u d u u d s d d d d d s u u u u u u y y d y y u d u d u s f y d d d y d u u d u u u u u d d u u u y u u d s d s u u u u d d u u y d : : u u d u d d d u s d d d y d d y u d y d y d y d d y d d d d d u d d s f u d d d d u d d u u d u y u d u u d d u u s u d d d d d u u u u d d u d d d d u d d d u d s u u y d d d u u u u u d u u d d y d s d d y u u u u d y y d d ",
"y y y d y y u y y y y y y u y y y u t 7 y u u u u u y u u u u y d y u y u y y u y u y y y u y y y u y y u u y y u y u 7 t t y y u y u u u u f f u t f f u u u u y y y y y y y y y y d y u y : y y 5 y y d l y u u y u y y d y y y y y y y d : ; y s y y y y y y y y y y y u y y y u t 7 y u u u d y y s y y y y y y d y y y y y y d y y y d y y y y y y y y y u y y y t y 5 u y u y u u u 7 f f y y f f y y u u s y y y y y y y u y y u u u 5 u u 5 u y d l y y y y y y u u u u y u y y y d < : y y y u y y y y y 5 y 5 d y y y y y y y y d y y d y y y y y u y y d d t y t y t y d u t y u y u y y u y u u y y y y u y y t t d u u u d y 5 y 5 y 5 y y u 7 u u y y y u d y y y u u u 7 t 5 u y y y t d y y y y u y t y y y d y y ",
"y d y y y d y y y u d y y y u y u y l G.V.t u y t u y 7 u u u d y d t d y u y y y y u y y u y y y y u y y u u y u u 5 Z.L.x.5 d y u y u u ; N.z.5 7 v.z.7 u t y y y d y u y u y y d y y y f P.y #.H.y u l G.: u d y t d y t d y y y d y y y : : y y y y d y u y y y d y y u u s u y l G.N.y u 7 y y y t y y y d y y y d y d y y y y y y y y y y u y u u y u u y y d 5 Z.L.l.5 d y u y u u 5 v.v.5 5 v.z.7 d t y y u y u y d y y y u y y u u 0Xu #.H.y u l G.5 u d y y y u t u t y y y u y d : ; y u u u s y y d t G.L.v.t y y y y y y y y y y y y y y d y y y u y d 5 9.#.v.4.j.@.t y %.x t u y y u y y u y u y u u 5 @.0XD.+.5 d y u t l 0Xl C.+.v.l d t $.f u u y u y y y y y u u t v.P.N.7 y y d $.y y y y y t g $.y y y y y y ",
"y d y y y u y u u y y u u y y u u 5 x.qXt 4.qXx.v.+.N.v.L.#.L.c.N.H.l t d u u y u y u y u y y d u y u y u y y u u u t H.N.L.C.A.5.L.c.@ d A.iXb.N.C.A.9.9.G.C.x C.y y d y y y d y d y u y h LXc N.iXl G.c.A.v.4.H.N.V.x N.V.0XN.t i d y y d : : y d y y y u y u u y y u u y y u u 7 z.qXt 4.qXz.c.@.v.v.P.@.I.c.V.G.g t u u y u y y y y y d y y y u y y y y u y u u t H.N.L.C.A.5.L.c.% d G.tXz.N.Z.Z.l.l.G.C.x C.y u y y y y y y u y u y d LX#.N.iXl G.v.A.v.j.G.N.C.x N.N.qXN.5 d y u y u : : y d y y y u y y u P.f G.C.G.Z.@.V.x t d u y u y y y y y y u y y y d t 4.C.P.A.A.4.F.N.eXH.t u y u y y u u y u y u d 5 b.N.@.H.A.C.C.@.c.l.rXb.eXN.A.$.G.N.pXV.t d y y y y d y y u t #.P.7 G.N.l.#.A.iXc.0XA.x.4.j.D.pXx y u y u d ",
"y y y y y u u y y u y y y u u y y u t v.G.L.f D.P.l C.G.9.z.z.g tXP.l.7 u u y u y u y u u y y u y u u y y u u y u u 7 0XH.f P.f H.P.P.N.V.v.4.H.rXG.qXl.l.rXH.G.N.t d y y y y y y y y y y g P.C.G.G.#.L.A.LXn.C.qXL.P.f F.G.l I.h y d y y d : : y y y y u y u y y u y y y u u y u u t v.G.L.f D.L.x C.G.l.x.c.f iXP.l.t u y u y y y d y y y y y u y y u u u y u u u 7 P.H.f L.g H.P.P.N.V.v.4.L.qXG.qXx.l.rXG.G.C.t d y d y y d u y y u i f H.A.D.G.5.L.G.AXN.V.qXL.0Xf A.G.l L.f y u y y u < : y y y y u y y u u H.+ v.rXc.x L.D.u y y y u y y d y y d u y u y y y y d qXC.G.A.v.eXG.P.l t u u y u u y y y y u u d 5 l.v.5 P.0Xy C.I.x.N.+.rXN.0XN.C.rXG.L.u t y u y d y y u y u 7 l.A.$ N.I.x.4.G.b.x.c.l.rX5.l.Z.v.: d y u y y ",
"y d d y u y y u u y y u u y y u u y x j.H.G.A.C.N.G.P.A.$.@.L.9.0Xv.f t u u y y y u y y y y d y u y y u u y y u u u t P.f ; L.u N.L.#.g 4.G.I.V.L.x.C.G.0XrX4.pX@.t d y d y y y y y y d y x C.qXA.D.P.0XL.L.A.C.P.#.G.G.L.D.D.G.y y d y y d < : y u d y u y u y u y y u u y y u u t l l.H.G.A.C.C.A.0XZ.4.@.L.l.qXv.g y u y y u d y d y y d d y y u u y y u u y u u 5 L.f @ L.u N.H.4.l #.G.L.V.L.z.N.G.P.rX$.pX@.t d y y y y y y u u u t z C.0XA.D.P.0XP.H.D.V.P.$.G.A.I.D.D.G.u d u u y u : ; y y u y u y y u y qXN.G.C.v.o rXV.: u u u y y u y y y y y u u y y y d : tXN.C.L.x eX4.A.N.7 u y u y y u y u u y u u 5 l.L.A.C.G.y c iX4.A.; CX4.0XN.4.qX%.L.c.t i d y y y y y y u t f P.c.L.9.G.P.C.G.N.P.D.N.D.P.V.P.h y u u y y ",
"y y y y y y u y u y y u y u y y u y l v.c y v.f d c.#.l l 5 l.$.x v.f y u u y u u y u y u y y y y y u y y y u y u y t c f y @.u u z.#.7 t $.x.u @.l.c f 4.#.+.P.y y d y y y y d y d y y y i x x g l @.l.x l x l 4.5.l c.g L.N.g y y y y y y : : y y y y y u y u u y y u y u y y u y l v.c y c.l d z.#.l l 5 l.#.x z.d y y u y u y u y y y y y y y u y y u y y y u u y c f y @.d y x.@.t t $.x.d +.z.x g 4.$.+.P.y y y u y d y y u y y u y f x l l l c l.c f c f 4.$.l v.l H.C.f t d y y u u 5 ; y y d y y u y u y 5.N.f g l t P.%.t u y u y u y u y d y y u y u d y y y x g g x t 5.4.l l.u u u y u y y u y y u y u u f v.9.t +.7 4.G.f x t #.d x l t l.$.l 4.t d y y y d y y d u d t x v.x t 5.l.f @.C.H.@.t l.l.d j.x t u y u y ",
"y y u y u y y u y u y y u y y u y u y : t d : y y < t t y d 5 t t < y u y u u y y y u y y u y y u u y u y y u y y u y t d y t d y 5 t y d 5 : y t 5 t y t : N.4.t y y y y y y y u y y u y y t y y t t 7 t y t u 7 t y 5 5 z.y t u u y u y u : ; y u y y u y y y y u y y y u y y u u y : t y : y y : t y t d t t t 5 y d u y u y y u y u y u y u y u y u y u y u u y u t d d t d y < t d u t 5 u t 5 7 t t ; N.4.t d y y d y y d y y u y u y t y t y t 1 t y i y 5 t y < : c.d t u d y y y y : : y d y y y y u y u 5 : y y : l.v.t d y y y y y y u y u y y y u y y y u u y t u t d t : y < d y y y u y u y y u y y u u y : < d t y C.+.5 y d t y y t d : t y t y y d y y y u y u y y u y : t d t 5 y : @.@.: d t 5 y t y u y u y y ",
"d y y u y u u y u y u y y u u y u y u u d u d y u u d d y s d d d u y u u y y y u u y u u y u u y y u y u y y u u y y d y d d y d i d d y d d d d d d d d d t t d d y y y y d u y y u y u u u u u u u u u u u u i d u u u 7 u u y u u y y u < : y y y u y u u y u y y u u y u y y y y d d d d u y d d d y d u y f s y y y u y u u y u y y u u y y y y u u y y y y y y u y y u y d u d s d i d u d d u u d d t t y y y y y y y y u y y u y u y d u u u u d d u u d y d u d t y u y y y d d d : : y y y y u y y u y d d y y d y t y d d y y d u y y u y u u y y u u u y y u u u u y d d y d y y y u y y u u y y u u y y u d d y d d t y y y y y d y d d d y d d d y y y y y u u y y u y u u u d d d u d t y d y d d y d y y u y u d ",
"y y d y y u y u y u u y u y u u y y u y u y u u y u y d y y y y d d u y y u y y y u u y y u u y u y y y y y y y y y d y y y y y y y u u y y y y y d y y y y u d y d d y i d u y u y u y y y y u u u y u y y u u y y u u u u u u u y y u y u 5 ; y u u y y u y u y u u y u y u y u d y u y u y y d y y d y y y d y y y y y y y u u y y y u y u y u y u y u y u y y u y u y y u y d y y y i u s u u u y u u y d d u i y u y y y y y y u y u y y d u u u s y u d y s d y y y d u y y y y y y y : : y y u y y u u y u y u d u s u u y y y d y u y u y u y u y u y y y u u u u y u u d d y y y y i y y y u y y u u y y u u y y d y y y d u y y d u y y y d y y y y y y d d y u y u y u y u y y d y y i d f h d y y y y d y y u y y u y ",
"y y y y y y u y y u y u y u y y u y y u y u y y u y y y y d y u y y y y u y d y u y y y u y y y y u y u d y y d u y y y y y d y u y u d s q 7 d y y y y u y y y y y y y y d y u y u y u y u u y u u u y y 8 6 8 8 y u u y u y y y u u y u i : : y u y u u y u y u y u y y u y y y y y y u y u y y y y d y d y y d y y d u y u y y u y u y u y y y u y u y u y u u y u y y u y d y y y y t t i 3 u u u y y u u u s y u y d y y d u y y u y y y y u s u u y t i t t y d d y y u y y u y y y d : : y u y u u y y u u u y 7 2 w 7 y y y y y y y u y u y u y u y u u u y u u d t i < < < y d d y u u u y y u u y u y y u y u y y y y y u y s 2 7 s y y y y y y d y y y y y y y u y y y u y u y y d y t t t 1 t d d y y y y y y y u y y ",
"u y y u u y u y y u y y y y y d y y d y u u y u y y d y u y d y y y y y y y d y y y u y y y y y y u y u y u y y y u y u d y y d u u 8 i N m N p u s u y u y y u y y y y y d y y y u y u u y u y u i 8 9 p S H H B y 6 u i y y u y u u y y u : : y u y y y y u y y y u y u y y u y u u y y y u y d y y i y u u y y y y y d y y y u y y d y y y u y u y u u u y u u y u y y y y y d y t h  .=.=. .f t d s y u y u u y u u y y u u y u y y d u y y y d t 2 +. .=.=. .d i i y y u y u y u y y d : : y d y y u y y u y w i E / / / v > s d y u y y u y u y u y u u y y y d y < h 8.a.a.8.f t s u u s d y y u y y y y y u y y d y y y u u i E E [ E i 2 s s y y y d y y y u y u y y u y y u u y u i y o.q.w.0...s y d y y d y y y y u y ",
"y u y y y u y u y y y u d y y y u y y y y y u y y y y y y y y y y d d y y y y y u y y u y d y d u y u y y y u y y y u y y y y y u p m T.R.R.R.T.M B i u u y y u y d d y y u y y u y y y y y y u u 8 p ~._.).).).)./.H u y y u y u y y u y u < ; y y u y u u y u y u y y u y u y u y y y y u u y y y y y u y y y y y y y y y y y u y y y y y y d u y u y y y u y y u y u y y y y y h +X#XfXfXfXgX@X=.s f u y y y y u y y u u y s u y u y y y y u h 1 O.>X#XgXgXfXgX@X=.u y d y u y u y u y d < : y y y y y u u s y / (..X.XXX.X.X] a s y y u y y y y u y u y y u u d t h >XDXHXHXHXHXDX>Xf 1 u u y y u y y d u y u y y u y y u d a [ {.[.[.[.[.{.` a s y d y y d y d y y y u u y y y i u y t 2.4XmXVXGXVXbXp.j y y d y y y u u y y ",
"u y y u y y y u y d y y y u y y u y d y d y u y d d y d u u d y d d y y d d d d y d u u y y y y y y u y d y y u u y u y y u y s p M T.M m * * m M R.M i y y u y y y y y u y y u y u u y y u y i 8 B /.)./.H C B ~./.).^.i d y u y u u y y u 5 ; y u y u y u u y u y u d u d y d y u d u u d u y d y d d u y y y d d y d u d d d u d y d d y y y y u u y u y y u u y y u u y u i { @XfX+X=. . .=.@XfX+Xh y y u y u y y u y u u y y u y d y u u u 1 &.hXhX$X:. . .=.@XfX+Xh y u y y u y u y y : : y y u d y u y i ] XX.X^ n v / ' .X(.v 2 u u y u u y u y y y u y f t ..8XHXvXa.8.8.a.8XHX8X{ t y y y y u d y y u y u y y y u d a ` [.{./ W v / {.[.` a y y y y i y u y u u u y u y y u u s h.mXmX1X8.o.8.p.r.r.o.y d y y u y u y d ",
"y u u y u u y u y : : : 1 : : : < : : : : : < : : : : < : : : : : : : : t : : : : : : < y y d y y u y u y y u y y u y u y u 8 p M T.m ; ; + ; ; % m R.M u y y u y d y y y u y y u y y u u y u 8 N /._.H + ; ; + ; % ~.).M y u y u y y u y d : : y u y y u y y u y ; : : : < : : : : : : : < : : : : : : : < : : : : : : t : : : < : : : y y y u y y y u y u y y y y u y y d i h @XgX=.: & & & # > =.fX+Xu u y u y y u y u y y u u y u y u u u t h hXhX>X1 p O O # : +XfX+Xu y y u y u y d d : : y y y y d y y ] .X] % > : , > ; / .X.Xv y u u y y u y u u y y u y g 8XDX:X5 @ @ # # % a.HXvXf i d u y y y y u y u y u u y y d {.[.` @ , + + , 5 / [.{.d d y y u y y u y y y u y y y f 1 p.mXxX..O O X f y 8 t.s.X.t d y y u y u y ",
"u u y u y u y u t : : : O : @ : : : : : : : : : O : ; : ; : @ : : : : : : : : : : : : : 1 y d y u y y u y u y y u y y u y u s m T.* ; : @ < : : ; 4 m T.B y u y y y y u y y u y y y u y y u u 8 ~.).H . @ < : < o h 7 M T.B 8 y y u y u d y : : y y y y y u y u t : : : : O O : : : : : : : : : : : : : + o < : : @ : ; : : : : + : : : y y y y u y y u y y u y u y u y u d t +XfX:.# : ; : : : : @ =.fX=.i s y y y d y y u y y y y u y u u u t jXhX;.$ N.PXd @ : : @ =.fX=.i y y y y y y d : : y u y u u s / .X] ; > % : O : :   V .X' d u u y y u y y y u y u < >XHX:XO : : : : : : # a.HX>X< d u y y y u y u y y u y i t [ [./ ; : : : : @ : o / [.[ 2 u y y u y u y y y u y d y s l vXvX7 o : : : PXwX$ : t.r.d y d u y u y y ",
"y y u y y u y u y : @ : y u y : : : : o o : : : : o s : @ : y t @ : O : < : : ; h : : : y d y y y y u y u y u u u y y u u y p R.M ; ; : @ : : @ : % < T.M u y y y d u y u y y u u y y u y u 8 N ).^.+ 9 : : : X $.UXB.X T.M i u u y u y y y : : y d y d u y y u y : @ : y u s : : : : + o : : o : : @ : : +.@ @ : : : : : : : @ h @ : : y u u u y u u y u y y u y y y u y y O.gX+X@ : : : : : : : : > #X@Xh y y y y y y u y y u y u y u s u t &.hXjX& & h UXH.o : : : : #X@Xd u d y y d y y : : y y u u u f ' .X- ; : : : : : < : , ] .Xv s u y u y u u u y u y u DX8X: @ < : : : : : : : 8XDXO.t d y u u y u y y u y u y d {.{.; : : : : : : : > : ` [.a y u y y u y u u u y u y d < h.VX6.O : : o $.IX%.; : r s.o.i y y u y u y ",
"u y y u u y u u y : H.m.f l C.X t : + @.D.+ : Z.G.4.y : 1 X l.x.X f %.@ 1 < o x.PX%.O : y y y y u y y u y y u y y y u y y y N T.J + : : : : : : @ : + m R.p 8 y y y y u y u u y y u u y y u 8 S ).M . 6 : : X v.IXpXt ; m T.p y u y y y y d < : y u y y u y u u t : L.m.h x Z.X t : + @.D.o : v.t ; 1 O 9.D.#.s @ : : : 1 : + x.PX#.o < y u s u u y y u y u u y y u y u y i  .fX:.% : : : : : : @ < : +XgX&.i u y u y d y u u y y u u y u u < >XhX;.# 5 . wXLX+ : : : O +XgX{ i y y y u y u < : y y u u s a .X] > : > : : : o o X o W .X^ w u s y u u y y u u t 8.DX>X# : : : : ; + o + X a.HXq.t d u y y u u y u y u u 8 E [./ o : : : : : : : : ; / [.E d y y u y y y y u u y y y y 3XvX7 O : : X D.LXO : : : e.1.y u u y y y y ",
"y u y y y u y u t t 0Xt 4.v.v.4.L.@.o +.L.O : D.l.Z.l.%.L.D.z.eXm.N.tX: 5 > : $.M.$.: : y y d y y u y u y u y u u y y u y y B T.3 : : : @ @ : : : : + J R.N y u y u u y u y y u u y y u u i 7 ~.).p ; : : : o x.D.o ; ; m R.p 8 u u y u y d : ; y y u y y u y u t t P.t $.v.v.$.L.#.o +.L.@ : D.s t D.N.P.Z.uXl.o : : : t : : 0.B.$.@ : y y y u y u u y u y y u u y u y d t =.fX{ % > : O o : : : @ # :.fX .t u u y y y u y y u u y u y i 2 & >XhXO.@ : : 1 d @ : : : O :.fX .t d d y y y u : : y u u i y v .X/   : : : : + D.AXAXB.- .X] w u d y y y u y y u t p.HX8.O : : : @ : 0XAXAX4.X.HXa.< d y u y u y u y y y i u W [.W > : @ : : o @ : : ; W [.[ t y u u y u y u y y u d y d vX4X: : : : : s s : : : : 1.p.u y u y u y d ",
"u y y y u y y u t 1 eX9.v.m.m.0XD.m.o : Z.: @ D.pX+.N.D.h V.V.#.x.V.$.X y : : 0.B.$.; : y y u y y u y y y u y y u t u y y 8 B R.3 + ; @ d g @ : : < ; J R.N 7 i u y y u y u y y y u y y y u 8 ~.).p , ; ; : : o + : : , J R.p u u u u y y u : : y y y u y y y u s 5 eX9.v.N.N.0XD.N.X : A.: : Z.X $.eXC.A.x N.: : : : : t : : $.B.$.: > y u y y u y y u y u y y u y u u y i =.fX{ O : @ d h : : : ; O :.fX .t u y u u y y u u y y u y u y u < dXhX&.# : : @ O : : : : O  .fX&.1 d y y u y u < : y u y u w v XX^ > : @ : : o F.sXAXC.# ^ / s u y u y u y t u d t a.HX8.# : : : ; : qXpXAXl.w :X| t i u y u y u y u y u u t [ [.v o > O : : g d @ : > v [.[ > u u y u y u y u y y y i u vX4X@ : : : : O o : : : : <.e.d s y u y u y ",
"y u u y y u y u 7 s Z.$ x.V.v.V.A.h @ : D.: : Z.+.Z.C.c.V.G.V.@.x.v.G.; : : o x.PX$.o : y u y u u y y u y u u y u u y u u y m R.J ; : o LXAXo : @ : @ m T.p 8 y y y u y u y y u u y y u u u 8 H ).H + @ : : : : : : : > m T.p u s u y u u u < : y u u y y u y u t s F.$ l.N.m.N.Z.h : : D.: o 0Xv.$.L.+.N.+.Z.$.o : : @ : : + x.PX&.+ < y u y u y y u y u y y u y u y y y i =.fX:.& : o LXAXo : : : : =.gXO.i u u y y u u y y u u y y u u u & >XhX>X# < : : : : : : : @ +X#X{ i y u y y y u : : y y u y t v .X] @ : : : : : o X X , - ^ - y y u y u y u u u d t 8.HX>Xo : : : : : o + o o o.:X} y d y u u y y y d y y u 2 E [.` > : : : o LXsXo : o / [.E s u u u y y y y y u y y s u xXvXw @ : : : : : : ; : : t.7.y y y u u y y ",
"u u y u u y y u y : d : y y t : $.y : : s : @ u : h u y z.P.f < i < +.1 : : ; @ l @ ; : y u u y y u u y u y y u u u u y u 8 i T.M + @ m.IX#.o : < : < M M y y y u y y u u y u y u y u y y u w N ).^.# 9 @ : : : : : ; 3 T.M i u i y y y y u < ; y y y u u y y u t : f ; y y y : $.s @ : s : : g 9.y f +.s 1 s x o : : : 1 : : : g + : : y y y y u y y u u y u y u y y y y y h #X+X% o m.IX$.o : : @ 7 #X@Xi s u y y u y y u y y y y u y d s t &.hXjX# < : : : : @ : O : @X@Xi s u y y u u u 5 ; y u y u y s ] .X- > @ : : ; < : 5 ; n ^ - d i u y u y u u u i i g DX8X; O : : : : 5 % 5 : i.a.h y u y y y u y u y u y u s d {.{.: @ : : o l.IXx.o : ` {.a y y y u y u y d y y d y d < p.GX6.# : : @ : : : : : r s.o.t d u y y y y ",
"y y u y y u u u y : + : @ @ : : o @ : : @ : : + : O O u N.%.o : + : + @ t : : : o : : ; y u y y u y y u y u y u u u u u u u 8 M T.N . tXuXX : : @ % m R.B s u u y u u y y u y u y u y y u y y 7 ~.).H . : : @ : : : ; m R.N t u y y y y y u : : y u u y y u u u y : @ : @ @ @ : o O : : @ : : o X : @ o @ : ; o : : : O : : ; : + : : : y u u u y u u y y u y u y y u y y y i +XfX=.$ eXiXX : ; @ % =.fX=.< s u u y y u u y y u y u y u y d u t jXhX;.# : : @ : : : & +XgX=.i s y y u y y u 5 @ y y u y u s / .X) > : : : : : : ; - ^ Q y y y y u y u y u u u d t a.HX>XX : : @ @ ; 5 @ | :X8.y y y y u u y u y y y y u y 7 [ [./ > : : : o pXwX  [ [.` 2 u y y y u y u y y y y y y i x vXxXq O : ; : : : O 7 t.e.f y d y u y d y ",
"y u y y y d y y y : < : : : < : : : < : : : : : : : < ; + @ 5 : : : : : t : : : : : : 5 y d y y d y u y u y u y u y u y u u y i M R.M : : @ : : : m R.M y y u u y d y y u y u y y u y y u y y y p /.).H : : ; @ : < m T.M y y u y d y y y y : : y y u y y u y u y ; < : : : : : : : : : < : : : t : : 1 : 5 : 5 : : : : t < : : < : : : y y y y y u y u u y y u y u y u y d i h @XfX;.< : : : : : +XfX+Xd u y u y u y u u y y u y d y y y y y y &.jXhX>X: ; @ @ @ : +XgX+Xy y u y y y y y y : : y y y y u u s ] .X] 5 @ : : @ : - ^ ~ a u u u y y u y u u y y u y u 8XDX>X> > : ; : : o.:Xa.d y y y s y y u y u u y u y u u a ` [.[ : : : : : : / [.{.d y u y u y u u y u y y u u y d t p.mXxXz : : : : : q 1.r.o.y y y d y u y y ",
"y y u y y y y d y y d u d y y u d y d u d y d d d y d u d u u u y d d y d d d d u u i d y y y y y y d y y u y u u y y u y y u d i ^.^.9 t t t t i M M p y u y y y y u y y u y u u y u y y u i u 7 V _.^.5 t t 5 5 i T.M u u y y y y y d d d < : y u y u u y u y y y u u d y d d y d d d d d y d d d u d y u d y d d d y d y d d u u d d y d y d u y u y y u u y u y y u u y y y w kXjXy 5 : 5 5 y @X@Xh t y u y u u s y y u y y y y y y i y y d 2 O.hXjXt t t 7 t h #X+Xh y d y d d y d y d : : y d y d y u y y ] .Xv 1 < 5 5 7 Q ^ a d y u y u u y u y y u u y u y z 8XbXh 1 : 5 5 y i.u.j y u y i u u u y u y y u y u u u y d {.{.u : : 5 5 t ` {.a s u y u y u y y u y u u y y y y d i p.VXq.< < : : t X.p.,.y y y d y y u y y ",
"u y y d y y y y y d y y d y u y d y y u u y y y u y y u y y u y d y y y u y y y u y y u y y y y y y y y y y y u y u y y y u y u u p p 7 y d y d q p i s d y y d y u y u y u y u y u u y u y s y d 7 p p w u u u y d p u 8 y y u y y y y y y : : y u u y y u y u u y u u y u d y y y d d y y y y u y y u y u u y y y y y y y y y y y y y y d y y u y y u u y u y y y u y y d y d t &.O.t f u u d t { h y u u y u y y y u u y y u y y y d d y y u s < O...i u u u d y { h y d y y y i y y y y : : y y y y y y y d s v y u y d d d i i d u y y u y u y y y u y y u y u t z O.t d d u u u d j y y u y y u y y y u y y u y y y u u y a v y d d d d y v a s d y y u y y u y y y u y u y u y u y t o.u y d d d d y j y y d y y y u y u d ",
"y u y y y d y y y y d y y y y u y y u y u y y d u y y u y y y y y y d y y u y y y u y y d y y d y d y y u y u y u y u y u y u y u 8 d y y y y y y y y d y y y y u y u y u y u y u y y u y u u u y d y y y u u y y y d y y y u u y d y y y d : : y y y y u y y u y u y y u y y y y y y i y d y y y u y y y u y y y y d y y y y d u y u u y y y y y u y y y u y y y u y u y y y y d t t u y s y y u i y d y u u y y u u y y u u y y d y y y d y y y d y t u u y y d y i y y y y y y y d u y d < : y y d y y y y u s y y y y y y y s y y y u y y u y u y u y y u y y y u y t d y y u y u y i d y y y y y u y u y u u y u y u y y u y y u y s y y u d d i y y u y u u y u y y y u y u y u y y u s u y y y y y y y u y y y y u y u y y ",
"u y y u d y y d y y y y y u y y y y y y d d y y y u y y y u y u y u y y u u y u u y u u y u y y y d y u y u y u y y y y y y u y u u u u u u y y y y d y y d y y u y u y y y u y y y u y u y u u u y u u u u u u y u u y y u t u y d y y y d : : y u y y u y u y u y u y y y u y y u y y u y y u y u y u y u y u y u y u d y y d u y u y u y u y u y u y u y y u u y u y y y y y u d u u u u u y u u u u u y u y u y u y u y y u y d y y y u y y y y d d y u u y u u u y u u y u y u y y y y : : y y y d y y y u y d d y y y y y y d y d u y y d u y u y u y y u y u y d d y y y u u u u u y u y d y y d u y u y y u y u u y u y y y y y u u u d u u y y u y u y u y u y u y u y y y u y y u d d y y u i d d d u u y u y y y u y y ",
"y u u y d i y y y d y y u y y u d y y d i y y y u y y u y u u y u y u u y y u y y y y y y y u u y y u y u y y u y d y y y u y u d t u u u t y y t u t y y y y y y u y y u y y u u y y u y u y u y u d t u d u 7 y y t y u y d u y y y u y y : : y u y u y y y u y u y y y u y u y u u y y u y y u y y u y y u y u y u y y y y y y u y u y u y y y u y y y u u y y u y y y d d y d t u u u t y y t d t y u u y u y u u y y u u y y y y y y y y d y d y 1 y y y y u y t y t y u y y y y u y d < : y d y y y y u y u y t d d y t d t y y y y y y y u y y u u y y u y y u d y y y d y t u 7 y u y u y y y y y y y u u y y y y y y u y d y d y t u t y y y u y y y u y u y u y u y u u y y u y y u t y d y t d t t u y u y y y u y u u ",
"u y y u y y y y y y d y y u u y y u y y u y d y y u u y u y y u y u u y u y y u y u y y u y u y u y u u y y u y y u y d d y u y u x u 7 y c y f +.5 x f y y y d u y y u y u u y y u y y u y t u y d y x f t t x f y +.d u u u y y u y u y d : : y y u y y u y u u y y u y u u y u y y u y u y u y y u y u y u u y y y u y y y y y y y u u y y u y u y u u y y u y u y u y y y y t @.u u y c u f x : x g t u u y y u y u u y y u y u u y y d y d y y f @.t g l y t l x u #.d y y y d d y y d : ; y y y y d y y y y d c t u h +.: x f y u y u y y y u y y y u y y u y u t l l y t l l t x u y u u y y y y y u y u u y u y y u u y u u h y g x t +.d y u y y u y d y u u y y u y u y u u y u y y +.y y y +.t g l y u y y u y u u y y ",
"y y u y y d y y d u y y u y y u u y u y y y y y u y y u y u y u y y y u y u y y u y u u y u y u y u y y y u y u u y y y y y d < b.qXN.5 v.qXv.A.L.v.P.D.d y y y y u u y u y y u u y u u y u u y d t c 0XG.u #.qXC.N.0Xc.t u y u u y u y y d < : y u y u u y u y y u u y u y y u y u y y u y u y u y y u y u y y y u y y d y y d u y u y u y u y u y u y y u u y u y u y u y d 1 z.qXN.; v.qXv.A.L.v.P.D.u y u y u y u y y u y y y y y d y y y y y t l.L.V.A.H.x g H.A.x.C.A.y u y y y y y u < : y y y d y y u u y D.P.@.y G.L.v.P.D.u y u y y d u y y u u y y u y u y f L.L.g g P.G.v.qXV.7 u u u u y u u y u y y u y u u y y u t #.iXf G.G.v.P.A.y y u u y y y u y y y u y u y u y y u d 5 v.qXv.: V.0Xm.D.P.x y u u y u y u y u ",
"u y y u y y u y u y y u y u u y d y u u d y u y u u u y y u d u u y u y y u y y u y u y y u y y u s y u u y y u y y y u y u u t G.l G.u D.f eXA.+.CXx C.#.t u d y u y u y u y u y u y y y u y u d : N.4.N.@.c.5.C.tXf G.y y u y y y y u y u < : y y y u y u y u y u y u y y d y d u y y y y y y u y y u y y u y u y y y y u y u d y y d y y y u y u y y y u y u y y u y y d y t D.l D.d D.f eXC.c CXc V.#.t d d y u y y u y y u u y y u y y u y u f 5 #.eXN.N.v.#.A.N.v.z.G.7 u u u y u y u : : y y u y u y d y +.C.#.C.l C.c JXx C.#.t d y y y y u y y y u y u u u 5 l.c.z.z.4.z.l.CXf G.f y u y u u y u u y u u y u u y u y u u f G.l.v.@.CXl Z.+.t y y y y y y u y y y y y y y y y y y y G.l G.y G.f iXv.4.N.: u y y y y y y y ",
"y u u y y u y u y u u y y y y y y i t y s u u u u u y u u y t u y u y u y u u y y u u y u y u y u y u y y u y y y u u y u y d t A.@.G.d D.x eXC.@.CX@.Z.#.t u y u y u y y u u y u y y u u y u y d < v.l.C.@.c.l.C.eXx G.t y y u y u u y y u : : y u u y u y y u u y u y y y y y t s t i y y y u d y u y u y y y y u y y u y u y y y y y y y u y u y u u y y u y y u y u y y d t D.@.L.d G.l rXA.#.pX#.C.#.t d y u y u y y u u y y u u y u y d t x.v.f G.d b.eXl.t v.eX4.%.P.u u u u y y y u 5 ; y u y u y y y t c C.$.C.l C.%.sX+.Z.#.t y d y y u y u u y y u y y u 5 9.v.z.z.4.c.z.pXl G.f t d u y y u y y u y y u y y y y u y u 5 G.9.N.4.CXc D.+.y y y d y d u y y u i s y y d y y d y y D.+.G.u G.l iXv.x.N.< u y d d y y d y ",
"u y y u y u u y y y y u u y u u j ..r k d u u t t d u y 5 f l y d d u u u y y y u y y u u y y u y u y u u y y u u y u u d y d t 4.qXN.v.x.rXv.C.P.l.L.D.d y y y u y y y u y u y y y u y u y u y y t l 0XA.v.l.P.C.c.qXx.t u u u u y u y y y : : y u y u y y u y u y y y y d y d j k ..k j y u 7 5 d u y t f g y u d d y u y y y y y i u u y u u y u u y u y y u y u y u d y d 5 $.qXN.v.x.qXv.V.0Xl.L.D.d d y y y u u y u y y u u y y u y u y d y 5 P.rX4.c.A.z.4.b.A.4.A.Z.y y u y u y u u : : y d y y u y u u y Z.P.v.x.C.0X$.P.A.y d y y y d y u u y u y y u u u u d H.G.v.l.G.G.l.0XN.t u u y y u y u y y u y y y u u y u u u t A.f A.L.4.P.A.t u u y d y y u y u y u y u y u y y u y t x.0Xv.v.b.rXz.A.0Xl t d y y y y y y u ",
"y u u y u y y u u y u y y u d t <XNXcXNX<Xt t x.v.5 t f @.f l 7 y t y y y y u u y y u y y u y y y y y u y u u y y u y y y y d d y f u d t l t u f 5 f y y d y d y u y u y u y y u u y u y u y u y d y h u u u f d t g y u u u u y u y u d d : : y y u y y u y u y u y u y y d t <XNXcXNX,Xt 7 x.v.: y f @.f l t y t y y y u y u y y y s y u y y y y y u y u y u y y u y y y y d y g y d u l t u g t f d t d t d y u y u y u u y y u u y u y y y d d d l f l d u d x u d +.t y u y u y u y y < : y y y y d y y u y y f y d f g t f d y y y d y y y y y u y u y u u u d t d f u u d f t g y y y y u y y u y u y y u y u y y u y y u u u y d f 7 f u y y y y y y y y u y u y u y u y u y y i u y g u d u g t u f t d d y y y y d y y ",
"u y y u y u y y u y u y y u i t lXcXlXNX<Xi t L.G.d G.A.pXv.Z.4.$.v.C.C.y y u y u y u y y u y u u y u y u y u u y y y d y y d y u t u d u y u y y d y y d y y y u y u y u y y u y u u y u y y y y u u u u y t y t d y y y u y d d y y d y d : : y y u y y y d y u y u y u y d < lXcXcXcX<Xt y G.L.u G.A.pXv.A.5.$.b.Z.C.y y y y u y u y u y y u u y u y y y u y d y y y y d y y y y u y u y u u y d y y d y y d y y u y u y y u u y u y y y u y y u t t u t t t t u u y t u u y y u y u y u < ; y y y d y u y y u y y d t u t u y y y y u y u y u y u y y y u y u y u u y y u 7 y 7 u t d u y u y u u y u y u y y y u y y u u y u u u t u y u y y u y u y y d y y u u y u y y y u y u y u y u y u 7 t t y u t d y y u y d y u y u ",
"y y u y u y y u y y y u u u d t lXcXlXcX<X< x tXqXZ.c.y A.$.G.C.C.L.qX0Xx t u y u y y u u y u y y u y u y u y y u u y y y y y y u u u 5 t t y u t y y y y y y y y u y y y u u y u y y u u y u y u u u d t f $.d #.y y y u y y y y y y y y y : : y u y u d y y y u y y y y u d 3 lXcXlXcX<X< l tXqXZ.v.t A.#.L.C.Z.L.0X0Xx y u y y y y u y u y y y u y u y d y u y y y d y y y d y y y t t t u t : y y y d y y y u y y u y u y y y u y y y u y u u u u d 7 f 4.f #.u u u u u y u u y u y y u : : y y y y y u u y y u y 5 $.h @.f y y y y y u y u y u y u d y y u y u y y d t t 4.d #.u u u u y u u y y u y u u y u y y u u y y u y u y g u d d y u y u y d y y y u y y y y u u y y u y y y u u d 5 #.l +.x t d u u u y u y y y u y ",
"u y y u y y u y y u u y y y u t lXNXcXNXlX& C.N.z.rXA.$.L.V.c.A.P.$.qX9.u u u u y u y y y y u y y u y u u y y u y u y u d y y d u u d #.+.#.f d $.g y y d y y d y u y u u u y u y y u y y u y u y u u t d N.A.A.D.A.y u y u y y y y y y y y < : y y y y y y y y y u y u u u d < lXNXcXNXlX& C.N.x.rXG.#.L.V.c.A.0X#.qXl.d y y d y u y u u y y u y u y u y y y y y u y y y u y d y y d #.+.@.f u $.g y y y y y y y u y y u y y u u y y u y u u y u u d t f N.A.A.G.A.t u u u y y y y u y y u : : y y y u u y y u u y u 5.L.N.L.G.x y u u y u y y y u y u y y y y u y y u y d z.G.C.G.D.u u u y y y u u y y u y u y u u y y y u y u y u L.v.v.g y u y y y y y y y y s u u u u y u y u y u u u u y l H.N.H.G.x.1 u y u y y y u u y u ",
"y u u y u u y u u y y u y u u y ,.1.1.1.} t #.y y @.l.4.#.l.g +.#.< l.l.u u u y u y y u y u y u u y u y y y u y u y y y y y y y d 5 z.rX0XH.N.C.P.f y y y y y y u y u y y y u y u y y u u y s u y y u d G.P.C.G.A.D.1 u u y y d y y y d y d : : y u y d y y d y u y u y y y y s ,.1.1.1.3.t @.y u @.l.4.#.l.g x #.t l.l.u y y y u y u y y u u u s y u y y y d y u y u y u y y i d t x.qX0XP.C.C.P.f y y d y y d u y u u y u u y u y u y u y u y u u u u G.P.C.D.C.G.7 d u y y u y u y u u u 5 ; y d y y y u y y d 5 N.L.L.N.F.I.x t u y u y u y u y u y y d y y y u u u t F.P.G.Z.A.I.u u u y u u y y u y y u y u y y u y u y u d t x A.0XrXz.t d y y d y y d y u y u y y y u y u y u y y u t $.I.qXv.H.D.z.t u u y u y u y u y y ",
"u u y u u y u y y u u y y u y d t < < < i u t y y t t t t 5 y t t d : t y y d y d y y d y d y y y y u y y d y y d y y y u y u y d : v.l.V.#.Z.c A.$.t i y y d y y y y y y y y y y d u y y d y y u u t +.A.x A.G.N.G.u y u y u y y y u y y d < : y d y y y d y y y y d y y y y y i < < 1 t d t y u t 5 7 t 5 y y 5 d 5 t y y y y y d y y d y y y u y u y y y y y y d y y y y y y u 5 c.z.V.#.A.x D.$.t y y d y y d y y y y y y u d y y d y y y d y d t +.D.x Z.D.m.L.u y y y y y y y u y d d : : y u y y y d y y d t L.g Z.C.Z.G.$.5 d y y y y y y y y y y y y y u u u t f H.f D.C.C.I.x y d y d y y u y d y y d y y y u y u y u d y y N.tXD.G.d y u y u y y d y y y y y y y y y y d y y y d : C.4.v.V.H.C.N.5 d d y y d y y d y y ",
"y y u y y y y u u y y u u y y y d d d d u s u u u u d d d d d y d y d d d y y y y y y y y y y d u y y u y y y y y y y d y u y u d 5 c.x.m.5.V.#.P.x.5 d y y y y y y d y y y d y y y y y y y y d y u u u A.qXN.D.G.A.y y u y y u u y y u y u : : y y y y y y y y d y y y y d y d d d i d d y d y y u u u u d d y d y d d y d d y y y y y y y y d y u y u d y y d y y y y y d y y u 5 z.l.N.$.C.$.P.c.t d y y y y y y y d d y u y y y y y y y y y y y d y A.qXN.D.D.D.y y d y d y u d y u y d : : y y y u y y y y d t c.0XH.v.L.G.+.t d d t d d y y d d y d y y d u u u u t C.0XZ.C.G.D.h y y y y u y y u y y y y y y y y u y y y y y 1 +.x.V.D.t u y y y y y y y y d y y y y d y y y y d y y y @.H.P.b.L.D.c.t d d y y y y y y y u ",
"y u y u y u u y y d y y y u y y y y y y u u y y y y d y y y y y d y d y y y y y y y y y y y y y y y u y d y y y y y y y u y y u y y y d d u u g x t d y y d y d u y d y d y d y y u d y y y y y u y u t d l y h x u y u u y y u y u y u y u : : y y y d d y y d y y y y y u y y y y y d y d y d y u u u y u s y y d y y y d y y d y y d y d y y u y y u y y y y y y y d y d y d u u u u u u y f x t y y d y y y y y y y y u y y y y y y d y y d y y y y d l y h +.y y y y y d y y y y y y d : : y y y d d y y y d d t l d d x f t d y d d d y y d y y y y y y y u y y u u u l d d +.d y y y y y u y u y y y y y d y y d y u u y d y d u y u i y u y u y y d y s y d y d d y d y y y y y y d d t f d y l x t d y y y y y y y y d y ",
"y y y y u y y y y y y y y y y u y d y y y y y u y y d y y d y y y y y y y y d y u y y y d y y d y i s y y y y d y d y y y u y y y y y d u y y y y d y y y y y y u y y y y y y y y y y y y u y s y u u d u t u y t u u u y u y y u y y y y u 5 ; y y y y y y y y y y d y y y y y y y y y y y y y u y y u y y y y y y y y y y y y y y y d y y y y y u y y y y d d y d y y y y y d y u y y y y y y y y y d y y y d y d y y y y y u d y y d y y y y y y y y u t u y t y d y y y y d y u y y y y : : y y y y y y y d t d d t y u t y d y y y d y y y y y y y y d y y u y u y y u t u u t y y y y y d y y u y d y y d y y y y y y u y y y y d y y u u y y u y y y y y y y y y y y y y y u y y y y y d u y y y t y y y y y d y y y y y y ",
"u u d d d y d u d d d d d d d d d d d d d d d y d y f s s u d d d d d y f d d h u d d d d d y d y d d d d y d d d f d f u d d y d d y d d d d d y d h d u u f s u d d d d d d d d d d y d d d d u u d d d d d d d d d d u d d u d d d d d u : : d y d d d y d d d d d y d d d d d d y d h d d d u u d d y d d d d d y d d d d y d d d d d d d d u u d d d d d d u d y d d d y d u d d u d d d d d y d d d d d d d d u d u d d y d d y d u d d d d u d d d d d d d d d d d d d d u d d y d d : : u d d d d d d d d d u u u d d d d d y d d d y d d y d d d d d d u u u d d d d d u d d u u u u d u u d d d d d d d d u d u d d y d d d d d d d d d u d d d d f d d d y d d d d d d d d y d d d d u u u u u u d d d d d d d d d d u ",
"t 1 7 5 5 1 5 1 5 1 : : t 5 5 < : : 1 t : 5 t t 5 1 t : 5 5 5 5 t 5 5 t t : : t t t t : 1 : t 5 t t 1 7 t 5 5 : : t : : 1 t 5 t 1 : t 5 t t : 5 5 5 t : t 5 5 : t t 5 1 7 : 1 5 t t t 5 1 : < 5 5 5 5 5 t : t : 1 5 t : 5 5 5 5 : < 1 5 1 t : : 5 t 5 5 5 1 t : t t 5 t 5 : 1 5 1 5 5 t t : 5 t 5 5 5 t 5 < 5 5 : t t : t 5 5 t 5 : : t : t : < t 1 7 t : 1 t : 1 t 5 t 5 < 5 5 5 5 5 t : : 1 5 5 t t : t : t : : t t : 1 t 5 t 1 : 5 t t 5 1 : t t t : t : t : t t 5 < 7 5 < : 1 t 5 t t : : : t t t : 1 : t : : t t : 5 5 5 t t : t t 5 5 5 < t 1 t : t : 1 7 5 5 5 5 5 : 1 5 5 t 5 5 1 : 5 5 t 1 t : t : t : : t t : 1 t 5 t t : : t 5 t : < 5 5 t : t : t : t t 5 t t : 1 5 t t 5 t t : : t t 7 t t 5 t t : 5 5 1 : t t t : : ",
": : : : ; ; : : : : : : ; : : ; : : ; : : : ; : : : ; : : ; : : : : : : : ; : ; : : : : : @ : : : ; : : : ; : : : : : ; : ; : : : ; : ; : : ; : : : ; : : ; : : @ ; : : : : ; : : : : ; : @ @ : ; : + : : : ; : ; : ; : : : ; : : ; @ : ; : : : : : ; : ; : @ : : ; : : : : : : : ; : : : : : : ; @ @ @ : ; : : : : : ; : ; : : ; : : : : : : : : : : ; : : : ; : ; : : : ; ; : : : ; : : : : : : : ; : : : ; : : : : ; : ; : : ; : : : : ; : : : : ; : : : : ; : : : ; ; : : : ; : : : : : : : : : ; : ; : @ : : : : ; ; : : : : ; ; : : : : @ : : ; : : : ; : : : ; ; : : ; : : : ; : : : @ : : : : ; : : : ; : : : ; : ; : : ; : : ; : : ; @ ; : @ : : : : ; ; : : : : ; ; : : ; : : : @ : @ @ ; ; @ ; : : : : : : : ; : : : : ",
"y t 5 t y t t y y t d t t y y t d t t y y t y t y t t y y y 5 5 : t 7 t t y t y t s t t y y t t t y t t t s t y t t t t t y y t y y t s t t t y t y t y y t t y t y y t t y t s t t y t y y t y y y y t t s t y y t s t t y t y y y t y y t t t y t t s y y t y t t y t 7 y t s t t y t t t y t y y y y y t t s y t y s t s t t y s t t y t t y t y t t y t t y t t y t y s t t t y y t y y t t t s t y t s t y s t s t t y y t y y t t y t t y t s t y t s t y t t y t t y t s t t y t t y t y t y t y y y t y s t y s t t y t y s t s t t y y t y t y t s t t t t y y s t t y t t y y y y t y y t t y t s t y s t s t t y y t y s t t y t y y y y t y t s t y t s t t y t y t t y y t y y t y y t y y y t t y y t y t t s t t y ",
"y y f l g g g g d y d y d y y y y u u u u u u u y d u y y d +.+.@.+.+.d y u y d y y d y d y u u u u u u u u d d +.h g g g d y d d y y y d y u u u u u u u u u u d d d y y d y d u u u u u u u u u u u u u u u u u y u u y d y u u u u u u u u u u u u u u u u u h d d y y y d y u u u u u u u u u u u u u u u u d d y d y d y y u u u u u u u u y d y d y d y d f s u u u u u u u u u u u u y d u u u u u u u u d y d y d y d y u u u u u u y d u u u u u u u u h d d y y y y d u u u u u u y y u u u u u u u u d y d y d y d y u u u u u u d y u u u u u u u u d y u u u u u u u u u u u u u u u u u u u u u u d y d y d y d y u u u u u y y d y y s y y y y y d d u u u u s u d s d u y u u u d h z j d z f y s d z z d z h s u ",
"y y l @.$.$.$.$.d y y y y d d y y d y y u y y y y y y d y f v.$.$.$.l.h y y y y d d y y y y u u y y y y y u y f +.$.$.#.j.f y y y d d s y y u y y y y u y y y u y y y y y y y y y y y u y y y y u y y y y u y y u y u y y u y y y y y u y y u y y u y y y y u y y y y y y d y y y y u y y y u y u y y y y u y y y y y d y y d y y u y y u y y y y y y y y y y y y y y y y y y y u y y y y y y y y u y y y y u y d y y y y y y y y u y y u y y y y y y u u y y y y y y y y d y y u y y y y y y y y u y y y y u y d y y y y y y y y y y u y y y y y y y u y u y y y y y y y y u y u y y y u y u y y y y u y u y y d y y y y y y y y u y y y f l d +.y f @.x g d x y y y u u P P s T a q 0 y y y y s z j o.X.z j y d o.o.d k o.j y u ",
"u y g 9.l.+.@.$.d y y y y z ..t y y u u y y u u y u u y y g l.h $.$.9.g y y y y d o.y y u d y u y u y u u u y d %.9.x.c.$.g y y d y d X.y y u d u y u u u y y y y y y y y d y y y u y u u u y u y u y u y u y u y y u y d y y u y u u y u u u y y u y u u y u y y y y y d y y u y u u y u y u y y u u u y u y u y d y y y u y y u y y u y u y u u y y u u y y y s y y u y y u y u y u y u y s y y u y u u y u y y y d y y y u y u y y u y s u y u y u y y u y u y y y y y y y y u y u u u y s y y u y u u y u y y y d y y u u y y u y u s y y y u y y y y u y u d y y y y u y u u y y y y y u y u y y y y u y u y y d y y u u y u y y u t l +.d $.d @.g y @.#.g l h y s P 0 T T Y K T T s u y u d j f d X.h j y d ....j ..X.z y u ",
"y y h $.x +.$.$.d y y y z o.8...d t z o.X.O.u y u y y d t g 9.@.x.+.$.g y d d d o.2.X.d y d X.o.o.d y y u y u d l 7 #.j.f f y y t z o.8...d y d O.X.X.u y u u y d y y d y y u y u y u y y y u y y y u y u y y u y u y u y y u y u y y u y s y u u y u y y u y u d y y d y y u y y u y u y u y u u y s y u y y u y y y y u y u y y y u y u y u y i y u y u y d y u u u y u u y u y u y u y u i y u y u y y u y u y y y y u u y u y y u y u y i y y u y y u y u y d y y d d y y d y u y s y u i y u y u y y u y u y y y y u y y u u y u y i y y y y u u y u y u y y y d y y y u y y u y d u y y u y u u y u y u y y y y y y y y d y y u y y l l +.$.+.@.y t #.l.y d d y u Y 2 a P T P P 0 s i y y s z y k o.d d y d j y o.j t f y y ",
"u y f 9.c l.C.v.u y y y y ..X.y y y d d d d u y y y u u t l l.@.$.; f g y u y y z o.d s y d d d d d y y y u t l f 5 4.l.f g y y y y z o.d u y d d d d d y u y u y u y y u u y u u y u y u y u y u y u y u y u y y d y y y d y y u y u y u y u y y y u y y u y y u y y u y u y y y y u y u y d y y y u y u y u y u y u y y y u y y u y u y y d y d y y y y y u y y u u y y u y y u u y y u y y u y y u y y u y y y u y u y u y u y u y u y u u y u y y u u y u u y y u y y y d y u y u y u y y u y y u y y u y y u y y u y u y y s u u y y u u y u y u y u y u y u y u y u y u y y y y y u y u y u y s u u y u y u y u y u y u y y u y u y f @.+.g @.@.+.d +.x +.g u y s P P P T P y U R s u u y s z t X.j d z y d X.o.d ..o.h d u ",
"u y f l.#.j.m.l.u u y d y d h y d y y y y u y u u y u y y f l.#.l.f +.f t d u y d d y y y u u y y y y u y u u f +.f 4.9.+.h y u u y d d y y y y y y y u u y u y u y u u y y u y y u y u y u y u y u y u y y y u y y y d y y i y y y y u y u y y u y y u u y y u y y u y u y y u u y y u y y y y y u y u y u y u y u y y y u y u y u u y d y y y d y d y u y y u u y y u u y y u s y u y y u y y u y y u u y u y y y u y u y y y y u u y u y y u y u u y y u y y u u y u y y u y y y y u y u y y u y y u u y y u y y u y u y y u y u y u u y y u y u u y y u y u y u y u y u y u y y y y y u y u y u y u y u y u y u y u y u y u u y y u y l %.u y f d +.g g y g g d y d t T T 2 a y a 0 t u y y d k d ..z j h y y X.X.d z o.z y u ",
"u y u d h f d d y y y y y y y y y y u y y y u y y y y y y u f d d f f d u y y u y y u y y y u y y u y u y u y u f f i f f u y y u y y y y y y u u u u y u y u y y u u y u y y u u y y u y u y y y u y u y u y y y y y y d y d d y u y u u y y u y u u y y u y y u y y u y y u y y u y y u y y y y y s i y y y u u y y u y u u y u y u y y y y y y y y y y y u y y u u y y u u y y u y y u y y u y y u y y u u y u y y u u y u y u y u y y u u y u y y u u y y u y u u y y u y u y u y u u y y u y u u y y u u y u y y u u y u y u y y u y u u y y u y u u y y u y u y y y u y u i y y u y u y y y u u y y y y u y u y y y u y u y u u y y +.f y u y y 5 y y y y y y y y y d 2 t s y s s d d y u d d d f d d d y y d d f s d t d y ",
"y u y y y y u y y u u y u y y y d y y u y u y y d y y d u u y y y y y y y u y y y u y u y u y u y y u y y u y u y y y y y y u y y y u y u y u y y y y u y u y u y y y u y u y y y y u y u y u y u y u y y y d y y d y y y y y y u y u y y u u y u y y u u y u u y u u y u u y u u y u u y u d y y y y y u y u y u y u y u y u y y u y y u y d y y d y y d y y u y y y y u y y u u y u u y u u y u u y u u y y u y u u y y u y u y u y y u y y u y y u y y y u y u y y y u y u y u y u y y u u y u y y u u y y u y u u y y u y u y u y y u y y u y y u y y y u y u y u y u y u y s y u y u y u y u y u y u y u y u y u y u y u y y u y y y y y u y u s d y d y y y y y y y u u u y y y y y d u y y y y s y y y d y y y y y y s d u "
};
